;gcode_flavor: flashforge
;machine_type: Adventurer 3 Series
;filament_diameter0: 1.75
;right_extruder_temperature: 245
;platform_temperature: 100
;extruder_fan: 0%
;case_fan: 0%
;base_print_speed: 50
;travel_speed: 100
;vertical_speed: 7
;retract_speed: 40
;restore_speed: 30
;layer_height: 0.30
;line_width: 0.50
;extrusion_ratio: 1.00
;start gcode
M118 X75.00 Y75.00 Z150.00 T0
M140 S100 T0
M104 S245 T0
M104 S0 T1
M107
M900 K0.800 T0
G90
G28
M132 X Y Z A B
G1 Z50.000 F420
G161 X Y F3300
M7 T0
M6 T0
M651
M108 T0
;preExtrude:0.30
;00:00:00.000: layer=0 h=0.30 w=0.50 r=1.00
;structure:pre-extrude
G1 X-55.00 Y-65.00 F6000                ; move dl=85.15@0<100>0 de=0.0000 h=0.0
;00:00:01.051: pe=0.0000 eb=0.0000 ve=0.0000 vn=0.0000 vl=0.000 db=0.00
G1 Z0.300 F420                          ; hopup dz=0.30@7 h=0.3
;00:00:01.094: pe=0.0000 eb=0.0000 ve=0.0000 vn=0.0000 vl=0.000 db=0.00
G1 E6.3665 F1800                        ; restore de=6.3665@30
;00:00:01.307: pe=5.8664 eb=0.5001 ve=30.0000 vn=4.5088 vl=0.000 db=2.26
G1 X-55.00 Y55.00 E36.3006 F1200        ; draw dl=120.00@0<20>10 l=0.30x0.50x4.00
;00:00:07.332: pe=5.9658 eb=0.4153 ve=2.4945 vn=4.8834 vl=10.000 db=2.06
G1 X-55.00 Y65.00 F600                  ; move dl=10.00@10<10>10 de=0.0000 h=0.3
;00:00:08.332: pe=3.2640 eb=0.3122 ve=0.0000 vn=1.8486 vl=10.000 db=1.79
G1 X35.00 Y65.00                        ; move dl=90.00@10<10>1 de=0.0000 h=0.3
;00:00:17.340: pe=0.0130 eb=0.0000 ve=0.0000 vn=0.0021 vl=1.000 db=0.01
G1 X45.00 Y65.00 F60                    ; move dl=10.00@1<1>0 de=0.0000 h=0.3
;00:00:27.341: pe=0.0042 eb=0.0000 ve=0.0000 vn=0.0000 vl=0.000 db=0.00
G1 E35.2964 F2400                       ; retract de=-1.0042@40
;00:00:27.366: pe=-1.0000 eb=0.0000 ve=-40.0000 vn=0.0000 vl=0.000 db=0.00
G1 Z0.700 F420                          ; hopup dz=0.40@7 h=0.7
;00:00:27.423: pe=-1.0000 eb=0.0000 ve=0.0000 vn=0.0000 vl=0.000 db=0.00
;layer:0.30
;00:00:27.423: layer=1 h=0.30 w=0.50 r=1.00
;structure:brim
G1 X-45.00 Y60.00 F6000                 ; move dl=90.14@0<100>0 de=0.0000 h=0.7
;00:00:28.524: pe=-1.0000 eb=0.0000 ve=0.0000 vn=0.0000 vl=0.000 db=0.00
G1 Z0.300 F420                          ; hopdn dz=-0.40@7 h=0.3
;00:00:28.581: pe=-1.0000 eb=0.0000 ve=0.0000 vn=0.0000 vl=0.000 db=0.00
G1 E37.3194 F1800                       ; restore de=2.0230@30
;00:00:28.649: pe=1.0088 eb=0.0142 ve=30.0000 vn=0.7855 vl=0.000 db=0.38
G1 X-45.00 Y-61.00 E44.8653 F600        ; draw dl=121.00@0<10>10 l=0.30x0.50x1.00
;00:00:40.759: pe=0.9989 eb=0.0245 ve=0.6236 vn=0.6236 vl=10.000 db=0.50
G1 X-45.50 Y-61.00 E44.8965             ; draw dl=0.50@10<10>10 l=0.30x0.50x1.00
;00:00:40.809: pe=0.9989 eb=0.0245 ve=0.6236 vn=0.6236 vl=10.000 db=0.50
G1 X-45.50 Y60.00 E52.4424              ; draw dl=121.00@10<10>0 l=0.30x0.50x1.00
;00:00:52.919: pe=0.9932 eb=0.0301 ve=0.0000 vn=0.5483 vl=0.000 db=0.55
G1 E50.4492 F2400                       ; retract de=-1.9932@40
;00:00:52.969: pe=-1.0025 eb=0.0327 ve=-40.0000 vn=0.0000 vl=0.000 db=0.58
G1 Z0.700 F420                          ; hopup dz=0.40@7 h=0.7
;00:00:53.026: pe=-1.0025 eb=0.0327 ve=0.0000 vn=0.0000 vl=0.000 db=0.38
G1 X45.00 Y60.00 F6000                  ; move dl=90.50@0<100>0 de=0.0000 h=0.7
;00:00:54.131: pe=-1.0025 eb=0.0000 ve=0.0000 vn=0.0000 vl=0.000 db=0.00
G1 Z0.300 F420                          ; hopdn dz=-0.40@7 h=0.3
;00:00:54.188: pe=-1.0025 eb=0.0000 ve=0.0000 vn=0.0000 vl=0.000 db=0.00
G1 E52.4747 F1800                       ; restore de=2.0255@30
;00:00:54.255: pe=1.0088 eb=0.0142 ve=30.0000 vn=0.7855 vl=0.000 db=0.38
G1 X45.00 Y-61.00 E60.0206 F600         ; draw dl=121.00@0<10>10 l=0.30x0.50x1.00
;00:01:06.365: pe=0.9989 eb=0.0245 ve=0.6236 vn=0.6236 vl=10.000 db=0.50
G1 X45.50 Y-61.00 E60.0518              ; draw dl=0.50@10<10>10 l=0.30x0.50x1.00
;00:01:06.415: pe=0.9989 eb=0.0245 ve=0.6236 vn=0.6236 vl=10.000 db=0.50
G1 X45.50 Y60.00 E67.5977               ; draw dl=121.00@10<10>0 l=0.30x0.50x1.00
;00:01:18.525: pe=0.9932 eb=0.0301 ve=0.0000 vn=0.5483 vl=0.000 db=0.55
G1 E65.6045 F2400                       ; retract de=-1.9932@40
;00:01:18.575: pe=-1.0025 eb=0.0327 ve=-40.0000 vn=0.0000 vl=0.000 db=0.58
G1 Z0.700 F420                          ; hopup dz=0.40@7 h=0.7
;00:01:18.632: pe=-1.0025 eb=0.0327 ve=0.0000 vn=0.0000 vl=0.000 db=0.38
;00:01:18.632: Test StartStop Kf=0.0-1.0 Kb=1.0 Re=0.5 vx=60 re=0.0
;structure:shell-outer
G1 X-45.00 Y55.00 F6000                 ; move dl=90.64@0<100>0 de=0.0000 h=0.7
;00:01:19.739: pe=-1.0025 eb=0.0000 ve=0.0000 vn=0.0000 vl=0.000 db=0.00
G1 Z0.300 F420                          ; hopdn dz=-0.40@7 h=0.3
;00:01:19.796: pe=-1.0025 eb=0.0000 ve=0.0000 vn=0.0000 vl=0.000 db=0.00
G1 E67.6294 F1800                       ; restore de=2.0248@30
;00:01:19.863: pe=1.0081 eb=0.0142 ve=30.0000 vn=0.7850 vl=0.000 db=0.38
G1 X45.00 Y55.00 E73.2420 F600          ; draw dl=90.00@0<10>0 l=0.30x0.50x1.00
;00:01:28.883: pe=0.9932 eb=0.0301 ve=0.0000 vn=0.5483 vl=0.000 db=0.55
G1 E71.2489 F2400                       ; retract de=-1.9932@40
;00:01:28.933: pe=-1.0025 eb=0.0327 ve=-40.0000 vn=0.0000 vl=0.000 db=0.58
G1 Z0.700 F420                          ; hopup dz=0.40@7 h=0.7
;00:01:28.990: pe=-1.0025 eb=0.0327 ve=0.0000 vn=0.0000 vl=0.000 db=0.38
G1 X-42.00 Y55.00 F6000                 ; move dl=87.00@0<100>0 de=0.0000 h=0.7
;00:01:30.060: pe=-1.0025 eb=0.0000 ve=0.0000 vn=0.0000 vl=0.000 db=0.00
G1 X-40.00 Y55.00 F1342                 ; move dl=2.00@0<22>0 de=0.0000 h=0.7
;00:01:30.195: pe=-1.0025 eb=0.0000 ve=0.0000 vn=0.0000 vl=0.000 db=0.00
G1 Z0.300 F420                          ; hopdn dz=-0.40@7 h=0.3
;00:01:30.252: pe=-1.0025 eb=0.0000 ve=0.0000 vn=0.0000 vl=0.000 db=0.00
G1 E73.2436 F1800                       ; restore de=1.9947@30
;00:01:30.318: pe=0.9789 eb=0.0134 ve=30.0000 vn=0.7620 vl=0.000 db=0.37
G1 X-40.00 Y52.00 E73.4307 F600         ; draw dl=3.00@0<10>0 l=0.30x0.50x1.00
;00:01:30.638: pe=0.9696 eb=0.0288 ve=0.0000 vn=0.5341 vl=0.000 db=0.54
G1 E71.4611 F2400                       ; retract de=-1.9696@40
;00:01:30.687: pe=-1.0024 eb=0.0312 ve=-40.0000 vn=0.0000 vl=0.000 db=0.56
G1 Z0.700 F420                          ; hopup dz=0.40@7 h=0.7
;00:01:30.745: pe=-1.0024 eb=0.0312 ve=0.0000 vn=0.0000 vl=0.000 db=0.37
G1 X-38.00 Y55.00 F1801                 ; move dl=3.61@0<30>0 de=0.0000 h=0.7
;00:01:30.925: pe=-1.0024 eb=0.0000 ve=0.0000 vn=0.0000 vl=0.000 db=0.00
G1 Z0.300 F420                          ; hopdn dz=-0.40@7 h=0.3
;00:01:30.982: pe=-1.0024 eb=0.0000 ve=0.0000 vn=0.0000 vl=0.000 db=0.00
G1 E73.4282 F1800                       ; restore de=1.9671@30
;00:01:31.047: pe=0.9521 eb=0.0126 ve=30.0000 vn=0.7410 vl=0.000 db=0.36
G1 X-38.00 Y53.50 E73.5217 F600         ; draw dl=1.50@0<10>0 l=0.30x0.50x1.00
;00:01:31.217: pe=0.9434 eb=0.0274 ve=0.0000 vn=0.5187 vl=0.000 db=0.53
G1 E71.5783 F2400                       ; retract de=-1.9434@40
;00:01:31.266: pe=-1.0023 eb=0.0296 ve=-40.0000 vn=0.0000 vl=0.000 db=0.55
G1 Z0.700 F420                          ; hopup dz=0.40@7 h=0.7
;00:01:31.323: pe=-1.0023 eb=0.0296 ve=0.0000 vn=0.0000 vl=0.000 db=0.36
G1 X-36.00 Y55.00 F1500                 ; move dl=2.50@0<25>0 de=0.0000 h=0.7
;00:01:31.473: pe=-1.0023 eb=0.0000 ve=0.0000 vn=0.0000 vl=0.000 db=0.00
G1 Z0.300 F420                          ; hopdn dz=-0.40@7 h=0.3
;00:01:31.530: pe=-1.0023 eb=0.0000 ve=0.0000 vn=0.0000 vl=0.000 db=0.00
G1 E73.5453 F1800                       ; restore de=1.9670@30
;00:01:31.596: pe=0.9521 eb=0.0126 ve=30.0000 vn=0.7410 vl=0.000 db=0.36
G1 X-36.00 Y53.50 E73.6388 F600         ; draw dl=1.50@0<10>0 l=0.30x0.50x1.00
;00:01:31.766: pe=0.9434 eb=0.0274 ve=0.0000 vn=0.5187 vl=0.000 db=0.53
G1 E71.6954 F2400                       ; retract de=-1.9434@40
;00:01:31.814: pe=-1.0023 eb=0.0296 ve=-40.0000 vn=0.0000 vl=0.000 db=0.55
G1 Z0.700 F420                          ; hopup dz=0.40@7 h=0.7
;00:01:31.872: pe=-1.0023 eb=0.0296 ve=0.0000 vn=0.0000 vl=0.000 db=0.36
G1 X-34.00 Y55.00 F1500                 ; move dl=2.50@0<25>0 de=0.0000 h=0.7
;00:01:32.022: pe=-1.0023 eb=0.0000 ve=0.0000 vn=0.0000 vl=0.000 db=0.00
G1 Z0.300 F420                          ; hopdn dz=-0.40@7 h=0.3
;00:01:32.079: pe=-1.0023 eb=0.0000 ve=0.0000 vn=0.0000 vl=0.000 db=0.00
G1 E73.6623 F1800                       ; restore de=1.9670@30
;00:01:32.144: pe=0.9521 eb=0.0126 ve=30.0000 vn=0.7410 vl=0.000 db=0.36
G1 X-34.00 Y53.50 E73.7559 F600         ; draw dl=1.50@0<10>0 l=0.30x0.50x1.00
;00:01:32.314: pe=0.9434 eb=0.0274 ve=0.0000 vn=0.5187 vl=0.000 db=0.53
G1 E71.8125 F2400                       ; retract de=-1.9434@40
;00:01:32.363: pe=-1.0023 eb=0.0296 ve=-40.0000 vn=0.0000 vl=0.000 db=0.55
G1 Z0.700 F420                          ; hopup dz=0.40@7 h=0.7
;00:01:32.420: pe=-1.0023 eb=0.0296 ve=0.0000 vn=0.0000 vl=0.000 db=0.36
G1 X-32.00 Y55.00 F1500                 ; move dl=2.50@0<25>0 de=0.0000 h=0.7
;00:01:32.570: pe=-1.0023 eb=0.0000 ve=0.0000 vn=0.0000 vl=0.000 db=0.00
G1 Z0.300 F420                          ; hopdn dz=-0.40@7 h=0.3
;00:01:32.627: pe=-1.0023 eb=0.0000 ve=0.0000 vn=0.0000 vl=0.000 db=0.00
G1 E73.7794 F1800                       ; restore de=1.9670@30
;00:01:32.693: pe=0.9521 eb=0.0126 ve=30.0000 vn=0.7410 vl=0.000 db=0.36
G1 X-32.00 Y53.50 E73.8730 F600         ; draw dl=1.50@0<10>0 l=0.30x0.50x1.00
;00:01:32.863: pe=0.9434 eb=0.0274 ve=0.0000 vn=0.5187 vl=0.000 db=0.53
G1 E71.9296 F2400                       ; retract de=-1.9434@40
;00:01:32.911: pe=-1.0023 eb=0.0296 ve=-40.0000 vn=0.0000 vl=0.000 db=0.55
G1 Z0.700 F420                          ; hopup dz=0.40@7 h=0.7
;00:01:32.969: pe=-1.0023 eb=0.0296 ve=0.0000 vn=0.0000 vl=0.000 db=0.36
G1 X-30.00 Y55.00 F1500                 ; move dl=2.50@0<25>0 de=0.0000 h=0.7
;00:01:33.119: pe=-1.0023 eb=0.0000 ve=0.0000 vn=0.0000 vl=0.000 db=0.00
G1 Z0.300 F420                          ; hopdn dz=-0.40@7 h=0.3
;00:01:33.176: pe=-1.0023 eb=0.0000 ve=0.0000 vn=0.0000 vl=0.000 db=0.00
G1 E73.9240 F1800                       ; restore de=1.9945@30
;00:01:33.242: pe=0.9789 eb=0.0134 ve=30.0000 vn=0.7620 vl=0.000 db=0.37
G1 X-30.00 Y52.00 E74.1111 F600         ; draw dl=3.00@0<10>0 l=0.30x0.50x1.00
;00:01:33.562: pe=0.9696 eb=0.0288 ve=0.0000 vn=0.5341 vl=0.000 db=0.54
G1 E72.1415 F2400                       ; retract de=-1.9696@40
;00:01:33.611: pe=-1.0024 eb=0.0312 ve=-40.0000 vn=0.0000 vl=0.000 db=0.56
G1 Z0.700 F420                          ; hopup dz=0.40@7 h=0.7
;00:01:33.669: pe=-1.0024 eb=0.0312 ve=0.0000 vn=0.0000 vl=0.000 db=0.37
G1 X-28.00 Y55.00 F1801                 ; move dl=3.61@0<30>0 de=0.0000 h=0.7
;00:01:33.849: pe=-1.0024 eb=0.0000 ve=0.0000 vn=0.0000 vl=0.000 db=0.00
G1 Z0.300 F420                          ; hopdn dz=-0.40@7 h=0.3
;00:01:33.906: pe=-1.0024 eb=0.0000 ve=0.0000 vn=0.0000 vl=0.000 db=0.00
G1 E74.1086 F1800                       ; restore de=1.9671@30
;00:01:33.971: pe=0.9521 eb=0.0126 ve=30.0000 vn=0.7410 vl=0.000 db=0.36
G1 X-28.00 Y53.50 E74.2022 F600         ; draw dl=1.50@0<10>0 l=0.30x0.50x1.00
;00:01:34.141: pe=0.9434 eb=0.0274 ve=0.0000 vn=0.5187 vl=0.000 db=0.53
G1 E72.2588 F2400                       ; retract de=-1.9434@40
;00:01:34.190: pe=-1.0023 eb=0.0296 ve=-40.0000 vn=0.0000 vl=0.000 db=0.55
G1 Z0.700 F420                          ; hopup dz=0.40@7 h=0.7
;00:01:34.247: pe=-1.0023 eb=0.0296 ve=0.0000 vn=0.0000 vl=0.000 db=0.36
G1 X-26.00 Y55.00 F1500                 ; move dl=2.50@0<25>0 de=0.0000 h=0.7
;00:01:34.397: pe=-1.0023 eb=0.0000 ve=0.0000 vn=0.0000 vl=0.000 db=0.00
G1 Z0.300 F420                          ; hopdn dz=-0.40@7 h=0.3
;00:01:34.454: pe=-1.0023 eb=0.0000 ve=0.0000 vn=0.0000 vl=0.000 db=0.00
G1 E74.2257 F1800                       ; restore de=1.9670@30
;00:01:34.520: pe=0.9521 eb=0.0126 ve=30.0000 vn=0.7410 vl=0.000 db=0.36
G1 X-26.00 Y53.50 E74.3193 F600         ; draw dl=1.50@0<10>0 l=0.30x0.50x1.00
;00:01:34.690: pe=0.9434 eb=0.0274 ve=0.0000 vn=0.5187 vl=0.000 db=0.53
G1 E72.3758 F2400                       ; retract de=-1.9434@40
;00:01:34.738: pe=-1.0023 eb=0.0296 ve=-40.0000 vn=0.0000 vl=0.000 db=0.55
G1 Z0.700 F420                          ; hopup dz=0.40@7 h=0.7
;00:01:34.796: pe=-1.0023 eb=0.0296 ve=0.0000 vn=0.0000 vl=0.000 db=0.36
G1 X-24.00 Y55.00 F1500                 ; move dl=2.50@0<25>0 de=0.0000 h=0.7
;00:01:34.946: pe=-1.0023 eb=0.0000 ve=0.0000 vn=0.0000 vl=0.000 db=0.00
G1 Z0.300 F420                          ; hopdn dz=-0.40@7 h=0.3
;00:01:35.003: pe=-1.0023 eb=0.0000 ve=0.0000 vn=0.0000 vl=0.000 db=0.00
G1 E74.3428 F1800                       ; restore de=1.9670@30
;00:01:35.068: pe=0.9521 eb=0.0126 ve=30.0000 vn=0.7410 vl=0.000 db=0.36
G1 X-24.00 Y53.50 E74.4363 F600         ; draw dl=1.50@0<10>0 l=0.30x0.50x1.00
;00:01:35.238: pe=0.9434 eb=0.0274 ve=0.0000 vn=0.5187 vl=0.000 db=0.53
G1 E72.4929 F2400                       ; retract de=-1.9434@40
;00:01:35.287: pe=-1.0023 eb=0.0296 ve=-40.0000 vn=0.0000 vl=0.000 db=0.55
G1 Z0.700 F420                          ; hopup dz=0.40@7 h=0.7
;00:01:35.344: pe=-1.0023 eb=0.0296 ve=0.0000 vn=0.0000 vl=0.000 db=0.36
G1 X-22.00 Y55.00 F1500                 ; move dl=2.50@0<25>0 de=0.0000 h=0.7
;00:01:35.494: pe=-1.0023 eb=0.0000 ve=0.0000 vn=0.0000 vl=0.000 db=0.00
G1 Z0.300 F420                          ; hopdn dz=-0.40@7 h=0.3
;00:01:35.551: pe=-1.0023 eb=0.0000 ve=0.0000 vn=0.0000 vl=0.000 db=0.00
G1 E74.4599 F1800                       ; restore de=1.9670@30
;00:01:35.617: pe=0.9521 eb=0.0126 ve=30.0000 vn=0.7410 vl=0.000 db=0.36
G1 X-22.00 Y53.50 E74.5534 F600         ; draw dl=1.50@0<10>0 l=0.30x0.50x1.00
;00:01:35.787: pe=0.9434 eb=0.0274 ve=0.0000 vn=0.5187 vl=0.000 db=0.53
G1 E72.6100 F2400                       ; retract de=-1.9434@40
;00:01:35.835: pe=-1.0023 eb=0.0296 ve=-40.0000 vn=0.0000 vl=0.000 db=0.55
G1 Z0.700 F420                          ; hopup dz=0.40@7 h=0.7
;00:01:35.892: pe=-1.0023 eb=0.0296 ve=0.0000 vn=0.0000 vl=0.000 db=0.36
G1 X-20.00 Y55.00 F1500                 ; move dl=2.50@0<25>0 de=0.0000 h=0.7
;00:01:36.042: pe=-1.0023 eb=0.0000 ve=0.0000 vn=0.0000 vl=0.000 db=0.00
G1 Z0.300 F420                          ; hopdn dz=-0.40@7 h=0.3
;00:01:36.100: pe=-1.0023 eb=0.0000 ve=0.0000 vn=0.0000 vl=0.000 db=0.00
G1 E74.6045 F1800                       ; restore de=1.9945@30
;00:01:36.166: pe=0.9789 eb=0.0134 ve=30.0000 vn=0.7620 vl=0.000 db=0.37
G1 X-20.00 Y52.00 E74.7916 F600         ; draw dl=3.00@0<10>0 l=0.30x0.50x1.00
;00:01:36.486: pe=0.9696 eb=0.0288 ve=0.0000 vn=0.5341 vl=0.000 db=0.54
G1 E72.8220 F2400                       ; retract de=-1.9696@40
;00:01:36.535: pe=-1.0024 eb=0.0312 ve=-40.0000 vn=0.0000 vl=0.000 db=0.56
G1 Z0.700 F420                          ; hopup dz=0.40@7 h=0.7
;00:01:36.592: pe=-1.0024 eb=0.0312 ve=0.0000 vn=0.0000 vl=0.000 db=0.37
G1 X-18.00 Y55.00 F1801                 ; move dl=3.61@0<30>0 de=0.0000 h=0.7
;00:01:36.773: pe=-1.0024 eb=0.0000 ve=0.0000 vn=0.0000 vl=0.000 db=0.00
G1 Z0.300 F420                          ; hopdn dz=-0.40@7 h=0.3
;00:01:36.830: pe=-1.0024 eb=0.0000 ve=0.0000 vn=0.0000 vl=0.000 db=0.00
G1 E74.7891 F1800                       ; restore de=1.9671@30
;00:01:36.895: pe=0.9521 eb=0.0126 ve=30.0000 vn=0.7410 vl=0.000 db=0.36
G1 X-18.00 Y53.50 E74.8826 F600         ; draw dl=1.50@0<10>0 l=0.30x0.50x1.00
;00:01:37.065: pe=0.9434 eb=0.0274 ve=0.0000 vn=0.5187 vl=0.000 db=0.53
G1 E72.9392 F2400                       ; retract de=-1.9434@40
;00:01:37.114: pe=-1.0023 eb=0.0296 ve=-40.0000 vn=0.0000 vl=0.000 db=0.55
G1 Z0.700 F420                          ; hopup dz=0.40@7 h=0.7
;00:01:37.171: pe=-1.0023 eb=0.0296 ve=0.0000 vn=0.0000 vl=0.000 db=0.36
G1 X-16.00 Y55.00 F1500                 ; move dl=2.50@0<25>0 de=0.0000 h=0.7
;00:01:37.321: pe=-1.0023 eb=0.0000 ve=0.0000 vn=0.0000 vl=0.000 db=0.00
G1 Z0.300 F420                          ; hopdn dz=-0.40@7 h=0.3
;00:01:37.378: pe=-1.0023 eb=0.0000 ve=0.0000 vn=0.0000 vl=0.000 db=0.00
G1 E74.9062 F1800                       ; restore de=1.9670@30
;00:01:37.444: pe=0.9521 eb=0.0126 ve=30.0000 vn=0.7410 vl=0.000 db=0.36
G1 X-16.00 Y53.50 E74.9997 F600         ; draw dl=1.50@0<10>0 l=0.30x0.50x1.00
;00:01:37.614: pe=0.9434 eb=0.0274 ve=0.0000 vn=0.5187 vl=0.000 db=0.53
G1 E73.0563 F2400                       ; retract de=-1.9434@40
;00:01:37.662: pe=-1.0023 eb=0.0296 ve=-40.0000 vn=0.0000 vl=0.000 db=0.55
G1 Z0.700 F420                          ; hopup dz=0.40@7 h=0.7
;00:01:37.719: pe=-1.0023 eb=0.0296 ve=0.0000 vn=0.0000 vl=0.000 db=0.36
G1 X-14.00 Y55.00 F1500                 ; move dl=2.50@0<25>0 de=0.0000 h=0.7
;00:01:37.869: pe=-1.0023 eb=0.0000 ve=0.0000 vn=0.0000 vl=0.000 db=0.00
G1 Z0.300 F420                          ; hopdn dz=-0.40@7 h=0.3
;00:01:37.927: pe=-1.0023 eb=0.0000 ve=0.0000 vn=0.0000 vl=0.000 db=0.00
G1 E75.0233 F1800                       ; restore de=1.9670@30
;00:01:37.992: pe=0.9521 eb=0.0126 ve=30.0000 vn=0.7410 vl=0.000 db=0.36
G1 X-14.00 Y53.50 E75.1168 F600         ; draw dl=1.50@0<10>0 l=0.30x0.50x1.00
;00:01:38.162: pe=0.9434 eb=0.0274 ve=0.0000 vn=0.5187 vl=0.000 db=0.53
G1 E73.1734 F2400                       ; retract de=-1.9434@40
;00:01:38.211: pe=-1.0023 eb=0.0296 ve=-40.0000 vn=0.0000 vl=0.000 db=0.55
G1 Z0.700 F420                          ; hopup dz=0.40@7 h=0.7
;00:01:38.268: pe=-1.0023 eb=0.0296 ve=0.0000 vn=0.0000 vl=0.000 db=0.36
G1 X-12.00 Y55.00 F1500                 ; move dl=2.50@0<25>0 de=0.0000 h=0.7
;00:01:38.418: pe=-1.0023 eb=0.0000 ve=0.0000 vn=0.0000 vl=0.000 db=0.00
G1 Z0.300 F420                          ; hopdn dz=-0.40@7 h=0.3
;00:01:38.475: pe=-1.0023 eb=0.0000 ve=0.0000 vn=0.0000 vl=0.000 db=0.00
G1 E75.1403 F1800                       ; restore de=1.9670@30
;00:01:38.541: pe=0.9521 eb=0.0126 ve=30.0000 vn=0.7410 vl=0.000 db=0.36
G1 X-12.00 Y53.50 E75.2339 F600         ; draw dl=1.50@0<10>0 l=0.30x0.50x1.00
;00:01:38.711: pe=0.9434 eb=0.0274 ve=0.0000 vn=0.5187 vl=0.000 db=0.53
G1 E73.2905 F2400                       ; retract de=-1.9434@40
;00:01:38.759: pe=-1.0023 eb=0.0296 ve=-40.0000 vn=0.0000 vl=0.000 db=0.55
G1 Z0.700 F420                          ; hopup dz=0.40@7 h=0.7
;00:01:38.816: pe=-1.0023 eb=0.0296 ve=0.0000 vn=0.0000 vl=0.000 db=0.36
G1 X-10.00 Y55.00 F1500                 ; move dl=2.50@0<25>0 de=0.0000 h=0.7
;00:01:38.966: pe=-1.0023 eb=0.0000 ve=0.0000 vn=0.0000 vl=0.000 db=0.00
G1 Z0.300 F420                          ; hopdn dz=-0.40@7 h=0.3
;00:01:39.023: pe=-1.0023 eb=0.0000 ve=0.0000 vn=0.0000 vl=0.000 db=0.00
G1 E75.2849 F1800                       ; restore de=1.9945@30
;00:01:39.090: pe=0.9789 eb=0.0134 ve=30.0000 vn=0.7620 vl=0.000 db=0.37
G1 X-10.00 Y52.00 E75.4720 F600         ; draw dl=3.00@0<10>0 l=0.30x0.50x1.00
;00:01:39.410: pe=0.9696 eb=0.0288 ve=0.0000 vn=0.5341 vl=0.000 db=0.54
G1 E73.5024 F2400                       ; retract de=-1.9696@40
;00:01:39.459: pe=-1.0024 eb=0.0312 ve=-40.0000 vn=0.0000 vl=0.000 db=0.56
G1 Z0.700 F420                          ; hopup dz=0.40@7 h=0.7
;00:01:39.516: pe=-1.0024 eb=0.0312 ve=0.0000 vn=0.0000 vl=0.000 db=0.37
G1 X-8.00 Y55.00 F1801                  ; move dl=3.61@0<30>0 de=0.0000 h=0.7
;00:01:39.696: pe=-1.0024 eb=0.0000 ve=0.0000 vn=0.0000 vl=0.000 db=0.00
G1 Z0.300 F420                          ; hopdn dz=-0.40@7 h=0.3
;00:01:39.754: pe=-1.0024 eb=0.0000 ve=0.0000 vn=0.0000 vl=0.000 db=0.00
G1 E75.4695 F1800                       ; restore de=1.9671@30
;00:01:39.819: pe=0.9521 eb=0.0126 ve=30.0000 vn=0.7410 vl=0.000 db=0.36
G1 X-8.00 Y53.50 E75.5631 F600          ; draw dl=1.50@0<10>0 l=0.30x0.50x1.00
;00:01:39.989: pe=0.9434 eb=0.0274 ve=0.0000 vn=0.5187 vl=0.000 db=0.53
G1 E73.6197 F2400                       ; retract de=-1.9434@40
;00:01:40.038: pe=-1.0023 eb=0.0296 ve=-40.0000 vn=0.0000 vl=0.000 db=0.55
G1 Z0.700 F420                          ; hopup dz=0.40@7 h=0.7
;00:01:40.095: pe=-1.0023 eb=0.0296 ve=0.0000 vn=0.0000 vl=0.000 db=0.36
G1 X-6.00 Y55.00 F1500                  ; move dl=2.50@0<25>0 de=0.0000 h=0.7
;00:01:40.245: pe=-1.0023 eb=0.0000 ve=0.0000 vn=0.0000 vl=0.000 db=0.00
G1 Z0.300 F420                          ; hopdn dz=-0.40@7 h=0.3
;00:01:40.302: pe=-1.0023 eb=0.0000 ve=0.0000 vn=0.0000 vl=0.000 db=0.00
G1 E75.5866 F1800                       ; restore de=1.9670@30
;00:01:40.368: pe=0.9521 eb=0.0126 ve=30.0000 vn=0.7410 vl=0.000 db=0.36
G1 X-6.00 Y53.50 E75.6802 F600          ; draw dl=1.50@0<10>0 l=0.30x0.50x1.00
;00:01:40.538: pe=0.9434 eb=0.0274 ve=0.0000 vn=0.5187 vl=0.000 db=0.53
G1 E73.7368 F2400                       ; retract de=-1.9434@40
;00:01:40.586: pe=-1.0023 eb=0.0296 ve=-40.0000 vn=0.0000 vl=0.000 db=0.55
G1 Z0.700 F420                          ; hopup dz=0.40@7 h=0.7
;00:01:40.643: pe=-1.0023 eb=0.0296 ve=0.0000 vn=0.0000 vl=0.000 db=0.36
G1 X-4.00 Y55.00 F1500                  ; move dl=2.50@0<25>0 de=0.0000 h=0.7
;00:01:40.793: pe=-1.0023 eb=0.0000 ve=0.0000 vn=0.0000 vl=0.000 db=0.00
G1 Z0.300 F420                          ; hopdn dz=-0.40@7 h=0.3
;00:01:40.850: pe=-1.0023 eb=0.0000 ve=0.0000 vn=0.0000 vl=0.000 db=0.00
G1 E75.7037 F1800                       ; restore de=1.9670@30
;00:01:40.916: pe=0.9521 eb=0.0126 ve=30.0000 vn=0.7410 vl=0.000 db=0.36
G1 X-4.00 Y53.50 E75.7972 F600          ; draw dl=1.50@0<10>0 l=0.30x0.50x1.00
;00:01:41.086: pe=0.9434 eb=0.0274 ve=0.0000 vn=0.5187 vl=0.000 db=0.53
G1 E73.8538 F2400                       ; retract de=-1.9434@40
;00:01:41.135: pe=-1.0023 eb=0.0296 ve=-40.0000 vn=0.0000 vl=0.000 db=0.55
G1 Z0.700 F420                          ; hopup dz=0.40@7 h=0.7
;00:01:41.192: pe=-1.0023 eb=0.0296 ve=0.0000 vn=0.0000 vl=0.000 db=0.36
G1 X-2.00 Y55.00 F1500                  ; move dl=2.50@0<25>0 de=0.0000 h=0.7
;00:01:41.342: pe=-1.0023 eb=0.0000 ve=0.0000 vn=0.0000 vl=0.000 db=0.00
G1 Z0.300 F420                          ; hopdn dz=-0.40@7 h=0.3
;00:01:41.399: pe=-1.0023 eb=0.0000 ve=0.0000 vn=0.0000 vl=0.000 db=0.00
G1 E75.8208 F1800                       ; restore de=1.9670@30
;00:01:41.464: pe=0.9521 eb=0.0126 ve=30.0000 vn=0.7410 vl=0.000 db=0.36
G1 X-2.00 Y53.50 E75.9143 F600          ; draw dl=1.50@0<10>0 l=0.30x0.50x1.00
;00:01:41.634: pe=0.9434 eb=0.0274 ve=0.0000 vn=0.5187 vl=0.000 db=0.53
G1 E73.9709 F2400                       ; retract de=-1.9434@40
;00:01:41.683: pe=-1.0023 eb=0.0296 ve=-40.0000 vn=0.0000 vl=0.000 db=0.55
G1 Z0.700 F420                          ; hopup dz=0.40@7 h=0.7
;00:01:41.740: pe=-1.0023 eb=0.0296 ve=0.0000 vn=0.0000 vl=0.000 db=0.36
G1 X0.00 Y55.00 F1500                   ; move dl=2.50@0<25>0 de=0.0000 h=0.7
;00:01:41.890: pe=-1.0023 eb=0.0000 ve=0.0000 vn=0.0000 vl=0.000 db=0.00
G1 Z0.300 F420                          ; hopdn dz=-0.40@7 h=0.3
;00:01:41.947: pe=-1.0023 eb=0.0000 ve=0.0000 vn=0.0000 vl=0.000 db=0.00
G1 E75.9654 F1800                       ; restore de=1.9945@30
;00:01:42.014: pe=0.9789 eb=0.0134 ve=30.0000 vn=0.7620 vl=0.000 db=0.37
G1 X0.00 Y52.00 E76.1525 F600           ; draw dl=3.00@0<10>0 l=0.30x0.50x1.00
;00:01:42.334: pe=0.9696 eb=0.0288 ve=0.0000 vn=0.5341 vl=0.000 db=0.54
G1 E74.1829 F2400                       ; retract de=-1.9696@40
;00:01:42.383: pe=-1.0024 eb=0.0312 ve=-40.0000 vn=0.0000 vl=0.000 db=0.56
G1 Z0.700 F420                          ; hopup dz=0.40@7 h=0.7
;00:01:42.440: pe=-1.0024 eb=0.0312 ve=0.0000 vn=0.0000 vl=0.000 db=0.37
G1 X2.00 Y55.00 F1801                   ; move dl=3.61@0<30>0 de=0.0000 h=0.7
;00:01:42.620: pe=-1.0024 eb=0.0000 ve=0.0000 vn=0.0000 vl=0.000 db=0.00
G1 Z0.300 F420                          ; hopdn dz=-0.40@7 h=0.3
;00:01:42.677: pe=-1.0024 eb=0.0000 ve=0.0000 vn=0.0000 vl=0.000 db=0.00
G1 E76.1500 F1800                       ; restore de=1.9671@30
;00:01:42.743: pe=0.9521 eb=0.0126 ve=30.0000 vn=0.7410 vl=0.000 db=0.36
G1 X2.00 Y53.50 E76.2435 F600           ; draw dl=1.50@0<10>0 l=0.30x0.50x1.00
;00:01:42.913: pe=0.9434 eb=0.0274 ve=0.0000 vn=0.5187 vl=0.000 db=0.53
G1 E74.3001 F2400                       ; retract de=-1.9434@40
;00:01:42.962: pe=-1.0023 eb=0.0296 ve=-40.0000 vn=0.0000 vl=0.000 db=0.55
G1 Z0.700 F420                          ; hopup dz=0.40@7 h=0.7
;00:01:43.019: pe=-1.0023 eb=0.0296 ve=0.0000 vn=0.0000 vl=0.000 db=0.36
G1 X4.00 Y55.00 F1500                   ; move dl=2.50@0<25>0 de=0.0000 h=0.7
;00:01:43.169: pe=-1.0023 eb=0.0000 ve=0.0000 vn=0.0000 vl=0.000 db=0.00
G1 Z0.300 F420                          ; hopdn dz=-0.40@7 h=0.3
;00:01:43.226: pe=-1.0023 eb=0.0000 ve=0.0000 vn=0.0000 vl=0.000 db=0.00
G1 E76.2671 F1800                       ; restore de=1.9670@30
;00:01:43.291: pe=0.9521 eb=0.0126 ve=30.0000 vn=0.7410 vl=0.000 db=0.36
G1 X4.00 Y53.50 E76.3606 F600           ; draw dl=1.50@0<10>0 l=0.30x0.50x1.00
;00:01:43.461: pe=0.9434 eb=0.0274 ve=0.0000 vn=0.5187 vl=0.000 db=0.53
G1 E74.4172 F2400                       ; retract de=-1.9434@40
;00:01:43.510: pe=-1.0023 eb=0.0296 ve=-40.0000 vn=0.0000 vl=0.000 db=0.55
G1 Z0.700 F420                          ; hopup dz=0.40@7 h=0.7
;00:01:43.567: pe=-1.0023 eb=0.0296 ve=0.0000 vn=0.0000 vl=0.000 db=0.36
G1 X6.00 Y55.00 F1500                   ; move dl=2.50@0<25>0 de=0.0000 h=0.7
;00:01:43.717: pe=-1.0023 eb=0.0000 ve=0.0000 vn=0.0000 vl=0.000 db=0.00
G1 Z0.300 F420                          ; hopdn dz=-0.40@7 h=0.3
;00:01:43.774: pe=-1.0023 eb=0.0000 ve=0.0000 vn=0.0000 vl=0.000 db=0.00
G1 E76.3842 F1800                       ; restore de=1.9670@30
;00:01:43.840: pe=0.9521 eb=0.0126 ve=30.0000 vn=0.7410 vl=0.000 db=0.36
G1 X6.00 Y53.50 E76.4777 F600           ; draw dl=1.50@0<10>0 l=0.30x0.50x1.00
;00:01:44.010: pe=0.9434 eb=0.0274 ve=0.0000 vn=0.5187 vl=0.000 db=0.53
G1 E74.5343 F2400                       ; retract de=-1.9434@40
;00:01:44.059: pe=-1.0023 eb=0.0296 ve=-40.0000 vn=0.0000 vl=0.000 db=0.55
G1 Z0.700 F420                          ; hopup dz=0.40@7 h=0.7
;00:01:44.116: pe=-1.0023 eb=0.0296 ve=0.0000 vn=0.0000 vl=0.000 db=0.36
G1 X8.00 Y55.00 F1500                   ; move dl=2.50@0<25>0 de=0.0000 h=0.7
;00:01:44.266: pe=-1.0023 eb=0.0000 ve=0.0000 vn=0.0000 vl=0.000 db=0.00
G1 Z0.300 F420                          ; hopdn dz=-0.40@7 h=0.3
;00:01:44.323: pe=-1.0023 eb=0.0000 ve=0.0000 vn=0.0000 vl=0.000 db=0.00
G1 E76.5013 F1800                       ; restore de=1.9670@30
;00:01:44.388: pe=0.9521 eb=0.0126 ve=30.0000 vn=0.7410 vl=0.000 db=0.36
G1 X8.00 Y53.50 E76.5948 F600           ; draw dl=1.50@0<10>0 l=0.30x0.50x1.00
;00:01:44.558: pe=0.9434 eb=0.0274 ve=0.0000 vn=0.5187 vl=0.000 db=0.53
G1 E74.6514 F2400                       ; retract de=-1.9434@40
;00:01:44.607: pe=-1.0023 eb=0.0296 ve=-40.0000 vn=0.0000 vl=0.000 db=0.55
G1 Z0.700 F420                          ; hopup dz=0.40@7 h=0.7
;00:01:44.664: pe=-1.0023 eb=0.0296 ve=0.0000 vn=0.0000 vl=0.000 db=0.36
G1 X10.00 Y55.00 F1500                  ; move dl=2.50@0<25>0 de=0.0000 h=0.7
;00:01:44.814: pe=-1.0023 eb=0.0000 ve=0.0000 vn=0.0000 vl=0.000 db=0.00
G1 Z0.300 F420                          ; hopdn dz=-0.40@7 h=0.3
;00:01:44.871: pe=-1.0023 eb=0.0000 ve=0.0000 vn=0.0000 vl=0.000 db=0.00
G1 E76.6459 F1800                       ; restore de=1.9945@30
;00:01:44.938: pe=0.9789 eb=0.0134 ve=30.0000 vn=0.7620 vl=0.000 db=0.37
G1 X10.00 Y52.00 E76.8329 F600          ; draw dl=3.00@0<10>0 l=0.30x0.50x1.00
;00:01:45.258: pe=0.9696 eb=0.0288 ve=0.0000 vn=0.5341 vl=0.000 db=0.54
G1 E74.8633 F2400                       ; retract de=-1.9696@40
;00:01:45.307: pe=-1.0024 eb=0.0312 ve=-40.0000 vn=0.0000 vl=0.000 db=0.56
G1 Z0.700 F420                          ; hopup dz=0.40@7 h=0.7
;00:01:45.364: pe=-1.0024 eb=0.0312 ve=0.0000 vn=0.0000 vl=0.000 db=0.37
G1 X12.00 Y55.00 F1801                  ; move dl=3.61@0<30>0 de=0.0000 h=0.7
;00:01:45.544: pe=-1.0024 eb=0.0000 ve=0.0000 vn=0.0000 vl=0.000 db=0.00
G1 Z0.300 F420                          ; hopdn dz=-0.40@7 h=0.3
;00:01:45.601: pe=-1.0024 eb=0.0000 ve=0.0000 vn=0.0000 vl=0.000 db=0.00
G1 E76.8304 F1800                       ; restore de=1.9671@30
;00:01:45.667: pe=0.9521 eb=0.0126 ve=30.0000 vn=0.7410 vl=0.000 db=0.36
G1 X12.00 Y53.50 E76.9240 F600          ; draw dl=1.50@0<10>0 l=0.30x0.50x1.00
;00:01:45.837: pe=0.9434 eb=0.0274 ve=0.0000 vn=0.5187 vl=0.000 db=0.53
G1 E74.9806 F2400                       ; retract de=-1.9434@40
;00:01:45.886: pe=-1.0023 eb=0.0296 ve=-40.0000 vn=0.0000 vl=0.000 db=0.55
G1 Z0.700 F420                          ; hopup dz=0.40@7 h=0.7
;00:01:45.943: pe=-1.0023 eb=0.0296 ve=0.0000 vn=0.0000 vl=0.000 db=0.36
G1 X14.00 Y55.00 F1500                  ; move dl=2.50@0<25>0 de=0.0000 h=0.7
;00:01:46.093: pe=-1.0023 eb=0.0000 ve=0.0000 vn=0.0000 vl=0.000 db=0.00
G1 Z0.300 F420                          ; hopdn dz=-0.40@7 h=0.3
;00:01:46.150: pe=-1.0023 eb=0.0000 ve=0.0000 vn=0.0000 vl=0.000 db=0.00
G1 E76.9475 F1800                       ; restore de=1.9670@30
;00:01:46.215: pe=0.9521 eb=0.0126 ve=30.0000 vn=0.7410 vl=0.000 db=0.36
G1 X14.00 Y53.50 E77.0411 F600          ; draw dl=1.50@0<10>0 l=0.30x0.50x1.00
;00:01:46.385: pe=0.9434 eb=0.0274 ve=0.0000 vn=0.5187 vl=0.000 db=0.53
G1 E75.0977 F2400                       ; retract de=-1.9434@40
;00:01:46.434: pe=-1.0023 eb=0.0296 ve=-40.0000 vn=0.0000 vl=0.000 db=0.55
G1 Z0.700 F420                          ; hopup dz=0.40@7 h=0.7
;00:01:46.491: pe=-1.0023 eb=0.0296 ve=0.0000 vn=0.0000 vl=0.000 db=0.36
G1 X16.00 Y55.00 F1500                  ; move dl=2.50@0<25>0 de=0.0000 h=0.7
;00:01:46.641: pe=-1.0023 eb=0.0000 ve=0.0000 vn=0.0000 vl=0.000 db=0.00
G1 Z0.300 F420                          ; hopdn dz=-0.40@7 h=0.3
;00:01:46.698: pe=-1.0023 eb=0.0000 ve=0.0000 vn=0.0000 vl=0.000 db=0.00
G1 E77.0646 F1800                       ; restore de=1.9670@30
;00:01:46.764: pe=0.9521 eb=0.0126 ve=30.0000 vn=0.7410 vl=0.000 db=0.36
G1 X16.00 Y53.50 E77.1582 F600          ; draw dl=1.50@0<10>0 l=0.30x0.50x1.00
;00:01:46.934: pe=0.9434 eb=0.0274 ve=0.0000 vn=0.5187 vl=0.000 db=0.53
G1 E75.2148 F2400                       ; retract de=-1.9434@40
;00:01:46.982: pe=-1.0023 eb=0.0296 ve=-40.0000 vn=0.0000 vl=0.000 db=0.55
G1 Z0.700 F420                          ; hopup dz=0.40@7 h=0.7
;00:01:47.040: pe=-1.0023 eb=0.0296 ve=0.0000 vn=0.0000 vl=0.000 db=0.36
G1 X18.00 Y55.00 F1500                  ; move dl=2.50@0<25>0 de=0.0000 h=0.7
;00:01:47.190: pe=-1.0023 eb=0.0000 ve=0.0000 vn=0.0000 vl=0.000 db=0.00
G1 Z0.300 F420                          ; hopdn dz=-0.40@7 h=0.3
;00:01:47.247: pe=-1.0023 eb=0.0000 ve=0.0000 vn=0.0000 vl=0.000 db=0.00
G1 E77.1817 F1800                       ; restore de=1.9670@30
;00:01:47.312: pe=0.9521 eb=0.0126 ve=30.0000 vn=0.7410 vl=0.000 db=0.36
G1 X18.00 Y53.50 E77.2752 F600          ; draw dl=1.50@0<10>0 l=0.30x0.50x1.00
;00:01:47.482: pe=0.9434 eb=0.0274 ve=0.0000 vn=0.5187 vl=0.000 db=0.53
G1 E75.3318 F2400                       ; retract de=-1.9434@40
;00:01:47.531: pe=-1.0023 eb=0.0296 ve=-40.0000 vn=0.0000 vl=0.000 db=0.55
G1 Z0.700 F420                          ; hopup dz=0.40@7 h=0.7
;00:01:47.588: pe=-1.0023 eb=0.0296 ve=0.0000 vn=0.0000 vl=0.000 db=0.36
G1 X20.00 Y55.00 F1500                  ; move dl=2.50@0<25>0 de=0.0000 h=0.7
;00:01:47.738: pe=-1.0023 eb=0.0000 ve=0.0000 vn=0.0000 vl=0.000 db=0.00
G1 Z0.300 F420                          ; hopdn dz=-0.40@7 h=0.3
;00:01:47.795: pe=-1.0023 eb=0.0000 ve=0.0000 vn=0.0000 vl=0.000 db=0.00
G1 E77.3263 F1800                       ; restore de=1.9945@30
;00:01:47.862: pe=0.9789 eb=0.0134 ve=30.0000 vn=0.7620 vl=0.000 db=0.37
G1 X20.00 Y52.00 E77.5134 F600          ; draw dl=3.00@0<10>0 l=0.30x0.50x1.00
;00:01:48.182: pe=0.9696 eb=0.0288 ve=0.0000 vn=0.5341 vl=0.000 db=0.54
G1 E75.5438 F2400                       ; retract de=-1.9696@40
;00:01:48.231: pe=-1.0024 eb=0.0312 ve=-40.0000 vn=0.0000 vl=0.000 db=0.56
G1 Z0.700 F420                          ; hopup dz=0.40@7 h=0.7
;00:01:48.288: pe=-1.0024 eb=0.0312 ve=0.0000 vn=0.0000 vl=0.000 db=0.37
G1 X22.00 Y55.00 F1801                  ; move dl=3.61@0<30>0 de=0.0000 h=0.7
;00:01:48.468: pe=-1.0024 eb=0.0000 ve=0.0000 vn=0.0000 vl=0.000 db=0.00
G1 Z0.300 F420                          ; hopdn dz=-0.40@7 h=0.3
;00:01:48.525: pe=-1.0024 eb=0.0000 ve=0.0000 vn=0.0000 vl=0.000 db=0.00
G1 E77.5109 F1800                       ; restore de=1.9671@30
;00:01:48.591: pe=0.9521 eb=0.0126 ve=30.0000 vn=0.7410 vl=0.000 db=0.36
G1 X22.00 Y53.50 E77.6044 F600          ; draw dl=1.50@0<10>0 l=0.30x0.50x1.00
;00:01:48.761: pe=0.9434 eb=0.0274 ve=0.0000 vn=0.5187 vl=0.000 db=0.53
G1 E75.6610 F2400                       ; retract de=-1.9434@40
;00:01:48.809: pe=-1.0023 eb=0.0296 ve=-40.0000 vn=0.0000 vl=0.000 db=0.55
G1 Z0.700 F420                          ; hopup dz=0.40@7 h=0.7
;00:01:48.867: pe=-1.0023 eb=0.0296 ve=0.0000 vn=0.0000 vl=0.000 db=0.36
G1 X24.00 Y55.00 F1500                  ; move dl=2.50@0<25>0 de=0.0000 h=0.7
;00:01:49.017: pe=-1.0023 eb=0.0000 ve=0.0000 vn=0.0000 vl=0.000 db=0.00
G1 Z0.300 F420                          ; hopdn dz=-0.40@7 h=0.3
;00:01:49.074: pe=-1.0023 eb=0.0000 ve=0.0000 vn=0.0000 vl=0.000 db=0.00
G1 E77.6280 F1800                       ; restore de=1.9670@30
;00:01:49.139: pe=0.9521 eb=0.0126 ve=30.0000 vn=0.7410 vl=0.000 db=0.36
G1 X24.00 Y53.50 E77.7215 F600          ; draw dl=1.50@0<10>0 l=0.30x0.50x1.00
;00:01:49.309: pe=0.9434 eb=0.0274 ve=0.0000 vn=0.5187 vl=0.000 db=0.53
G1 E75.7781 F2400                       ; retract de=-1.9434@40
;00:01:49.358: pe=-1.0023 eb=0.0296 ve=-40.0000 vn=0.0000 vl=0.000 db=0.55
G1 Z0.700 F420                          ; hopup dz=0.40@7 h=0.7
;00:01:49.415: pe=-1.0023 eb=0.0296 ve=0.0000 vn=0.0000 vl=0.000 db=0.36
G1 X26.00 Y55.00 F1500                  ; move dl=2.50@0<25>0 de=0.0000 h=0.7
;00:01:49.565: pe=-1.0023 eb=0.0000 ve=0.0000 vn=0.0000 vl=0.000 db=0.00
G1 Z0.300 F420                          ; hopdn dz=-0.40@7 h=0.3
;00:01:49.622: pe=-1.0023 eb=0.0000 ve=0.0000 vn=0.0000 vl=0.000 db=0.00
G1 E77.7451 F1800                       ; restore de=1.9670@30
;00:01:49.688: pe=0.9521 eb=0.0126 ve=30.0000 vn=0.7410 vl=0.000 db=0.36
G1 X26.00 Y53.50 E77.8386 F600          ; draw dl=1.50@0<10>0 l=0.30x0.50x1.00
;00:01:49.858: pe=0.9434 eb=0.0274 ve=0.0000 vn=0.5187 vl=0.000 db=0.53
G1 E75.8952 F2400                       ; retract de=-1.9434@40
;00:01:49.906: pe=-1.0023 eb=0.0296 ve=-40.0000 vn=0.0000 vl=0.000 db=0.55
G1 Z0.700 F420                          ; hopup dz=0.40@7 h=0.7
;00:01:49.963: pe=-1.0023 eb=0.0296 ve=0.0000 vn=0.0000 vl=0.000 db=0.36
G1 X28.00 Y55.00 F1500                  ; move dl=2.50@0<25>0 de=0.0000 h=0.7
;00:01:50.113: pe=-1.0023 eb=0.0000 ve=0.0000 vn=0.0000 vl=0.000 db=0.00
G1 Z0.300 F420                          ; hopdn dz=-0.40@7 h=0.3
;00:01:50.171: pe=-1.0023 eb=0.0000 ve=0.0000 vn=0.0000 vl=0.000 db=0.00
G1 E77.8622 F1800                       ; restore de=1.9670@30
;00:01:50.236: pe=0.9521 eb=0.0126 ve=30.0000 vn=0.7410 vl=0.000 db=0.36
G1 X28.00 Y53.50 E77.9557 F600          ; draw dl=1.50@0<10>0 l=0.30x0.50x1.00
;00:01:50.406: pe=0.9434 eb=0.0274 ve=0.0000 vn=0.5187 vl=0.000 db=0.53
G1 E76.0123 F2400                       ; retract de=-1.9434@40
;00:01:50.455: pe=-1.0023 eb=0.0296 ve=-40.0000 vn=0.0000 vl=0.000 db=0.55
G1 Z0.700 F420                          ; hopup dz=0.40@7 h=0.7
;00:01:50.512: pe=-1.0023 eb=0.0296 ve=0.0000 vn=0.0000 vl=0.000 db=0.36
G1 X30.00 Y55.00 F1500                  ; move dl=2.50@0<25>0 de=0.0000 h=0.7
;00:01:50.662: pe=-1.0023 eb=0.0000 ve=0.0000 vn=0.0000 vl=0.000 db=0.00
G1 Z0.300 F420                          ; hopdn dz=-0.40@7 h=0.3
;00:01:50.719: pe=-1.0023 eb=0.0000 ve=0.0000 vn=0.0000 vl=0.000 db=0.00
G1 E78.0068 F1800                       ; restore de=1.9945@30
;00:01:50.786: pe=0.9789 eb=0.0134 ve=30.0000 vn=0.7620 vl=0.000 db=0.37
G1 X30.00 Y52.00 E78.1938 F600          ; draw dl=3.00@0<10>0 l=0.30x0.50x1.00
;00:01:51.106: pe=0.9696 eb=0.0288 ve=0.0000 vn=0.5341 vl=0.000 db=0.54
G1 E76.2242 F2400                       ; retract de=-1.9696@40
;00:01:51.155: pe=-1.0024 eb=0.0312 ve=-40.0000 vn=0.0000 vl=0.000 db=0.56
G1 Z0.700 F420                          ; hopup dz=0.40@7 h=0.7
;00:01:51.212: pe=-1.0024 eb=0.0312 ve=0.0000 vn=0.0000 vl=0.000 db=0.37
G1 X32.00 Y55.00 F1801                  ; move dl=3.61@0<30>0 de=0.0000 h=0.7
;00:01:51.392: pe=-1.0024 eb=0.0000 ve=0.0000 vn=0.0000 vl=0.000 db=0.00
G1 Z0.300 F420                          ; hopdn dz=-0.40@7 h=0.3
;00:01:51.449: pe=-1.0024 eb=0.0000 ve=0.0000 vn=0.0000 vl=0.000 db=0.00
G1 E78.1913 F1800                       ; restore de=1.9671@30
;00:01:51.515: pe=0.9521 eb=0.0126 ve=30.0000 vn=0.7410 vl=0.000 db=0.36
G1 X32.00 Y53.50 E78.2849 F600          ; draw dl=1.50@0<10>0 l=0.30x0.50x1.00
;00:01:51.685: pe=0.9434 eb=0.0274 ve=0.0000 vn=0.5187 vl=0.000 db=0.53
G1 E76.3415 F2400                       ; retract de=-1.9434@40
;00:01:51.733: pe=-1.0023 eb=0.0296 ve=-40.0000 vn=0.0000 vl=0.000 db=0.55
G1 Z0.700 F420                          ; hopup dz=0.40@7 h=0.7
;00:01:51.790: pe=-1.0023 eb=0.0296 ve=0.0000 vn=0.0000 vl=0.000 db=0.36
G1 X34.00 Y55.00 F1500                  ; move dl=2.50@0<25>0 de=0.0000 h=0.7
;00:01:51.940: pe=-1.0023 eb=0.0000 ve=0.0000 vn=0.0000 vl=0.000 db=0.00
G1 Z0.300 F420                          ; hopdn dz=-0.40@7 h=0.3
;00:01:51.998: pe=-1.0023 eb=0.0000 ve=0.0000 vn=0.0000 vl=0.000 db=0.00
G1 E78.3084 F1800                       ; restore de=1.9670@30
;00:01:52.063: pe=0.9521 eb=0.0126 ve=30.0000 vn=0.7410 vl=0.000 db=0.36
G1 X34.00 Y53.50 E78.4020 F600          ; draw dl=1.50@0<10>0 l=0.30x0.50x1.00
;00:01:52.233: pe=0.9434 eb=0.0274 ve=0.0000 vn=0.5187 vl=0.000 db=0.53
G1 E76.4586 F2400                       ; retract de=-1.9434@40
;00:01:52.282: pe=-1.0023 eb=0.0296 ve=-40.0000 vn=0.0000 vl=0.000 db=0.55
G1 Z0.700 F420                          ; hopup dz=0.40@7 h=0.7
;00:01:52.339: pe=-1.0023 eb=0.0296 ve=0.0000 vn=0.0000 vl=0.000 db=0.36
G1 X36.00 Y55.00 F1500                  ; move dl=2.50@0<25>0 de=0.0000 h=0.7
;00:01:52.489: pe=-1.0023 eb=0.0000 ve=0.0000 vn=0.0000 vl=0.000 db=0.00
G1 Z0.300 F420                          ; hopdn dz=-0.40@7 h=0.3
;00:01:52.546: pe=-1.0023 eb=0.0000 ve=0.0000 vn=0.0000 vl=0.000 db=0.00
G1 E78.4255 F1800                       ; restore de=1.9670@30
;00:01:52.612: pe=0.9521 eb=0.0126 ve=30.0000 vn=0.7410 vl=0.000 db=0.36
G1 X36.00 Y53.50 E78.5191 F600          ; draw dl=1.50@0<10>0 l=0.30x0.50x1.00
;00:01:52.782: pe=0.9434 eb=0.0274 ve=0.0000 vn=0.5187 vl=0.000 db=0.53
G1 E76.5757 F2400                       ; retract de=-1.9434@40
;00:01:52.830: pe=-1.0023 eb=0.0296 ve=-40.0000 vn=0.0000 vl=0.000 db=0.55
G1 Z0.700 F420                          ; hopup dz=0.40@7 h=0.7
;00:01:52.887: pe=-1.0023 eb=0.0296 ve=0.0000 vn=0.0000 vl=0.000 db=0.36
G1 X38.00 Y55.00 F1500                  ; move dl=2.50@0<25>0 de=0.0000 h=0.7
;00:01:53.037: pe=-1.0023 eb=0.0000 ve=0.0000 vn=0.0000 vl=0.000 db=0.00
G1 Z0.300 F420                          ; hopdn dz=-0.40@7 h=0.3
;00:01:53.094: pe=-1.0023 eb=0.0000 ve=0.0000 vn=0.0000 vl=0.000 db=0.00
G1 E78.5426 F1800                       ; restore de=1.9670@30
;00:01:53.160: pe=0.9521 eb=0.0126 ve=30.0000 vn=0.7410 vl=0.000 db=0.36
G1 X38.00 Y53.50 E78.6362 F600          ; draw dl=1.50@0<10>0 l=0.30x0.50x1.00
;00:01:53.330: pe=0.9434 eb=0.0274 ve=0.0000 vn=0.5187 vl=0.000 db=0.53
G1 E76.6927 F2400                       ; retract de=-1.9434@40
;00:01:53.379: pe=-1.0023 eb=0.0296 ve=-40.0000 vn=0.0000 vl=0.000 db=0.55
G1 Z0.700 F420                          ; hopup dz=0.40@7 h=0.7
;00:01:53.436: pe=-1.0023 eb=0.0296 ve=0.0000 vn=0.0000 vl=0.000 db=0.36
G1 X40.00 Y55.00 F1500                  ; move dl=2.50@0<25>0 de=0.0000 h=0.7
;00:01:53.586: pe=-1.0023 eb=0.0000 ve=0.0000 vn=0.0000 vl=0.000 db=0.00
G1 Z0.300 F420                          ; hopdn dz=-0.40@7 h=0.3
;00:01:53.643: pe=-1.0023 eb=0.0000 ve=0.0000 vn=0.0000 vl=0.000 db=0.00
G1 E78.6872 F1800                       ; restore de=1.9945@30
;00:01:53.709: pe=0.9789 eb=0.0134 ve=30.0000 vn=0.7620 vl=0.000 db=0.37
G1 X40.00 Y52.00 E78.8743 F600          ; draw dl=3.00@0<10>0 l=0.30x0.50x1.00
;00:01:54.029: pe=0.9696 eb=0.0288 ve=0.0000 vn=0.5341 vl=0.000 db=0.54
G1 E76.9047 F2400                       ; retract de=-1.9696@40
;00:01:54.079: pe=-1.0024 eb=0.0312 ve=-40.0000 vn=0.0000 vl=0.000 db=0.56
G1 Z0.700 F420                          ; hopup dz=0.40@7 h=0.7
;00:01:54.136: pe=-1.0024 eb=0.0312 ve=0.0000 vn=0.0000 vl=0.000 db=0.37
;structure:infill-solid
;00:01:54.136: Test Line StartStop Kf=0.0 Kb=1.0 Re=0.5 vx=60 re=0.0
;00:01:54.136: setting config Kf=0.0 Kb=1.0 Re=0.5
G1 X-45.00 Y51.00 F6000                 ; move dl=85.01@0<100>0 de=0.0000 h=0.7
;00:01:55.186: pe=-1.0024 eb=0.0000 ve=0.0000 vn=0.0000 vl=0.000 db=0.00
G1 Z0.300 F420                          ; hopdn dz=-0.40@7 h=0.3
;00:01:55.243: pe=-1.0024 eb=0.0000 ve=0.0000 vn=0.0000 vl=0.000 db=0.00
G1 E78.4316 F1800                       ; restore de=1.5269@30
;00:01:55.294: pe=0.4808 eb=0.0437 ve=30.0000 vn=0.0000 vl=0.000 db=0.67
G1 X-40.00 Y51.00 E78.7434 F60          ; draw dl=5.00@0<1>1 l=0.30x0.50x1.00
;00:02:00.295: pe=0.4978 eb=0.0243 ve=0.0624 vn=0.0000 vl=1.000 db=0.50
G1 X-30.00 Y51.00                       ; move dl=10.00@1<1>0 de=0.0000 h=0.3
;00:02:10.296: pe=0.1499 eb=0.0025 ve=0.0000 vn=0.0000 vl=0.000 db=0.16
G1 E79.1179 F1800                       ; restore de=0.3746@30
;00:02:10.308: pe=0.4896 eb=0.0374 ve=30.0000 vn=0.0000 vl=0.000 db=0.62
G1 X20.00 Y51.00 E82.2361 F3600         ; draw dl=50.00@0<60>0 l=0.30x0.50x1.00
;00:02:11.262: pe=0.4040 eb=0.0176 ve=0.0000 vn=0.0000 vl=0.000 db=0.42
G1 E81.3321 F2400                       ; retract de=-0.9040@40
;00:02:11.284: pe=-0.5000 eb=0.0176 ve=-40.0000 vn=0.0000 vl=0.000 db=0.42
G1 X30.00 Y51.00 F60                    ; move dl=10.00@0<1>1 de=0.0000 h=0.3
;00:02:21.285: pe=-0.5000 eb=0.0000 ve=0.0000 vn=0.0000 vl=1.000 db=0.00
G1 X31.00 Y51.00 E81.4566               ; draw dl=1.00@1<1>1 l=0.30x0.50x2.00
;00:02:22.285: pe=-0.3755 eb=0.0000 ve=0.1245 vn=0.0000 vl=1.000 db=0.00
G1 X45.00 Y51.00 E82.8566               ; draw dl=14.00@1<1>0 l=0.30x0.50x1.60
;00:02:36.286: pe=0.5573 eb=0.0306 ve=0.0000 vn=0.0000 vl=0.000 db=0.56
G1 E81.7993 F2400                       ; retract de=-1.0573@40
;00:02:36.313: pe=-0.5000 eb=0.0306 ve=-40.0000 vn=0.0000 vl=0.000 db=0.56
G1 Z0.700 F420                          ; hopup dz=0.40@7 h=0.7
;00:02:36.370: pe=-0.5000 eb=0.0306 ve=0.0000 vn=0.0000 vl=0.000 db=0.37
;00:02:36.370: restoring config Kf=0.8 Kb=1.0 Re=1.0
;00:02:36.370: Test Line StartStop Kf=0.1 Kb=1.0 Re=0.5 vx=60 re=0.0
;00:02:36.370: setting config Kf=0.1 Kb=1.0 Re=0.5
G1 X-45.00 Y49.00 F6000                 ; move dl=90.02@0<100>0 de=0.0000 h=0.7
;00:02:37.470: pe=-0.5000 eb=0.0000 ve=0.0000 vn=0.0000 vl=0.000 db=0.00
G1 Z0.300 F420                          ; hopdn dz=-0.40@7 h=0.3
;00:02:37.527: pe=-0.5000 eb=0.0000 ve=0.0000 vn=0.0000 vl=0.000 db=0.00
G1 E82.8301 F1800                       ; restore de=1.0307@30
;00:02:37.562: pe=0.5162 eb=0.0145 ve=30.0000 vn=1.3106 vl=0.000 db=0.39
G1 X-40.00 Y49.00 E83.1419 F60          ; draw dl=5.00@0<1>1 l=0.30x0.50x1.00
;00:02:42.563: pe=0.5063 eb=0.0245 ve=0.0624 vn=0.0624 vl=1.000 db=0.50
G1 X-30.00 Y49.00                       ; move dl=10.00@1<1>0 de=0.0000 h=0.3
;00:02:52.564: pe=0.1577 eb=0.0024 ve=0.0000 vn=0.0132 vl=0.000 db=0.16
G1 E83.8357 F1800                       ; restore de=0.6938@30
;00:02:52.587: pe=0.8182 eb=0.0358 ve=30.0000 vn=2.1407 vl=0.000 db=0.60
G1 X20.00 Y49.00 E86.9538 F3600         ; draw dl=50.00@0<60>0 l=0.30x0.50x1.00
;00:02:53.540: pe=0.8098 eb=0.0565 ve=0.0000 vn=0.5009 vl=0.000 db=0.76
G1 E85.6440 F2400                       ; retract de=-1.3098@40
;00:02:53.573: pe=-0.5001 eb=0.0566 ve=-40.0000 vn=0.0000 vl=0.000 db=0.76
G1 X30.00 Y49.00 F60                    ; move dl=10.00@0<1>1 de=0.0000 h=0.3
;00:03:03.574: pe=-0.5001 eb=0.0000 ve=0.0000 vn=0.0000 vl=1.000 db=0.00
G1 X31.00 Y49.00 E85.7685               ; draw dl=1.00@1<1>1 l=0.30x0.50x2.00
;00:03:04.574: pe=-0.3756 eb=0.0000 ve=0.1245 vn=0.0000 vl=1.000 db=0.00
G1 X45.00 Y49.00 E87.1685               ; draw dl=14.00@1<1>0 l=0.30x0.50x1.60
;00:03:18.575: pe=0.5639 eb=0.0304 ve=0.0000 vn=0.0651 vl=0.000 db=0.56
G1 E86.1046 F2400                       ; retract de=-1.0639@40
;00:03:18.601: pe=-0.5000 eb=0.0304 ve=-40.0000 vn=0.0000 vl=0.000 db=0.56
G1 Z0.700 F420                          ; hopup dz=0.40@7 h=0.7
;00:03:18.659: pe=-0.5000 eb=0.0304 ve=0.0000 vn=0.0000 vl=0.000 db=0.36
;00:03:18.659: restoring config Kf=0.8 Kb=1.0 Re=1.0
;00:03:18.659: Test Line StartStop Kf=0.2 Kb=1.0 Re=0.5 vx=60 re=0.0
;00:03:18.659: setting config Kf=0.2 Kb=1.0 Re=0.5
G1 X-45.00 Y47.00 F6000                 ; move dl=90.02@0<100>0 de=0.0000 h=0.7
;00:03:19.759: pe=-0.5000 eb=0.0000 ve=0.0000 vn=0.0000 vl=0.000 db=0.00
G1 Z0.300 F420                          ; hopdn dz=-0.40@7 h=0.3
;00:03:19.816: pe=-0.5000 eb=0.0000 ve=0.0000 vn=0.0000 vl=0.000 db=0.00
G1 E87.1416 F1800                       ; restore de=1.0370@30
;00:03:19.850: pe=0.5265 eb=0.0105 ve=30.0000 vn=0.9981 vl=0.000 db=0.33
G1 X-40.00 Y47.00 E87.4534 F60          ; draw dl=5.00@0<1>1 l=0.30x0.50x1.00
;00:03:24.851: pe=0.5126 eb=0.0245 ve=0.0624 vn=0.0624 vl=1.000 db=0.50
G1 X-30.00 Y47.00                       ; move dl=10.00@1<1>0 de=0.0000 h=0.3
;00:03:34.852: pe=0.1618 eb=0.0025 ve=0.0000 vn=0.0162 vl=0.000 db=0.16
G1 E88.4702 F1800                       ; restore de=1.0168@30
;00:03:34.886: pe=1.1337 eb=0.0474 ve=30.0000 vn=2.1915 vl=0.000 db=0.70
G1 X20.00 Y47.00 E91.5884 F3600         ; draw dl=50.00@0<60>0 l=0.30x0.50x1.00
;00:03:35.840: pe=1.1338 eb=0.0818 ve=0.0000 vn=1.0995 vl=0.000 db=0.91
G1 E89.9545 F2400                       ; retract de=-1.6338@40
;00:03:35.881: pe=-0.5023 eb=0.0841 ve=-40.0000 vn=0.0000 vl=0.000 db=0.93
G1 X30.00 Y47.00 F60                    ; move dl=10.00@0<1>1 de=0.0000 h=0.3
;00:03:45.882: pe=-0.5023 eb=0.0000 ve=0.0000 vn=0.0000 vl=1.000 db=0.00
G1 X31.00 Y47.00 E90.0790               ; draw dl=1.00@1<1>1 l=0.30x0.50x2.00
;00:03:46.882: pe=-0.3778 eb=0.0000 ve=0.1245 vn=0.0000 vl=1.000 db=0.00
G1 X45.00 Y47.00 E91.4790               ; draw dl=14.00@1<1>0 l=0.30x0.50x1.60
;00:04:00.883: pe=0.5671 eb=0.0300 ve=0.0000 vn=0.0682 vl=0.000 db=0.55
G1 E90.4119 F2400                       ; retract de=-1.0671@40
;00:04:00.909: pe=-0.5000 eb=0.0300 ve=-40.0000 vn=0.0000 vl=0.000 db=0.55
G1 Z0.700 F420                          ; hopup dz=0.40@7 h=0.7
;00:04:00.966: pe=-0.5000 eb=0.0300 ve=0.0000 vn=0.0000 vl=0.000 db=0.36
;00:04:00.966: restoring config Kf=0.8 Kb=1.0 Re=1.0
;00:04:00.966: Test Line StartStop Kf=0.3 Kb=1.0 Re=0.5 vx=60 re=0.0
;00:04:00.966: setting config Kf=0.3 Kb=1.0 Re=0.5
G1 X-45.00 Y45.00 F6000                 ; move dl=90.02@0<100>0 de=0.0000 h=0.7
;00:04:02.067: pe=-0.5000 eb=0.0000 ve=0.0000 vn=0.0000 vl=0.000 db=0.00
G1 Z0.300 F420                          ; hopdn dz=-0.40@7 h=0.3
;00:04:02.124: pe=-0.5000 eb=0.0000 ve=0.0000 vn=0.0000 vl=0.000 db=0.00
G1 E91.4551 F1800                       ; restore de=1.0432@30
;00:04:02.159: pe=0.5348 eb=0.0084 ve=30.0000 vn=0.8084 vl=0.000 db=0.29
G1 X-40.00 Y45.00 E91.7669 F60          ; draw dl=5.00@0<1>1 l=0.30x0.50x1.00
;00:04:07.160: pe=0.5190 eb=0.0245 ve=0.0624 vn=0.0624 vl=1.000 db=0.50
G1 X-30.00 Y45.00                       ; move dl=10.00@1<1>0 de=0.0000 h=0.3
;00:04:17.161: pe=0.1659 eb=0.0025 ve=0.0000 vn=0.0174 vl=0.000 db=0.16
G1 E93.1067 F1800                       ; restore de=1.3398@30
;00:04:17.205: pe=1.4484 eb=0.0599 ve=30.0000 vn=2.2213 vl=0.000 db=0.78
G1 X20.00 Y45.00 E96.2248 F3600         ; draw dl=50.00@0<60>0 l=0.30x0.50x1.00
;00:04:18.159: pe=1.4629 eb=0.0980 ve=0.0000 vn=1.5420 vl=0.000 db=1.00
G1 E94.2619 F2400                       ; retract de=-1.9629@40
;00:04:18.208: pe=-0.5072 eb=0.1052 ve=-40.0000 vn=0.0000 vl=0.000 db=1.04
G1 X30.00 Y45.00 F60                    ; move dl=10.00@0<1>1 de=0.0000 h=0.3
;00:04:28.209: pe=-0.5072 eb=0.0000 ve=0.0000 vn=0.0000 vl=1.000 db=0.00
G1 X31.00 Y45.00 E94.3864               ; draw dl=1.00@1<1>1 l=0.30x0.50x2.00
;00:04:29.209: pe=-0.3827 eb=0.0000 ve=0.1245 vn=0.0000 vl=1.000 db=0.00
G1 X45.00 Y45.00 E95.7864               ; draw dl=14.00@1<1>0 l=0.30x0.50x1.60
;00:04:43.210: pe=0.5695 eb=0.0295 ve=0.0000 vn=0.0688 vl=0.000 db=0.55
G1 E94.7169 F2400                       ; retract de=-1.0695@40
;00:04:43.236: pe=-0.5000 eb=0.0295 ve=-40.0000 vn=0.0000 vl=0.000 db=0.55
G1 Z0.700 F420                          ; hopup dz=0.40@7 h=0.7
;00:04:43.293: pe=-0.5000 eb=0.0295 ve=0.0000 vn=0.0000 vl=0.000 db=0.36
;00:04:43.293: restoring config Kf=0.8 Kb=1.0 Re=1.0
;00:04:43.293: Test Line StartStop Kf=0.4 Kb=1.0 Re=0.5 vx=60 re=0.0
;00:04:43.293: setting config Kf=0.4 Kb=1.0 Re=0.5
G1 X-45.00 Y43.00 F6000                 ; move dl=90.02@0<100>0 de=0.0000 h=0.7
;00:04:44.394: pe=-0.5000 eb=0.0000 ve=0.0000 vn=0.0000 vl=0.000 db=0.00
G1 Z0.300 F420                          ; hopdn dz=-0.40@7 h=0.3
;00:04:44.451: pe=-0.5000 eb=0.0000 ve=0.0000 vn=0.0000 vl=0.000 db=0.00
G1 E95.7663 F1800                       ; restore de=1.0494@30
;00:04:44.486: pe=0.5424 eb=0.0071 ve=30.0000 vn=0.6841 vl=0.000 db=0.27
G1 X-40.00 Y43.00 E96.0781 F60          ; draw dl=5.00@0<1>1 l=0.30x0.50x1.00
;00:04:49.487: pe=0.5253 eb=0.0245 ve=0.0624 vn=0.0624 vl=1.000 db=0.50
G1 X-30.00 Y43.00                       ; move dl=10.00@1<1>0 de=0.0000 h=0.3
;00:04:59.488: pe=0.1701 eb=0.0026 ve=0.0000 vn=0.0181 vl=0.000 db=0.16
G1 E97.7408 F1800                       ; restore de=1.6627@30
;00:04:59.543: pe=1.7625 eb=0.0729 ve=30.0000 vn=2.2491 vl=0.000 db=0.86
G1 X20.00 Y43.00 E100.8590 F3600        ; draw dl=50.00@0<60>0 l=0.30x0.50x1.00
;00:05:00.497: pe=1.7921 eb=0.1084 ve=0.0000 vn=1.8504 vl=0.000 db=1.05
G1 E98.5668 F2400                       ; retract de=-2.2921@40
;00:05:00.554: pe=-0.5139 eb=0.1223 ve=-40.0000 vn=0.0000 vl=0.000 db=1.12
G1 X30.00 Y43.00 F60                    ; move dl=10.00@0<1>1 de=0.0000 h=0.3
;00:05:10.555: pe=-0.5139 eb=0.0000 ve=0.0000 vn=0.0000 vl=1.000 db=0.00
G1 X31.00 Y43.00 E98.6913               ; draw dl=1.00@1<1>1 l=0.30x0.50x2.00
;00:05:11.555: pe=-0.3894 eb=0.0000 ve=0.1245 vn=0.0000 vl=1.000 db=0.00
G1 X45.00 Y43.00 E100.0913              ; draw dl=14.00@1<1>0 l=0.30x0.50x1.60
;00:05:25.556: pe=0.5713 eb=0.0290 ve=0.0000 vn=0.0688 vl=0.000 db=0.54
G1 E99.0200 F2400                       ; retract de=-1.0713@40
;00:05:25.583: pe=-0.5000 eb=0.0290 ve=-40.0000 vn=0.0000 vl=0.000 db=0.54
G1 Z0.700 F420                          ; hopup dz=0.40@7 h=0.7
;00:05:25.640: pe=-0.5000 eb=0.0290 ve=0.0000 vn=0.0000 vl=0.000 db=0.36
;00:05:25.640: restoring config Kf=0.8 Kb=1.0 Re=1.0
;00:05:25.640: Test Line StartStop Kf=0.5 Kb=1.0 Re=0.5 vx=60 re=0.0
;00:05:25.640: setting config Kf=0.5 Kb=1.0 Re=0.5
G1 X-45.00 Y41.00 F6000                 ; move dl=90.02@0<100>0 de=0.0000 h=0.7
;00:05:26.740: pe=-0.5000 eb=0.0000 ve=0.0000 vn=0.0000 vl=0.000 db=0.00
G1 Z0.300 F420                          ; hopdn dz=-0.40@7 h=0.3
;00:05:26.797: pe=-0.5000 eb=0.0000 ve=0.0000 vn=0.0000 vl=0.000 db=0.00
G1 E100.0757 F1800                      ; restore de=1.0557@30
;00:05:26.832: pe=0.5495 eb=0.0062 ve=30.0000 vn=0.5970 vl=0.000 db=0.25
G1 X-40.00 Y41.00 E100.3875 F60         ; draw dl=5.00@0<1>1 l=0.30x0.50x1.00
;00:05:31.833: pe=0.5317 eb=0.0245 ve=0.0624 vn=0.0624 vl=1.000 db=0.50
G1 X-30.00 Y41.00                       ; move dl=10.00@1<1>0 de=0.0000 h=0.3
;00:05:41.834: pe=0.1743 eb=0.0027 ve=0.0000 vn=0.0187 vl=0.000 db=0.16
G1 E102.3731 F1800                      ; restore de=1.9856@30
;00:05:41.901: pe=2.0762 eb=0.0863 ve=30.0000 vn=2.2753 vl=0.000 db=0.94
G1 X20.00 Y41.00 E105.4913 F3600        ; draw dl=50.00@0<60>0 l=0.30x0.50x1.00
;00:05:42.854: pe=2.1197 eb=0.1153 ve=0.0000 vn=2.0694 vl=0.000 db=1.08
G1 E102.8716 F2400                      ; retract de=-2.6197@40
;00:05:42.919: pe=-0.5218 eb=0.1371 ve=-40.0000 vn=0.0000 vl=0.000 db=1.18
G1 X30.00 Y41.00 F60                    ; move dl=10.00@0<1>1 de=0.0000 h=0.3
;00:05:52.920: pe=-0.5218 eb=0.0000 ve=0.0000 vn=0.0000 vl=1.000 db=0.00
G1 X31.00 Y41.00 E102.9961              ; draw dl=1.00@1<1>1 l=0.30x0.50x2.00
;00:05:53.920: pe=-0.3973 eb=0.0000 ve=0.1245 vn=0.0000 vl=1.000 db=0.00
G1 X45.00 Y41.00 E104.3961              ; draw dl=14.00@1<1>0 l=0.30x0.50x1.60
;00:06:07.921: pe=0.5726 eb=0.0284 ve=0.0000 vn=0.0685 vl=0.000 db=0.54
G1 E103.3235 F2400                      ; retract de=-1.0726@40
;00:06:07.948: pe=-0.5000 eb=0.0284 ve=-40.0000 vn=0.0000 vl=0.000 db=0.54
G1 Z0.700 F420                          ; hopup dz=0.40@7 h=0.7
;00:06:08.005: pe=-0.5000 eb=0.0284 ve=0.0000 vn=0.0000 vl=0.000 db=0.35
;00:06:08.005: restoring config Kf=0.8 Kb=1.0 Re=1.0
;00:06:08.005: Test Line StartStop Kf=0.6 Kb=1.0 Re=0.5 vx=60 re=0.0
;00:06:08.005: setting config Kf=0.6 Kb=1.0 Re=0.5
G1 X-45.00 Y39.00 F6000                 ; move dl=90.02@0<100>0 de=0.0000 h=0.7
;00:06:09.106: pe=-0.5000 eb=0.0000 ve=0.0000 vn=0.0000 vl=0.000 db=0.00
G1 Z0.300 F420                          ; hopdn dz=-0.40@7 h=0.3
;00:06:09.163: pe=-0.5000 eb=0.0000 ve=0.0000 vn=0.0000 vl=0.000 db=0.00
G1 E104.3854 F1800                      ; restore de=1.0619@30
;00:06:09.198: pe=0.5564 eb=0.0055 ve=30.0000 vn=0.5318 vl=0.000 db=0.24
G1 X-40.00 Y39.00 E104.6972 F60         ; draw dl=5.00@0<1>1 l=0.30x0.50x1.00
;00:06:14.199: pe=0.5381 eb=0.0245 ve=0.0624 vn=0.0624 vl=1.000 db=0.50
G1 X-30.00 Y39.00                       ; move dl=10.00@1<1>0 de=0.0000 h=0.3
;00:06:24.200: pe=0.1785 eb=0.0027 ve=0.0000 vn=0.0191 vl=0.000 db=0.17
G1 E107.0057 F1800                      ; restore de=2.3085@30
;00:06:24.277: pe=2.3898 eb=0.0999 ve=30.0000 vn=2.2997 vl=0.000 db=1.01
G1 X20.00 Y39.00 E110.1238 F3600        ; draw dl=50.00@0<60>0 l=0.30x0.50x1.00
;00:06:25.230: pe=2.4454 eb=0.1201 ve=0.0000 vn=2.2300 vl=0.000 db=1.11
G1 E107.1785 F2400                      ; retract de=-2.9454@40
;00:06:25.304: pe=-0.5304 eb=0.1505 ve=-40.0000 vn=0.0000 vl=0.000 db=1.24
G1 X30.00 Y39.00 F60                    ; move dl=10.00@0<1>1 de=0.0000 h=0.3
;00:06:35.305: pe=-0.5304 eb=0.0000 ve=0.0000 vn=0.0000 vl=1.000 db=0.00
G1 X31.00 Y39.00 E107.3030              ; draw dl=1.00@1<1>1 l=0.30x0.50x2.00
;00:06:36.305: pe=-0.4059 eb=0.0000 ve=0.1245 vn=0.0000 vl=1.000 db=0.00
G1 X45.00 Y39.00 E108.7030              ; draw dl=14.00@1<1>0 l=0.30x0.50x1.60
;00:06:50.306: pe=0.5735 eb=0.0278 ve=0.0000 vn=0.0681 vl=0.000 db=0.53
G1 E107.6295 F2400                      ; retract de=-1.0735@40
;00:06:50.333: pe=-0.5000 eb=0.0278 ve=-40.0000 vn=0.0000 vl=0.000 db=0.53
G1 Z0.700 F420                          ; hopup dz=0.40@7 h=0.7
;00:06:50.390: pe=-0.5000 eb=0.0278 ve=0.0000 vn=0.0000 vl=0.000 db=0.35
;00:06:50.390: restoring config Kf=0.8 Kb=1.0 Re=1.0
;00:06:50.390: Test Line StartStop Kf=0.7 Kb=1.0 Re=0.5 vx=60 re=0.0
;00:06:50.390: setting config Kf=0.7 Kb=1.0 Re=0.5
G1 X-45.00 Y37.00 F6000                 ; move dl=90.02@0<100>0 de=0.0000 h=0.7
;00:06:51.490: pe=-0.5000 eb=0.0000 ve=0.0000 vn=0.0000 vl=0.000 db=0.00
G1 Z0.300 F420                          ; hopdn dz=-0.40@7 h=0.3
;00:06:51.547: pe=-0.5000 eb=0.0000 ve=0.0000 vn=0.0000 vl=0.000 db=0.00
G1 E108.6976 F1800                      ; restore de=1.0681@30
;00:06:51.583: pe=0.5631 eb=0.0050 ve=30.0000 vn=0.4811 vl=0.000 db=0.23
G1 X-40.00 Y37.00 E109.0094 F60         ; draw dl=5.00@0<1>1 l=0.30x0.50x1.00
;00:06:56.584: pe=0.5444 eb=0.0246 ve=0.0624 vn=0.0624 vl=1.000 db=0.50
G1 X-30.00 Y37.00                       ; move dl=10.00@1<1>0 de=0.0000 h=0.3
;00:07:06.585: pe=0.1827 eb=0.0028 ve=0.0000 vn=0.0195 vl=0.000 db=0.17
G1 E111.6407 F1800                      ; restore de=2.6313@30
;00:07:06.673: pe=2.7031 eb=0.1137 ve=30.0000 vn=2.3222 vl=0.000 db=1.08
G1 X20.00 Y37.00 E114.7589 F3600        ; draw dl=50.00@0<60>0 l=0.30x0.50x1.00
;00:07:07.626: pe=2.7693 eb=0.1236 ve=0.0000 vn=2.3515 vl=0.000 db=1.12
G1 E111.4896 F2400                      ; retract de=-3.2693@40
;00:07:07.708: pe=-0.5394 eb=0.1630 ve=-40.0000 vn=0.0000 vl=0.000 db=1.29
G1 X30.00 Y37.00 F60                    ; move dl=10.00@0<1>1 de=0.0000 h=0.3
;00:07:17.709: pe=-0.5394 eb=0.0000 ve=0.0000 vn=0.0000 vl=1.000 db=0.00
G1 X31.00 Y37.00 E111.6141              ; draw dl=1.00@1<1>1 l=0.30x0.50x2.00
;00:07:18.709: pe=-0.4149 eb=0.0000 ve=0.1245 vn=0.0000 vl=1.000 db=0.00
G1 X45.00 Y37.00 E113.0141              ; draw dl=14.00@1<1>0 l=0.30x0.50x1.60
;00:07:32.710: pe=0.5741 eb=0.0272 ve=0.0000 vn=0.0675 vl=0.000 db=0.53
G1 E111.9399 F2400                      ; retract de=-1.0741@40
;00:07:32.737: pe=-0.5000 eb=0.0272 ve=-40.0000 vn=0.0000 vl=0.000 db=0.53
G1 Z0.700 F420                          ; hopup dz=0.40@7 h=0.7
;00:07:32.794: pe=-0.5000 eb=0.0272 ve=0.0000 vn=0.0000 vl=0.000 db=0.34
;00:07:32.794: restoring config Kf=0.8 Kb=1.0 Re=1.0
;00:07:32.794: Test Line StartStop Kf=0.8 Kb=1.0 Re=0.5 vx=60 re=0.0
;00:07:32.794: setting config Kf=0.8 Kb=1.0 Re=0.5
G1 X-45.00 Y35.00 F6000                 ; move dl=90.02@0<100>0 de=0.0000 h=0.7
;00:07:33.894: pe=-0.5000 eb=0.0000 ve=0.0000 vn=0.0000 vl=0.000 db=0.00
G1 Z0.300 F420                          ; hopdn dz=-0.40@7 h=0.3
;00:07:33.951: pe=-0.5000 eb=0.0000 ve=0.0000 vn=0.0000 vl=0.000 db=0.00
G1 E113.0143 F1800                      ; restore de=1.0744@30
;00:07:33.987: pe=0.5697 eb=0.0046 ve=30.0000 vn=0.4405 vl=0.000 db=0.22
G1 X-40.00 Y35.00 E113.3261 F60         ; draw dl=5.00@0<1>1 l=0.30x0.50x1.00
;00:07:38.988: pe=0.5508 eb=0.0246 ve=0.0624 vn=0.0625 vl=1.000 db=0.50
G1 X-30.00 Y35.00                       ; move dl=10.00@1<1>0 de=0.0000 h=0.3
;00:07:48.989: pe=0.1870 eb=0.0029 ve=0.0000 vn=0.0199 vl=0.000 db=0.17
G1 E116.2803 F1800                      ; restore de=2.9541@30
;00:07:49.087: pe=3.0162 eb=0.1277 ve=30.0000 vn=2.3429 vl=0.000 db=1.14
G1 X20.00 Y35.00 E119.3984 F3600        ; draw dl=50.00@0<60>0 l=0.30x0.50x1.00
;00:07:50.041: pe=3.0916 eb=0.1262 ve=0.0000 vn=2.4459 vl=0.000 db=1.13
G1 E115.8068 F2400                      ; retract de=-3.5916@40
;00:07:50.130: pe=-0.5487 eb=0.1749 ve=-40.0000 vn=0.0000 vl=0.000 db=1.34
G1 X30.00 Y35.00 F60                    ; move dl=10.00@0<1>1 de=0.0000 h=0.3
;00:08:00.131: pe=-0.5487 eb=0.0000 ve=0.0000 vn=0.0000 vl=1.000 db=0.00
G1 X31.00 Y35.00 E115.9313              ; draw dl=1.00@1<1>1 l=0.30x0.50x2.00
;00:08:01.131: pe=-0.4242 eb=0.0000 ve=0.1245 vn=0.0000 vl=1.000 db=0.00
G1 X45.00 Y35.00 E117.3313              ; draw dl=14.00@1<1>0 l=0.30x0.50x1.60
;00:08:15.132: pe=0.5745 eb=0.0266 ve=0.0000 vn=0.0669 vl=0.000 db=0.52
G1 E116.2568 F2400                      ; retract de=-1.0745@40
;00:08:15.159: pe=-0.5000 eb=0.0266 ve=-40.0000 vn=0.0000 vl=0.000 db=0.52
G1 Z0.700 F420                          ; hopup dz=0.40@7 h=0.7
;00:08:15.216: pe=-0.5000 eb=0.0266 ve=0.0000 vn=0.0000 vl=0.000 db=0.34
;00:08:15.216: restoring config Kf=0.8 Kb=1.0 Re=1.0
;00:08:15.216: Test Line StartStop Kf=0.9 Kb=1.0 Re=0.5 vx=60 re=0.0
;00:08:15.216: setting config Kf=0.9 Kb=1.0 Re=0.5
G1 X-45.00 Y33.00 F6000                 ; move dl=90.02@0<100>0 de=0.0000 h=0.7
;00:08:16.317: pe=-0.5000 eb=0.0000 ve=0.0000 vn=0.0000 vl=0.000 db=0.00
G1 Z0.300 F420                          ; hopdn dz=-0.40@7 h=0.3
;00:08:16.374: pe=-0.5000 eb=0.0000 ve=0.0000 vn=0.0000 vl=0.000 db=0.00
G1 E117.3374 F1800                      ; restore de=1.0806@30
;00:08:16.410: pe=0.5763 eb=0.0043 ve=30.0000 vn=0.4072 vl=0.000 db=0.21
G1 X-40.00 Y33.00 E117.6492 F60         ; draw dl=5.00@0<1>1 l=0.30x0.50x1.00
;00:08:21.411: pe=0.5571 eb=0.0246 ve=0.0624 vn=0.0625 vl=1.000 db=0.50
G1 X-30.00 Y33.00                       ; move dl=10.00@1<1>0 de=0.0000 h=0.3
;00:08:31.412: pe=0.1913 eb=0.0029 ve=0.0000 vn=0.0202 vl=0.000 db=0.17
G1 E120.9261 F1800                      ; restore de=3.2769@30
;00:08:31.521: pe=3.3293 eb=0.1419 ve=30.0000 vn=2.3620 vl=0.000 db=1.20
G1 X20.00 Y33.00 E124.0442 F3600        ; draw dl=50.00@0<60>0 l=0.30x0.50x1.00
;00:08:32.474: pe=3.4126 eb=0.1281 ve=0.0000 vn=2.5210 vl=0.000 db=1.14
G1 E120.1316 F2400                      ; retract de=-3.9126@40
;00:08:32.572: pe=-0.5582 eb=0.1864 ve=-40.0000 vn=0.0000 vl=0.000 db=1.38
G1 X30.00 Y33.00 F60                    ; move dl=10.00@0<1>1 de=0.0000 h=0.3
;00:08:42.573: pe=-0.5582 eb=0.0000 ve=0.0000 vn=0.0000 vl=1.000 db=0.00
G1 X31.00 Y33.00 E120.2561              ; draw dl=1.00@1<1>1 l=0.30x0.50x2.00
;00:08:43.573: pe=-0.4337 eb=0.0000 ve=0.1245 vn=0.0000 vl=1.000 db=0.00
G1 X45.00 Y33.00 E121.6561              ; draw dl=14.00@1<1>0 l=0.30x0.50x1.60
;00:08:57.574: pe=0.5747 eb=0.0260 ve=0.0000 vn=0.0663 vl=0.000 db=0.52
G1 E120.5814 F2400                      ; retract de=-1.0747@40
;00:08:57.601: pe=-0.5000 eb=0.0260 ve=-40.0000 vn=0.0000 vl=0.000 db=0.52
G1 Z0.700 F420                          ; hopup dz=0.40@7 h=0.7
;00:08:57.658: pe=-0.5000 eb=0.0260 ve=0.0000 vn=0.0000 vl=0.000 db=0.34
;00:08:57.658: restoring config Kf=0.8 Kb=1.0 Re=1.0
;00:08:57.658: Test Line StartStop Kf=1.0 Kb=1.0 Re=0.5 vx=60 re=0.0
;00:08:57.658: setting config Kf=1.0 Kb=1.0 Re=0.5
G1 X-45.00 Y31.00 F6000                 ; move dl=90.02@0<100>0 de=0.0000 h=0.7
;00:08:58.758: pe=-0.5000 eb=0.0000 ve=0.0000 vn=0.0000 vl=0.000 db=0.00
G1 Z0.300 F420                          ; hopdn dz=-0.40@7 h=0.3
;00:08:58.816: pe=-0.5000 eb=0.0000 ve=0.0000 vn=0.0000 vl=0.000 db=0.00
G1 E121.6683 F1800                      ; restore de=1.0869@30
;00:08:58.852: pe=0.5828 eb=0.0040 ve=30.0000 vn=0.3795 vl=0.000 db=0.20
G1 X-40.00 Y31.00 E121.9801 F60         ; draw dl=5.00@0<1>1 l=0.30x0.50x1.00
;00:09:03.853: pe=0.5635 eb=0.0246 ve=0.0624 vn=0.0625 vl=1.000 db=0.50
G1 X-30.00 Y31.00                       ; move dl=10.00@1<1>0 de=0.0000 h=0.3
;00:09:13.854: pe=0.1956 eb=0.0030 ve=0.0000 vn=0.0205 vl=0.000 db=0.18
G1 E125.5798 F1800                      ; restore de=3.5997@30
;00:09:13.974: pe=3.6421 eb=0.1561 ve=30.0000 vn=2.3796 vl=0.000 db=1.26
G1 X20.00 Y31.00 E128.6979 F3600        ; draw dl=50.00@0<60>0 l=0.30x0.50x1.00
;00:09:14.927: pe=3.7325 eb=0.1297 ve=0.0000 vn=2.5820 vl=0.000 db=1.15
G1 E124.4654 F2400                      ; retract de=-4.2325@40
;00:09:15.033: pe=-0.5679 eb=0.1975 ve=-40.0000 vn=0.0000 vl=0.000 db=1.42
G1 X30.00 Y31.00 F60                    ; move dl=10.00@0<1>1 de=0.0000 h=0.3
;00:09:25.034: pe=-0.5679 eb=0.0000 ve=0.0000 vn=0.0000 vl=1.000 db=0.00
G1 X31.00 Y31.00 E124.5899              ; draw dl=1.00@1<1>1 l=0.30x0.50x2.00
;00:09:26.034: pe=-0.4434 eb=0.0000 ve=0.1245 vn=0.0000 vl=1.000 db=0.00
G1 X45.00 Y31.00 E125.9899              ; draw dl=14.00@1<1>0 l=0.30x0.50x1.60
;00:09:40.035: pe=0.5747 eb=0.0254 ve=0.0000 vn=0.0656 vl=0.000 db=0.51
G1 E124.9152 F2400                      ; retract de=-1.0747@40
;00:09:40.062: pe=-0.5000 eb=0.0254 ve=-40.0000 vn=0.0000 vl=0.000 db=0.51
G1 Z0.700 F420                          ; hopup dz=0.40@7 h=0.7
;00:09:40.119: pe=-0.5000 eb=0.0254 ve=0.0000 vn=0.0000 vl=0.000 db=0.33
;00:09:40.119: restoring config Kf=0.8 Kb=1.0 Re=1.0
;structure:brim
;00:09:40.119: text x0=46.0 y0=55 fsize=5 angle=0 'Kf=0.0-1.0\nKb=1.0\nRe=0.5\nvx=60\nre=0.0'
G1 X46.50 Y54.88 F4641                  ; move dl=23.93@0<77>0 de=0.0000 h=0.7
;00:09:40.583: pe=-0.5000 eb=0.0000 ve=0.0000 vn=0.0000 vl=0.000 db=0.00
G1 Z0.300 F420                          ; hopdn dz=-0.40@7 h=0.3
;00:09:40.640: pe=-0.5000 eb=0.0000 ve=0.0000 vn=0.0000 vl=0.000 db=0.00
G1 E126.4109 F1800                      ; restore de=1.4957@30
;00:09:40.690: pe=0.9822 eb=0.0134 ve=30.0000 vn=0.7646 vl=0.000 db=0.37
G1 X46.50 Y51.48 E126.6230 F600         ; draw dl=3.40@0<10>0 l=0.30x0.50x1.00
;00:09:41.050: pe=0.9729 eb=0.0290 ve=0.0000 vn=0.5361 vl=0.000 db=0.54
G1 E124.6501 F2400                      ; retract de=-1.9729@40
;00:09:41.099: pe=-1.0024 eb=0.0314 ve=-40.0000 vn=0.0000 vl=0.000 db=0.57
G1 Z0.700 F420                          ; hopup dz=0.40@7 h=0.7
;00:09:41.157: pe=-1.0024 eb=0.0314 ve=0.0000 vn=0.0000 vl=0.000 db=0.37
G1 X48.96 Y51.48 F1488                  ; move dl=2.46@0<25>0 de=0.0000 h=0.7
;00:09:41.305: pe=-1.0024 eb=0.0000 ve=0.0000 vn=0.0000 vl=0.000 db=0.00
G1 Z0.300 F420                          ; hopdn dz=-0.40@7 h=0.3
;00:09:41.362: pe=-1.0024 eb=0.0000 ve=0.0000 vn=0.0000 vl=0.000 db=0.00
G1 E126.6392 F1800                      ; restore de=1.9891@30
;00:09:41.429: pe=0.9735 eb=0.0132 ve=30.0000 vn=0.7578 vl=0.000 db=0.37
G1 X47.47 Y53.51 E126.7962 F600         ; draw dl=2.52@0<10>0 l=0.30x0.50x1.00
;00:09:41.701: pe=0.9644 eb=0.0285 ve=0.0000 vn=0.5310 vl=0.000 db=0.54
G1 E124.8319 F2400                      ; retract de=-1.9644@40
;00:09:41.750: pe=-1.0024 eb=0.0309 ve=-40.0000 vn=0.0000 vl=0.000 db=0.56
G1 Z0.700 F420                          ; hopup dz=0.40@7 h=0.7
;00:09:41.807: pe=-1.0024 eb=0.0309 ve=0.0000 vn=0.0000 vl=0.000 db=0.37
G1 X46.50 Y52.67 F1075                  ; move dl=1.28@0<18>0 de=0.0000 h=0.7
;00:09:41.914: pe=-1.0024 eb=0.0000 ve=0.0000 vn=0.0000 vl=0.000 db=0.00
G1 Z0.300 F420                          ; hopdn dz=-0.40@7 h=0.3
;00:09:41.971: pe=-1.0024 eb=0.0000 ve=0.0000 vn=0.0000 vl=0.000 db=0.00
G1 E126.8295 F1800                      ; restore de=1.9977@30
;00:09:42.038: pe=0.9819 eb=0.0134 ve=30.0000 vn=0.7644 vl=0.000 db=0.37
G1 X49.02 Y54.88 E127.0385 F600         ; draw dl=3.35@0<10>0 l=0.30x0.50x1.00
;00:09:42.393: pe=0.9725 eb=0.0290 ve=0.0000 vn=0.5359 vl=0.000 db=0.54
G1 E125.0660 F2400                      ; retract de=-1.9725@40
;00:09:42.443: pe=-1.0024 eb=0.0314 ve=-40.0000 vn=0.0000 vl=0.000 db=0.57
G1 Z0.700 F420                          ; hopup dz=0.40@7 h=0.7
;00:09:42.500: pe=-1.0024 eb=0.0314 ve=0.0000 vn=0.0000 vl=0.000 db=0.37
G1 X51.27 Y54.90 F1423                  ; move dl=2.25@0<24>0 de=0.0000 h=0.7
;00:09:42.642: pe=-1.0024 eb=0.0000 ve=0.0000 vn=0.0000 vl=0.000 db=0.00
G1 Z0.300 F420                          ; hopdn dz=-0.40@7 h=0.3
;00:09:42.699: pe=-1.0024 eb=0.0000 ve=0.0000 vn=0.0000 vl=0.000 db=0.00
G1 E126.8923 F1800                      ; restore de=1.8262@30
;00:09:42.760: pe=0.8145 eb=0.0093 ve=30.0000 vn=0.6329 vl=0.000 db=0.31
G1 X51.12 Y54.90 E126.9016 F600         ; draw dl=0.15@0<10>10 l=0.30x0.50x1.00
;00:09:42.785: pe=0.8102 eb=0.0157 ve=0.6236 vn=0.5129 vl=10.000 db=0.40
G1 X50.94 Y54.86 E126.9131              ; draw dl=0.18@10<10>10 l=0.30x0.50x1.00
;00:09:42.803: pe=0.8123 eb=0.0159 ve=0.6236 vn=0.5120 vl=10.000 db=0.40
G1 X50.78 Y54.73 E126.9260              ; draw dl=0.21@10<10>10 l=0.30x0.50x1.00
;00:09:42.824: pe=0.8146 eb=0.0161 ve=0.6236 vn=0.5121 vl=10.000 db=0.40
G1 X50.66 Y54.54 E126.9400              ; draw dl=0.22@10<10>10 l=0.30x0.50x1.00
;00:09:42.847: pe=0.8171 eb=0.0162 ve=0.6236 vn=0.5129 vl=10.000 db=0.41
G1 X50.58 Y54.17 E126.9636              ; draw dl=0.38@10<10>10 l=0.30x0.50x1.00
;00:09:42.884: pe=0.8212 eb=0.0164 ve=0.6236 vn=0.5150 vl=10.000 db=0.41
G1 X50.58 Y51.48 E127.1314              ; draw dl=2.69@10<10>0 l=0.30x0.50x1.00
;00:09:43.163: pe=0.8433 eb=0.0223 ve=0.0000 vn=0.4583 vl=0.000 db=0.48
G1 E125.2880 F2400                      ; retract de=-1.8433@40
;00:09:43.209: pe=-1.0017 eb=0.0240 ve=-40.0000 vn=0.0000 vl=0.000 db=0.49
G1 Z0.700 F420                          ; hopup dz=0.40@7 h=0.7
;00:09:43.267: pe=-1.0017 eb=0.0240 ve=0.0000 vn=0.0000 vl=0.000 db=0.32
G1 X50.08 Y53.76 F1449                  ; move dl=2.33@0<24>0 de=0.0000 h=0.7
;00:09:43.412: pe=-1.0017 eb=0.0000 ve=0.0000 vn=0.0000 vl=0.000 db=0.00
G1 Z0.300 F420                          ; hopdn dz=-0.40@7 h=0.3
;00:09:43.469: pe=-1.0017 eb=0.0000 ve=0.0000 vn=0.0000 vl=0.000 db=0.00
G1 E127.2352 F1800                      ; restore de=1.9472@30
;00:09:43.534: pe=0.9333 eb=0.0122 ve=30.0000 vn=0.7262 vl=0.000 db=0.35
G1 X51.16 Y53.76 E127.3026 F600         ; draw dl=1.08@0<10>0 l=0.30x0.50x1.00
;00:09:43.662: pe=0.9249 eb=0.0263 ve=0.0000 vn=0.5082 vl=0.000 db=0.52
G1 E125.3776 F2400                      ; retract de=-1.9249@40
;00:09:43.710: pe=-1.0022 eb=0.0285 ve=-40.0000 vn=0.0000 vl=0.000 db=0.54
G1 Z0.700 F420                          ; hopup dz=0.40@7 h=0.7
;00:09:43.767: pe=-1.0022 eb=0.0285 ve=0.0000 vn=0.0000 vl=0.000 db=0.35
G1 X52.34 Y53.26 F1074                  ; move dl=1.28@0<18>0 de=0.0000 h=0.7
;00:09:43.874: pe=-1.0022 eb=0.0000 ve=0.0000 vn=0.0000 vl=0.000 db=0.00
G1 Z0.300 F420                          ; hopdn dz=-0.40@7 h=0.3
;00:09:43.931: pe=-1.0022 eb=0.0000 ve=0.0000 vn=0.0000 vl=0.000 db=0.00
G1 E127.3504 F1800                      ; restore de=1.9728@30
;00:09:43.997: pe=0.9578 eb=0.0128 ve=30.0000 vn=0.7455 vl=0.000 db=0.36
G1 X54.03 Y53.26 E127.4558 F600         ; draw dl=1.69@0<10>0 l=0.30x0.50x1.00
;00:09:44.186: pe=0.9491 eb=0.0277 ve=0.0000 vn=0.5220 vl=0.000 db=0.53
G1 E125.5067 F2400                      ; retract de=-1.9491@40
;00:09:44.235: pe=-1.0023 eb=0.0300 ve=-40.0000 vn=0.0000 vl=0.000 db=0.55
G1 Z0.700 F420                          ; hopup dz=0.40@7 h=0.7
;00:09:44.292: pe=-1.0023 eb=0.0300 ve=0.0000 vn=0.0000 vl=0.000 db=0.36
G1 X54.03 Y52.55 F799                   ; move dl=0.71@0<13>0 de=0.0000 h=0.7
;00:09:44.372: pe=-1.0023 eb=0.0000 ve=0.0000 vn=0.0000 vl=0.000 db=0.00
G1 Z0.300 F420                          ; hopdn dz=-0.40@7 h=0.3
;00:09:44.429: pe=-1.0023 eb=0.0000 ve=0.0000 vn=0.0000 vl=0.000 db=0.00
G1 E127.4796 F1800                      ; restore de=1.9729@30
;00:09:44.495: pe=0.9578 eb=0.0128 ve=30.0000 vn=0.7455 vl=0.000 db=0.36
G1 X52.34 Y52.55 E127.5850 F600         ; draw dl=1.69@0<10>0 l=0.30x0.50x1.00
;00:09:44.684: pe=0.9491 eb=0.0277 ve=0.0000 vn=0.5220 vl=0.000 db=0.53
G1 E125.6360 F2400                      ; retract de=-1.9491@40
;00:09:44.733: pe=-1.0023 eb=0.0300 ve=-40.0000 vn=0.0000 vl=0.000 db=0.55
G1 Z0.700 F420                          ; hopup dz=0.40@7 h=0.7
;00:09:44.790: pe=-1.0023 eb=0.0300 ve=0.0000 vn=0.0000 vl=0.000 db=0.36
G1 X56.31 Y54.94 F2042                  ; move dl=4.63@0<34>0 de=0.0000 h=0.7
;00:09:44.994: pe=-1.0023 eb=0.0000 ve=0.0000 vn=0.0000 vl=0.000 db=0.00
G1 Z0.300 F420                          ; hopdn dz=-0.40@7 h=0.3
;00:09:45.051: pe=-1.0023 eb=0.0000 ve=0.0000 vn=0.0000 vl=0.000 db=0.00
G1 E127.5823 F1800                      ; restore de=1.9463@30
;00:09:45.116: pe=0.9319 eb=0.0121 ve=30.0000 vn=0.7251 vl=0.000 db=0.35
G1 X56.82 Y54.80 E127.6153 F600         ; draw dl=0.53@0<10>10 l=0.30x0.50x1.00
;00:09:45.179: pe=0.9268 eb=0.0206 ve=0.6236 vn=0.5850 vl=10.000 db=0.46
G1 X57.21 Y54.42 E127.6492              ; draw dl=0.54@10<10>10 l=0.30x0.50x1.00
;00:09:45.233: pe=0.9290 eb=0.0210 ve=0.6236 vn=0.5821 vl=10.000 db=0.46
G1 X57.45 Y53.86 E127.6872              ; draw dl=0.61@10<10>10 l=0.30x0.50x1.00
;00:09:45.294: pe=0.9315 eb=0.0212 ve=0.6236 vn=0.5827 vl=10.000 db=0.47
G1 X57.53 Y53.18 E127.7299              ; draw dl=0.68@10<10>10 l=0.30x0.50x1.00
;00:09:45.363: pe=0.9343 eb=0.0214 ve=0.6236 vn=0.5842 vl=10.000 db=0.47
G1 X57.45 Y52.51 E127.7720              ; draw dl=0.67@10<10>10 l=0.30x0.50x1.00
;00:09:45.430: pe=0.9369 eb=0.0215 ve=0.6236 vn=0.5858 vl=10.000 db=0.47
G1 X57.21 Y51.95 E127.8100              ; draw dl=0.61@10<10>10 l=0.30x0.50x1.00
;00:09:45.491: pe=0.9391 eb=0.0216 ve=0.6236 vn=0.5871 vl=10.000 db=0.47
G1 X56.82 Y51.56 E127.8444              ; draw dl=0.55@10<10>10 l=0.30x0.50x1.00
;00:09:45.546: pe=0.9411 eb=0.0217 ve=0.6236 vn=0.5883 vl=10.000 db=0.47
G1 X56.31 Y51.42 E127.8774              ; draw dl=0.53@10<10>10 l=0.30x0.50x1.00
;00:09:45.599: pe=0.9429 eb=0.0218 ve=0.6236 vn=0.5895 vl=10.000 db=0.47
G1 X55.79 Y51.56 E127.9110              ; draw dl=0.54@10<10>10 l=0.30x0.50x1.00
;00:09:45.653: pe=0.9447 eb=0.0218 ve=0.6236 vn=0.5906 vl=10.000 db=0.47
G1 X55.41 Y51.95 E127.9449              ; draw dl=0.54@10<10>10 l=0.30x0.50x1.00
;00:09:45.707: pe=0.9465 eb=0.0219 ve=0.6236 vn=0.5917 vl=10.000 db=0.47
G1 X55.17 Y52.51 E127.9829              ; draw dl=0.61@10<10>10 l=0.30x0.50x1.00
;00:09:45.768: pe=0.9484 eb=0.0220 ve=0.6236 vn=0.5928 vl=10.000 db=0.47
G1 X55.09 Y53.18 E128.0250              ; draw dl=0.67@10<10>10 l=0.30x0.50x1.00
;00:09:45.836: pe=0.9505 eb=0.0221 ve=0.6236 vn=0.5941 vl=10.000 db=0.48
G1 X55.17 Y53.85 E128.0671              ; draw dl=0.67@10<10>10 l=0.30x0.50x1.00
;00:09:45.903: pe=0.9524 eb=0.0222 ve=0.6236 vn=0.5953 vl=10.000 db=0.48
G1 X55.41 Y54.42 E128.1057              ; draw dl=0.62@10<10>10 l=0.30x0.50x1.00
;00:09:45.965: pe=0.9541 eb=0.0223 ve=0.6236 vn=0.5963 vl=10.000 db=0.48
G1 X55.79 Y54.80 E128.1392              ; draw dl=0.54@10<10>10 l=0.30x0.50x1.00
;00:09:46.019: pe=0.9556 eb=0.0224 ve=0.6236 vn=0.5972 vl=10.000 db=0.48
G1 X56.31 Y54.94 E128.1728              ; draw dl=0.54@10<10>0 l=0.30x0.50x1.00
;00:09:46.083: pe=0.9515 eb=0.0278 ve=0.0000 vn=0.5233 vl=0.000 db=0.53
G1 E126.2213 F2400                      ; retract de=-1.9515@40
;00:09:46.132: pe=-1.0023 eb=0.0301 ve=-40.0000 vn=0.0000 vl=0.000 db=0.55
G1 Z0.700 F420                          ; hopup dz=0.40@7 h=0.7
;00:09:46.189: pe=-1.0023 eb=0.0301 ve=0.0000 vn=0.0000 vl=0.000 db=0.36
G1 X58.59 Y51.71 F1886                  ; move dl=3.95@0<31>0 de=0.0000 h=0.7
;00:09:46.377: pe=-1.0023 eb=0.0000 ve=0.0000 vn=0.0000 vl=0.000 db=0.00
G1 Z0.300 F420                          ; hopdn dz=-0.40@7 h=0.3
;00:09:46.434: pe=-1.0023 eb=0.0000 ve=0.0000 vn=0.0000 vl=0.000 db=0.00
G1 E127.8769 F1800                      ; restore de=1.6556@30
;00:09:46.490: pe=0.6474 eb=0.0059 ve=30.0000 vn=0.5015 vl=0.000 db=0.25
G1 X58.59 Y51.65 E127.8806 F232         ; draw dl=0.06@0<4>0 l=0.30x0.50x1.00
;00:09:46.513: pe=0.6415 eb=0.0132 ve=0.0000 vn=0.3434 vl=0.000 db=0.37
G1 E126.2391 F2400                      ; retract de=-1.6415@40
;00:09:46.554: pe=-1.0009 eb=0.0141 ve=-40.0000 vn=0.0000 vl=0.000 db=0.38
G1 Z0.700 F420                          ; hopup dz=0.40@7 h=0.7
;00:09:46.611: pe=-1.0009 eb=0.0141 ve=0.0000 vn=0.0000 vl=0.000 db=0.25
G1 X60.87 Y54.94 F1898                  ; move dl=4.00@0<32>0 de=0.0000 h=0.7
;00:09:46.801: pe=-1.0009 eb=0.0000 ve=0.0000 vn=0.0000 vl=0.000 db=0.00
G1 Z0.300 F420                          ; hopdn dz=-0.40@7 h=0.3
;00:09:46.858: pe=-1.0009 eb=0.0000 ve=0.0000 vn=0.0000 vl=0.000 db=0.00
G1 E128.1841 F1800                      ; restore de=1.9450@30
;00:09:46.923: pe=0.9319 eb=0.0121 ve=30.0000 vn=0.7252 vl=0.000 db=0.35
G1 X61.38 Y54.80 E128.2171 F600         ; draw dl=0.53@0<10>10 l=0.30x0.50x1.00
;00:09:46.986: pe=0.9268 eb=0.0206 ve=0.6236 vn=0.5850 vl=10.000 db=0.46
G1 X61.77 Y54.42 E128.2511              ; draw dl=0.54@10<10>10 l=0.30x0.50x1.00
;00:09:47.040: pe=0.9290 eb=0.0210 ve=0.6236 vn=0.5821 vl=10.000 db=0.46
G1 X62.01 Y53.86 E128.2891              ; draw dl=0.61@10<10>10 l=0.30x0.50x1.00
;00:09:47.101: pe=0.9315 eb=0.0212 ve=0.6236 vn=0.5827 vl=10.000 db=0.47
G1 X62.09 Y53.18 E128.3318              ; draw dl=0.68@10<10>10 l=0.30x0.50x1.00
;00:09:47.170: pe=0.9343 eb=0.0214 ve=0.6236 vn=0.5842 vl=10.000 db=0.47
G1 X62.01 Y52.51 E128.3738              ; draw dl=0.67@10<10>10 l=0.30x0.50x1.00
;00:09:47.237: pe=0.9369 eb=0.0215 ve=0.6236 vn=0.5858 vl=10.000 db=0.47
G1 X61.77 Y51.95 E128.4118              ; draw dl=0.61@10<10>10 l=0.30x0.50x1.00
;00:09:47.298: pe=0.9391 eb=0.0216 ve=0.6236 vn=0.5871 vl=10.000 db=0.47
G1 X61.38 Y51.56 E128.4462              ; draw dl=0.55@10<10>10 l=0.30x0.50x1.00
;00:09:47.353: pe=0.9411 eb=0.0217 ve=0.6236 vn=0.5883 vl=10.000 db=0.47
G1 X60.87 Y51.42 E128.4792              ; draw dl=0.53@10<10>10 l=0.30x0.50x1.00
;00:09:47.406: pe=0.9429 eb=0.0218 ve=0.6236 vn=0.5895 vl=10.000 db=0.47
G1 X60.35 Y51.56 E128.5128              ; draw dl=0.54@10<10>10 l=0.30x0.50x1.00
;00:09:47.460: pe=0.9447 eb=0.0218 ve=0.6236 vn=0.5906 vl=10.000 db=0.47
G1 X59.97 Y51.95 E128.5468              ; draw dl=0.54@10<10>10 l=0.30x0.50x1.00
;00:09:47.514: pe=0.9465 eb=0.0219 ve=0.6236 vn=0.5917 vl=10.000 db=0.47
G1 X59.73 Y52.51 E128.5847              ; draw dl=0.61@10<10>10 l=0.30x0.50x1.00
;00:09:47.575: pe=0.9484 eb=0.0220 ve=0.6236 vn=0.5928 vl=10.000 db=0.47
G1 X59.65 Y53.18 E128.6268              ; draw dl=0.67@10<10>10 l=0.30x0.50x1.00
;00:09:47.643: pe=0.9505 eb=0.0221 ve=0.6236 vn=0.5941 vl=10.000 db=0.48
G1 X59.73 Y53.85 E128.6689              ; draw dl=0.67@10<10>10 l=0.30x0.50x1.00
;00:09:47.710: pe=0.9524 eb=0.0222 ve=0.6236 vn=0.5953 vl=10.000 db=0.48
G1 X59.97 Y54.42 E128.7075              ; draw dl=0.62@10<10>10 l=0.30x0.50x1.00
;00:09:47.772: pe=0.9541 eb=0.0223 ve=0.6236 vn=0.5963 vl=10.000 db=0.48
G1 X60.35 Y54.80 E128.7410              ; draw dl=0.54@10<10>10 l=0.30x0.50x1.00
;00:09:47.826: pe=0.9556 eb=0.0224 ve=0.6236 vn=0.5972 vl=10.000 db=0.48
G1 X60.87 Y54.94 E128.7746              ; draw dl=0.54@10<10>0 l=0.30x0.50x1.00
;00:09:47.890: pe=0.9515 eb=0.0278 ve=0.0000 vn=0.5233 vl=0.000 db=0.53
G1 E126.8231 F2400                      ; retract de=-1.9515@40
;00:09:47.938: pe=-1.0023 eb=0.0301 ve=-40.0000 vn=0.0000 vl=0.000 db=0.55
G1 Z0.700 F420                          ; hopup dz=0.40@7 h=0.7
;00:09:47.996: pe=-1.0023 eb=0.0301 ve=0.0000 vn=0.0000 vl=0.000 db=0.36
G1 X63.16 Y52.90 F1661                  ; move dl=3.07@0<28>0 de=0.0000 h=0.7
;00:09:48.162: pe=-1.0023 eb=0.0000 ve=0.0000 vn=0.0000 vl=0.000 db=0.00
G1 Z0.300 F420                          ; hopdn dz=-0.40@7 h=0.3
;00:09:48.219: pe=-1.0023 eb=0.0000 ve=0.0000 vn=0.0000 vl=0.000 db=0.00
G1 E128.8006 F1800                      ; restore de=1.9775@30
;00:09:48.285: pe=0.9623 eb=0.0129 ve=30.0000 vn=0.7489 vl=0.000 db=0.36
G1 X65.03 Y52.90 E128.9172 F600         ; draw dl=1.87@0<10>0 l=0.30x0.50x1.00
;00:09:48.492: pe=0.9534 eb=0.0279 ve=0.0000 vn=0.5246 vl=0.000 db=0.53
G1 E126.9638 F2400                      ; retract de=-1.9534@40
;00:09:48.541: pe=-1.0023 eb=0.0302 ve=-40.0000 vn=0.0000 vl=0.000 db=0.56
G1 Z0.700 F420                          ; hopup dz=0.40@7 h=0.7
;00:09:48.598: pe=-1.0023 eb=0.0302 ve=0.0000 vn=0.0000 vl=0.000 db=0.36
G1 X66.09 Y54.00 F1173                  ; move dl=1.53@0<20>0 de=0.0000 h=0.7
;00:09:48.715: pe=-1.0023 eb=0.0000 ve=0.0000 vn=0.0000 vl=0.000 db=0.00
G1 Z0.300 F420                          ; hopdn dz=-0.40@7 h=0.3
;00:09:48.772: pe=-1.0023 eb=0.0000 ve=0.0000 vn=0.0000 vl=0.000 db=0.00
G1 E128.9100 F1800                      ; restore de=1.9462@30
;00:09:48.837: pe=0.9318 eb=0.0121 ve=30.0000 vn=0.7250 vl=0.000 db=0.35
G1 X66.56 Y54.24 E128.9429 F600         ; draw dl=0.53@0<10>10 l=0.30x0.50x1.00
;00:09:48.900: pe=0.9266 eb=0.0206 ve=0.6236 vn=0.5849 vl=10.000 db=0.46
G1 X66.93 Y54.55 E128.9730              ; draw dl=0.48@10<10>10 l=0.30x0.50x1.00
;00:09:48.948: pe=0.9286 eb=0.0210 ve=0.6236 vn=0.5820 vl=10.000 db=0.46
G1 X67.18 Y54.88 E128.9988              ; draw dl=0.41@10<10>5 l=0.30x0.50x1.00
;00:09:48.992: pe=0.9288 eb=0.0226 ve=0.3015 vn=0.5607 vl=4.834 db=0.48
G1 X67.18 Y51.48 E129.2108              ; draw dl=3.40@5<10>0 l=0.30x0.50x1.00
;00:09:49.345: pe=0.9366 eb=0.0270 ve=0.0000 vn=0.5143 vl=0.000 db=0.53
G1 E127.2743 F2400                      ; retract de=-1.9366@40
;00:09:49.393: pe=-1.0022 eb=0.0292 ve=-40.0000 vn=0.0000 vl=0.000 db=0.55
G1 Z0.700 F420                          ; hopup dz=0.40@7 h=0.7
;00:09:49.450: pe=-1.0022 eb=0.0292 ve=0.0000 vn=0.0000 vl=0.000 db=0.36
G1 X68.24 Y51.71 F988                   ; move dl=1.08@0<16>0 de=0.0000 h=0.7
;00:09:49.549: pe=-1.0022 eb=0.0000 ve=0.0000 vn=0.0000 vl=0.000 db=0.00
G1 Z0.300 F420                          ; hopdn dz=-0.40@7 h=0.3
;00:09:49.606: pe=-1.0022 eb=0.0000 ve=0.0000 vn=0.0000 vl=0.000 db=0.00
G1 E128.9298 F1800                      ; restore de=1.6555@30
;00:09:49.661: pe=0.6474 eb=0.0059 ve=30.0000 vn=0.5015 vl=0.000 db=0.25
G1 X68.24 Y51.65 E128.9335 F232         ; draw dl=0.06@0<4>0 l=0.30x0.50x1.00
;00:09:49.685: pe=0.6415 eb=0.0132 ve=0.0000 vn=0.3434 vl=0.000 db=0.37
G1 E127.2920 F2400                      ; retract de=-1.6415@40
;00:09:49.726: pe=-1.0009 eb=0.0141 ve=-40.0000 vn=0.0000 vl=0.000 db=0.38
G1 Z0.700 F420                          ; hopup dz=0.40@7 h=0.7
;00:09:49.783: pe=-1.0009 eb=0.0141 ve=0.0000 vn=0.0000 vl=0.000 db=0.25
G1 X70.52 Y54.94 F1898                  ; move dl=4.00@0<32>0 de=0.0000 h=0.7
;00:09:49.973: pe=-1.0009 eb=0.0000 ve=0.0000 vn=0.0000 vl=0.000 db=0.00
G1 Z0.300 F420                          ; hopdn dz=-0.40@7 h=0.3
;00:09:50.030: pe=-1.0009 eb=0.0000 ve=0.0000 vn=0.0000 vl=0.000 db=0.00
G1 E129.2370 F1800                      ; restore de=1.9450@30
;00:09:50.095: pe=0.9319 eb=0.0121 ve=30.0000 vn=0.7252 vl=0.000 db=0.35
G1 X71.03 Y54.80 E129.2700 F600         ; draw dl=0.53@0<10>10 l=0.30x0.50x1.00
;00:09:50.158: pe=0.9268 eb=0.0206 ve=0.6236 vn=0.5850 vl=10.000 db=0.46
G1 X71.42 Y54.42 E129.3040              ; draw dl=0.54@10<10>10 l=0.30x0.50x1.00
;00:09:50.212: pe=0.9290 eb=0.0210 ve=0.6236 vn=0.5821 vl=10.000 db=0.46
G1 X71.66 Y53.86 E129.3420              ; draw dl=0.61@10<10>10 l=0.30x0.50x1.00
;00:09:50.273: pe=0.9315 eb=0.0212 ve=0.6236 vn=0.5827 vl=10.000 db=0.47
G1 X71.74 Y53.18 E129.3847              ; draw dl=0.68@10<10>10 l=0.30x0.50x1.00
;00:09:50.341: pe=0.9343 eb=0.0214 ve=0.6236 vn=0.5842 vl=10.000 db=0.47
G1 X71.66 Y52.51 E129.4267              ; draw dl=0.67@10<10>10 l=0.30x0.50x1.00
;00:09:50.409: pe=0.9369 eb=0.0215 ve=0.6236 vn=0.5858 vl=10.000 db=0.47
G1 X71.42 Y51.95 E129.4647              ; draw dl=0.61@10<10>10 l=0.30x0.50x1.00
;00:09:50.470: pe=0.9391 eb=0.0216 ve=0.6236 vn=0.5871 vl=10.000 db=0.47
G1 X71.03 Y51.56 E129.4991              ; draw dl=0.55@10<10>10 l=0.30x0.50x1.00
;00:09:50.525: pe=0.9411 eb=0.0217 ve=0.6236 vn=0.5883 vl=10.000 db=0.47
G1 X70.52 Y51.42 E129.5321              ; draw dl=0.53@10<10>10 l=0.30x0.50x1.00
;00:09:50.578: pe=0.9429 eb=0.0218 ve=0.6236 vn=0.5895 vl=10.000 db=0.47
G1 X70.00 Y51.56 E129.5657              ; draw dl=0.54@10<10>10 l=0.30x0.50x1.00
;00:09:50.632: pe=0.9447 eb=0.0218 ve=0.6236 vn=0.5906 vl=10.000 db=0.47
G1 X69.62 Y51.95 E129.5997              ; draw dl=0.54@10<10>10 l=0.30x0.50x1.00
;00:09:50.686: pe=0.9465 eb=0.0219 ve=0.6236 vn=0.5917 vl=10.000 db=0.47
G1 X69.38 Y52.51 E129.6377              ; draw dl=0.61@10<10>10 l=0.30x0.50x1.00
;00:09:50.747: pe=0.9484 eb=0.0220 ve=0.6236 vn=0.5928 vl=10.000 db=0.47
G1 X69.30 Y53.18 E129.6797              ; draw dl=0.67@10<10>10 l=0.30x0.50x1.00
;00:09:50.815: pe=0.9505 eb=0.0221 ve=0.6236 vn=0.5941 vl=10.000 db=0.48
G1 X69.38 Y53.85 E129.7218              ; draw dl=0.67@10<10>10 l=0.30x0.50x1.00
;00:09:50.882: pe=0.9524 eb=0.0222 ve=0.6236 vn=0.5953 vl=10.000 db=0.48
G1 X69.62 Y54.42 E129.7604              ; draw dl=0.62@10<10>10 l=0.30x0.50x1.00
;00:09:50.944: pe=0.9541 eb=0.0223 ve=0.6236 vn=0.5963 vl=10.000 db=0.48
G1 X70.00 Y54.80 E129.7939              ; draw dl=0.54@10<10>10 l=0.30x0.50x1.00
;00:09:50.998: pe=0.9556 eb=0.0224 ve=0.6236 vn=0.5972 vl=10.000 db=0.48
G1 X70.52 Y54.94 E129.8275              ; draw dl=0.54@10<10>0 l=0.30x0.50x1.00
;00:09:51.061: pe=0.9515 eb=0.0278 ve=0.0000 vn=0.5233 vl=0.000 db=0.53
G1 E127.8760 F2400                      ; retract de=-1.9515@40
;00:09:51.110: pe=-1.0023 eb=0.0301 ve=-40.0000 vn=0.0000 vl=0.000 db=0.55
G1 Z0.700 F420                          ; hopup dz=0.40@7 h=0.7
;00:09:51.167: pe=-1.0023 eb=0.0301 ve=0.0000 vn=0.0000 vl=0.000 db=0.36
G1 X46.50 Y49.88 F4700                  ; move dl=24.55@0<78>0 de=0.0000 h=0.7
;00:09:51.637: pe=-1.0023 eb=0.0000 ve=0.0000 vn=0.0000 vl=0.000 db=0.00
G1 Z0.300 F420                          ; hopdn dz=-0.40@7 h=0.3
;00:09:51.695: pe=-1.0023 eb=0.0000 ve=0.0000 vn=0.0000 vl=0.000 db=0.00
G1 E129.8740 F1800                      ; restore de=1.9980@30
;00:09:51.761: pe=0.9822 eb=0.0134 ve=30.0000 vn=0.7647 vl=0.000 db=0.37
G1 X46.50 Y46.48 E130.0860 F600         ; draw dl=3.40@0<10>0 l=0.30x0.50x1.00
;00:09:52.121: pe=0.9729 eb=0.0290 ve=0.0000 vn=0.5361 vl=0.000 db=0.54
G1 E128.1131 F2400                      ; retract de=-1.9729@40
;00:09:52.171: pe=-1.0024 eb=0.0314 ve=-40.0000 vn=0.0000 vl=0.000 db=0.57
G1 Z0.700 F420                          ; hopup dz=0.40@7 h=0.7
;00:09:52.228: pe=-1.0024 eb=0.0314 ve=0.0000 vn=0.0000 vl=0.000 db=0.37
G1 X48.96 Y46.48 F1488                  ; move dl=2.46@0<25>0 de=0.0000 h=0.7
;00:09:52.376: pe=-1.0024 eb=0.0000 ve=0.0000 vn=0.0000 vl=0.000 db=0.00
G1 Z0.300 F420                          ; hopdn dz=-0.40@7 h=0.3
;00:09:52.434: pe=-1.0024 eb=0.0000 ve=0.0000 vn=0.0000 vl=0.000 db=0.00
G1 E130.1022 F1800                      ; restore de=1.9891@30
;00:09:52.500: pe=0.9735 eb=0.0132 ve=30.0000 vn=0.7578 vl=0.000 db=0.37
G1 X47.47 Y48.51 E130.2593 F600         ; draw dl=2.52@0<10>0 l=0.30x0.50x1.00
;00:09:52.772: pe=0.9644 eb=0.0285 ve=0.0000 vn=0.5310 vl=0.000 db=0.54
G1 E128.2949 F2400                      ; retract de=-1.9644@40
;00:09:52.821: pe=-1.0024 eb=0.0309 ve=-40.0000 vn=0.0000 vl=0.000 db=0.56
G1 Z0.700 F420                          ; hopup dz=0.40@7 h=0.7
;00:09:52.878: pe=-1.0024 eb=0.0309 ve=0.0000 vn=0.0000 vl=0.000 db=0.37
G1 X46.50 Y47.67 F1075                  ; move dl=1.28@0<18>0 de=0.0000 h=0.7
;00:09:52.985: pe=-1.0024 eb=0.0000 ve=0.0000 vn=0.0000 vl=0.000 db=0.00
G1 Z0.300 F420                          ; hopdn dz=-0.40@7 h=0.3
;00:09:53.043: pe=-1.0024 eb=0.0000 ve=0.0000 vn=0.0000 vl=0.000 db=0.00
G1 E130.2926 F1800                      ; restore de=1.9977@30
;00:09:53.109: pe=0.9819 eb=0.0134 ve=30.0000 vn=0.7644 vl=0.000 db=0.37
G1 X49.02 Y49.88 E130.5016 F600         ; draw dl=3.35@0<10>0 l=0.30x0.50x1.00
;00:09:53.464: pe=0.9725 eb=0.0290 ve=0.0000 vn=0.5359 vl=0.000 db=0.54
G1 E128.5291 F2400                      ; retract de=-1.9725@40
;00:09:53.514: pe=-1.0024 eb=0.0314 ve=-40.0000 vn=0.0000 vl=0.000 db=0.57
G1 Z0.700 F420                          ; hopup dz=0.40@7 h=0.7
;00:09:53.571: pe=-1.0024 eb=0.0314 ve=0.0000 vn=0.0000 vl=0.000 db=0.37
G1 X50.08 Y49.88 F977                   ; move dl=1.06@0<16>0 de=0.0000 h=0.7
;00:09:53.668: pe=-1.0024 eb=0.0000 ve=0.0000 vn=0.0000 vl=0.000 db=0.00
G1 Z0.300 F420                          ; hopdn dz=-0.40@7 h=0.3
;00:09:53.726: pe=-1.0024 eb=0.0000 ve=0.0000 vn=0.0000 vl=0.000 db=0.00
G1 E130.5272 F1800                      ; restore de=1.9981@30
;00:09:53.792: pe=0.9822 eb=0.0134 ve=30.0000 vn=0.7647 vl=0.000 db=0.37
G1 X50.08 Y46.48 E130.7392 F600         ; draw dl=3.40@0<10>0 l=0.30x0.50x1.00
;00:09:54.152: pe=0.9729 eb=0.0290 ve=0.0000 vn=0.5361 vl=0.000 db=0.54
G1 E128.7663 F2400                      ; retract de=-1.9729@40
;00:09:54.202: pe=-1.0024 eb=0.0314 ve=-40.0000 vn=0.0000 vl=0.000 db=0.57
G1 Z0.700 F420                          ; hopup dz=0.40@7 h=0.7
;00:09:54.259: pe=-1.0024 eb=0.0314 ve=0.0000 vn=0.0000 vl=0.000 db=0.37
G1 X50.08 Y46.98 F671                   ; move dl=0.50@0<11>0 de=0.0000 h=0.7
;00:09:54.326: pe=-1.0024 eb=0.0005 ve=0.0000 vn=0.0000 vl=0.000 db=0.05
G1 Z0.300 F420                          ; hopdn dz=-0.40@7 h=0.3
;00:09:54.383: pe=-1.0024 eb=0.0005 ve=0.0000 vn=0.0000 vl=0.000 db=0.07
G1 E130.6804 F1800                      ; restore de=1.9141@30
;00:09:54.447: pe=0.9007 eb=0.0114 ve=30.0000 vn=0.6987 vl=0.000 db=0.34
G1 X50.33 Y46.74 E130.7020 F600         ; draw dl=0.35@0<10>10 l=0.30x0.50x1.00
;00:09:54.491: pe=0.8959 eb=0.0191 ve=0.6236 vn=0.5675 vl=10.000 db=0.44
G1 X50.72 Y46.49 E130.7309              ; draw dl=0.46@10<10>10 l=0.30x0.50x1.00
;00:09:54.538: pe=0.8986 eb=0.0196 ve=0.6236 vn=0.5641 vl=10.000 db=0.45
G1 X51.10 Y46.42 E130.7550              ; draw dl=0.39@10<10>10 l=0.30x0.50x1.00
;00:09:54.576: pe=0.9009 eb=0.0198 ve=0.6236 vn=0.5643 vl=10.000 db=0.45
G1 X51.48 Y46.51 E130.7794              ; draw dl=0.39@10<10>10 l=0.30x0.50x1.00
;00:09:54.615: pe=0.9032 eb=0.0199 ve=0.6236 vn=0.5653 vl=10.000 db=0.45
G1 X51.79 Y46.77 E130.8046              ; draw dl=0.40@10<10>10 l=0.30x0.50x1.00
;00:09:54.656: pe=0.9056 eb=0.0200 ve=0.6236 vn=0.5667 vl=10.000 db=0.45
G1 X51.99 Y47.18 E130.8331              ; draw dl=0.46@10<10>10 l=0.30x0.50x1.00
;00:09:54.701: pe=0.9081 eb=0.0202 ve=0.6236 vn=0.5682 vl=10.000 db=0.45
G1 X52.06 Y47.71 E130.8664              ; draw dl=0.53@10<10>10 l=0.30x0.50x1.00
;00:09:54.755: pe=0.9110 eb=0.0203 ve=0.6236 vn=0.5700 vl=10.000 db=0.46
G1 X52.00 Y48.22 E130.8984              ; draw dl=0.51@10<10>10 l=0.30x0.50x1.00
;00:09:54.806: pe=0.9137 eb=0.0204 ve=0.6236 vn=0.5716 vl=10.000 db=0.46
G1 X51.82 Y48.61 E130.9252              ; draw dl=0.43@10<10>10 l=0.30x0.50x1.00
;00:09:54.849: pe=0.9159 eb=0.0205 ve=0.6236 vn=0.5730 vl=10.000 db=0.46
G1 X51.53 Y48.86 E130.9491              ; draw dl=0.38@10<10>10 l=0.30x0.50x1.00
;00:09:54.887: pe=0.9179 eb=0.0206 ve=0.6236 vn=0.5741 vl=10.000 db=0.46
G1 X51.13 Y48.95 E130.9746              ; draw dl=0.41@10<10>10 l=0.30x0.50x1.00
;00:09:54.928: pe=0.9199 eb=0.0207 ve=0.6236 vn=0.5754 vl=10.000 db=0.46
G1 X50.94 Y48.93 E130.9866              ; draw dl=0.19@10<10>10 l=0.30x0.50x1.00
;00:09:54.948: pe=0.9208 eb=0.0207 ve=0.6236 vn=0.5759 vl=10.000 db=0.46
G1 X50.74 Y48.85 E131.0000              ; draw dl=0.22@10<10>10 l=0.30x0.50x1.00
;00:09:54.969: pe=0.9218 eb=0.0208 ve=0.6236 vn=0.5765 vl=10.000 db=0.46
G1 X50.53 Y48.72 E131.0154              ; draw dl=0.25@10<10>10 l=0.30x0.50x1.00
;00:09:54.994: pe=0.9230 eb=0.0208 ve=0.6236 vn=0.5773 vl=10.000 db=0.46
G1 X50.33 Y48.50 E131.0339              ; draw dl=0.30@10<10>10 l=0.30x0.50x1.00
;00:09:55.024: pe=0.9243 eb=0.0209 ve=0.6236 vn=0.5781 vl=10.000 db=0.46
G1 X50.08 Y48.03 E131.0671              ; draw dl=0.53@10<10>0 l=0.30x0.50x1.00
;00:09:55.087: pe=0.9214 eb=0.0262 ve=0.0000 vn=0.5052 vl=0.000 db=0.52
G1 E129.1457 F2400                      ; retract de=-1.9214@40
;00:09:55.135: pe=-1.0021 eb=0.0283 ve=-40.0000 vn=0.0000 vl=0.000 db=0.54
G1 Z0.700 F420                          ; hopup dz=0.40@7 h=0.7
;00:09:55.192: pe=-1.0021 eb=0.0283 ve=0.0000 vn=0.0000 vl=0.000 db=0.35
G1 X53.12 Y48.26 F1656                  ; move dl=3.05@0<28>0 de=0.0000 h=0.7
;00:09:55.358: pe=-1.0021 eb=0.0000 ve=0.0000 vn=0.0000 vl=0.000 db=0.00
G1 Z0.300 F420                          ; hopdn dz=-0.40@7 h=0.3
;00:09:55.415: pe=-1.0021 eb=0.0000 ve=0.0000 vn=0.0000 vl=0.000 db=0.00
G1 E131.1185 F1800                      ; restore de=1.9727@30
;00:09:55.481: pe=0.9578 eb=0.0128 ve=30.0000 vn=0.7455 vl=0.000 db=0.36
G1 X54.81 Y48.26 E131.2239 F600         ; draw dl=1.69@0<10>0 l=0.30x0.50x1.00
;00:09:55.670: pe=0.9491 eb=0.0277 ve=0.0000 vn=0.5220 vl=0.000 db=0.53
G1 E129.2748 F2400                      ; retract de=-1.9491@40
;00:09:55.718: pe=-1.0023 eb=0.0300 ve=-40.0000 vn=0.0000 vl=0.000 db=0.55
G1 Z0.700 F420                          ; hopup dz=0.40@7 h=0.7
;00:09:55.775: pe=-1.0023 eb=0.0300 ve=0.0000 vn=0.0000 vl=0.000 db=0.36
G1 X54.81 Y47.55 F799                   ; move dl=0.71@0<13>0 de=0.0000 h=0.7
;00:09:55.855: pe=-1.0023 eb=0.0000 ve=0.0000 vn=0.0000 vl=0.000 db=0.00
G1 Z0.300 F420                          ; hopdn dz=-0.40@7 h=0.3
;00:09:55.912: pe=-1.0023 eb=0.0000 ve=0.0000 vn=0.0000 vl=0.000 db=0.00
G1 E131.2477 F1800                      ; restore de=1.9729@30
;00:09:55.978: pe=0.9578 eb=0.0128 ve=30.0000 vn=0.7455 vl=0.000 db=0.36
G1 X53.12 Y47.55 E131.3531 F600         ; draw dl=1.69@0<10>0 l=0.30x0.50x1.00
;00:09:56.167: pe=0.9491 eb=0.0277 ve=0.0000 vn=0.5220 vl=0.000 db=0.53
G1 E129.4040 F2400                      ; retract de=-1.9491@40
;00:09:56.216: pe=-1.0023 eb=0.0300 ve=-40.0000 vn=0.0000 vl=0.000 db=0.55
G1 Z0.700 F420                          ; hopup dz=0.40@7 h=0.7
;00:09:56.273: pe=-1.0023 eb=0.0300 ve=0.0000 vn=0.0000 vl=0.000 db=0.36
G1 X55.88 Y49.00 F1675                  ; move dl=3.12@0<28>0 de=0.0000 h=0.7
;00:09:56.441: pe=-1.0023 eb=0.0000 ve=0.0000 vn=0.0000 vl=0.000 db=0.00
G1 Z0.300 F420                          ; hopdn dz=-0.40@7 h=0.3
;00:09:56.498: pe=-1.0023 eb=0.0000 ve=0.0000 vn=0.0000 vl=0.000 db=0.00
G1 E131.3502 F1800                      ; restore de=1.9462@30
;00:09:56.563: pe=0.9318 eb=0.0121 ve=30.0000 vn=0.7250 vl=0.000 db=0.35
G1 X56.35 Y49.24 E131.3832 F600         ; draw dl=0.53@0<10>10 l=0.30x0.50x1.00
;00:09:56.625: pe=0.9266 eb=0.0206 ve=0.6236 vn=0.5849 vl=10.000 db=0.46
G1 X56.71 Y49.55 E131.4128              ; draw dl=0.48@10<10>10 l=0.30x0.50x1.00
;00:09:56.673: pe=0.9286 eb=0.0210 ve=0.6236 vn=0.5821 vl=10.000 db=0.46
G1 X56.96 Y49.88 E131.4386              ; draw dl=0.41@10<10>5 l=0.30x0.50x1.00
;00:09:56.717: pe=0.9288 eb=0.0226 ve=0.3015 vn=0.5607 vl=4.834 db=0.48
G1 X56.96 Y46.48 E131.6506              ; draw dl=3.40@5<10>0 l=0.30x0.50x1.00
;00:09:57.070: pe=0.9366 eb=0.0270 ve=0.0000 vn=0.5143 vl=0.000 db=0.53
G1 E129.7141 F2400                      ; retract de=-1.9366@40
;00:09:57.118: pe=-1.0022 eb=0.0292 ve=-40.0000 vn=0.0000 vl=0.000 db=0.55
G1 Z0.700 F420                          ; hopup dz=0.40@7 h=0.7
;00:09:57.175: pe=-1.0022 eb=0.0292 ve=0.0000 vn=0.0000 vl=0.000 db=0.36
G1 X58.02 Y46.71 F988                   ; move dl=1.08@0<16>0 de=0.0000 h=0.7
;00:09:57.274: pe=-1.0022 eb=0.0000 ve=0.0000 vn=0.0000 vl=0.000 db=0.00
G1 Z0.300 F420                          ; hopdn dz=-0.40@7 h=0.3
;00:09:57.331: pe=-1.0022 eb=0.0000 ve=0.0000 vn=0.0000 vl=0.000 db=0.00
G1 E131.3696 F1800                      ; restore de=1.6555@30
;00:09:57.386: pe=0.6474 eb=0.0059 ve=30.0000 vn=0.5015 vl=0.000 db=0.25
G1 X58.02 Y46.65 E131.3733 F232         ; draw dl=0.06@0<4>0 l=0.30x0.50x1.00
;00:09:57.410: pe=0.6415 eb=0.0132 ve=0.0000 vn=0.3434 vl=0.000 db=0.37
G1 E129.7318 F2400                      ; retract de=-1.6415@40
;00:09:57.451: pe=-1.0009 eb=0.0141 ve=-40.0000 vn=0.0000 vl=0.000 db=0.38
G1 Z0.700 F420                          ; hopup dz=0.40@7 h=0.7
;00:09:57.508: pe=-1.0009 eb=0.0141 ve=0.0000 vn=0.0000 vl=0.000 db=0.25
G1 X60.31 Y49.94 F1899                  ; move dl=4.01@0<32>0 de=0.0000 h=0.7
;00:09:57.698: pe=-1.0009 eb=0.0000 ve=0.0000 vn=0.0000 vl=0.000 db=0.00
G1 Z0.300 F420                          ; hopdn dz=-0.40@7 h=0.3
;00:09:57.755: pe=-1.0009 eb=0.0000 ve=0.0000 vn=0.0000 vl=0.000 db=0.00
G1 E131.6768 F1800                      ; restore de=1.9450@30
;00:09:57.820: pe=0.9319 eb=0.0121 ve=30.0000 vn=0.7252 vl=0.000 db=0.35
G1 X60.82 Y49.80 E131.7098 F600         ; draw dl=0.53@0<10>10 l=0.30x0.50x1.00
;00:09:57.883: pe=0.9268 eb=0.0206 ve=0.6236 vn=0.5850 vl=10.000 db=0.46
G1 X61.21 Y49.42 E131.7438              ; draw dl=0.54@10<10>10 l=0.30x0.50x1.00
;00:09:57.937: pe=0.9290 eb=0.0210 ve=0.6236 vn=0.5821 vl=10.000 db=0.46
G1 X61.45 Y48.86 E131.7818              ; draw dl=0.61@10<10>10 l=0.30x0.50x1.00
;00:09:57.998: pe=0.9315 eb=0.0212 ve=0.6236 vn=0.5827 vl=10.000 db=0.47
G1 X61.53 Y48.18 E131.8245              ; draw dl=0.68@10<10>10 l=0.30x0.50x1.00
;00:09:58.066: pe=0.9343 eb=0.0214 ve=0.6236 vn=0.5842 vl=10.000 db=0.47
G1 X61.45 Y47.51 E131.8666              ; draw dl=0.67@10<10>10 l=0.30x0.50x1.00
;00:09:58.134: pe=0.9369 eb=0.0215 ve=0.6236 vn=0.5858 vl=10.000 db=0.47
G1 X61.21 Y46.95 E131.9046              ; draw dl=0.61@10<10>10 l=0.30x0.50x1.00
;00:09:58.195: pe=0.9391 eb=0.0216 ve=0.6236 vn=0.5871 vl=10.000 db=0.47
G1 X60.82 Y46.56 E131.9389              ; draw dl=0.55@10<10>10 l=0.30x0.50x1.00
;00:09:58.250: pe=0.9411 eb=0.0217 ve=0.6236 vn=0.5883 vl=10.000 db=0.47
G1 X60.31 Y46.42 E131.9719              ; draw dl=0.53@10<10>10 l=0.30x0.50x1.00
;00:09:58.303: pe=0.9429 eb=0.0218 ve=0.6236 vn=0.5895 vl=10.000 db=0.47
G1 X59.79 Y46.56 E132.0055              ; draw dl=0.54@10<10>10 l=0.30x0.50x1.00
;00:09:58.357: pe=0.9447 eb=0.0218 ve=0.6236 vn=0.5906 vl=10.000 db=0.47
G1 X59.41 Y46.95 E132.0395              ; draw dl=0.54@10<10>10 l=0.30x0.50x1.00
;00:09:58.411: pe=0.9465 eb=0.0219 ve=0.6236 vn=0.5917 vl=10.000 db=0.47
G1 X59.17 Y47.51 E132.0775              ; draw dl=0.61@10<10>10 l=0.30x0.50x1.00
;00:09:58.472: pe=0.9484 eb=0.0220 ve=0.6236 vn=0.5928 vl=10.000 db=0.47
G1 X59.09 Y48.18 E132.1195              ; draw dl=0.67@10<10>10 l=0.30x0.50x1.00
;00:09:58.540: pe=0.9505 eb=0.0221 ve=0.6236 vn=0.5941 vl=10.000 db=0.48
G1 X59.17 Y48.85 E132.1616              ; draw dl=0.67@10<10>10 l=0.30x0.50x1.00
;00:09:58.607: pe=0.9524 eb=0.0222 ve=0.6236 vn=0.5953 vl=10.000 db=0.48
G1 X59.41 Y49.42 E132.2002              ; draw dl=0.62@10<10>10 l=0.30x0.50x1.00
;00:09:58.669: pe=0.9541 eb=0.0223 ve=0.6236 vn=0.5963 vl=10.000 db=0.48
G1 X59.79 Y49.80 E132.2337              ; draw dl=0.54@10<10>10 l=0.30x0.50x1.00
;00:09:58.723: pe=0.9556 eb=0.0224 ve=0.6236 vn=0.5972 vl=10.000 db=0.48
G1 X60.31 Y49.94 E132.2673              ; draw dl=0.54@10<10>0 l=0.30x0.50x1.00
;00:09:58.786: pe=0.9515 eb=0.0278 ve=0.0000 vn=0.5233 vl=0.000 db=0.53
G1 E130.3158 F2400                      ; retract de=-1.9515@40
;00:09:58.835: pe=-1.0023 eb=0.0301 ve=-40.0000 vn=0.0000 vl=0.000 db=0.55
G1 Z0.700 F420                          ; hopup dz=0.40@7 h=0.7
;00:09:58.892: pe=-1.0023 eb=0.0301 ve=0.0000 vn=0.0000 vl=0.000 db=0.36
G1 X46.50 Y41.48 F3818                  ; move dl=16.20@0<64>0 de=0.0000 h=0.7
;00:09:59.274: pe=-1.0023 eb=0.0000 ve=0.0000 vn=0.0000 vl=0.000 db=0.00
G1 Z0.300 F420                          ; hopdn dz=-0.40@7 h=0.3
;00:09:59.331: pe=-1.0023 eb=0.0000 ve=0.0000 vn=0.0000 vl=0.000 db=0.00
G1 E132.3272 F1800                      ; restore de=2.0114@30
;00:09:59.398: pe=0.9953 eb=0.0138 ve=30.0000 vn=0.7749 vl=0.000 db=0.38
G1 X46.50 Y44.88 E132.5393 F600         ; draw dl=3.40@0<10>10 l=0.30x0.50x1.00
;00:09:59.748: pe=0.9890 eb=0.0240 ve=0.6236 vn=0.6176 vl=10.000 db=0.49
;00:09:59.748: skipping empty move move dl=0.00@0<7>0 de=0.0000 h=0.3
G1 X47.73 Y44.88 E132.6160              ; draw dl=1.23@10<10>10 l=0.30x0.50x1.00
;00:09:59.871: pe=0.9897 eb=0.0240 ve=0.6236 vn=0.6180 vl=10.000 db=0.50
G1 X48.12 Y44.78 E132.6411              ; draw dl=0.40@10<10>10 l=0.30x0.50x1.00
;00:09:59.912: pe=0.9899 eb=0.0240 ve=0.6236 vn=0.6182 vl=10.000 db=0.50
G1 X48.43 Y44.58 E132.6641              ; draw dl=0.37@10<10>10 l=0.30x0.50x1.00
;00:09:59.949: pe=0.9901 eb=0.0241 ve=0.6236 vn=0.6183 vl=10.000 db=0.50
G1 X48.53 Y44.45 E132.6743              ; draw dl=0.16@10<10>10 l=0.30x0.50x1.00
;00:09:59.965: pe=0.9902 eb=0.0241 ve=0.6236 vn=0.6183 vl=10.000 db=0.50
G1 X48.66 Y44.04 E132.7012              ; draw dl=0.43@10<10>10 l=0.30x0.50x1.00
;00:10:00.008: pe=0.9904 eb=0.0241 ve=0.6236 vn=0.6185 vl=10.000 db=0.50
G1 X48.61 Y43.80 E132.7164              ; draw dl=0.25@10<10>10 l=0.30x0.50x1.00
;00:10:00.032: pe=0.9906 eb=0.0241 ve=0.6236 vn=0.6185 vl=10.000 db=0.50
G1 X48.50 Y43.56 E132.7329              ; draw dl=0.26@10<10>10 l=0.30x0.50x1.00
;00:10:00.059: pe=0.9907 eb=0.0241 ve=0.6236 vn=0.6186 vl=10.000 db=0.50
G1 X48.28 Y43.36 E132.7514              ; draw dl=0.30@10<10>10 l=0.30x0.50x1.00
;00:10:00.089: pe=0.9908 eb=0.0241 ve=0.6236 vn=0.6187 vl=10.000 db=0.50
G1 X47.51 Y43.18 E132.8008              ; draw dl=0.79@10<10>0 l=0.30x0.50x1.00
;00:10:00.178: pe=0.9855 eb=0.0297 ve=0.0000 vn=0.5437 vl=0.000 db=0.55
G1 E130.8152 F2400                      ; retract de=-1.9855@40
;00:10:00.227: pe=-1.0025 eb=0.0322 ve=-40.0000 vn=0.0000 vl=0.000 db=0.57
G1 Z0.700 F420                          ; hopup dz=0.40@7 h=0.7
;00:10:00.284: pe=-1.0025 eb=0.0322 ve=0.0000 vn=0.0000 vl=0.000 db=0.38
G1 X46.50 Y43.18 F953                   ; move dl=1.01@0<16>0 de=0.0000 h=0.7
;00:10:00.380: pe=-1.0025 eb=0.0000 ve=0.0000 vn=0.0000 vl=0.000 db=0.00
G1 Z0.300 F420                          ; hopdn dz=-0.40@7 h=0.3
;00:10:00.437: pe=-1.0025 eb=0.0000 ve=0.0000 vn=0.0000 vl=0.000 db=0.00
G1 E132.7962 F1800                      ; restore de=1.9809@30
;00:10:00.503: pe=0.9654 eb=0.0130 ve=30.0000 vn=0.7514 vl=0.000 db=0.36
G1 X47.51 Y43.18 E132.8592 F600         ; draw dl=1.01@0<10>10 l=0.30x0.50x1.00
;00:10:00.614: pe=0.9598 eb=0.0224 ve=0.6236 vn=0.6016 vl=10.000 db=0.48
G1 X48.02 Y43.00 E132.8929              ; draw dl=0.54@10<10>10 l=0.30x0.50x1.00
;00:10:00.668: pe=0.9610 eb=0.0226 ve=0.6236 vn=0.6009 vl=10.000 db=0.48
G1 X48.41 Y42.38 E132.9386              ; draw dl=0.73@10<10>10 l=0.30x0.50x1.00
;00:10:00.741: pe=0.9627 eb=0.0227 ve=0.6236 vn=0.6016 vl=10.000 db=0.48
