;gcode_flavor: flashforge
;machine_type: Adventurer 3 Series
;filament_diameter0: 1.75
;right_extruder_temperature: 210
;platform_temperature: 50
;extruder_fan: 100%
;case_fan: 100%
;base_print_speed: 60
;travel_speed: 100
;vertical_speed: 7
;retract_speed: 40
;restore_speed: 30
;layer_height: 0.30
;line_width: 0.50
;extrusion_ratio: 1.00
;command_line: ./gcodetest.py -Te=210 -Tp=50 -Fe=1.0 -Fc=1.0 -Kf=1.0 -Kb=1.0 -Re=1.0 -R
;start gcode
M118 X75.00 Y75.00 Z150.00 T0
M140 S50 T0
M104 S210 T0
M104 S0 T1
M107
M900 K0.000 T0
G90
G28
M132 X Y Z A B
G1 Z50.000 F420
G161 X Y F3300
M7 T0
M6 T0
M652 S255
M108 T0
M106
;preExtrude:0.20
;structure:pre-extrude
G1 X-55.00 Y-65.00 F6000
G1 Z0.200 F420
G1 E4.5044 F1800
G1 X-55.00 Y55.00 E24.4605 F1200
G1 E18.2248 F2400
G1 Z0.400 F420
;layer:0.30
;structure:brim
;structure:shell-outer
G1 X-42.50 Y59.88 F6000
G1 Z0.300 F420
G1 E20.2138 F1800
G1 X-42.50 Y56.48 E20.4259 F600
G1 E18.5085 F2400
G1 Z0.500 F420
G1 X-40.04 Y56.48 F6000
G1 Z0.300 F420
G1 E20.3974 F1800
G1 X-41.53 Y58.51 E20.5544 F600
G1 E18.6545 F2400
G1 Z0.500 F420
G1 X-42.50 Y57.67 F6000
G1 Z0.300 F420
G1 E20.5519 F1800
G1 X-39.98 Y59.88 E20.7609 F600
G1 E18.8444 F2400
G1 Z0.500 F420
G1 X-37.73 Y59.90 F6000
G1 Z0.300 F420
G1 E20.7496 F1800
G1 X-37.88 Y59.90 E20.7590 F600
G1 X-38.06 Y59.86 E20.7705
G1 X-38.22 Y59.73 E20.7833
G1 X-38.34 Y59.54 E20.7974
G1 X-38.42 Y59.17 E20.8210
G1 X-38.42 Y56.48 E20.9887
G1 E19.0609 F2400
G1 Z0.500 F420
G1 X-38.92 Y58.76 F6000
G1 Z0.300 F420
G1 E20.9086 F1800
G1 X-37.84 Y58.76 E20.9760 F600
G1 E19.1314 F2400
G1 Z0.500 F420
G1 X-36.66 Y58.26 F6000
G1 Z0.300 F420
G1 E21.0038 F1800
G1 X-34.97 Y58.26 E21.1092 F600
G1 E19.2336 F2400
G1 Z0.500 F420
G1 X-34.97 Y57.55 F6000
G1 Z0.300 F420
G1 E21.1061 F1800
G1 X-36.66 Y57.55 E21.2115 F600
G1 E19.3359 F2400
G1 Z0.500 F420
G1 X-33.91 Y59.00 F6000
G1 Z0.300 F420
G1 E21.2373 F1800
G1 X-33.44 Y59.24 E21.2702 F600
G1 X-33.07 Y59.55 E21.3003
G1 X-32.82 Y59.88 E21.3261
G1 X-32.82 Y56.48 E21.5382
G1 E19.6042 F2400
G1 Z0.500 F420
G1 X-31.76 Y56.71 F6000
G1 Z0.300 F420
G1 E21.1598 F1800
G1 X-31.76 Y56.65 E21.1635 F600
G1 E19.6170 F2400
G1 Z0.500 F420
G1 X-29.48 Y59.94 F6000
G1 Z0.300 F420
G1 E21.5322 F1800
G1 X-28.97 Y59.80 E21.5651 F600
G1 X-28.58 Y59.42 E21.5991
G1 X-28.34 Y58.86 E21.6371
G1 X-28.26 Y58.18 E21.6798
G1 X-28.34 Y57.51 E21.7219
G1 X-28.58 Y56.95 E21.7599
G1 X-28.97 Y56.56 E21.7943
G1 X-29.48 Y56.42 E21.8273
G1 X-30.00 Y56.56 E21.8609
G1 X-30.38 Y56.95 E21.8948
G1 X-30.62 Y57.51 E21.9328
G1 X-30.70 Y58.18 E21.9749
G1 X-30.62 Y58.85 E22.0170
G1 X-30.38 Y59.42 E22.0556
G1 X-30.00 Y59.80 E22.0891
G1 X-29.48 Y59.94 E22.1227
G1 E20.1379 F2400
G1 Z0.500 F420
G1 X-23.89 Y59.88 F6000
G1 Z0.300 F420
G1 E22.0362 F1800
G1 X-23.89 Y56.48 E22.2483 F600
G1 E20.3308 F2400
G1 Z0.500 F420
G1 X-21.43 Y56.48 F6000
G1 Z0.300 F420
G1 E22.2198 F1800
G1 X-22.92 Y58.51 E22.3768 F600
G1 E20.4769 F2400
G1 Z0.500 F420
G1 X-23.89 Y57.67 F6000
G1 Z0.300 F420
G1 E22.3743 F1800
G1 X-21.37 Y59.88 E22.5834 F600
G1 E20.6668 F2400
G1 Z0.500 F420
G1 X-20.30 Y59.88 F6000
G1 Z0.300 F420
G1 E22.5647 F1800
G1 X-20.30 Y56.48 E22.7768 F600
G1 E20.8593 F2400
G1 Z0.500 F420
G1 X-20.30 Y56.98 F6000
G1 Z0.300 F420
G1 E22.7720 F1800
G1 X-20.05 Y56.74 E22.7936 F600
G1 X-19.66 Y56.49 E22.8225
G1 X-19.28 Y56.42 E22.8466
G1 X-18.90 Y56.51 E22.8709
G1 X-18.59 Y56.77 E22.8962
G1 X-18.39 Y57.18 E22.9246
G1 X-18.32 Y57.71 E22.9580
G1 X-18.38 Y58.22 E22.9900
G1 X-18.56 Y58.61 E23.0168
G1 X-18.85 Y58.86 E23.0407
G1 X-19.25 Y58.95 E23.0662
G1 X-19.44 Y58.93 E23.0782
G1 X-19.64 Y58.85 E23.0916
G1 X-19.85 Y58.72 E23.1070
G1 X-20.05 Y58.50 E23.1255
G1 X-20.30 Y58.03 E23.1587
G1 E21.2025 F2400
G1 Z0.500 F420
G1 X-17.26 Y58.26 F6000
G1 Z0.300 F420
G1 E23.0755 F1800
G1 X-15.57 Y58.26 E23.1809 F600
G1 E21.3052 F2400
G1 Z0.500 F420
G1 X-15.57 Y57.55 F6000
G1 Z0.300 F420
G1 E23.1778 F1800
G1 X-17.26 Y57.55 E23.2832 F600
G1 E21.4075 F2400
G1 Z0.500 F420
G1 X-14.51 Y59.00 F6000
G1 Z0.300 F420
G1 E23.3090 F1800
G1 X-14.04 Y59.24 E23.3419 F600
G1 X-13.67 Y59.55 E23.3720
G1 X-13.42 Y59.88 E23.3978
G1 X-13.42 Y56.48 E23.6099
G1 E21.6758 F2400
G1 Z0.500 F420
G1 X-12.36 Y56.71 F6000
G1 Z0.300 F420
G1 E23.2315 F1800
G1 X-12.36 Y56.65 E23.2352 F600
G1 E21.6886 F2400
G1 Z0.500 F420
G1 X-10.08 Y59.94 F6000
G1 Z0.300 F420
G1 E23.6038 F1800
G1 X-9.57 Y59.80 E23.6368 F600
G1 X-9.18 Y59.42 E23.6708
G1 X-8.94 Y58.86 E23.7088
G1 X-8.86 Y58.18 E23.7515
G1 X-8.94 Y57.51 E23.7936
G1 X-9.18 Y56.95 E23.8316
G1 X-9.57 Y56.56 E23.8660
G1 X-10.08 Y56.42 E23.8989
G1 X-10.60 Y56.56 E23.9325
G1 X-10.98 Y56.95 E23.9665
G1 X-11.22 Y57.51 E24.0045
G1 X-11.30 Y58.18 E24.0466
G1 X-11.22 Y58.85 E24.0887
G1 X-10.98 Y59.42 E24.1272
G1 X-10.60 Y59.80 E24.1607
G1 X-10.08 Y59.94 E24.1943
G1 E22.2096 F2400
G1 Z0.500 F420
G1 X-4.48 Y56.48 F6000
G1 Z0.300 F420
G1 E24.1234 F1800
G1 X-4.48 Y59.88 E24.3354 F600
G1 X-3.25 Y59.88 E24.4121
G1 X-2.86 Y59.78 E24.4373
G1 X-2.55 Y59.58 E24.4603
G1 X-2.45 Y59.45 E24.4705
G1 X-2.32 Y59.04 E24.4973
G1 X-2.37 Y58.80 E24.5126
G1 X-2.48 Y58.56 E24.5291
G1 X-2.70 Y58.36 E24.5476
G1 X-3.47 Y58.18 E24.5969
G1 E22.6286 F2400
G1 Z0.500 F420
G1 X-4.48 Y58.18 F6000
G1 Z0.300 F420
G1 E24.5264 F1800
G1 X-3.47 Y58.18 E24.5894 F600
G1 X-2.96 Y58.00 E24.6232
G1 X-2.57 Y57.38 E24.6688
G1 X-2.32 Y56.48 E24.7271
G1 E22.8120 F2400
G1 Z0.500 F420
G1 X-1.26 Y57.69 F6000
G1 Z0.300 F420
G1 E24.7281 F1800
G1 X0.88 Y57.69 E24.8616 F600
G1 X0.80 Y58.22 E24.8950
G1 X0.59 Y58.61 E24.9227
G1 X0.25 Y58.86 E24.9490
G1 X-0.19 Y58.95 E24.9770
G1 X-0.62 Y58.86 E25.0044
G1 X-0.96 Y58.61 E25.0307
G1 X-1.18 Y58.22 E25.0586
G1 X-1.26 Y57.69 E25.0921
G1 X-1.18 Y57.15 E25.1261
G1 X-0.95 Y56.75 E25.1549
G1 X-0.60 Y56.51 E25.1814
G1 X-0.14 Y56.42 E25.2106
G1 X0.20 Y56.47 E25.2320
G1 X0.49 Y56.61 E25.2521
G1 X0.70 Y56.83 E25.2711
G1 X0.82 Y57.13 E25.2912
G1 E23.3101 F2400
G1 Z0.500 F420
G1 X1.94 Y58.26 F6000
G1 Z0.300 F420
G1 E25.1833 F1800
G1 X3.63 Y58.26 E25.2887 F600
G1 E23.4130 F2400
G1 Z0.500 F420
G1 X3.63 Y57.55 F6000
G1 Z0.300 F420
G1 E25.2856 F1800
G1 X1.94 Y57.55 E25.3910 F600
G1 E23.5153 F2400
G1 Z0.500 F420
G1 X4.69 Y59.00 F6000
G1 Z0.300 F420
G1 E25.4168 F1800
G1 X5.16 Y59.24 E25.4497 F600
G1 X5.53 Y59.55 E25.4798
G1 X5.78 Y59.88 E25.5056
G1 X5.78 Y56.48 E25.7176
G1 E23.7836 F2400
G1 Z0.500 F420
G1 X6.84 Y56.71 F6000
G1 Z0.300 F420
G1 E25.3392 F1800
G1 X6.84 Y56.65 E25.3429 F600
G1 E23.7964 F2400
G1 Z0.500 F420
G1 X9.12 Y59.94 F6000
G1 Z0.300 F420
G1 E25.7116 F1800
G1 X9.63 Y59.80 E25.7446 F600
G1 X10.02 Y59.42 E25.7785
G1 X10.26 Y58.86 E25.8165
G1 X10.34 Y58.18 E25.8592
G1 X10.26 Y57.51 E25.9013
G1 X10.02 Y56.95 E25.9393
G1 X9.63 Y56.56 E25.9737
G1 X9.12 Y56.42 E26.0067
G1 X8.60 Y56.56 E26.0403
G1 X8.22 Y56.95 E26.0742
G1 X7.98 Y57.51 E26.1122
G1 X7.90 Y58.18 E26.1543
G1 X7.98 Y58.85 E26.1964
G1 X8.22 Y59.42 E26.2350
G1 X8.60 Y59.80 E26.2685
G1 X9.12 Y59.94 E26.3021
G1 E24.3173 F2400
G1 Z0.500 F420
;structure:brim
G1 X-45.00 Y60.00 F6000
G1 Z0.300 F420
G1 E26.2429 F1800
G1 X-45.00 Y-61.00 E33.7894 F600
G1 X-45.50 Y-61.00 E33.8206
G1 X-45.50 Y60.00 E41.3671
G1 E39.2492 F2400
G1 Z0.500 F420
G1 X45.00 Y60.00 F6000
G1 Z0.300 F420
G1 E41.1757 F1800
G1 X45.00 Y-61.00 E48.7222 F600
G1 X45.50 Y-61.00 E48.7534
G1 X45.50 Y60.00 E56.2999
G1 E54.1820 F2400
G1 Z0.500 F420
;structure:shell-outer
G1 X-45.00 Y55.00 F6000
G1 Z0.300 F420
G1 E56.1078 F1800
G1 X45.00 Y55.00 E61.7209 F600
G1 E59.6046 F2400
G1 Z0.500 F420
G1 X-42.00 Y55.00 F6000
G1 X-40.00 Y55.00
G1 Z0.300 F420
G1 E61.5003 F1800
G1 X-40.00 Y52.00 E61.6874 F600
G1 E59.7772 F2400
G1 Z0.500 F420
G1 X-38.00 Y55.00 F6000
G1 Z0.300 F420
G1 E61.6442 F1800
G1 X-38.00 Y53.50 E61.7377 F600
G1 E59.8698 F2400
G1 Z0.500 F420
G1 X-36.00 Y55.00 F6000
G1 Z0.300 F420
G1 E61.7365 F1800
G1 X-36.00 Y53.50 E61.8300 F600
G1 E59.9621 F2400
G1 Z0.500 F420
G1 X-34.00 Y55.00 F6000
G1 Z0.300 F420
G1 E61.8288 F1800
G1 X-34.00 Y53.50 E61.9223 F600
G1 E60.0544 F2400
G1 Z0.500 F420
G1 X-32.00 Y55.00 F6000
G1 Z0.300 F420
G1 E61.9211 F1800
G1 X-32.00 Y53.50 E62.0146 F600
G1 E60.1467 F2400
G1 Z0.500 F420
G1 X-30.00 Y55.00 F6000
G1 Z0.300 F420
G1 E62.0409 F1800
G1 X-30.00 Y52.00 E62.2280 F600
G1 E60.3178 F2400
G1 Z0.500 F420
G1 X-28.00 Y55.00 F6000
G1 Z0.300 F420
G1 E62.1847 F1800
G1 X-28.00 Y53.50 E62.2783 F600
G1 E60.4103 F2400
G1 Z0.500 F420
G1 X-26.00 Y55.00 F6000
G1 Z0.300 F420
G1 E62.2770 F1800
G1 X-26.00 Y53.50 E62.3706 F600
G1 E60.5026 F2400
G1 Z0.500 F420
G1 X-24.00 Y55.00 F6000
G1 Z0.300 F420
G1 E62.3693 F1800
G1 X-24.00 Y53.50 E62.4629 F600
G1 E60.5949 F2400
G1 Z0.500 F420
G1 X-22.00 Y55.00 F6000
G1 Z0.300 F420
G1 E62.4616 F1800
G1 X-22.00 Y53.50 E62.5552 F600
G1 E60.6872 F2400
G1 Z0.500 F420
G1 X-20.00 Y55.00 F6000
G1 Z0.300 F420
G1 E62.5814 F1800
G1 X-20.00 Y52.00 E62.7685 F600
G1 E60.8584 F2400
G1 Z0.500 F420
G1 X-18.00 Y55.00 F6000
G1 Z0.300 F420
G1 E62.7253 F1800
G1 X-18.00 Y53.50 E62.8188 F600
G1 E60.9509 F2400
G1 Z0.500 F420
G1 X-16.00 Y55.00 F6000
G1 Z0.300 F420
G1 E62.8176 F1800
G1 X-16.00 Y53.50 E62.9111 F600
G1 E61.0432 F2400
G1 Z0.500 F420
G1 X-14.00 Y55.00 F6000
G1 Z0.300 F420
G1 E62.9099 F1800
G1 X-14.00 Y53.50 E63.0034 F600
G1 E61.1355 F2400
G1 Z0.500 F420
G1 X-12.00 Y55.00 F6000
G1 Z0.300 F420
G1 E63.0022 F1800
G1 X-12.00 Y53.50 E63.0957 F600
G1 E61.2278 F2400
G1 Z0.500 F420
G1 X-10.00 Y55.00 F6000
G1 Z0.300 F420
G1 E63.1220 F1800
G1 X-10.00 Y52.00 E63.3091 F600
G1 E61.3989 F2400
G1 Z0.500 F420
G1 X-8.00 Y55.00 F6000
G1 Z0.300 F420
G1 E63.2659 F1800
G1 X-8.00 Y53.50 E63.3594 F600
G1 E61.4915 F2400
G1 Z0.500 F420
G1 X-6.00 Y55.00 F6000
G1 Z0.300 F420
G1 E63.3582 F1800
G1 X-6.00 Y53.50 E63.4517 F600
G1 E61.5837 F2400
G1 Z0.500 F420
G1 X-4.00 Y55.00 F6000
G1 Z0.300 F420
G1 E63.4504 F1800
G1 X-4.00 Y53.50 E63.5440 F600
G1 E61.6760 F2400
G1 Z0.500 F420
G1 X-2.00 Y55.00 F6000
G1 Z0.300 F420
G1 E63.5427 F1800
G1 X-2.00 Y53.50 E63.6363 F600
G1 E61.7683 F2400
G1 Z0.500 F420
G1 X0.00 Y55.00 F6000
G1 Z0.300 F420
G1 E63.6626 F1800
G1 X0.00 Y52.00 E63.8497 F600
G1 E61.9395 F2400
G1 Z0.500 F420
G1 X2.00 Y55.00 F6000
G1 Z0.300 F420
G1 E63.8064 F1800
G1 X2.00 Y53.50 E63.9000 F600
G1 E62.0320 F2400
G1 Z0.500 F420
G1 X4.00 Y55.00 F6000
G1 Z0.300 F420
G1 E63.8987 F1800
G1 X4.00 Y53.50 E63.9923 F600
G1 E62.1243 F2400
G1 Z0.500 F420
G1 X6.00 Y55.00 F6000
G1 Z0.300 F420
G1 E63.9910 F1800
G1 X6.00 Y53.50 E64.0846 F600
G1 E62.2166 F2400
G1 Z0.500 F420
G1 X8.00 Y55.00 F6000
G1 Z0.300 F420
G1 E64.0833 F1800
G1 X8.00 Y53.50 E64.1769 F600
G1 E62.3089 F2400
G1 Z0.500 F420
G1 X10.00 Y55.00 F6000
G1 Z0.300 F420
G1 E64.2031 F1800
G1 X10.00 Y52.00 E64.3902 F600
G1 E62.4801 F2400
G1 Z0.500 F420
G1 X12.00 Y55.00 F6000
G1 Z0.300 F420
G1 E64.3470 F1800
G1 X12.00 Y53.50 E64.4405 F600
G1 E62.5726 F2400
G1 Z0.500 F420
G1 X14.00 Y55.00 F6000
G1 Z0.300 F420
G1 E64.4393 F1800
G1 X14.00 Y53.50 E64.5328 F600
G1 E62.6649 F2400
G1 Z0.500 F420
G1 X16.00 Y55.00 F6000
G1 Z0.300 F420
G1 E64.5316 F1800
G1 X16.00 Y53.50 E64.6251 F600
G1 E62.7572 F2400
G1 Z0.500 F420
G1 X18.00 Y55.00 F6000
G1 Z0.300 F420
G1 E64.6239 F1800
G1 X18.00 Y53.50 E64.7174 F600
G1 E62.8495 F2400
G1 Z0.500 F420
G1 X20.00 Y55.00 F6000
G1 Z0.300 F420
G1 E64.7437 F1800
G1 X20.00 Y52.00 E64.9308 F600
G1 E63.0206 F2400
G1 Z0.500 F420
G1 X22.00 Y55.00 F6000
G1 Z0.300 F420
G1 E64.8875 F1800
G1 X22.00 Y53.50 E64.9811 F600
G1 E63.1131 F2400
G1 Z0.500 F420
G1 X24.00 Y55.00 F6000
G1 Z0.300 F420
G1 E64.9798 F1800
G1 X24.00 Y53.50 E65.0734 F600
G1 E63.2054 F2400
G1 Z0.500 F420
G1 X26.00 Y55.00 F6000
G1 Z0.300 F420
G1 E65.0721 F1800
G1 X26.00 Y53.50 E65.1657 F600
G1 E63.2977 F2400
G1 Z0.500 F420
G1 X28.00 Y55.00 F6000
G1 Z0.300 F420
G1 E65.1644 F1800
G1 X28.00 Y53.50 E65.2580 F600
G1 E63.3900 F2400
G1 Z0.500 F420
G1 X30.00 Y55.00 F6000
G1 Z0.300 F420
G1 E65.2842 F1800
G1 X30.00 Y52.00 E65.4713 F600
G1 E63.5612 F2400
G1 Z0.500 F420
G1 X32.00 Y55.00 F6000
G1 Z0.300 F420
G1 E65.4281 F1800
G1 X32.00 Y53.50 E65.5217 F600
G1 E63.6537 F2400
G1 Z0.500 F420
G1 X34.00 Y55.00 F6000
G1 Z0.300 F420
G1 E65.5204 F1800
G1 X34.00 Y53.50 E65.6140 F600
G1 E63.7460 F2400
G1 Z0.500 F420
G1 X36.00 Y55.00 F6000
G1 Z0.300 F420
G1 E65.6127 F1800
G1 X36.00 Y53.50 E65.7063 F600
G1 E63.8383 F2400
G1 Z0.500 F420
G1 X38.00 Y55.00 F6000
G1 Z0.300 F420
G1 E65.7050 F1800
G1 X38.00 Y53.50 E65.7985 F600
G1 E63.9306 F2400
G1 Z0.500 F420
G1 X40.00 Y55.00 F6000
G1 Z0.300 F420
G1 E65.8248 F1800
G1 X40.00 Y52.00 E66.0119 F600
G1 E64.1018 F2400
G1 Z0.500 F420
;structure:brim
;structure:shell-outer
G1 X46.50 Y54.88 F6000
G1 Z0.300 F420
G1 E65.9996 F1800
G1 X46.50 Y51.48 E66.2117 F600
G1 E64.2943 F2400
G1 Z0.500 F420
G1 X48.96 Y51.48 F6000
G1 Z0.300 F420
G1 E66.1832 F1800
G1 X47.47 Y53.51 E66.3403 F600
G1 E64.4403 F2400
G1 Z0.500 F420
G1 X46.50 Y52.67 F6000
G1 Z0.300 F420
G1 E66.3378 F1800
G1 X49.02 Y54.88 E66.5468 F600
G1 E64.6302 F2400
G1 Z0.500 F420
G1 X50.08 Y54.88 F6000
G1 Z0.300 F420
G1 E66.5282 F1800
G1 X50.08 Y51.48 E66.7402 F600
G1 E64.8228 F2400
G1 Z0.500 F420
G1 X50.08 Y51.98 F6000
G1 Z0.300 F420
G1 E66.7354 F1800
G1 X50.33 Y51.74 E66.7570 F600
G1 X50.72 Y51.49 E66.7859
G1 X51.10 Y51.42 E66.8100
G1 X51.48 Y51.51 E66.8344
G1 X51.79 Y51.77 E66.8596
G1 X51.99 Y52.18 E66.8881
G1 X52.06 Y52.71 E66.9214
G1 X52.00 Y53.22 E66.9534
G1 X51.82 Y53.61 E66.9802
G1 X51.53 Y53.86 E67.0041
G1 X51.13 Y53.95 E67.0297
G1 X50.94 Y53.93 E67.0416
G1 X50.74 Y53.85 E67.0550
G1 X50.53 Y53.72 E67.0704
G1 X50.33 Y53.50 E67.0890
G1 X50.08 Y53.03 E67.1222
G1 E65.1659 F2400
G1 Z0.500 F420
G1 X53.12 Y53.26 F6000
G1 Z0.300 F420
G1 E67.0389 F1800
G1 X54.81 Y53.26 E67.1443 F600
G1 E65.2687 F2400
G1 Z0.500 F420
G1 X54.81 Y52.55 F6000
G1 Z0.300 F420
G1 E67.1412 F1800
G1 X53.12 Y52.55 E67.2466 F600
G1 E65.3710 F2400
G1 Z0.500 F420
G1 X57.10 Y54.94 F6000
G1 Z0.300 F420
G1 E67.2874 F1800
G1 X57.61 Y54.80 E67.3204 F600
G1 X58.00 Y54.42 E67.3544
G1 X58.23 Y53.86 E67.3921
G1 X58.31 Y53.18 E67.4348
G1 X58.23 Y52.51 E67.4769
G1 X58.00 Y51.95 E67.5147
G1 X57.61 Y51.56 E67.5491
G1 X57.10 Y51.42 E67.5821
G1 X56.57 Y51.56 E67.6162
G1 X56.20 Y51.95 E67.6498
G1 X55.96 Y52.51 E67.6878
G1 X55.88 Y53.18 E67.7298
G1 X55.96 Y53.85 E67.7719
G1 X56.20 Y54.42 E67.8105
G1 X56.57 Y54.80 E67.8436
G1 X57.10 Y54.94 E67.8777
G1 E65.8931 F2400
G1 Z0.500 F420
G1 X59.38 Y51.71 F6000
G1 Z0.300 F420
G1 E67.4490 F1800
G1 X59.38 Y51.65 E67.4527 F600
G1 E65.9062 F2400
G1 Z0.500 F420
G1 X61.66 Y54.94 F6000
G1 Z0.300 F420
G1 E67.8214 F1800
G1 X62.17 Y54.80 E67.8544 F600
G1 X62.56 Y54.42 E67.8883
G1 X62.80 Y53.86 E67.9263
G1 X62.88 Y53.18 E67.9690
G1 X62.80 Y52.51 E68.0111
G1 X62.56 Y51.95 E68.0491
G1 X62.17 Y51.56 E68.0835
G1 X61.66 Y51.42 E68.1165
G1 X61.14 Y51.56 E68.1501
G1 X60.76 Y51.95 E68.1840
G1 X60.52 Y52.51 E68.2220
G1 X60.44 Y53.18 E68.2641
G1 X60.52 Y53.85 E68.3062
G1 X60.76 Y54.42 E68.3448
G1 X61.14 Y54.80 E68.3783
G1 X61.66 Y54.94 E68.4119
G1 E66.4271 F2400
G1 Z0.500 F420
G1 X63.95 Y52.90 F6000
G1 Z0.300 F420
G1 E68.3049 F1800
G1 X65.82 Y52.90 E68.4216 F600
G1 E66.5395 F2400
G1 Z0.500 F420
G1 X68.59 Y51.48 F6000
G1 Z0.300 F420
G1 E68.4491 F1800
G1 X68.59 Y54.88 E68.6612 F600
G1 X66.88 Y52.65 E68.8364
G1 X69.18 Y52.65 E68.9799
G1 E67.0082 F2400
G1 Z0.500 F420
G1 X70.25 Y51.71 F6000
G1 Z0.300 F420
G1 E68.5640 F1800
G1 X70.25 Y51.65 E68.5678 F600
G1 E67.0212 F2400
G1 Z0.500 F420
G1 X72.53 Y54.94 F6000
G1 Z0.300 F420
G1 E68.9364 F1800
G1 X73.04 Y54.80 E68.9694 F600
G1 X73.43 Y54.42 E69.0034
G1 X73.67 Y53.86 E69.0414
G1 X73.75 Y53.18 E69.0841
G1 X73.67 Y52.51 E69.1261
G1 X73.43 Y51.95 E69.1641
G1 X73.04 Y51.56 E69.1985
G1 X72.53 Y51.42 E69.2315
G1 X72.01 Y51.56 E69.2651
G1 X71.63 Y51.95 E69.2991
G1 X71.39 Y52.51 E69.3371
G1 X71.31 Y53.18 E69.3791
G1 X71.39 Y53.85 E69.4212
G1 X71.63 Y54.42 E69.4598
G1 X72.01 Y54.80 E69.4933
G1 X72.53 Y54.94 E69.5269
G1 E67.5422 F2400
G1 Z0.500 F420
G1 X46.50 Y46.48 F6000
G1 Z0.300 F420
G1 E69.4560 F1800
G1 X46.50 Y49.88 E69.6680 F600
G1 X47.73 Y49.88 E69.7447
G1 X48.12 Y49.78 E69.7698
G1 X48.43 Y49.58 E69.7928
G1 X48.53 Y49.45 E69.8031
G1 X48.66 Y49.04 E69.8299
G1 X48.61 Y48.80 E69.8452
G1 X48.50 Y48.56 E69.8616
G1 X48.28 Y48.36 E69.8802
G1 X47.51 Y48.18 E69.9295
G1 E67.9612 F2400
G1 Z0.500 F420
G1 X46.50 Y48.18 F6000
G1 Z0.300 F420
G1 E69.8590 F1800
G1 X47.51 Y48.18 E69.9220 F600
G1 X48.02 Y48.00 E69.9557
G1 X48.41 Y47.38 E70.0014
G1 X48.66 Y46.48 E70.0597
G1 E68.1446 F2400
G1 Z0.500 F420
G1 X49.72 Y47.69 F6000
G1 Z0.300 F420
G1 E70.0607 F1800
G1 X51.86 Y47.69 E70.1942 F600
G1 X51.78 Y48.22 E70.2276
G1 X51.57 Y48.61 E70.2552
G1 X51.23 Y48.86 E70.2816
G1 X50.79 Y48.95 E70.3096
G1 X50.36 Y48.86 E70.3370
G1 X50.02 Y48.61 E70.3633
G1 X49.80 Y48.22 E70.3912
G1 X49.72 Y47.69 E70.4246
G1 X49.80 Y47.15 E70.4587
G1 X50.03 Y46.75 E70.4875
G1 X50.38 Y46.51 E70.5139
G1 X50.84 Y46.42 E70.5432
G1 X51.18 Y46.47 E70.5646
G1 X51.47 Y46.61 E70.5847
G1 X51.68 Y46.83 E70.6036
G1 X51.80 Y47.13 E70.6238
G1 E68.6427 F2400
G1 Z0.500 F420
G1 X52.92 Y48.26 F6000
G1 Z0.300 F420
G1 E70.5158 F1800
G1 X54.61 Y48.26 E70.6212 F600
G1 E68.7455 F2400
G1 Z0.500 F420
G1 X54.61 Y47.55 F6000
G1 Z0.300 F420
G1 E70.6181 F1800
G1 X52.92 Y47.55 E70.7235 F600
G1 E68.8478 F2400
G1 Z0.500 F420
G1 X56.89 Y49.94 F6000
G1 Z0.300 F420
G1 E70.7644 F1800
G1 X57.40 Y49.80 E70.7974 F600
G1 X57.79 Y49.42 E70.8313
G1 X58.03 Y48.86 E70.8693
G1 X58.11 Y48.18 E70.9120
G1 X58.03 Y47.51 E70.9541
G1 X57.79 Y46.95 E70.9921
G1 X57.40 Y46.56 E71.0265
G1 X56.89 Y46.42 E71.0595
G1 X56.37 Y46.56 E71.0931
G1 X55.99 Y46.95 E71.1270
G1 X55.75 Y47.51 E71.1650
G1 X55.67 Y48.18 E71.2071
G1 X55.75 Y48.85 E71.2492
G1 X55.99 Y49.42 E71.2877
G1 X56.37 Y49.80 E71.3213
G1 X56.89 Y49.94 E71.3548
G1 E69.3701 F2400
G1 Z0.500 F420
G1 X59.18 Y46.71 F6000
G1 Z0.300 F420
G1 E70.9260 F1800
G1 X59.18 Y46.65 E70.9298 F600
G1 E69.3832 F2400
G1 Z0.500 F420
G1 X62.23 Y49.88 F6000
G1 Z0.300 F420
G1 E71.2957 F1800
G1 X60.48 Y49.88 E71.4048 F600
G1 X60.34 Y48.14 E71.5137
G1 X60.62 Y48.45 E71.5397
G1 X60.79 Y48.57 E71.5527
G1 X60.98 Y48.64 E71.5653
G1 X61.17 Y48.67 E71.5773
G1 X61.37 Y48.68 E71.5898
G1 X61.78 Y48.59 E71.6160
G1 X62.10 Y48.37 E71.6402
G1 X62.31 Y48.03 E71.6651
G1 X62.39 Y47.61 E71.6918
G1 X62.32 Y47.14 E71.7214
G1 X62.11 Y46.77 E71.7480
G1 X61.76 Y46.51 E71.7752
G1 X61.26 Y46.42 E71.8069
G1 X60.89 Y46.48 E71.8302
G1 X60.58 Y46.64 E71.8520
G1 X60.36 Y46.91 E71.8737
G1 X60.24 Y47.27 E71.8974
G1 E69.9139 F2400
G1 Z0.500 F420
G1 X46.50 Y43.89 F6000
G1 Z0.300 F420
G1 E71.8182 F1800
G1 X47.52 Y41.48 E71.9814 F600
G1 X48.54 Y43.89 E72.1446
G1 E70.2046 F2400
G1 Z0.500 F420
G1 X49.60 Y42.69 F6000
G1 Z0.300 F420
G1 E72.1209 F1800
G1 X51.74 Y42.69 E72.2543 F600
G1 X51.66 Y43.22 E72.2877
G1 X51.45 Y43.61 E72.3154
G1 X51.11 Y43.86 E72.3417
G1 X50.67 Y43.95 E72.3697
G1 X50.24 Y43.86 E72.3971
G1 X49.90 Y43.61 E72.4234
G1 X49.68 Y43.22 E72.4513
G1 X49.60 Y42.69 E72.4848
G1 X49.68 Y42.15 E72.5188
G1 X49.91 Y41.75 E72.5476
G1 X50.26 Y41.51 E72.5741
G1 X50.72 Y41.42 E72.6033
G1 X51.06 Y41.47 E72.6247
G1 X51.35 Y41.61 E72.6448
G1 X51.56 Y41.83 E72.6638
G1 X51.68 Y42.13 E72.6839
G1 E70.7028 F2400
G1 Z0.500 F420
G1 X52.80 Y43.26 F6000
G1 Z0.300 F420
G1 E72.5760 F1800
G1 X54.49 Y43.26 E72.6813 F600
G1 E70.8057 F2400
G1 Z0.500 F420
G1 X54.49 Y42.55 F6000
G1 Z0.300 F420
G1 E72.6783 F1800
G1 X52.80 Y42.55 E72.7836 F600
G1 E70.9080 F2400
G1 Z0.500 F420
G1 X55.55 Y44.00 F6000
G1 Z0.300 F420
G1 E72.8094 F1800
G1 X56.02 Y44.24 E72.8424 F600
G1 X56.39 Y44.55 E72.8725
G1 X56.64 Y44.88 E72.8983
G1 X56.64 Y41.48 E73.1103
G1 E71.1763 F2400
G1 Z0.500 F420
G1 X57.70 Y41.71 F6000
G1 Z0.300 F420
G1 E72.7319 F1800
G1 X57.70 Y41.65 E72.7357 F600
G1 E71.1891 F2400
G1 Z0.500 F420
G1 X59.99 Y44.94 F6000
G1 Z0.300 F420
G1 E73.1043 F1800
G1 X60.50 Y44.80 E73.1373 F600
G1 X60.89 Y44.42 E73.1712
G1 X61.12 Y43.86 E73.2090
G1 X61.21 Y43.18 E73.2518
G1 X61.12 Y42.51 E73.2939
G1 X60.89 Y41.95 E73.3317
G1 X60.50 Y41.56 E73.3661
G1 X59.99 Y41.42 E73.3991
G1 X59.46 Y41.56 E73.4333
G1 X59.09 Y41.95 E73.4668
G1 X58.85 Y42.51 E73.5048
G1 X58.77 Y43.18 E73.5469
G1 X58.85 Y43.85 E73.5889
G1 X59.09 Y44.42 E73.6275
G1 X59.46 Y44.80 E73.6606
G1 X59.99 Y44.94 E73.6948
G1 E71.7100 F2400
G1 Z0.500 F420
G1 X46.50 Y39.88 F6000
G1 Z0.300 F420
G1 E73.6083 F1800
G1 X46.50 Y36.48 E73.8204 F600
G1 E71.9030 F2400
G1 Z0.500 F420
G1 X46.50 Y38.23 F6000
G1 Z0.300 F420
G1 E73.8081 F1800
G1 X46.75 Y38.53 E73.8325 F600
G1 X46.98 Y38.75 E73.8523
G1 X47.20 Y38.88 E73.8683
G1 X47.40 Y38.93 E73.8811
G1 X47.59 Y38.95 E73.8931
G1 X47.91 Y38.88 E73.9135
G1 X48.14 Y38.71 E73.9313
G1 X48.24 Y38.51 E73.9453
G1 X48.33 Y38.08 E73.9727
G1 X48.33 Y36.48 E74.0724
G1 E72.1405 F2400
G1 Z0.500 F420
G1 X49.39 Y38.26 F6000
G1 Z0.300 F420
G1 E74.0134 F1800
G1 X51.08 Y38.26 E74.1188 F600
G1 E72.2431 F2400
G1 Z0.500 F420
G1 X51.08 Y37.55 F6000
G1 Z0.300 F420
G1 E74.1157 F1800
G1 X49.39 Y37.55 E74.2211 F600
G1 E72.3454 F2400
G1 Z0.500 F420
G1 X53.36 Y39.94 F6000
G1 Z0.300 F420
G1 E74.2620 F1800
G1 X53.87 Y39.80 E74.2949 F600
G1 X54.26 Y39.42 E74.3289
G1 X54.50 Y38.86 E74.3669
G1 X54.58 Y38.18 E74.4096
G1 X54.50 Y37.51 E74.4517
G1 X54.26 Y36.95 E74.4897
G1 X53.87 Y36.56 E74.5241
G1 X53.36 Y36.42 E74.5571
G1 X52.84 Y36.56 E74.5906
G1 X52.46 Y36.95 E74.6246
G1 X52.22 Y37.51 E74.6626
G1 X52.14 Y38.18 E74.7047
G1 X52.22 Y38.85 E74.7468
G1 X52.46 Y39.42 E74.7853
G1 X52.84 Y39.80 E74.8188
G1 X53.36 Y39.94 E74.8524
G1 E72.8677 F2400
G1 Z0.500 F420
G1 X55.64 Y36.71 F6000
G1 Z0.300 F420
G1 E74.4236 F1800
G1 X55.64 Y36.65 E74.4274 F600
G1 E72.8808 F2400
G1 Z0.500 F420
G1 X56.71 Y39.44 F6000
G1 Z0.300 F420
G1 E74.7930 F1800
G1 X56.90 Y39.65 E74.8106 F600
G1 X57.13 Y39.81 E74.8281
G1 X57.39 Y39.90 E74.8453
G1 X57.67 Y39.94 E74.8629
G1 X58.04 Y39.88 E74.8863
G1 X58.34 Y39.68 E74.9088
G1 X58.53 Y39.39 E74.9304
G1 X58.60 Y39.02 E74.9539
G1 X58.50 Y38.63 E74.9790
G1 X58.22 Y38.27 E75.0074
G1 X57.44 Y37.64 E75.0700
G1 X57.14 Y37.23 E75.1017
G1 X56.75 Y36.48 E75.1544
G1 X58.57 Y36.48 E75.2679
G1 E73.2996 F2400
G1 Z0.500 F420
G1 X46.50 Y33.89 F6000
G1 Z0.300 F420
G1 E75.2083 F1800
G1 X47.36 Y31.48 E75.3679 F600
G1 X48.10 Y33.89 E75.5251
G1 X48.87 Y31.48 E75.6829
G1 X49.71 Y33.89 E75.8421
G1 E73.8604 F2400
G1 Z0.500 F420
G1 X50.77 Y33.26 F6000
G1 Z0.300 F420
G1 E75.7337 F1800
G1 X52.46 Y33.26 E75.8391 F600
G1 E73.9633 F2400
G1 Z0.500 F420
G1 X52.46 Y32.55 F6000
G1 Z0.300 F420
G1 E75.8360 F1800
G1 X50.77 Y32.55 E75.9414 F600
G1 E74.0657 F2400
G1 Z0.500 F420
G1 X54.74 Y34.94 F6000
G1 Z0.300 F420
G1 E75.9823 F1800
G1 X55.25 Y34.80 E76.0152 F600
G1 X55.64 Y34.42 E76.0492
G1 X55.88 Y33.86 E76.0872
G1 X55.96 Y33.18 E76.1299
G1 X55.88 Y32.51 E76.1720
G1 X55.64 Y31.95 E76.2100
G1 X55.25 Y31.56 E76.2444
G1 X54.74 Y31.42 E76.2774
G1 X54.22 Y31.56 E76.3110
G1 X53.84 Y31.95 E76.3449
G1 X53.60 Y32.51 E76.3829
G1 X53.52 Y33.18 E76.4250
G1 X53.60 Y33.85 E76.4671
G1 X53.84 Y34.42 E76.5057
G1 X54.22 Y34.80 E76.5392
G1 X54.74 Y34.94 E76.5728
G1 E74.5880 F2400
G1 Z0.500 F420
G1 X57.02 Y31.71 F6000
G1 Z0.300 F420
G1 E76.1439 F1800
G1 X57.02 Y31.65 E76.1476 F600
G1 E74.6011 F2400
G1 Z0.500 F420
G1 X58.14 Y34.13 F6000
G1 Z0.300 F420
G1 E76.5131 F1800
G1 X58.25 Y34.47 E76.5354 F600
G1 X58.46 Y34.73 E76.5562
G1 X58.75 Y34.89 E76.5769
G1 X59.09 Y34.94 E76.5983
G1 X59.48 Y34.87 E76.6230
G1 X59.77 Y34.68 E76.6447
G1 X59.95 Y34.41 E76.6649
G1 X60.02 Y34.06 E76.6872
G1 X59.95 Y33.85 E76.7010
G1 X59.81 Y33.68 E76.7147
G1 X59.44 Y33.45 E76.7419
G1 X59.00 Y33.30 E76.7709
G1 X59.44 Y33.18 E76.7993
G1 X59.80 Y33.02 E76.8239
G1 X60.09 Y32.74 E76.8490
G1 X60.19 Y32.45 E76.8681
G1 X60.12 Y32.03 E76.8947
G1 X59.89 Y31.70 E76.9198
G1 X59.55 Y31.50 E76.9444
G1 X59.12 Y31.42 E76.9717
G1 X58.73 Y31.48 E76.9963
G1 X58.41 Y31.65 E77.0189
G1 X58.19 Y31.92 E77.0406
G1 X58.09 Y32.28 E77.0639
G1 E75.0870 F2400
G1 Z0.500 F420
;structure:shell-inner
G1 X-45.00 Y51.00 F6000
G1 Z0.200 F420
G1 E76.1760 F1800
G1 X-40.00 Y51.00 E76.2800 F300
G1 X-30.00 Y51.00 F60
G1 E77.0375 F1800
G1 X20.00 Y51.00 E78.2848 F2405
G1 E76.9017 F2400
G1 X40.00 Y51.00 F600
G1 E77.5918 F1800
G1 X45.00 Y51.00 E77.7997 F300
G1 E77.1033 F2400
G1 Z0.500 F420
G1 X-45.00 Y49.00 F6000
G1 Z0.200 F420
G1 E77.7702 F1800
G1 X-40.00 Y49.00 E77.8741 F300
G1 X-30.00 Y49.00 F60
G1 E78.6942 F1800
G1 X20.00 Y49.00 E79.9414 F2405
G1 E78.4511 F2400
G1 X40.00 Y49.00 F600
G1 E79.2980 F1800
G1 X45.00 Y49.00 E79.5059 F300
G1 E78.6441 F2400
G1 Z0.500 F420
G1 X-45.00 Y47.00 F6000
G1 Z0.200 F420
G1 E79.3909 F1800
G1 X-40.00 Y47.00 E79.4949 F300
G1 X-30.00 Y47.00 F60
G1 E80.3410 F1800
G1 X20.00 Y47.00 E81.5883 F2405
G1 E79.9921 F2400
G1 X40.00 Y47.00 F600
G1 E80.9971 F1800
G1 X45.00 Y47.00 E81.2050 F300
G1 E80.1808 F2400
G1 Z0.500 F420
G1 X-45.00 Y45.00 F6000
G1 Z0.200 F420
G1 E81.0077 F1800
G1 X-40.00 Y45.00 E81.1116 F300
G1 X-30.00 Y45.00 F60
G1 E81.9770 F1800
G1 X20.00 Y45.00 E83.2242 F2405
G1 E81.5236 F2400
G1 X40.00 Y45.00 F600
G1 E82.6873 F1800
G1 X45.00 Y45.00 E82.8952 F300
G1 E81.7098 F2400
G1 Z0.500 F420
G1 X-45.00 Y43.00 F6000
G1 Z0.200 F420
G1 E82.6166 F1800
G1 X-40.00 Y43.00 E82.7205 F300
G1 X-30.00 Y43.00 F60
G1 E83.6032 F1800
G1 X20.00 Y43.00 E84.8504 F2405
G1 E83.0466 F2400
G1 X40.00 Y43.00 F600
G1 E84.3694 F1800
G1 X45.00 Y43.00 E84.5773 F300
G1 E83.2310 F2400
G1 Z0.500 F420
G1 X-45.00 Y41.00 F6000
G1 Z0.200 F420
G1 E84.2178 F1800
G1 X-40.00 Y41.00 E84.3217 F300
G1 X-30.00 Y41.00 F60
G1 E85.2210 F1800
G1 X20.00 Y41.00 E86.4682 F2405
G1 E84.5621 F2400
G1 X40.00 Y41.00 F600
G1 E86.0444 F1800
G1 X45.00 Y41.00 E86.2523 F300
G1 E84.7453 F2400
G1 Z0.500 F420
G1 X-45.00 Y39.00 F6000
G1 Z0.200 F420
G1 E85.8121 F1800
G1 X-40.00 Y39.00 E85.9160 F300
G1 X-30.00 Y39.00 F60
G1 E86.8316 F1800
G1 X20.00 Y39.00 E88.0789 F2405
G1 E86.0713 F2400
G1 X40.00 Y39.00 F600
G1 E87.7132 F1800
G1 X45.00 Y39.00 E87.9211 F300
G1 E86.2536 F2400
G1 Z0.500 F420
G1 X-45.00 Y37.00 F6000
G1 Z0.200 F420
G1 E87.4004 F1800
G1 X-40.00 Y37.00 E87.5043 F300
G1 X-30.00 Y37.00 F60
G1 E88.4361 F1800
G1 X20.00 Y37.00 E89.6833 F2405
G1 E87.5749 F2400
G1 X40.00 Y37.00 F600
G1 E89.3766 F1800
G1 X45.00 Y37.00 E89.5845 F300
G1 E87.7566 F2400
G1 Z0.500 F420
G1 X-45.00 Y35.00 F6000
G1 Z0.200 F420
G1 E88.9834 F1800
G1 X-40.00 Y35.00 E89.0873 F300
G1 X-30.00 Y35.00 F60
G1 E90.0351 F1800
G1 X20.00 Y35.00 E91.2824 F2405
G1 E89.0738 F2400
G1 X40.00 Y35.00 F600
G1 E91.0353 F1800
G1 X45.00 Y35.00 E91.2432 F300
G1 E89.2550 F2400
G1 Z0.500 F420
G1 X-45.00 Y33.00 F6000
G1 Z0.200 F420
G1 E90.5617 F1800
G1 X-40.00 Y33.00 E90.6656 F300
G1 X-30.00 Y33.00 F60
G1 E91.6295 F1800
G1 X20.00 Y33.00 E92.8768 F2405
G1 E90.5684 F2400
G1 X40.00 Y33.00 F600
G1 E92.6898 F1800
G1 X45.00 Y33.00 E92.8977 F300
G1 E90.7492 F2400
G1 Z0.500 F420
G1 X-45.00 Y31.00 F6000
G1 Z0.200 F420
G1 E92.1359 F1800
G1 X-40.00 Y31.00 E92.2398 F300
G1 X-30.00 Y31.00 F60
G1 E93.2197 F1800
G1 X20.00 Y31.00 E94.4670 F2405
G1 E92.0594 F2400
G1 X40.00 Y31.00 F600
G1 E94.3406 F1800
G1 X45.00 Y31.00 E94.5485 F300
G1 E92.2398 F2400
G1 Z0.500 F420
;structure:shell-outer
G1 X-45.00 Y26.00 F6000
G1 Z0.300 F420
G1 E93.6622 F1800
G1 X45.00 Y26.00 E99.2748 F600
G1 E97.1587 F2400
G1 Z0.500 F420
G1 X-42.00 Y26.00 F6000
G1 X-40.00 Y26.00
G1 Z0.300 F420
G1 E99.0542 F1800
G1 X-40.00 Y23.00 E99.2413 F600
G1 E97.3313 F2400
G1 Z0.500 F420
G1 X-38.00 Y26.00 F6000
G1 Z0.300 F420
G1 E99.1981 F1800
G1 X-38.00 Y24.50 E99.2916 F600
G1 E97.4238 F2400
G1 Z0.500 F420
G1 X-36.00 Y26.00 F6000
G1 Z0.300 F420
G1 E99.2904 F1800
G1 X-36.00 Y24.50 E99.3839 F600
G1 E97.5161 F2400
G1 Z0.500 F420
G1 X-34.00 Y26.00 F6000
G1 Z0.300 F420
G1 E99.3827 F1800
G1 X-34.00 Y24.50 E99.4762 F600
G1 E97.6083 F2400
G1 Z0.500 F420
G1 X-32.00 Y26.00 F6000
G1 Z0.300 F420
G1 E99.4750 F1800
G1 X-32.00 Y24.50 E99.5685 F600
G1 E97.7006 F2400
G1 Z0.500 F420
G1 X-30.00 Y26.00 F6000
G1 Z0.300 F420
G1 E99.5948 F1800
G1 X-30.00 Y23.00 E99.7818 F600
G1 E97.8718 F2400
G1 Z0.500 F420
G1 X-28.00 Y26.00 F6000
G1 Z0.300 F420
G1 E99.7386 F1800
G1 X-28.00 Y24.50 E99.8322 F600
G1 E97.9643 F2400
G1 Z0.500 F420
G1 X-26.00 Y26.00 F6000
G1 Z0.300 F420
G1 E99.8309 F1800
G1 X-26.00 Y24.50 E99.9244 F600
G1 E98.0566 F2400
G1 Z0.500 F420
G1 X-24.00 Y26.00 F6000
G1 Z0.300 F420
G1 E99.9232 F1800
G1 X-24.00 Y24.50 E100.0167 F600
G1 E98.1488 F2400
G1 Z0.500 F420
G1 X-22.00 Y26.00 F6000
G1 Z0.300 F420
G1 E100.0155 F1800
G1 X-22.00 Y24.50 E100.1090 F600
G1 E98.2411 F2400
G1 Z0.500 F420
G1 X-20.00 Y26.00 F6000
G1 Z0.300 F420
G1 E100.1353 F1800
G1 X-20.00 Y23.00 E100.3224 F600
G1 E98.4123 F2400
G1 Z0.500 F420
G1 X-18.00 Y26.00 F6000
G1 Z0.300 F420
G1 E100.2791 F1800
G1 X-18.00 Y24.50 E100.3727 F600
G1 E98.5048 F2400
G1 Z0.500 F420
G1 X-16.00 Y26.00 F6000
G1 Z0.300 F420
G1 E100.3714 F1800
G1 X-16.00 Y24.50 E100.4649 F600
G1 E98.5971 F2400
G1 Z0.500 F420
G1 X-14.00 Y26.00 F6000
G1 Z0.300 F420
G1 E100.4637 F1800
G1 X-14.00 Y24.50 E100.5572 F600
G1 E98.6894 F2400
G1 Z0.500 F420
G1 X-12.00 Y26.00 F6000
G1 Z0.300 F420
G1 E100.5560 F1800
G1 X-12.00 Y24.50 E100.6495 F600
G1 E98.7816 F2400
G1 Z0.500 F420
G1 X-10.00 Y26.00 F6000
G1 Z0.300 F420
G1 E100.6758 F1800
G1 X-10.00 Y23.00 E100.8629 F600
G1 E98.9528 F2400
G1 Z0.500 F420
G1 X-8.00 Y26.00 F6000
G1 Z0.300 F420
G1 E100.8196 F1800
G1 X-8.00 Y24.50 E100.9132 F600
G1 E99.0453 F2400
G1 Z0.500 F420
G1 X-6.00 Y26.00 F6000
G1 Z0.300 F420
G1 E100.9119 F1800
G1 X-6.00 Y24.50 E101.0055 F600
G1 E99.1376 F2400
G1 Z0.500 F420
G1 X-4.00 Y26.00 F6000
G1 Z0.300 F420
G1 E101.0042 F1800
G1 X-4.00 Y24.50 E101.0977 F600
G1 E99.2299 F2400
G1 Z0.500 F420
G1 X-2.00 Y26.00 F6000
G1 Z0.300 F420
G1 E101.0965 F1800
G1 X-2.00 Y24.50 E101.1900 F600
G1 E99.3222 F2400
G1 Z0.500 F420
G1 X0.00 Y26.00 F6000
G1 Z0.300 F420
G1 E101.2163 F1800
G1 X0.00 Y23.00 E101.4034 F600
G1 E99.4933 F2400
G1 Z0.500 F420
G1 X2.00 Y26.00 F6000
G1 Z0.300 F420
G1 E101.3601 F1800
G1 X2.00 Y24.50 E101.4537 F600
G1 E99.5858 F2400
G1 Z0.500 F420
G1 X4.00 Y26.00 F6000
G1 Z0.300 F420
G1 E101.4524 F1800
G1 X4.00 Y24.50 E101.5460 F600
G1 E99.6781 F2400
G1 Z0.500 F420
G1 X6.00 Y26.00 F6000
G1 Z0.300 F420
G1 E101.5447 F1800
G1 X6.00 Y24.50 E101.6383 F600
G1 E99.7704 F2400
G1 Z0.500 F420
G1 X8.00 Y26.00 F6000
G1 Z0.300 F420
G1 E101.6370 F1800
G1 X8.00 Y24.50 E101.7305 F600
G1 E99.8627 F2400
G1 Z0.500 F420
G1 X10.00 Y26.00 F6000
G1 Z0.300 F420
G1 E101.7568 F1800
G1 X10.00 Y23.00 E101.9439 F600
G1 E100.0338 F2400
G1 Z0.500 F420
G1 X12.00 Y26.00 F6000
G1 Z0.300 F420
G1 E101.9006 F1800
G1 X12.00 Y24.50 E101.9942 F600
G1 E100.1263 F2400
G1 Z0.500 F420
G1 X14.00 Y26.00 F6000
G1 Z0.300 F420
G1 E101.9929 F1800
G1 X14.00 Y24.50 E102.0865 F600
G1 E100.2186 F2400
G1 Z0.500 F420
G1 X16.00 Y26.00 F6000
G1 Z0.300 F420
G1 E102.0852 F1800
G1 X16.00 Y24.50 E102.1788 F600
G1 E100.3109 F2400
G1 Z0.500 F420
G1 X18.00 Y26.00 F6000
G1 Z0.300 F420
G1 E102.1775 F1800
G1 X18.00 Y24.50 E102.2711 F600
G1 E100.4032 F2400
G1 Z0.500 F420
G1 X20.00 Y26.00 F6000
G1 Z0.300 F420
G1 E102.2973 F1800
G1 X20.00 Y23.00 E102.4844 F600
G1 E100.5743 F2400
G1 Z0.500 F420
G1 X22.00 Y26.00 F6000
G1 Z0.300 F420
G1 E102.4412 F1800
G1 X22.00 Y24.50 E102.5347 F600
G1 E100.6668 F2400
G1 Z0.500 F420
G1 X24.00 Y26.00 F6000
G1 Z0.300 F420
G1 E102.5334 F1800
G1 X24.00 Y24.50 E102.6270 F600
G1 E100.7591 F2400
G1 Z0.500 F420
G1 X26.00 Y26.00 F6000
G1 Z0.300 F420
G1 E102.6257 F1800
G1 X26.00 Y24.50 E102.7193 F600
G1 E100.8514 F2400
G1 Z0.500 F420
G1 X28.00 Y26.00 F6000
G1 Z0.300 F420
G1 E102.7180 F1800
G1 X28.00 Y24.50 E102.8116 F600
G1 E100.9437 F2400
G1 Z0.500 F420
G1 X30.00 Y26.00 F6000
G1 Z0.300 F420
G1 E102.8378 F1800
G1 X30.00 Y23.00 E103.0249 F600
G1 E101.1148 F2400
G1 Z0.500 F420
G1 X32.00 Y26.00 F6000
G1 Z0.300 F420
G1 E102.9817 F1800
G1 X32.00 Y24.50 E103.0752 F600
G1 E101.2073 F2400
G1 Z0.500 F420
G1 X34.00 Y26.00 F6000
G1 Z0.300 F420
G1 E103.0740 F1800
G1 X34.00 Y24.50 E103.1675 F600
G1 E101.2996 F2400
G1 Z0.500 F420
G1 X36.00 Y26.00 F6000
G1 Z0.300 F420
G1 E103.1662 F1800
G1 X36.00 Y24.50 E103.2598 F600
G1 E101.3919 F2400
G1 Z0.500 F420
G1 X38.00 Y26.00 F6000
G1 Z0.300 F420
G1 E103.2585 F1800
G1 X38.00 Y24.50 E103.3521 F600
G1 E101.4842 F2400
G1 Z0.500 F420
G1 X40.00 Y26.00 F6000
G1 Z0.300 F420
G1 E103.3783 F1800
G1 X40.00 Y23.00 E103.5654 F600
G1 E101.6553 F2400
G1 Z0.500 F420
;structure:brim
;structure:shell-outer
G1 X46.50 Y25.88 F6000
G1 Z0.300 F420
G1 E103.5532 F1800
G1 X46.50 Y22.48 E103.7652 F600
G1 E101.8478 F2400
G1 Z0.500 F420
G1 X48.96 Y22.48 F6000
G1 Z0.300 F420
G1 E103.7367 F1800
G1 X47.47 Y24.51 E103.8937 F600
G1 E101.9939 F2400
G1 Z0.500 F420
G1 X46.50 Y23.67 F6000
G1 Z0.300 F420
G1 E103.8912 F1800
G1 X49.02 Y25.88 E104.1003 F600
G1 E102.1838 F2400
G1 Z0.500 F420
G1 X50.08 Y25.88 F6000
G1 Z0.300 F420
G1 E104.0816 F1800
G1 X50.08 Y22.48 E104.2936 F600
G1 E102.3763 F2400
G1 Z0.500 F420
G1 X50.08 Y22.98 F6000
G1 Z0.300 F420
G1 E104.2889 F1800
G1 X50.33 Y22.74 E104.3105 F600
G1 X50.72 Y22.49 E104.3394
G1 X51.10 Y22.42 E104.3634
G1 X51.48 Y22.51 E104.3878
G1 X51.79 Y22.77 E104.4130
G1 X51.99 Y23.18 E104.4415
G1 X52.06 Y23.71 E104.4748
G1 X52.00 Y24.22 E104.5068
G1 X51.82 Y24.61 E104.5336
G1 X51.53 Y24.86 E104.5575
G1 X51.13 Y24.95 E104.5831
G1 X50.94 Y24.93 E104.5950
G1 X50.74 Y24.85 E104.6084
G1 X50.53 Y24.72 E104.6238
G1 X50.33 Y24.50 E104.6424
G1 X50.08 Y24.03 E104.6756
G1 E102.7194 F2400
G1 Z0.500 F420
G1 X53.12 Y24.26 F6000
G1 Z0.300 F420
G1 E104.5924 F1800
G1 X54.81 Y24.26 E104.6978 F600
G1 E102.8222 F2400
G1 Z0.500 F420
G1 X54.81 Y23.55 F6000
G1 Z0.300 F420
G1 E104.6947 F1800
G1 X53.12 Y23.55 E104.8001 F600
G1 E102.9245 F2400
G1 Z0.500 F420
G1 X57.10 Y25.94 F6000
G1 Z0.300 F420
G1 E104.8409 F1800
G1 X57.61 Y25.80 E104.8739 F600
G1 X58.00 Y25.42 E104.9079
G1 X58.23 Y24.86 E104.9456
G1 X58.31 Y24.18 E104.9883
G1 X58.23 Y23.51 E105.0304
G1 X58.00 Y22.95 E105.0682
G1 X57.61 Y22.56 E105.1026
G1 X57.10 Y22.42 E105.1355
G1 X56.57 Y22.56 E105.1697
G1 X56.20 Y22.95 E105.2032
G1 X55.96 Y23.51 E105.2412
G1 X55.88 Y24.18 E105.2833
G1 X55.96 Y24.85 E105.3254
G1 X56.20 Y25.42 E105.3640
G1 X56.57 Y25.80 E105.3970
G1 X57.10 Y25.94 E105.4312
G1 E103.4466 F2400
G1 Z0.500 F420
G1 X59.38 Y22.71 F6000
G1 Z0.300 F420
G1 E105.0025 F1800
G1 X59.38 Y22.65 E105.0062 F600
G1 E103.4597 F2400
G1 Z0.500 F420
G1 X61.66 Y25.94 F6000
G1 Z0.300 F420
G1 E105.3749 F1800
G1 X62.17 Y25.80 E105.4078 F600
G1 X62.56 Y25.42 E105.4418
G1 X62.80 Y24.86 E105.4798
G1 X62.88 Y24.18 E105.5225
G1 X62.80 Y23.51 E105.5646
G1 X62.56 Y22.95 E105.6026
G1 X62.17 Y22.56 E105.6370
G1 X61.66 Y22.42 E105.6700
G1 X61.14 Y22.56 E105.7035
G1 X60.76 Y22.95 E105.7375
G1 X60.52 Y23.51 E105.7755
G1 X60.44 Y24.18 E105.8176
G1 X60.52 Y24.85 E105.8597
G1 X60.76 Y25.42 E105.8982
G1 X61.14 Y25.80 E105.9318
G1 X61.66 Y25.94 E105.9653
G1 E103.9806 F2400
G1 Z0.500 F420
G1 X63.95 Y23.90 F6000
G1 Z0.300 F420
G1 E105.8584 F1800
G1 X65.82 Y23.90 E105.9750 F600
G1 E104.0929 F2400
G1 Z0.500 F420
G1 X68.59 Y22.48 F6000
G1 Z0.300 F420
G1 E106.0026 F1800
G1 X68.59 Y25.88 E106.2146 F600
G1 X66.88 Y23.65 E106.3899
G1 X69.18 Y23.65 E106.5334
G1 E104.5617 F2400
G1 Z0.500 F420
G1 X70.25 Y22.71 F6000
G1 Z0.300 F420
G1 E106.1175 F1800
G1 X70.25 Y22.65 E106.1213 F600
G1 E104.5747 F2400
G1 Z0.500 F420
G1 X72.53 Y25.94 F6000
G1 Z0.300 F420
G1 E106.4899 F1800
G1 X73.04 Y25.80 E106.5229 F600
G1 X73.43 Y25.42 E106.5568
G1 X73.67 Y24.86 E106.5948
G1 X73.75 Y24.18 E106.6375
G1 X73.67 Y23.51 E106.6796
G1 X73.43 Y22.95 E106.7176
G1 X73.04 Y22.56 E106.7520
G1 X72.53 Y22.42 E106.7850
G1 X72.01 Y22.56 E106.8186
G1 X71.63 Y22.95 E106.8525
G1 X71.39 Y23.51 E106.8905
G1 X71.31 Y24.18 E106.9326
G1 X71.39 Y24.85 E106.9747
G1 X71.63 Y25.42 E107.0133
G1 X72.01 Y25.80 E107.0468
G1 X72.53 Y25.94 E107.0804
G1 E105.0956 F2400
G1 Z0.500 F420
G1 X46.50 Y17.48 F6000
G1 Z0.300 F420
G1 E107.0094 F1800
G1 X46.50 Y20.88 E107.2215 F600
G1 X47.73 Y20.88 E107.2982
G1 X48.12 Y20.78 E107.3233
G1 X48.43 Y20.58 E107.3463
G1 X48.53 Y20.45 E107.3565
G1 X48.66 Y20.04 E107.3834
G1 X48.61 Y19.80 E107.3987
G1 X48.50 Y19.56 E107.4151
G1 X48.28 Y19.36 E107.4337
G1 X47.51 Y19.18 E107.4830
G1 E105.5147 F2400
G1 Z0.500 F420
G1 X46.50 Y19.18 F6000
G1 Z0.300 F420
G1 E107.4125 F1800
G1 X47.51 Y19.18 E107.4755 F600
G1 X48.02 Y19.00 E107.5092
G1 X48.41 Y18.38 E107.5549
G1 X48.66 Y17.48 E107.6132
G1 E105.6981 F2400
G1 Z0.500 F420
G1 X49.72 Y18.69 F6000
G1 Z0.300 F420
G1 E107.6142 F1800
G1 X51.86 Y18.69 E107.7477 F600
G1 X51.78 Y19.22 E107.7811
G1 X51.57 Y19.61 E107.8087
G1 X51.23 Y19.86 E107.8350
G1 X50.79 Y19.95 E107.8630
G1 X50.36 Y19.86 E107.8904
G1 X50.02 Y19.61 E107.9168
G1 X49.80 Y19.22 E107.9447
G1 X49.72 Y18.69 E107.9781
G1 X49.80 Y18.15 E108.0122
G1 X50.03 Y17.75 E108.0409
G1 X50.38 Y17.51 E108.0674
G1 X50.84 Y17.42 E108.0966
G1 X51.18 Y17.47 E108.1181
G1 X51.47 Y17.61 E108.1382
G1 X51.68 Y17.83 E108.1571
G1 X51.80 Y18.13 E108.1773
G1 E106.1961 F2400
G1 Z0.500 F420
G1 X52.92 Y19.26 F6000
G1 Z0.300 F420
G1 E108.0693 F1800
G1 X54.61 Y19.26 E108.1747 F600
G1 E106.2990 F2400
G1 Z0.500 F420
G1 X54.61 Y18.55 F6000
G1 Z0.300 F420
G1 E108.1716 F1800
G1 X52.92 Y18.55 E108.2770 F600
G1 E106.4013 F2400
G1 Z0.500 F420
G1 X56.89 Y20.94 F6000
G1 Z0.300 F420
G1 E108.3179 F1800
G1 X57.40 Y20.80 E108.3508 F600
G1 X57.79 Y20.42 E108.3848
G1 X58.03 Y19.86 E108.4228
G1 X58.11 Y19.18 E108.4655
G1 X58.03 Y18.51 E108.5076
G1 X57.79 Y17.95 E108.5456
G1 X57.40 Y17.56 E108.5800
G1 X56.89 Y17.42 E108.6129
G1 X56.37 Y17.56 E108.6465
G1 X55.99 Y17.95 E108.6805
G1 X55.75 Y18.51 E108.7185
G1 X55.67 Y19.18 E108.7606
G1 X55.75 Y19.85 E108.8027
G1 X55.99 Y20.42 E108.8412
G1 X56.37 Y20.80 E108.8747
G1 X56.89 Y20.94 E108.9083
G1 E106.9236 F2400
G1 Z0.500 F420
G1 X59.18 Y17.71 F6000
G1 Z0.300 F420
G1 E108.4795 F1800
G1 X59.18 Y17.65 E108.4832 F600
G1 E106.9367 F2400
G1 Z0.500 F420
G1 X62.23 Y20.88 F6000
G1 Z0.300 F420
G1 E108.8491 F1800
G1 X60.48 Y20.88 E108.9583 F600
G1 X60.34 Y19.14 E109.0672
G1 X60.62 Y19.45 E109.0932
G1 X60.79 Y19.57 E109.1062
G1 X60.98 Y19.64 E109.1188
G1 X61.17 Y19.67 E109.1308
G1 X61.37 Y19.68 E109.1433
G1 X61.78 Y19.59 E109.1695
G1 X62.10 Y19.37 E109.1937
G1 X62.31 Y19.03 E109.2186
G1 X62.39 Y18.61 E109.2453
G1 X62.32 Y18.14 E109.2749
G1 X62.11 Y17.77 E109.3015
G1 X61.76 Y17.51 E109.3287
G1 X61.26 Y17.42 E109.3603
G1 X60.89 Y17.48 E109.3837
G1 X60.58 Y17.64 E109.4055
G1 X60.36 Y17.91 E109.4272
G1 X60.24 Y18.27 E109.4509
G1 E107.4674 F2400
G1 Z0.500 F420
G1 X46.50 Y14.89 F6000
G1 Z0.300 F420
G1 E109.3717 F1800
G1 X47.52 Y12.48 E109.5349 F600
G1 X48.54 Y14.89 E109.6981
G1 E107.7581 F2400
G1 Z0.500 F420
G1 X49.60 Y13.69 F6000
G1 Z0.300 F420
G1 E109.6743 F1800
G1 X51.74 Y13.69 E109.8078 F600
G1 X51.66 Y14.22 E109.8412
G1 X51.45 Y14.61 E109.8689
G1 X51.11 Y14.86 E109.8952
G1 X50.67 Y14.95 E109.9232
G1 X50.24 Y14.86 E109.9506
G1 X49.90 Y14.61 E109.9769
G1 X49.68 Y14.22 E110.0048
G1 X49.60 Y13.69 E110.0383
G1 X49.68 Y13.15 E110.0723
G1 X49.91 Y12.75 E110.1011
G1 X50.26 Y12.51 E110.1275
G1 X50.72 Y12.42 E110.1568
G1 X51.06 Y12.47 E110.1782
G1 X51.35 Y12.61 E110.1983
G1 X51.56 Y12.83 E110.2173
G1 X51.68 Y13.13 E110.2374
G1 E108.2563 F2400
G1 Z0.500 F420
G1 X52.80 Y14.26 F6000
G1 Z0.300 F420
G1 E110.1294 F1800
G1 X54.49 Y14.26 E110.2348 F600
G1 E108.3592 F2400
G1 Z0.500 F420
G1 X54.49 Y13.55 F6000
G1 Z0.300 F420
G1 E110.2317 F1800
G1 X52.80 Y13.55 E110.3371 F600
G1 E108.4615 F2400
G1 Z0.500 F420
G1 X55.55 Y15.00 F6000
G1 Z0.300 F420
G1 E110.3629 F1800
G1 X56.02 Y15.24 E110.3958 F600
G1 X56.39 Y15.55 E110.4259
G1 X56.64 Y15.88 E110.4518
G1 X56.64 Y12.48 E110.6638
G1 E108.7298 F2400
G1 Z0.500 F420
G1 X57.70 Y12.71 F6000
G1 Z0.300 F420
G1 E110.2854 F1800
G1 X57.70 Y12.65 E110.2891 F600
G1 E108.7426 F2400
G1 Z0.500 F420
G1 X59.99 Y15.94 F6000
G1 Z0.300 F420
G1 E110.6578 F1800
G1 X60.50 Y15.80 E110.6907 F600
G1 X60.89 Y15.42 E110.7247
G1 X61.12 Y14.86 E110.7625
G1 X61.21 Y14.18 E110.8052
G1 X61.12 Y13.51 E110.8474
G1 X60.89 Y12.95 E110.8852
G1 X60.50 Y12.56 E110.9196
G1 X59.99 Y12.42 E110.9525
G1 X59.46 Y12.56 E110.9867
G1 X59.09 Y12.95 E111.0203
G1 X58.85 Y13.51 E111.0583
G1 X58.77 Y14.18 E111.1003
G1 X58.85 Y14.85 E111.1424
G1 X59.09 Y15.42 E111.1810
G1 X59.46 Y15.80 E111.2141
G1 X59.99 Y15.94 E111.2483
G1 E109.2635 F2400
G1 Z0.500 F420
G1 X46.50 Y10.88 F6000
G1 Z0.300 F420
G1 E111.1618 F1800
G1 X46.50 Y7.48 E111.3739 F600
G1 E109.4565 F2400
G1 Z0.500 F420
G1 X46.50 Y9.23 F6000
G1 Z0.300 F420
G1 E111.3616 F1800
G1 X46.75 Y9.53 E111.3860 F600
G1 X46.98 Y9.75 E111.4058
G1 X47.20 Y9.88 E111.4218
G1 X47.40 Y9.93 E111.4346
G1 X47.59 Y9.95 E111.4465
G1 X47.91 Y9.88 E111.4670
G1 X48.14 Y9.71 E111.4848
G1 X48.24 Y9.51 E111.4987
G1 X48.33 Y9.08 E111.5261
G1 X48.33 Y7.48 E111.6259
G1 E109.6940 F2400
G1 Z0.500 F420
G1 X49.39 Y9.26 F6000
G1 Z0.300 F420
G1 E111.5669 F1800
G1 X51.08 Y9.26 E111.6723 F600
G1 E109.7966 F2400
G1 Z0.500 F420
G1 X51.08 Y8.55 F6000
G1 Z0.300 F420
G1 E111.6692 F1800
G1 X49.39 Y8.55 E111.7746 F600
G1 E109.8989 F2400
G1 Z0.500 F420
G1 X53.36 Y10.94 F6000
G1 Z0.300 F420
G1 E111.8154 F1800
G1 X53.87 Y10.80 E111.8484 F600
G1 X54.26 Y10.42 E111.8824
G1 X54.50 Y9.86 E111.9204
G1 X54.58 Y9.18 E111.9631
G1 X54.50 Y8.51 E112.0052
G1 X54.26 Y7.95 E112.0432
G1 X53.87 Y7.56 E112.0776
G1 X53.36 Y7.42 E112.1105
G1 X52.84 Y7.56 E112.1441
G1 X52.46 Y7.95 E112.1781
G1 X52.22 Y8.51 E112.2161
G1 X52.14 Y9.18 E112.2582
G1 X52.22 Y9.85 E112.3002
G1 X52.46 Y10.42 E112.3388
G1 X52.84 Y10.80 E112.3723
G1 X53.36 Y10.94 E112.4059
G1 E110.4212 F2400
G1 Z0.500 F420
G1 X55.64 Y7.71 F6000
G1 Z0.300 F420
G1 E111.9771 F1800
G1 X55.64 Y7.65 E111.9808 F600
G1 E110.4343 F2400
G1 Z0.500 F420
G1 X56.71 Y10.44 F6000
G1 Z0.300 F420
G1 E112.3465 F1800
G1 X56.90 Y10.65 E112.3641 F600
G1 X57.13 Y10.81 E112.3816
G1 X57.39 Y10.90 E112.3988
G1 X57.67 Y10.94 E112.4164
G1 X58.04 Y10.88 E112.4398
G1 X58.34 Y10.68 E112.4623
G1 X58.53 Y10.39 E112.4839
G1 X58.60 Y10.02 E112.5074
G1 X58.50 Y9.63 E112.5325
G1 X58.22 Y9.27 E112.5609
G1 X57.44 Y8.64 E112.6235
G1 X57.14 Y8.23 E112.6551
G1 X56.75 Y7.48 E112.7079
G1 X58.57 Y7.48 E112.8214
G1 E110.8531 F2400
G1 Z0.500 F420
G1 X46.50 Y4.89 F6000
G1 Z0.300 F420
G1 E112.7618 F1800
G1 X47.36 Y2.48 E112.9214 F600
G1 X48.10 Y4.89 E113.0786
G1 X48.87 Y2.48 E113.2364
G1 X49.71 Y4.89 E113.3956
G1 E111.4139 F2400
G1 Z0.500 F420
G1 X50.77 Y4.26 F6000
G1 Z0.300 F420
G1 E113.2872 F1800
G1 X52.46 Y4.26 E113.3926 F600
G1 E111.5168 F2400
G1 Z0.500 F420
G1 X52.46 Y3.55 F6000
G1 Z0.300 F420
G1 E113.3895 F1800
G1 X50.77 Y3.55 E113.4949 F600
G1 E111.6191 F2400
G1 Z0.500 F420
G1 X54.74 Y5.94 F6000
G1 Z0.300 F420
G1 E113.5357 F1800
G1 X55.25 Y5.80 E113.5687 F600
G1 X55.64 Y5.42 E113.6027
G1 X55.88 Y4.86 E113.6407
G1 X55.96 Y4.18 E113.6834
G1 X55.88 Y3.51 E113.7255
G1 X55.64 Y2.95 E113.7635
G1 X55.25 Y2.56 E113.7979
G1 X54.74 Y2.42 E113.8309
G1 X54.22 Y2.56 E113.8644
G1 X53.84 Y2.95 E113.8984
G1 X53.60 Y3.51 E113.9364
G1 X53.52 Y4.18 E113.9785
G1 X53.60 Y4.85 E114.0206
G1 X53.84 Y5.42 E114.0592
G1 X54.22 Y5.80 E114.0927
G1 X54.74 Y5.94 E114.1263
G1 E112.1415 F2400
G1 Z0.500 F420
G1 X57.02 Y2.71 F6000
G1 Z0.300 F420
G1 E113.6974 F1800
G1 X57.02 Y2.65 E113.7011 F600
G1 E112.1545 F2400
G1 Z0.500 F420
G1 X59.80 Y2.48 F6000
G1 Z0.300 F420
G1 E114.0628 F1800
G1 X59.80 Y5.88 E114.2749 F600
G1 X58.09 Y3.65 E114.4501
G1 X60.40 Y3.65 E114.5942
G1 E112.6224 F2400
G1 Z0.500 F420
;structure:shell-inner
G1 X-45.00 Y22.00 F6000
G1 Z0.200 F420
G1 E113.7115 F1800
G1 X-40.00 Y22.00 E113.8154 F300
G1 X-30.00 Y22.00 F60
G1 E114.5979 F1800
G1 X20.00 Y22.00 E116.2610 F1804
G1 E114.8366 F2400
G1 X40.00 Y22.00 F600
G1 E115.5277 F1800
G1 X45.00 Y22.00 E115.7355 F300
G1 E115.0391 F2400
G1 Z0.500 F420
G1 X-45.00 Y20.00 F6000
G1 Z0.200 F420
G1 E115.7061 F1800
G1 X-40.00 Y20.00 E115.8100 F300
G1 X-30.00 Y20.00 F60
G1 E116.6870 F1800
G1 X20.00 Y20.00 E118.3500 F1804
G1 E116.7816 F2400
G1 X40.00 Y20.00 F600
G1 E117.6297 F1800
G1 X45.00 Y20.00 E117.8376 F300
G1 E116.9757 F2400
G1 Z0.500 F420
G1 X-45.00 Y18.00 F6000
G1 Z0.200 F420
G1 E117.7226 F1800
G1 X-40.00 Y18.00 E117.8265 F300
G1 X-30.00 Y18.00 F60
G1 E118.7616 F1800
G1 X20.00 Y18.00 E120.4246 F1804
G1 E118.7144 F2400
G1 X40.00 Y18.00 F600
G1 E119.7204 F1800
G1 X45.00 Y18.00 E119.9283 F300
G1 E118.9042 F2400
G1 Z0.500 F420
G1 X-45.00 Y16.00 F6000
G1 Z0.200 F420
G1 E119.7310 F1800
G1 X-40.00 Y16.00 E119.8349 F300
G1 X-30.00 Y16.00 F60
G1 E120.8212 F1800
G1 X20.00 Y16.00 E122.4842 F1804
G1 E120.6339 F2400
G1 X40.00 Y16.00 F600
G1 E121.7985 F1800
G1 X45.00 Y16.00 E122.0064 F300
G1 E120.8210 F2400
G1 Z0.500 F420
G1 X-45.00 Y14.00 F6000
G1 Z0.200 F420
G1 E121.7277 F1800
G1 X-40.00 Y14.00 E121.8317 F300
G1 X-30.00 Y14.00 F60
G1 E122.8673 F1800
G1 X20.00 Y14.00 E124.5303 F1804
G1 E122.5414 F2400
G1 X40.00 Y14.00 F600
G1 E123.8651 F1800
G1 X45.00 Y14.00 E124.0730 F300
G1 E122.7266 F2400
G1 Z0.500 F420
G1 X-45.00 Y12.00 F6000
G1 Z0.200 F420
G1 E123.7134 F1800
G1 X-40.00 Y12.00 E123.8173 F300
G1 X-30.00 Y12.00 F60
G1 E124.9016 F1800
G1 X20.00 Y12.00 E126.5646 F1804
G1 E124.4384 F2400
G1 X40.00 Y12.00 F600
G1 E125.9214 F1800
G1 X45.00 Y12.00 E126.1293 F300
G1 E124.6223 F2400
G1 Z0.500 F420
G1 X-45.00 Y10.00 F6000
G1 Z0.200 F420
G1 E125.6891 F1800
G1 X-40.00 Y10.00 E125.7930 F300
G1 X-30.00 Y10.00 F60
G1 E126.9256 F1800
G1 X20.00 Y10.00 E128.5886 F1804
G1 E126.3263 F2400
G1 X40.00 Y10.00 F600
G1 E127.9688 F1800
G1 X45.00 Y10.00 E128.1767 F300
G1 E126.5092 F2400
G1 Z0.500 F420
G1 X-45.00 Y8.00 F6000
G1 Z0.200 F420
G1 E127.6559 F1800
G1 X-40.00 Y8.00 E127.7599 F300
G1 X-30.00 Y8.00 F60
G1 E128.9406 F1800
G1 X20.00 Y8.00 E130.6036 F1804
G1 E128.2061 F2400
G1 X40.00 Y8.00 F600
G1 E130.0082 F1800
G1 X45.00 Y8.00 E130.2161 F300
G1 E128.3882 F2400
G1 Z0.500 F420
G1 X-45.00 Y6.00 F6000
G1 Z0.200 F420
G1 E129.6150 F1800
G1 X-40.00 Y6.00 E129.7189 F300
G1 X-30.00 Y6.00 F60
G1 E130.9477 F1800
G1 X20.00 Y6.00 E132.6107 F1804
G1 E130.0788 F2400
G1 X40.00 Y6.00 F600
G1 E132.0407 F1800
G1 X45.00 Y6.00 E132.2485 F300
G1 E130.2604 F2400
G1 Z0.500 F420
G1 X-45.00 Y4.00 F6000
G1 Z0.200 F420
G1 E131.5670 F1800
G1 X-40.00 Y4.00 E131.6710 F300
G1 X-30.00 Y4.00 F60
G1 E132.9478 F1800
G1 X20.00 Y4.00 E134.6109 F1804
G1 E131.9452 F2400
G1 X40.00 Y4.00 F600
G1 E134.0669 F1800
G1 X45.00 Y4.00 E134.2747 F300
G1 E132.1263 F2400
G1 Z0.500 F420
G1 X-45.00 Y2.00 F6000
G1 Z0.200 F420
G1 E133.5130 F1800
G1 X-40.00 Y2.00 E133.6169 F300
G1 X-30.00 Y2.00 F60
G1 E134.9418 F1800
G1 X20.00 Y2.00 E136.6048 F1804
G1 E133.8060 F2400
G1 X40.00 Y2.00 F600
G1 E136.0875 F1800
G1 X45.00 Y2.00 E136.2954 F300
G1 E133.9867 F2400
G1 Z0.500 F420
;structure:shell-outer
G1 X-45.00 Y-3.00 F6000
G1 Z0.300 F420
G1 E135.4091 F1800
G1 X45.00 Y-3.00 E141.0217 F600
G1 E138.9055 F2400
G1 Z0.500 F420
G1 X-42.00 Y-3.00 F6000
G1 X-40.00 Y-3.00
G1 Z0.300 F420
G1 E140.8011 F1800
G1 X-40.00 Y-6.00 E140.9882 F600
G1 E139.0781 F2400
G1 Z0.500 F420
G1 X-38.00 Y-3.00 F6000
G1 Z0.300 F420
G1 E140.9450 F1800
G1 X-38.00 Y-4.50 E141.0385 F600
G1 E139.1706 F2400
G1 Z0.500 F420
G1 X-36.00 Y-3.00 F6000
G1 Z0.300 F420
G1 E141.0373 F1800
G1 X-36.00 Y-4.50 E141.1308 F600
G1 E139.2629 F2400
G1 Z0.500 F420
G1 X-34.00 Y-3.00 F6000
G1 Z0.300 F420
G1 E141.1296 F1800
G1 X-34.00 Y-4.50 E141.2231 F600
G1 E139.3552 F2400
G1 Z0.500 F420
G1 X-32.00 Y-3.00 F6000
G1 Z0.300 F420
G1 E141.2218 F1800
G1 X-32.00 Y-4.50 E141.3154 F600
G1 E139.4475 F2400
G1 Z0.500 F420
G1 X-30.00 Y-3.00 F6000
G1 Z0.300 F420
G1 E141.3416 F1800
G1 X-30.00 Y-6.00 E141.5287 F600
G1 E139.6186 F2400
G1 Z0.500 F420
G1 X-28.00 Y-3.00 F6000
G1 Z0.300 F420
G1 E141.4855 F1800
G1 X-28.00 Y-4.50 E141.5790 F600
G1 E139.7112 F2400
G1 Z0.500 F420
G1 X-26.00 Y-3.00 F6000
G1 Z0.300 F420
G1 E141.5778 F1800
G1 X-26.00 Y-4.50 E141.6713 F600
G1 E139.8034 F2400
G1 Z0.500 F420
G1 X-24.00 Y-3.00 F6000
G1 Z0.300 F420
G1 E141.6701 F1800
G1 X-24.00 Y-4.50 E141.7636 F600
G1 E139.8957 F2400
G1 Z0.500 F420
G1 X-22.00 Y-3.00 F6000
G1 Z0.300 F420
G1 E141.7623 F1800
G1 X-22.00 Y-4.50 E141.8559 F600
G1 E139.9880 F2400
G1 Z0.500 F420
G1 X-20.00 Y-3.00 F6000
G1 Z0.300 F420
G1 E141.8821 F1800
G1 X-20.00 Y-6.00 E142.0692 F600
G1 E140.1592 F2400
G1 Z0.500 F420
G1 X-18.00 Y-3.00 F6000
G1 Z0.300 F420
G1 E142.0260 F1800
G1 X-18.00 Y-4.50 E142.1195 F600
G1 E140.2517 F2400
G1 Z0.500 F420
G1 X-16.00 Y-3.00 F6000
G1 Z0.300 F420
G1 E142.1183 F1800
G1 X-16.00 Y-4.50 E142.2118 F600
G1 E140.3440 F2400
G1 Z0.500 F420
G1 X-14.00 Y-3.00 F6000
G1 Z0.300 F420
G1 E142.2106 F1800
G1 X-14.00 Y-4.50 E142.3041 F600
G1 E140.4362 F2400
G1 Z0.500 F420
G1 X-12.00 Y-3.00 F6000
G1 Z0.300 F420
G1 E142.3029 F1800
G1 X-12.00 Y-4.50 E142.3964 F600
G1 E140.5285 F2400
G1 Z0.500 F420
G1 X-10.00 Y-3.00 F6000
G1 Z0.300 F420
G1 E142.4227 F1800
G1 X-10.00 Y-6.00 E142.6097 F600
G1 E140.6997 F2400
G1 Z0.500 F420
G1 X-8.00 Y-3.00 F6000
G1 Z0.300 F420
G1 E142.5665 F1800
G1 X-8.00 Y-4.50 E142.6601 F600
G1 E140.7922 F2400
G1 Z0.500 F420
G1 X-6.00 Y-3.00 F6000
G1 Z0.300 F420
G1 E142.6588 F1800
G1 X-6.00 Y-4.50 E142.7523 F600
G1 E140.8845 F2400
G1 Z0.500 F420
G1 X-4.00 Y-3.00 F6000
G1 Z0.300 F420
G1 E142.7511 F1800
G1 X-4.00 Y-4.50 E142.8446 F600
G1 E140.9767 F2400
G1 Z0.500 F420
G1 X-2.00 Y-3.00 F6000
G1 Z0.300 F420
G1 E142.8434 F1800
G1 X-2.00 Y-4.50 E142.9369 F600
G1 E141.0690 F2400
G1 Z0.500 F420
G1 X0.00 Y-3.00 F6000
G1 Z0.300 F420
G1 E142.9632 F1800
G1 X0.00 Y-6.00 E143.1503 F600
G1 E141.2402 F2400
G1 Z0.500 F420
G1 X2.00 Y-3.00 F6000
G1 Z0.300 F420
G1 E143.1070 F1800
G1 X2.00 Y-4.50 E143.2006 F600
G1 E141.3327 F2400
G1 Z0.500 F420
G1 X4.00 Y-3.00 F6000
G1 Z0.300 F420
G1 E143.1993 F1800
G1 X4.00 Y-4.50 E143.2928 F600
G1 E141.4250 F2400
G1 Z0.500 F420
G1 X6.00 Y-3.00 F6000
G1 Z0.300 F420
G1 E143.2916 F1800
G1 X6.00 Y-4.50 E143.3851 F600
G1 E141.5173 F2400
G1 Z0.500 F420
G1 X8.00 Y-3.00 F6000
G1 Z0.300 F420
G1 E143.3839 F1800
G1 X8.00 Y-4.50 E143.4774 F600
G1 E141.6095 F2400
G1 Z0.500 F420
G1 X10.00 Y-3.00 F6000
G1 Z0.300 F420
G1 E143.5037 F1800
G1 X10.00 Y-6.00 E143.6908 F600
G1 E141.7807 F2400
G1 Z0.500 F420
G1 X12.00 Y-3.00 F6000
G1 Z0.300 F420
G1 E143.6475 F1800
G1 X12.00 Y-4.50 E143.7411 F600
G1 E141.8732 F2400
G1 Z0.500 F420
G1 X14.00 Y-3.00 F6000
G1 Z0.300 F420
G1 E143.7398 F1800
G1 X14.00 Y-4.50 E143.8334 F600
G1 E141.9655 F2400
G1 Z0.500 F420
G1 X16.00 Y-3.00 F6000
G1 Z0.300 F420
G1 E143.8321 F1800
G1 X16.00 Y-4.50 E143.9256 F600
G1 E142.0578 F2400
G1 Z0.500 F420
G1 X18.00 Y-3.00 F6000
G1 Z0.300 F420
G1 E143.9244 F1800
G1 X18.00 Y-4.50 E144.0179 F600
G1 E142.1501 F2400
G1 Z0.500 F420
G1 X20.00 Y-3.00 F6000
G1 Z0.300 F420
G1 E144.0442 F1800
G1 X20.00 Y-6.00 E144.2313 F600
G1 E142.3212 F2400
G1 Z0.500 F420
G1 X22.00 Y-3.00 F6000
G1 Z0.300 F420
G1 E144.1880 F1800
G1 X22.00 Y-4.50 E144.2816 F600
G1 E142.4137 F2400
G1 Z0.500 F420
G1 X24.00 Y-3.00 F6000
G1 Z0.300 F420
G1 E144.2803 F1800
G1 X24.00 Y-4.50 E144.3739 F600
G1 E142.5060 F2400
G1 Z0.500 F420
G1 X26.00 Y-3.00 F6000
G1 Z0.300 F420
G1 E144.3726 F1800
G1 X26.00 Y-4.50 E144.4662 F600
G1 E142.5983 F2400
G1 Z0.500 F420
G1 X28.00 Y-3.00 F6000
G1 Z0.300 F420
G1 E144.4649 F1800
G1 X28.00 Y-4.50 E144.5584 F600
G1 E142.6906 F2400
G1 Z0.500 F420
G1 X30.00 Y-3.00 F6000
G1 Z0.300 F420
G1 E144.5847 F1800
G1 X30.00 Y-6.00 E144.7718 F600
G1 E142.8617 F2400
G1 Z0.500 F420
G1 X32.00 Y-3.00 F6000
G1 Z0.300 F420
G1 E144.7285 F1800
G1 X32.00 Y-4.50 E144.8221 F600
G1 E142.9542 F2400
G1 Z0.500 F420
G1 X34.00 Y-3.00 F6000
G1 Z0.300 F420
G1 E144.8208 F1800
G1 X34.00 Y-4.50 E144.9144 F600
G1 E143.0465 F2400
G1 Z0.500 F420
G1 X36.00 Y-3.00 F6000
G1 Z0.300 F420
G1 E144.9131 F1800
G1 X36.00 Y-4.50 E145.0067 F600
G1 E143.1388 F2400
G1 Z0.500 F420
G1 X38.00 Y-3.00 F6000
G1 Z0.300 F420
G1 E145.0054 F1800
G1 X38.00 Y-4.50 E145.0990 F600
G1 E143.2311 F2400
G1 Z0.500 F420
G1 X40.00 Y-3.00 F6000
G1 Z0.300 F420
G1 E145.1252 F1800
G1 X40.00 Y-6.00 E145.3123 F600
G1 E143.4022 F2400
G1 Z0.500 F420
;structure:brim
;structure:shell-outer
G1 X46.50 Y-3.12 F6000
G1 Z0.300 F420
G1 E145.3000 F1800
G1 X46.50 Y-6.52 E145.5121 F600
G1 E143.5947 F2400
G1 Z0.500 F420
G1 X48.96 Y-6.52 F6000
G1 Z0.300 F420
G1 E145.4836 F1800
G1 X47.47 Y-4.49 E145.6406 F600
G1 E143.7407 F2400
G1 Z0.500 F420
G1 X46.50 Y-5.33 F6000
G1 Z0.300 F420
G1 E145.6381 F1800
G1 X49.02 Y-3.12 E145.8471 F600
G1 E143.9306 F2400
G1 Z0.500 F420
G1 X50.08 Y-3.12 F6000
G1 Z0.300 F420
G1 E145.8285 F1800
G1 X50.08 Y-6.52 E146.0405 F600
G1 E144.1232 F2400
G1 Z0.500 F420
G1 X50.08 Y-6.02 F6000
G1 Z0.300 F420
G1 E146.0357 F1800
G1 X50.33 Y-6.26 E146.0573 F600
G1 X50.72 Y-6.51 E146.0862
G1 X51.10 Y-6.58 E146.1103
G1 X51.48 Y-6.49 E146.1347
G1 X51.79 Y-6.23 E146.1599
G1 X51.99 Y-5.82 E146.1884
G1 X52.06 Y-5.29 E146.2217
G1 X52.00 Y-4.78 E146.2537
G1 X51.82 Y-4.39 E146.2805
G1 X51.53 Y-4.14 E146.3044
G1 X51.13 Y-4.05 E146.3300
G1 X50.94 Y-4.07 E146.3419
G1 X50.74 Y-4.15 E146.3553
G1 X50.53 Y-4.28 E146.3707
G1 X50.33 Y-4.50 E146.3893
G1 X50.08 Y-4.97 E146.4224
G1 E144.4663 F2400
G1 Z0.500 F420
G1 X53.12 Y-4.74 F6000
G1 Z0.300 F420
G1 E146.3393 F1800
G1 X54.81 Y-4.74 E146.4447 F600
G1 E144.5690 F2400
G1 Z0.500 F420
G1 X54.81 Y-5.45 F6000
G1 Z0.300 F420
G1 E146.4416 F1800
G1 X53.12 Y-5.45 E146.5470 F600
G1 E144.6713 F2400
G1 Z0.500 F420
G1 X57.10 Y-3.06 F6000
G1 Z0.300 F420
G1 E146.5878 F1800
G1 X57.61 Y-3.20 E146.6208 F600
G1 X58.00 Y-3.58 E146.6547
G1 X58.23 Y-4.14 E146.6925
G1 X58.31 Y-4.82 E146.7352
G1 X58.23 Y-5.49 E146.7773
G1 X58.00 Y-6.05 E146.8150
G1 X57.61 Y-6.44 E146.8494
G1 X57.10 Y-6.58 E146.8824
G1 X56.57 Y-6.44 E146.9166
G1 X56.20 Y-6.05 E146.9501
G1 X55.96 Y-5.49 E146.9881
G1 X55.88 Y-4.82 E147.0302
G1 X55.96 Y-4.15 E147.0723
G1 X56.20 Y-3.58 E147.1108
G1 X56.57 Y-3.20 E147.1439
G1 X57.10 Y-3.06 E147.1781
G1 E145.1935 F2400
G1 Z0.500 F420
G1 X59.38 Y-6.29 F6000
G1 Z0.300 F420
G1 E146.7494 F1800
G1 X59.38 Y-6.35 E146.7531 F600
G1 E145.2065 F2400
G1 Z0.500 F420
G1 X61.66 Y-3.06 F6000
G1 Z0.300 F420
G1 E147.1217 F1800
G1 X62.17 Y-3.20 E147.1547 F600
G1 X62.56 Y-3.58 E147.1887
G1 X62.80 Y-4.14 E147.2267
G1 X62.88 Y-4.82 E147.2694
G1 X62.80 Y-5.49 E147.3115
G1 X62.56 Y-6.05 E147.3495
G1 X62.17 Y-6.44 E147.3839
G1 X61.66 Y-6.58 E147.4168
G1 X61.14 Y-6.44 E147.4504
G1 X60.76 Y-6.05 E147.4844
G1 X60.52 Y-5.49 E147.5224
G1 X60.44 Y-4.82 E147.5645
G1 X60.52 Y-4.15 E147.6066
G1 X60.76 Y-3.58 E147.6451
G1 X61.14 Y-3.20 E147.6786
G1 X61.66 Y-3.06 E147.7122
G1 E145.7275 F2400
G1 Z0.500 F420
G1 X63.95 Y-5.10 F6000
G1 Z0.300 F420
G1 E147.6053 F1800
G1 X65.82 Y-5.10 E147.7219 F600
G1 E145.8398 F2400
G1 Z0.500 F420
G1 X68.59 Y-6.52 F6000
G1 Z0.300 F420
G1 E147.7495 F1800
G1 X68.59 Y-3.12 E147.9615 F600
G1 X66.88 Y-5.35 E148.1368
G1 X69.18 Y-5.35 E148.2802
G1 E146.3086 F2400
G1 Z0.500 F420
G1 X70.25 Y-6.29 F6000
G1 Z0.300 F420
G1 E147.8644 F1800
G1 X70.25 Y-6.35 E147.8681 F600
G1 E146.3216 F2400
G1 Z0.500 F420
G1 X72.53 Y-3.06 F6000
G1 Z0.300 F420
G1 E148.2368 F1800
G1 X73.04 Y-3.20 E148.2698 F600
G1 X73.43 Y-3.58 E148.3037
G1 X73.67 Y-4.14 E148.3417
G1 X73.75 Y-4.82 E148.3844
G1 X73.67 Y-5.49 E148.4265
G1 X73.43 Y-6.05 E148.4645
G1 X73.04 Y-6.44 E148.4989
G1 X72.53 Y-6.58 E148.5319
G1 X72.01 Y-6.44 E148.5655
G1 X71.63 Y-6.05 E148.5994
G1 X71.39 Y-5.49 E148.6374
G1 X71.31 Y-4.82 E148.6795
G1 X71.39 Y-4.15 E148.7216
G1 X71.63 Y-3.58 E148.7602
G1 X72.01 Y-3.20 E148.7937
G1 X72.53 Y-3.06 E148.8273
G1 E146.8425 F2400
G1 Z0.500 F420
G1 X46.50 Y-11.52 F6000
G1 Z0.300 F420
G1 E148.7563 F1800
G1 X46.50 Y-8.12 E148.9684 F600
G1 X47.73 Y-8.12 E149.0451
G1 X48.12 Y-8.22 E149.0702
G1 X48.43 Y-8.42 E149.0932
G1 X48.53 Y-8.55 E149.1034
G1 X48.66 Y-8.96 E149.1302
G1 X48.61 Y-9.20 E149.1455
G1 X48.50 Y-9.44 E149.1620
G1 X48.28 Y-9.64 E149.1805
G1 X47.51 Y-9.82 E149.2299
G1 E147.2616 F2400
G1 Z0.500 F420
G1 X46.50 Y-9.82 F6000
G1 Z0.300 F420
G1 E149.1594 F1800
G1 X47.51 Y-9.82 E149.2224 F600
G1 X48.02 Y-10.00 E149.2561
G1 X48.41 Y-10.62 E149.3018
G1 X48.66 Y-11.52 E149.3600
G1 E147.4450 F2400
G1 Z0.500 F420
G1 X49.72 Y-10.31 F6000
G1 Z0.300 F420
G1 E149.3611 F1800
G1 X51.86 Y-10.31 E149.4945 F600
G1 X51.78 Y-9.78 E149.5280
G1 X51.57 Y-9.39 E149.5556
G1 X51.23 Y-9.14 E149.5819
G1 X50.79 Y-9.05 E149.6099
G1 X50.36 Y-9.14 E149.6373
G1 X50.02 Y-9.39 E149.6636
G1 X49.80 Y-9.78 E149.6916
G1 X49.72 Y-10.31 E149.7250
G1 X49.80 Y-10.85 E149.7590
G1 X50.03 Y-11.25 E149.7878
G1 X50.38 Y-11.49 E149.8143
G1 X50.84 Y-11.58 E149.8435
G1 X51.18 Y-11.53 E149.8650
G1 X51.47 Y-11.39 E149.8850
G1 X51.68 Y-11.17 E149.9040
G1 X51.80 Y-10.87 E149.9242
G1 E147.9430 F2400
G1 Z0.500 F420
G1 X52.92 Y-9.74 F6000
G1 Z0.300 F420
G1 E149.8162 F1800
G1 X54.61 Y-9.74 E149.9216 F600
G1 E148.0459 F2400
G1 Z0.500 F420
G1 X54.61 Y-10.45 F6000
G1 Z0.300 F420
G1 E149.9185 F1800
G1 X52.92 Y-10.45 E150.0239 F600
G1 E148.1482 F2400
G1 Z0.500 F420
G1 X56.89 Y-8.06 F6000
G1 Z0.300 F420
G1 E150.0647 F1800
G1 X57.40 Y-8.20 E150.0977 F600
G1 X57.79 Y-8.58 E150.1317
G1 X58.03 Y-9.14 E150.1697
G1 X58.11 Y-9.82 E150.2124
G1 X58.03 Y-10.49 E150.2545
G1 X57.79 Y-11.05 E150.2924
G1 X57.40 Y-11.44 E150.3268
G1 X56.89 Y-11.58 E150.3598
G1 X56.37 Y-11.44 E150.3934
G1 X55.99 Y-11.05 E150.4274
G1 X55.75 Y-10.49 E150.4654
G1 X55.67 Y-9.82 E150.5075
G1 X55.75 Y-9.15 E150.5495
G1 X55.99 Y-8.58 E150.5881
G1 X56.37 Y-8.20 E150.6216
G1 X56.89 Y-8.06 E150.6552
G1 E148.6705 F2400
G1 Z0.500 F420
G1 X59.18 Y-11.29 F6000
G1 Z0.300 F420
G1 E150.2264 F1800
G1 X59.18 Y-11.35 E150.2301 F600
G1 E148.6836 F2400
G1 Z0.500 F420
G1 X62.23 Y-8.12 F6000
G1 Z0.300 F420
G1 E150.5960 F1800
G1 X60.48 Y-8.12 E150.7052 F600
G1 X60.34 Y-9.86 E150.8140
G1 X60.62 Y-9.55 E150.8401
G1 X60.79 Y-9.43 E150.8531
G1 X60.98 Y-9.36 E150.8657
G1 X61.17 Y-9.33 E150.8777
G1 X61.37 Y-9.32 E150.8902
G1 X61.78 Y-9.41 E150.9164
G1 X62.10 Y-9.63 E150.9406
G1 X62.31 Y-9.97 E150.9655
G1 X62.39 Y-10.39 E150.9922
G1 X62.32 Y-10.86 E151.0218
G1 X62.11 Y-11.23 E151.0483
G1 X61.76 Y-11.49 E151.0755
G1 X61.26 Y-11.58 E151.1072
G1 X60.89 Y-11.52 E151.1306
G1 X60.58 Y-11.36 E151.1524
G1 X60.36 Y-11.09 E151.1741
G1 X60.24 Y-10.73 E151.1977
G1 E149.2143 F2400
G1 Z0.500 F420
G1 X46.50 Y-14.11 F6000
G1 Z0.300 F420
G1 E151.1186 F1800
G1 X47.52 Y-16.52 E151.2818 F600
G1 X48.54 Y-14.11 E151.4450
G1 E149.5050 F2400
G1 Z0.500 F420
G1 X49.60 Y-15.31 F6000
G1 Z0.300 F420
G1 E151.4212 F1800
G1 X51.74 Y-15.31 E151.5547 F600
G1 X51.66 Y-14.78 E151.5881
G1 X51.45 Y-14.39 E151.6157
G1 X51.11 Y-14.14 E151.6421
G1 X50.67 Y-14.05 E151.6701
G1 X50.24 Y-14.14 E151.6975
G1 X49.90 Y-14.39 E151.7238
G1 X49.68 Y-14.78 E151.7517
G1 X49.60 Y-15.31 E151.7851
G1 X49.68 Y-15.85 E151.8192
G1 X49.91 Y-16.25 E151.8480
G1 X50.26 Y-16.49 E151.8744
G1 X50.72 Y-16.58 E151.9037
G1 X51.06 Y-16.53 E151.9251
G1 X51.35 Y-16.39 E151.9452
G1 X51.56 Y-16.17 E151.9641
G1 X51.68 Y-15.87 E151.9843
G1 E150.0032 F2400
G1 Z0.500 F420
G1 X52.80 Y-14.74 F6000
G1 Z0.300 F420
G1 E151.8763 F1800
G1 X54.49 Y-14.74 E151.9817 F600
G1 E150.1061 F2400
G1 Z0.500 F420
G1 X54.49 Y-15.45 F6000
G1 Z0.300 F420
G1 E151.9786 F1800
G1 X52.80 Y-15.45 E152.0840 F600
G1 E150.2084 F2400
G1 Z0.500 F420
G1 X55.55 Y-14.00 F6000
G1 Z0.300 F420
G1 E152.1098 F1800
G1 X56.02 Y-13.76 E152.1427 F600
G1 X56.39 Y-13.45 E152.1728
G1 X56.64 Y-13.12 E152.1986
G1 X56.64 Y-16.52 E152.4107
G1 E150.4767 F2400
G1 Z0.500 F420
G1 X57.70 Y-16.29 F6000
G1 Z0.300 F420
G1 E152.0323 F1800
G1 X57.70 Y-16.35 E152.0360 F600
G1 E150.4894 F2400
G1 Z0.500 F420
G1 X59.99 Y-13.06 F6000
G1 Z0.300 F420
G1 E152.4046 F1800
G1 X60.50 Y-13.20 E152.4376 F600
G1 X60.89 Y-13.58 E152.4716
G1 X61.12 Y-14.14 E152.5093
G1 X61.21 Y-14.82 E152.5521
G1 X61.12 Y-15.49 E152.5943
G1 X60.89 Y-16.05 E152.6320
G1 X60.50 Y-16.44 E152.6664
G1 X59.99 Y-16.58 E152.6994
G1 X59.46 Y-16.44 E152.7336
G1 X59.09 Y-16.05 E152.7671
G1 X58.85 Y-15.49 E152.8051
G1 X58.77 Y-14.82 E152.8472
G1 X58.85 Y-14.15 E152.8893
G1 X59.09 Y-13.58 E152.9279
G1 X59.46 Y-13.20 E152.9610
G1 X59.99 Y-13.06 E152.9951
G1 E151.0104 F2400
G1 Z0.500 F420
G1 X46.50 Y-18.12 F6000
G1 Z0.300 F420
G1 E152.9087 F1800
G1 X46.50 Y-21.52 E153.1207 F600
G1 E151.2033 F2400
G1 Z0.500 F420
G1 X46.50 Y-19.77 F6000
G1 Z0.300 F420
G1 E153.1085 F1800
G1 X46.75 Y-19.47 E153.1329 F600
G1 X46.98 Y-19.25 E153.1527
G1 X47.20 Y-19.12 E153.1686
G1 X47.40 Y-19.07 E153.1815
G1 X47.59 Y-19.05 E153.1934
G1 X47.91 Y-19.12 E153.2138
G1 X48.14 Y-19.29 E153.2317
G1 X48.24 Y-19.49 E153.2456
G1 X48.33 Y-19.92 E153.2730
G1 X48.33 Y-21.52 E153.3728
G1 E151.4409 F2400
G1 Z0.500 F420
G1 X49.39 Y-19.74 F6000
G1 Z0.300 F420
G1 E153.3138 F1800
G1 X51.08 Y-19.74 E153.4192 F600
G1 E151.5435 F2400
G1 Z0.500 F420
G1 X51.08 Y-20.45 F6000
G1 Z0.300 F420
G1 E153.4161 F1800
G1 X49.39 Y-20.45 E153.5215 F600
G1 E151.6458 F2400
G1 Z0.500 F420
G1 X53.36 Y-18.06 F6000
G1 Z0.300 F420
G1 E153.5623 F1800
G1 X53.87 Y-18.20 E153.5953 F600
G1 X54.26 Y-18.58 E153.6293
G1 X54.50 Y-19.14 E153.6673
G1 X54.58 Y-19.82 E153.7100
G1 X54.50 Y-20.49 E153.7520
G1 X54.26 Y-21.05 E153.7900
G1 X53.87 Y-21.44 E153.8244
G1 X53.36 Y-21.58 E153.8574
G1 X52.84 Y-21.44 E153.8910
G1 X52.46 Y-21.05 E153.9250
G1 X52.22 Y-20.49 E153.9630
G1 X52.14 Y-19.82 E154.0050
G1 X52.22 Y-19.15 E154.0471
G1 X52.46 Y-18.58 E154.0857
G1 X52.84 Y-18.20 E154.1192
G1 X53.36 Y-18.06 E154.1528
G1 E152.1681 F2400
G1 Z0.500 F420
G1 X55.64 Y-21.29 F6000
G1 Z0.300 F420
G1 E153.7240 F1800
G1 X55.64 Y-21.35 E153.7277 F600
G1 E152.1812 F2400
G1 Z0.500 F420
G1 X56.71 Y-18.56 F6000
G1 Z0.300 F420
G1 E154.0933 F1800
G1 X56.90 Y-18.35 E154.1110 F600
G1 X57.13 Y-18.19 E154.1285
G1 X57.39 Y-18.10 E154.1456
G1 X57.67 Y-18.06 E154.1633
G1 X58.04 Y-18.12 E154.1867
G1 X58.34 Y-18.32 E154.2091
G1 X58.53 Y-18.61 E154.2308
G1 X58.60 Y-18.98 E154.2542
G1 X58.50 Y-19.37 E154.2794
G1 X58.22 Y-19.73 E154.3078
G1 X57.44 Y-20.36 E154.3703
G1 X57.14 Y-20.77 E154.4020
G1 X56.75 Y-21.52 E154.4548
G1 X58.57 Y-21.52 E154.5683
G1 E152.5999 F2400
G1 Z0.500 F420
G1 X46.50 Y-24.11 F6000
G1 Z0.300 F420
G1 E154.5087 F1800
G1 X47.36 Y-26.52 E154.6683 F600
G1 X48.10 Y-24.11 E154.8255
G1 X48.87 Y-26.52 E154.9833
G1 X49.71 Y-24.11 E155.1425
G1 E153.1608 F2400
G1 Z0.500 F420
G1 X50.77 Y-24.74 F6000
G1 Z0.300 F420
G1 E155.0341 F1800
G1 X52.46 Y-24.74 E155.1395 F600
G1 E153.2637 F2400
G1 Z0.500 F420
G1 X52.46 Y-25.45 F6000
G1 Z0.300 F420
G1 E155.1364 F1800
G1 X50.77 Y-25.45 E155.2418 F600
G1 E153.3660 F2400
G1 Z0.500 F420
G1 X54.74 Y-23.06 F6000
G1 Z0.300 F420
G1 E155.2826 F1800
G1 X55.25 Y-23.20 E155.3156 F600
G1 X55.64 Y-23.58 E155.3496
G1 X55.88 Y-24.14 E155.3876
G1 X55.96 Y-24.82 E155.4303
G1 X55.88 Y-25.49 E155.4724
G1 X55.64 Y-26.05 E155.5104
G1 X55.25 Y-26.44 E155.5448
G1 X54.74 Y-26.58 E155.5777
G1 X54.22 Y-26.44 E155.6113
G1 X53.84 Y-26.05 E155.6453
G1 X53.60 Y-25.49 E155.6833
G1 X53.52 Y-24.82 E155.7254
G1 X53.60 Y-24.15 E155.7675
G1 X53.84 Y-23.58 E155.8060
G1 X54.22 Y-23.20 E155.8395
G1 X54.74 Y-23.06 E155.8731
G1 E153.8883 F2400
G1 Z0.500 F420
G1 X57.02 Y-26.29 F6000
G1 Z0.300 F420
G1 E155.4442 F1800
G1 X57.02 Y-26.35 E155.4480 F600
G1 E153.9014 F2400
G1 Z0.500 F420
G1 X59.11 Y-23.08 F6000
G1 Z0.300 F420
G1 E155.8217 F1800
G1 X59.46 Y-23.14 E155.8438 F600
G1 X59.75 Y-23.29 E155.8642
G1 X59.94 Y-23.54 E155.8837
G1 X60.01 Y-23.89 E155.9060
G1 X59.87 Y-24.34 E155.9354
G1 X59.58 Y-24.60 E155.9597
G1 X58.65 Y-24.88 E156.0203
G1 X58.26 Y-25.16 E156.0502
G1 X58.09 Y-25.65 E156.0826
G1 X58.17 Y-26.05 E156.1080
G1 X58.38 Y-26.34 E156.1303
G1 X58.71 Y-26.52 E156.1538
G1 X59.11 Y-26.58 E156.1790
G1 X59.52 Y-26.52 E156.2048
G1 X59.85 Y-26.34 E156.2283
G1 X60.06 Y-26.05 E156.2506
G1 X60.14 Y-25.65 E156.2761
G1 X59.96 Y-25.16 E156.3086
G1 X59.58 Y-24.88 E156.3381
G1 X58.65 Y-24.60 E156.3986
G1 X58.36 Y-24.34 E156.4229
G1 X58.22 Y-23.89 E156.4523
G1 X58.29 Y-23.54 E156.4746
G1 X58.48 Y-23.29 E156.4942
G1 X58.76 Y-23.14 E156.5140
G1 X59.11 Y-23.08 E156.5361
G1 E154.5351 F2400
G1 Z0.500 F420
;structure:shell-inner
G1 X-45.00 Y-7.00 F6000
G1 Z0.200 F420
G1 E155.6243 F1800
G1 X-40.00 Y-7.00 E155.7282 F300
G1 X-30.00 Y-7.00 F60
G1 E156.5629 F1800
G1 X20.00 Y-7.00 E159.8889 F902
G1 E158.4105 F2400
G1 X40.00 Y-7.00 F600
G1 E159.1027 F1800
G1 X45.00 Y-7.00 E159.3106 F300
G1 E158.6142 F2400
G1 Z0.500 F420
G1 X-45.00 Y-9.00 F6000
G1 Z0.200 F420
G1 E159.2811 F1800
G1 X-40.00 Y-9.00 E159.3851 F300
G1 X-30.00 Y-9.00 F60
G1 E160.4421 F1800
G1 X20.00 Y-9.00 E163.7682 F902
G1 E161.9838 F2400
G1 X40.00 Y-9.00 F600
G1 E162.8344 F1800
G1 X45.00 Y-9.00 E163.0422 F300
G1 E162.1804 F2400
G1 Z0.500 F420
G1 X-45.00 Y-11.00 F6000
G1 Z0.200 F420
G1 E162.9272 F1800
G1 X-40.00 Y-11.00 E163.0312 F300
G1 X-30.00 Y-11.00 F60
G1 E164.2744 F1800
G1 X20.00 Y-11.00 E167.6004 F902
G1 E165.5181 F2400
G1 X40.00 Y-11.00 F600
G1 E166.5271 F1800
G1 X45.00 Y-11.00 E166.7350 F300
G1 E165.7108 F2400
G1 Z0.500 F420
G1 X-45.00 Y-13.00 F6000
G1 Z0.200 F420
G1 E166.5377 F1800
G1 X-40.00 Y-13.00 E166.6416 F300
G1 X-30.00 Y-13.00 F60
G1 E168.0640 F1800
G1 X20.00 Y-13.00 E171.3900 F902
G1 E169.0163 F2400
G1 X40.00 Y-13.00 F600
G1 E170.1841 F1800
G1 X45.00 Y-13.00 E170.3920 F300
G1 E169.2065 F2400
G1 Z0.500 F420
G1 X-45.00 Y-15.00 F6000
G1 Z0.200 F420
G1 E170.1133 F1800
G1 X-40.00 Y-15.00 E170.2173 F300
G1 X-30.00 Y-15.00 F60
G1 E171.8170 F1800
G1 X20.00 Y-15.00 E175.1430 F902
G1 E172.4831 F2400
G1 X40.00 Y-15.00 F600
G1 E173.8100 F1800
G1 X45.00 Y-15.00 E174.0179 F300
G1 E172.6715 F2400
G1 Z0.500 F420
G1 X-45.00 Y-17.00 F6000
G1 Z0.200 F420
G1 E173.6583 F1800
G1 X-40.00 Y-17.00 E173.7622 F300
G1 X-30.00 Y-17.00 F60
G1 E175.5386 F1800
G1 X20.00 Y-17.00 E178.8646 F902
G1 E175.9230 F2400
G1 X40.00 Y-17.00 F600
G1 E177.4090 F1800
G1 X45.00 Y-17.00 E177.6169 F300
G1 E176.1099 F2400
G1 Z0.500 F420
G1 X-45.00 Y-19.00 F6000
G1 Z0.200 F420
G1 E177.1766 F1800
G1 X-40.00 Y-19.00 E177.2806 F300
G1 X-30.00 Y-19.00 F60
G1 E179.2333 F1800
G1 X20.00 Y-19.00 E182.5593 F902
G1 E179.3393 F2400
G1 X40.00 Y-19.00 F600
G1 E180.9847 F1800
G1 X45.00 Y-19.00 E181.1925 F300
G1 E179.5251 F2400
G1 Z0.500 F420
G1 X-45.00 Y-21.00 F6000
G1 Z0.200 F420
G1 E180.6718 F1800
G1 X-40.00 Y-21.00 E180.7757 F300
G1 X-30.00 Y-21.00 F60
G1 E182.9046 F1800
G1 X20.00 Y-21.00 E186.2306 F902
G1 E182.7352 F2400
G1 X40.00 Y-21.00 F600
G1 E184.5399 F1800
G1 X45.00 Y-21.00 E184.7478 F300
G1 E182.9200 F2400
G1 Z0.500 F420
G1 X-45.00 Y-23.00 F6000
G1 Z0.200 F420
G1 E184.1467 F1800
G1 X-40.00 Y-23.00 E184.2506 F300
G1 X-30.00 Y-23.00 F60
G1 E186.5555 F1800
G1 X20.00 Y-23.00 E189.8815 F902
G1 E186.1130 F2400
G1 X40.00 Y-23.00 F600
G1 E188.0773 F1800
G1 X45.00 Y-23.00 E188.2852 F300
G1 E186.2970 F2400
G1 Z0.500 F420
G1 X-45.00 Y-25.00 F6000
G1 Z0.200 F420
G1 E187.6037 F1800
G1 X-40.00 Y-25.00 E187.7076 F300
G1 X-30.00 Y-25.00 F60
G1 E190.1886 F1800
G1 X20.00 Y-25.00 E193.5146 F902
G1 E189.4750 F2400
G1 X40.00 Y-25.00 F600
G1 E191.5988 F1800
G1 X45.00 Y-25.00 E191.8067 F300
G1 E189.6582 F2400
G1 Z0.500 F420
G1 X-45.00 Y-27.00 F6000
G1 Z0.200 F420
G1 E191.0449 F1800
G1 X-40.00 Y-27.00 E191.1489 F300
G1 X-30.00 Y-27.00 F60
G1 E193.8058 F1800
G1 X20.00 Y-27.00 E197.1318 F902
G1 E192.8227 F2400
G1 X40.00 Y-27.00 F600
G1 E195.1062 F1800
G1 X45.00 Y-27.00 E195.3141 F300
G1 E193.0054 F2400
G1 Z0.500 F420
;structure:shell-outer
G1 X-45.00 Y-32.00 F6000
G1 Z0.300 F420
G1 E194.4278 F1800
G1 X45.00 Y-32.00 E200.0405 F600
G1 E197.9243 F2400
G1 Z0.500 F420
G1 X-42.00 Y-32.00 F6000
G1 X-40.00 Y-32.00
G1 Z0.300 F420
G1 E199.8199 F1800
G1 X-40.00 Y-35.00 E200.0069 F600
G1 E198.0969 F2400
G1 Z0.500 F420
G1 X-38.00 Y-32.00 F6000
G1 Z0.300 F420
G1 E199.9637 F1800
G1 X-38.00 Y-33.50 E200.0573 F600
G1 E198.1894 F2400
G1 Z0.500 F420
G1 X-36.00 Y-32.00 F6000
G1 Z0.300 F420
G1 E200.0560 F1800
G1 X-36.00 Y-33.50 E200.1495 F600
G1 E198.2817 F2400
G1 Z0.500 F420
G1 X-34.00 Y-32.00 F6000
G1 Z0.300 F420
G1 E200.1483 F1800
G1 X-34.00 Y-33.50 E200.2418 F600
G1 E198.3739 F2400
G1 Z0.500 F420
G1 X-32.00 Y-32.00 F6000
G1 Z0.300 F420
G1 E200.2406 F1800
G1 X-32.00 Y-33.50 E200.3341 F600
G1 E198.4662 F2400
G1 Z0.500 F420
G1 X-30.00 Y-32.00 F6000
G1 Z0.300 F420
G1 E200.3604 F1800
G1 X-30.00 Y-35.00 E200.5475 F600
G1 E198.6374 F2400
G1 Z0.500 F420
G1 X-28.00 Y-32.00 F6000
G1 Z0.300 F420
G1 E200.5042 F1800
G1 X-28.00 Y-33.50 E200.5978 F600
G1 E198.7299 F2400
G1 Z0.500 F420
G1 X-26.00 Y-32.00 F6000
G1 Z0.300 F420
G1 E200.5965 F1800
G1 X-26.00 Y-33.50 E200.6901 F600
G1 E198.8222 F2400
G1 Z0.500 F420
G1 X-24.00 Y-32.00 F6000
G1 Z0.300 F420
G1 E200.6888 F1800
G1 X-24.00 Y-33.50 E200.7823 F600
G1 E198.9145 F2400
G1 Z0.500 F420
G1 X-22.00 Y-32.00 F6000
G1 Z0.300 F420
G1 E200.7811 F1800
G1 X-22.00 Y-33.50 E200.8746 F600
G1 E199.0067 F2400
G1 Z0.500 F420
G1 X-20.00 Y-32.00 F6000
G1 Z0.300 F420
G1 E200.9009 F1800
G1 X-20.00 Y-35.00 E201.0880 F600
G1 E199.1779 F2400
G1 Z0.500 F420
G1 X-18.00 Y-32.00 F6000
G1 Z0.300 F420
G1 E201.0447 F1800
G1 X-18.00 Y-33.50 E201.1383 F600
G1 E199.2704 F2400
G1 Z0.500 F420
G1 X-16.00 Y-32.00 F6000
G1 Z0.300 F420
G1 E201.1370 F1800
G1 X-16.00 Y-33.50 E201.2306 F600
G1 E199.3627 F2400
G1 Z0.500 F420
G1 X-14.00 Y-32.00 F6000
G1 Z0.300 F420
G1 E201.2293 F1800
G1 X-14.00 Y-33.50 E201.3228 F600
G1 E199.4550 F2400
G1 Z0.500 F420
G1 X-12.00 Y-32.00 F6000
G1 Z0.300 F420
G1 E201.3216 F1800
G1 X-12.00 Y-33.50 E201.4151 F600
G1 E199.5473 F2400
G1 Z0.500 F420
G1 X-10.00 Y-32.00 F6000
G1 Z0.300 F420
G1 E201.4414 F1800
G1 X-10.00 Y-35.00 E201.6285 F600
G1 E199.7184 F2400
G1 Z0.500 F420
G1 X-8.00 Y-32.00 F6000
G1 Z0.300 F420
G1 E201.5852 F1800
G1 X-8.00 Y-33.50 E201.6788 F600
G1 E199.8109 F2400
G1 Z0.500 F420
G1 X-6.00 Y-32.00 F6000
G1 Z0.300 F420
G1 E201.6775 F1800
G1 X-6.00 Y-33.50 E201.7711 F600
G1 E199.9032 F2400
G1 Z0.500 F420
G1 X-4.00 Y-32.00 F6000
G1 Z0.300 F420
G1 E201.7698 F1800
G1 X-4.00 Y-33.50 E201.8634 F600
G1 E199.9955 F2400
G1 Z0.500 F420
G1 X-2.00 Y-32.00 F6000
G1 Z0.300 F420
G1 E201.8621 F1800
G1 X-2.00 Y-33.50 E201.9556 F600
G1 E200.0878 F2400
G1 Z0.500 F420
G1 X0.00 Y-32.00 F6000
G1 Z0.300 F420
G1 E201.9819 F1800
G1 X0.00 Y-35.00 E202.1690 F600
G1 E200.2589 F2400
G1 Z0.500 F420
G1 X2.00 Y-32.00 F6000
G1 Z0.300 F420
G1 E202.1257 F1800
G1 X2.00 Y-33.50 E202.2193 F600
G1 E200.3514 F2400
G1 Z0.500 F420
G1 X4.00 Y-32.00 F6000
G1 Z0.300 F420
G1 E202.2180 F1800
G1 X4.00 Y-33.50 E202.3116 F600
G1 E200.4437 F2400
G1 Z0.500 F420
G1 X6.00 Y-32.00 F6000
G1 Z0.300 F420
G1 E202.3103 F1800
G1 X6.00 Y-33.50 E202.4039 F600
G1 E200.5360 F2400
G1 Z0.500 F420
G1 X8.00 Y-32.00 F6000
G1 Z0.300 F420
G1 E202.4026 F1800
G1 X8.00 Y-33.50 E202.4962 F600
G1 E200.6283 F2400
G1 Z0.500 F420
G1 X10.00 Y-32.00 F6000
G1 Z0.300 F420
G1 E202.5224 F1800
G1 X10.00 Y-35.00 E202.7095 F600
G1 E200.7994 F2400
G1 Z0.500 F420
G1 X12.00 Y-32.00 F6000
G1 Z0.300 F420
G1 E202.6663 F1800
G1 X12.00 Y-33.50 E202.7598 F600
G1 E200.8919 F2400
G1 Z0.500 F420
G1 X14.00 Y-32.00 F6000
G1 Z0.300 F420
G1 E202.7585 F1800
G1 X14.00 Y-33.50 E202.8521 F600
G1 E200.9842 F2400
G1 Z0.500 F420
G1 X16.00 Y-32.00 F6000
G1 Z0.300 F420
G1 E202.8508 F1800
G1 X16.00 Y-33.50 E202.9444 F600
G1 E201.0765 F2400
G1 Z0.500 F420
G1 X18.00 Y-32.00 F6000
G1 Z0.300 F420
G1 E202.9431 F1800
G1 X18.00 Y-33.50 E203.0367 F600
G1 E201.1688 F2400
G1 Z0.500 F420
G1 X20.00 Y-32.00 F6000
G1 Z0.300 F420
G1 E203.0629 F1800
G1 X20.00 Y-35.00 E203.2500 F600
G1 E201.3399 F2400
G1 Z0.500 F420
G1 X22.00 Y-32.00 F6000
G1 Z0.300 F420
G1 E203.2068 F1800
G1 X22.00 Y-33.50 E203.3003 F600
G1 E201.4324 F2400
G1 Z0.500 F420
G1 X24.00 Y-32.00 F6000
G1 Z0.300 F420
G1 E203.2991 F1800
G1 X24.00 Y-33.50 E203.3926 F600
G1 E201.5247 F2400
G1 Z0.500 F420
G1 X26.00 Y-32.00 F6000
G1 Z0.300 F420
G1 E203.3913 F1800
G1 X26.00 Y-33.50 E203.4849 F600
G1 E201.6170 F2400
G1 Z0.500 F420
G1 X28.00 Y-32.00 F6000
G1 Z0.300 F420
G1 E203.4836 F1800
G1 X28.00 Y-33.50 E203.5772 F600
G1 E201.7093 F2400
G1 Z0.500 F420
G1 X30.00 Y-32.00 F6000
G1 Z0.300 F420
G1 E203.6034 F1800
G1 X30.00 Y-35.00 E203.7905 F600
G1 E201.8804 F2400
G1 Z0.500 F420
G1 X32.00 Y-32.00 F6000
G1 Z0.300 F420
G1 E203.7473 F1800
G1 X32.00 Y-33.50 E203.8408 F600
G1 E201.9729 F2400
G1 Z0.500 F420
G1 X34.00 Y-32.00 F6000
G1 Z0.300 F420
G1 E203.8396 F1800
G1 X34.00 Y-33.50 E203.9331 F600
G1 E202.0652 F2400
G1 Z0.500 F420
G1 X36.00 Y-32.00 F6000
G1 Z0.300 F420
G1 E203.9319 F1800
G1 X36.00 Y-33.50 E204.0254 F600
G1 E202.1575 F2400
G1 Z0.500 F420
G1 X38.00 Y-32.00 F6000
G1 Z0.300 F420
G1 E204.0241 F1800
G1 X38.00 Y-33.50 E204.1177 F600
G1 E202.2498 F2400
G1 Z0.500 F420
G1 X40.00 Y-32.00 F6000
G1 Z0.300 F420
G1 E204.1439 F1800
G1 X40.00 Y-35.00 E204.3310 F600
G1 E202.4209 F2400
G1 Z0.500 F420
;structure:brim
;structure:shell-outer
G1 X46.50 Y-32.12 F6000
G1 Z0.300 F420
G1 E204.3188 F1800
G1 X46.50 Y-35.52 E204.5308 F600
G1 E202.6135 F2400
G1 Z0.500 F420
G1 X48.96 Y-35.52 F6000
G1 Z0.300 F420
G1 E204.5023 F1800
G1 X47.47 Y-33.49 E204.6594 F600
G1 E202.7595 F2400
G1 Z0.500 F420
G1 X46.50 Y-34.33 F6000
G1 Z0.300 F420
G1 E204.6569 F1800
G1 X49.02 Y-32.12 E204.8659 F600
G1 E202.9494 F2400
G1 Z0.500 F420
G1 X50.08 Y-32.12 F6000
G1 Z0.300 F420
G1 E204.8472 F1800
G1 X50.08 Y-35.52 E205.0593 F600
G1 E203.1419 F2400
G1 Z0.500 F420
G1 X50.08 Y-35.02 F6000
G1 Z0.300 F420
G1 E205.0545 F1800
G1 X50.33 Y-35.26 E205.0761 F600
G1 X50.72 Y-35.51 E205.1050
G1 X51.10 Y-35.58 E205.1291
G1 X51.48 Y-35.49 E205.1534
G1 X51.79 Y-35.23 E205.1786
G1 X51.99 Y-34.82 E205.2071
G1 X52.06 Y-34.29 E205.2404
G1 X52.00 Y-33.78 E205.2725
G1 X51.82 Y-33.39 E205.2992
G1 X51.53 Y-33.14 E205.3231
G1 X51.13 Y-33.05 E205.3487
G1 X50.94 Y-33.07 E205.3606
G1 X50.74 Y-33.15 E205.3740
G1 X50.53 Y-33.28 E205.3894
G1 X50.33 Y-33.50 E205.4080
G1 X50.08 Y-33.97 E205.4412
G1 E203.4850 F2400
G1 Z0.500 F420
G1 X53.12 Y-33.74 F6000
G1 Z0.300 F420
G1 E205.3580 F1800
G1 X54.81 Y-33.74 E205.4634 F600
G1 E203.5878 F2400
G1 Z0.500 F420
G1 X54.81 Y-34.45 F6000
G1 Z0.300 F420
G1 E205.4603 F1800
G1 X53.12 Y-34.45 E205.5657 F600
G1 E203.6901 F2400
G1 Z0.500 F420
G1 X57.10 Y-32.06 F6000
G1 Z0.300 F420
G1 E205.6065 F1800
G1 X57.61 Y-32.20 E205.6395 F600
G1 X58.00 Y-32.58 E205.6735
G1 X58.23 Y-33.14 E205.7112
G1 X58.31 Y-33.82 E205.7539
G1 X58.23 Y-34.49 E205.7960
G1 X58.00 Y-35.05 E205.8338
G1 X57.61 Y-35.44 E205.8682
G1 X57.10 Y-35.58 E205.9011
G1 X56.57 Y-35.44 E205.9353
G1 X56.20 Y-35.05 E205.9689
G1 X55.96 Y-34.49 E206.0068
G1 X55.88 Y-33.82 E206.0489
G1 X55.96 Y-33.15 E206.0910
G1 X56.20 Y-32.58 E206.1296
G1 X56.57 Y-32.20 E206.1627
G1 X57.10 Y-32.06 E206.1968
G1 E204.2122 F2400
G1 Z0.500 F420
G1 X59.38 Y-35.29 F6000
G1 Z0.300 F420
G1 E205.7681 F1800
G1 X59.38 Y-35.35 E205.7718 F600
G1 E204.2253 F2400
G1 Z0.500 F420
G1 X61.66 Y-32.06 F6000
G1 Z0.300 F420
G1 E206.1405 F1800
G1 X62.17 Y-32.20 E206.1735 F600
G1 X62.56 Y-32.58 E206.2074
G1 X62.80 Y-33.14 E206.2454
G1 X62.88 Y-33.82 E206.2881
G1 X62.80 Y-34.49 E206.3302
G1 X62.56 Y-35.05 E206.3682
G1 X62.17 Y-35.44 E206.4026
G1 X61.66 Y-35.58 E206.4356
G1 X61.14 Y-35.44 E206.4692
G1 X60.76 Y-35.05 E206.5031
G1 X60.52 Y-34.49 E206.5411
G1 X60.44 Y-33.82 E206.5832
G1 X60.52 Y-33.15 E206.6253
G1 X60.76 Y-32.58 E206.6639
G1 X61.14 Y-32.20 E206.6974
G1 X61.66 Y-32.06 E206.7310
G1 E204.7462 F2400
G1 Z0.500 F420
G1 X63.95 Y-34.10 F6000
G1 Z0.300 F420
G1 E206.6240 F1800
G1 X65.82 Y-34.10 E206.7407 F600
G1 E204.8586 F2400
G1 Z0.500 F420
G1 X68.59 Y-35.52 F6000
G1 Z0.300 F420
G1 E206.7682 F1800
G1 X68.59 Y-32.12 E206.9803 F600
G1 X66.88 Y-34.35 E207.1555
G1 X69.18 Y-34.35 E207.2990
G1 E205.3273 F2400
G1 Z0.500 F420
G1 X70.25 Y-35.29 F6000
G1 Z0.300 F420
G1 E206.8831 F1800
G1 X70.25 Y-35.35 E206.8869 F600
G1 E205.3403 F2400
G1 Z0.500 F420
G1 X72.53 Y-32.06 F6000
G1 Z0.300 F420
G1 E207.2555 F1800
G1 X73.04 Y-32.20 E207.2885 F600
G1 X73.43 Y-32.58 E207.3224
G1 X73.67 Y-33.14 E207.3604
G1 X73.75 Y-33.82 E207.4031
G1 X73.67 Y-34.49 E207.4452
G1 X73.43 Y-35.05 E207.4832
G1 X73.04 Y-35.44 E207.5176
G1 X72.53 Y-35.58 E207.5506
G1 X72.01 Y-35.44 E207.5842
G1 X71.63 Y-35.05 E207.6182
G1 X71.39 Y-34.49 E207.6562
G1 X71.31 Y-33.82 E207.6982
G1 X71.39 Y-33.15 E207.7403
G1 X71.63 Y-32.58 E207.7789
G1 X72.01 Y-32.20 E207.8124
G1 X72.53 Y-32.06 E207.8460
G1 E205.8612 F2400
G1 Z0.500 F420
G1 X46.50 Y-40.52 F6000
G1 Z0.300 F420
G1 E207.7750 F1800
G1 X46.50 Y-37.12 E207.9871 F600
G1 X47.73 Y-37.12 E208.0638
G1 X48.12 Y-37.22 E208.0889
G1 X48.43 Y-37.42 E208.1119
G1 X48.53 Y-37.55 E208.1222
G1 X48.66 Y-37.96 E208.1490
G1 X48.61 Y-38.20 E208.1643
G1 X48.50 Y-38.44 E208.1807
G1 X48.28 Y-38.64 E208.1993
G1 X47.51 Y-38.82 E208.2486
G1 E206.2803 F2400
G1 Z0.500 F420
G1 X46.50 Y-38.82 F6000
G1 Z0.300 F420
G1 E208.1781 F1800
G1 X47.51 Y-38.82 E208.2411 F600
G1 X48.02 Y-39.00 E208.2748
G1 X48.41 Y-39.62 E208.3205
G1 X48.66 Y-40.52 E208.3788
G1 E206.4637 F2400
G1 Z0.500 F420
G1 X49.72 Y-39.31 F6000
G1 Z0.300 F420
G1 E208.3798 F1800
G1 X51.86 Y-39.31 E208.5133 F600
G1 X51.78 Y-38.78 E208.5467
G1 X51.57 Y-38.39 E208.5743
G1 X51.23 Y-38.14 E208.6006
G1 X50.79 Y-38.05 E208.6287
G1 X50.36 Y-38.14 E208.6561
G1 X50.02 Y-38.39 E208.6824
G1 X49.80 Y-38.78 E208.7103
G1 X49.72 Y-39.31 E208.7437
G1 X49.80 Y-39.85 E208.7778
G1 X50.03 Y-40.25 E208.8066
G1 X50.38 Y-40.49 E208.8330
G1 X50.84 Y-40.58 E208.8623
G1 X51.18 Y-40.53 E208.8837
G1 X51.47 Y-40.39 E208.9038
G1 X51.68 Y-40.17 E208.9227
G1 X51.80 Y-39.87 E208.9429
G1 E206.9618 F2400
G1 Z0.500 F420
G1 X52.92 Y-38.74 F6000
G1 Z0.300 F420
G1 E208.8349 F1800
G1 X54.61 Y-38.74 E208.9403 F600
G1 E207.0646 F2400
G1 Z0.500 F420
G1 X54.61 Y-39.45 F6000
G1 Z0.300 F420
G1 E208.9372 F1800
G1 X52.92 Y-39.45 E209.0426 F600
G1 E207.1669 F2400
G1 Z0.500 F420
G1 X56.89 Y-37.06 F6000
G1 Z0.300 F420
G1 E209.0835 F1800
G1 X57.40 Y-37.20 E209.1164 F600
G1 X57.79 Y-37.58 E209.1504
G1 X58.03 Y-38.14 E209.1884
G1 X58.11 Y-38.82 E209.2311
G1 X58.03 Y-39.49 E209.2732
G1 X57.79 Y-40.05 E209.3112
G1 X57.40 Y-40.44 E209.3456
G1 X56.89 Y-40.58 E209.3786
G1 X56.37 Y-40.44 E209.4121
G1 X55.99 Y-40.05 E209.4461
G1 X55.75 Y-39.49 E209.4841
G1 X55.67 Y-38.82 E209.5262
G1 X55.75 Y-38.15 E209.5683
G1 X55.99 Y-37.58 E209.6068
G1 X56.37 Y-37.20 E209.6404
G1 X56.89 Y-37.06 E209.6739
G1 E207.6892 F2400
G1 Z0.500 F420
G1 X59.18 Y-40.29 F6000
G1 Z0.300 F420
G1 E209.2451 F1800
G1 X59.18 Y-40.35 E209.2489 F600
G1 E207.7023 F2400
G1 Z0.500 F420
G1 X62.23 Y-37.12 F6000
G1 Z0.300 F420
G1 E209.6148 F1800
G1 X60.48 Y-37.12 E209.7239 F600
G1 X60.34 Y-38.86 E209.8328
G1 X60.62 Y-38.55 E209.8588
G1 X60.79 Y-38.43 E209.8718
G1 X60.98 Y-38.36 E209.8844
G1 X61.17 Y-38.33 E209.8964
G1 X61.37 Y-38.32 E209.9089
G1 X61.78 Y-38.41 E209.9351
G1 X62.10 Y-38.63 E209.9593
G1 X62.31 Y-38.97 E209.9842
G1 X62.39 Y-39.39 E210.0109
G1 X62.32 Y-39.86 E210.0405
G1 X62.11 Y-40.23 E210.0671
G1 X61.76 Y-40.49 E210.0943
G1 X61.26 Y-40.58 E210.1260
G1 X60.89 Y-40.52 E210.1493
G1 X60.58 Y-40.36 E210.1711
G1 X60.36 Y-40.09 E210.1928
G1 X60.24 Y-39.73 E210.2165
G1 E208.2330 F2400
G1 Z0.500 F420
G1 X46.50 Y-43.11 F6000
G1 Z0.300 F420
G1 E210.1373 F1800
G1 X47.52 Y-45.52 E210.3005 F600
G1 X48.54 Y-43.11 E210.4637
G1 E208.5237 F2400
G1 Z0.500 F420
G1 X49.60 Y-44.31 F6000
G1 Z0.300 F420
G1 E210.4400 F1800
G1 X51.74 Y-44.31 E210.5734 F600
G1 X51.66 Y-43.78 E210.6068
G1 X51.45 Y-43.39 E210.6345
G1 X51.11 Y-43.14 E210.6608
G1 X50.67 Y-43.05 E210.6888
G1 X50.24 Y-43.14 E210.7162
G1 X49.90 Y-43.39 E210.7425
G1 X49.68 Y-43.78 E210.7704
G1 X49.60 Y-44.31 E210.8039
G1 X49.68 Y-44.85 E210.8379
G1 X49.91 Y-45.25 E210.8667
G1 X50.26 Y-45.49 E210.8932
G1 X50.72 Y-45.58 E210.9224
G1 X51.06 Y-45.53 E210.9438
G1 X51.35 Y-45.39 E210.9639
G1 X51.56 Y-45.17 E210.9829
G1 X51.68 Y-44.87 E211.0030
G1 E209.0219 F2400
G1 Z0.500 F420
G1 X52.80 Y-43.74 F6000
G1 Z0.300 F420
G1 E210.8950 F1800
G1 X54.49 Y-43.74 E211.0004 F600
G1 E209.1248 F2400
G1 Z0.500 F420
G1 X54.49 Y-44.45 F6000
G1 Z0.300 F420
G1 E210.9973 F1800
G1 X52.80 Y-44.45 E211.1027 F600
G1 E209.2271 F2400
G1 Z0.500 F420
G1 X55.55 Y-43.00 F6000
G1 Z0.300 F420
G1 E211.1285 F1800
G1 X56.02 Y-42.76 E211.1615 F600
G1 X56.39 Y-42.45 E211.1916
G1 X56.64 Y-42.12 E211.2174
G1 X56.64 Y-45.52 E211.4294
G1 E209.4954 F2400
G1 Z0.500 F420
G1 X57.70 Y-45.29 F6000
G1 Z0.300 F420
G1 E211.0510 F1800
G1 X57.70 Y-45.35 E211.0547 F600
G1 E209.5082 F2400
G1 Z0.500 F420
G1 X59.99 Y-42.06 F6000
G1 Z0.300 F420
G1 E211.4234 F1800
G1 X60.50 Y-42.20 E211.4564 F600
G1 X60.89 Y-42.58 E211.4903
G1 X61.12 Y-43.14 E211.5281
G1 X61.21 Y-43.82 E211.5709
G1 X61.12 Y-44.49 E211.6130
G1 X60.89 Y-45.05 E211.6508
G1 X60.50 Y-45.44 E211.6852
G1 X59.99 Y-45.58 E211.7182
G1 X59.46 Y-45.44 E211.7523
G1 X59.09 Y-45.05 E211.7859
G1 X58.85 Y-44.49 E211.8239
G1 X58.77 Y-43.82 E211.8660
G1 X58.85 Y-43.15 E211.9080
G1 X59.09 Y-42.58 E211.9466
G1 X59.46 Y-42.20 E211.9797
G1 X59.99 Y-42.06 E212.0139
G1 E210.0291 F2400
G1 Z0.500 F420
G1 X46.50 Y-47.12 F6000
G1 Z0.300 F420
G1 E211.9274 F1800
G1 X46.50 Y-50.52 E212.1395 F600
G1 E210.2221 F2400
G1 Z0.500 F420
G1 X46.50 Y-48.77 F6000
G1 Z0.300 F420
G1 E212.1272 F1800
G1 X46.75 Y-48.47 E212.1516 F600
G1 X46.98 Y-48.25 E212.1714
G1 X47.20 Y-48.12 E212.1874
G1 X47.40 Y-48.07 E212.2002
G1 X47.59 Y-48.05 E212.2121
G1 X47.91 Y-48.12 E212.2326
G1 X48.14 Y-48.29 E212.2504
G1 X48.24 Y-48.49 E212.2644
G1 X48.33 Y-48.92 E212.2918
G1 X48.33 Y-50.52 E212.3915
G1 E210.4596 F2400
G1 Z0.500 F420
G1 X49.39 Y-48.74 F6000
G1 Z0.300 F420
G1 E212.3325 F1800
G1 X51.08 Y-48.74 E212.4379 F600
G1 E210.5622 F2400
G1 Z0.500 F420
G1 X51.08 Y-49.45 F6000
G1 Z0.300 F420
G1 E212.4348 F1800
G1 X49.39 Y-49.45 E212.5402 F600
G1 E210.6645 F2400
G1 Z0.500 F420
G1 X53.36 Y-47.06 F6000
G1 Z0.300 F420
G1 E212.5811 F1800
G1 X53.87 Y-47.20 E212.6140 F600
G1 X54.26 Y-47.58 E212.6480
G1 X54.50 Y-48.14 E212.6860
G1 X54.58 Y-48.82 E212.7287
G1 X54.50 Y-49.49 E212.7708
G1 X54.26 Y-50.05 E212.8088
G1 X53.87 Y-50.44 E212.8432
G1 X53.36 Y-50.58 E212.8762
G1 X52.84 Y-50.44 E212.9097
G1 X52.46 Y-50.05 E212.9437
G1 X52.22 Y-49.49 E212.9817
G1 X52.14 Y-48.82 E213.0238
G1 X52.22 Y-48.15 E213.0659
G1 X52.46 Y-47.58 E213.1044
G1 X52.84 Y-47.20 E213.1379
G1 X53.36 Y-47.06 E213.1715
G1 E211.1868 F2400
G1 Z0.500 F420
G1 X55.64 Y-50.29 F6000
G1 Z0.300 F420
G1 E212.7427 F1800
G1 X55.64 Y-50.35 E212.7464 F600
G1 E211.1999 F2400
G1 Z0.500 F420
G1 X56.71 Y-47.56 F6000
G1 Z0.300 F420
G1 E213.1121 F1800
G1 X56.90 Y-47.35 E213.1297 F600
G1 X57.13 Y-47.19 E213.1472
G1 X57.39 Y-47.10 E213.1644
G1 X57.67 Y-47.06 E213.1820
G1 X58.04 Y-47.12 E213.2054
G1 X58.34 Y-47.32 E213.2279
G1 X58.53 Y-47.61 E213.2495
G1 X58.60 Y-47.98 E213.2730
G1 X58.50 Y-48.37 E213.2981
G1 X58.22 Y-48.73 E213.3265
G1 X57.44 Y-49.36 E213.3891
G1 X57.14 Y-49.77 E213.4208
G1 X56.75 Y-50.52 E213.4735
G1 X58.57 Y-50.52 E213.5870
G1 E211.6187 F2400
G1 Z0.500 F420
G1 X46.50 Y-53.11 F6000
G1 Z0.300 F420
G1 E213.5274 F1800
G1 X47.36 Y-55.52 E213.6870 F600
G1 X48.10 Y-53.11 E213.8442
G1 X48.87 Y-55.52 E214.0020
G1 X49.71 Y-53.11 E214.1612
G1 E212.1795 F2400
G1 Z0.500 F420
G1 X50.77 Y-53.74 F6000
G1 Z0.300 F420
G1 E214.0528 F1800
G1 X52.46 Y-53.74 E214.1582 F600
G1 E212.2824 F2400
G1 Z0.500 F420
G1 X52.46 Y-54.45 F6000
G1 Z0.300 F420
G1 E214.1551 F1800
G1 X50.77 Y-54.45 E214.2605 F600
G1 E212.3847 F2400
G1 Z0.500 F420
G1 X53.52 Y-53.00 F6000
G1 Z0.300 F420
G1 E214.2863 F1800
G1 X53.99 Y-52.76 E214.3192 F600
G1 X54.36 Y-52.45 E214.3493
G1 X54.61 Y-52.12 E214.3751
G1 X54.61 Y-55.52 E214.5872
G1 E212.6531 F2400
G1 Z0.500 F420
G1 X55.67 Y-55.29 F6000
G1 Z0.300 F420
G1 E214.2087 F1800
G1 X55.67 Y-55.35 E214.2124 F600
G1 E212.6659 F2400
G1 Z0.500 F420
G1 X58.77 Y-52.83 F6000
G1 Z0.300 F420
G1 E214.5857 F1800
G1 X58.46 Y-52.26 E214.6262 F600
G1 X57.87 Y-52.06 E214.6650
G1 X57.36 Y-52.18 E214.6977
G1 X57.01 Y-52.53 E214.7286
G1 X56.80 Y-53.13 E214.7682
G1 X56.73 Y-53.95 E214.8195
G1 X56.80 Y-54.64 E214.8628
G1 X57.02 Y-55.16 E214.8980
G1 X57.36 Y-55.47 E214.9267
G1 X57.83 Y-55.58 E214.9568
G1 X58.28 Y-55.49 E214.9854
G1 X58.60 Y-55.24 E215.0108
G1 X58.78 Y-54.87 E215.0364
G1 X58.85 Y-54.44 E215.0636
G1 X58.78 Y-54.04 E215.0889
G1 X58.59 Y-53.69 E215.1138
G1 X58.28 Y-53.46 E215.1378
G1 X57.88 Y-53.38 E215.1633
G1 X57.42 Y-53.47 E215.1925
G1 X57.00 Y-53.72 E215.2230
G1 X56.73 Y-53.95 E215.2451
G1 E213.2501 F2400
G1 Z0.500 F420
;structure:shell-inner
G1 X-45.00 Y-36.00 F6000
G1 Z0.200 F420
G1 E214.3392 F1800
G1 X-40.00 Y-36.00 E214.4432 F300
G1 X-30.00 Y-36.00 F60
G1 E215.4086 F1800
G1 X20.00 Y-36.00 E222.0606 F451
G1 E220.5681 F2400
G1 X40.00 Y-36.00 F600
G1 E221.2607 F1800
G1 X45.00 Y-36.00 E221.4686 F300
G1 E220.7722 F2400
G1 Z0.500 F420
G1 X-45.00 Y-38.00 F6000
G1 Z0.200 F420
G1 E221.4391 F1800
G1 X-40.00 Y-38.00 E221.5431 F300
G1 X-30.00 Y-38.00 F60
G1 E222.9869 F1800
G1 X20.00 Y-38.00 E229.6389 F451
G1 E227.5119 F2400
G1 X40.00 Y-38.00 F600
G1 E228.3638 F1800
G1 X45.00 Y-38.00 E228.5717 F300
G1 E227.7099 F2400
G1 Z0.500 F420
G1 X-45.00 Y-40.00 F6000
G1 Z0.200 F420
G1 E228.4567 F1800
G1 X-40.00 Y-40.00 E228.5607 F300
G1 X-30.00 Y-40.00 F60
G1 E230.4466 F1800
G1 X20.00 Y-40.00 E237.0986 F451
G1 E234.3514 F2400
G1 X40.00 Y-40.00 F600
G1 E235.3626 F1800
G1 X45.00 Y-40.00 E235.5705 F300
G1 E234.5464 F2400
G1 Z0.500 F420
G1 X-45.00 Y-42.00 F6000
G1 Z0.200 F420
G1 E235.3732 F1800
G1 X-40.00 Y-42.00 E235.4771 F300
G1 X-30.00 Y-42.00 F60
G1 E237.7983 F1800
G1 X20.00 Y-42.00 E244.4503 F451
G1 E241.0989 F2400
G1 X40.00 Y-42.00 F600
G1 E242.2694 F1800
G1 X45.00 Y-42.00 E242.4772 F300
G1 E241.2918 F2400
G1 Z0.500 F420
G1 X-45.00 Y-44.00 F6000
G1 Z0.200 F420
G1 E242.1986 F1800
G1 X-40.00 Y-44.00 E242.3025 F300
G1 X-30.00 Y-44.00 F60
G1 E245.0570 F1800
G1 X20.00 Y-44.00 E251.7090 F451
G1 E247.7676 F2400
G1 X40.00 Y-44.00 F600
G1 E249.0974 F1800
G1 X45.00 Y-44.00 E249.3053 F300
G1 E247.9589 F2400
G1 Z0.500 F420
G1 X-45.00 Y-46.00 F6000
G1 Z0.200 F420
G1 E248.9457 F1800
G1 X-40.00 Y-46.00 E249.0496 F300
G1 X-30.00 Y-46.00 F60
G1 E252.2367 F1800
G1 X20.00 Y-46.00 E258.8888 F451
G1 E254.3691 F2400
G1 X40.00 Y-46.00 F600
G1 E255.8583 F1800
G1 X45.00 Y-46.00 E256.0662 F300
G1 E254.5592 F2400
G1 Z0.500 F420
G1 X-45.00 Y-48.00 F6000
G1 Z0.200 F420
G1 E255.6260 F1800
G1 X-40.00 Y-48.00 E255.7299 F300
G1 X-30.00 Y-48.00 F60
G1 E259.3493 F1800
G1 X20.00 Y-48.00 E266.0013 F451
G1 E260.9131 F2400
G1 X40.00 Y-48.00 F600
G1 E262.5617 F1800
G1 X45.00 Y-48.00 E262.7695 F300
G1 E261.1021 F2400
G1 Z0.500 F420
G1 X-45.00 Y-50.00 F6000
G1 Z0.200 F420
G1 E262.2488 F1800
G1 X-40.00 Y-50.00 E262.3527 F300
G1 X-30.00 Y-50.00 F60
G1 E266.4043 F1800
G1 X20.00 Y-50.00 E273.0564 F451
G1 E267.4072 F2400
G1 X40.00 Y-50.00 F600
G1 E269.2153 F1800
G1 X45.00 Y-50.00 E269.4232 F300
G1 E267.5953 F2400
G1 Z0.500 F420
G1 X-45.00 Y-52.00 F6000
G1 Z0.200 F420
G1 E268.8221 F1800
G1 X-40.00 Y-52.00 E268.9260 F300
G1 X-30.00 Y-52.00 F60
G1 E273.4097 F1800
G1 X20.00 Y-52.00 E280.0617 F451
G1 E273.8581 F2400
G1 X40.00 Y-52.00 F600
G1 E275.8257 F1800
G1 X45.00 Y-52.00 E276.0336 F300
G1 E274.0454 F2400
G1 Z0.500 F420
G1 X-45.00 Y-54.00 F6000
G1 Z0.200 F420
G1 E275.3521 F1800
G1 X-40.00 Y-54.00 E275.4560 F300
G1 X-30.00 Y-54.00 F60
G1 E280.3718 F1800
G1 X20.00 Y-54.00 E287.0238 F451
G1 E280.2709 F2400
G1 X40.00 Y-54.00 F600
G1 E282.3982 F1800
G1 X45.00 Y-54.00 E282.6060 F300
G1 E280.4576 F2400
G1 Z0.500 F420
G1 X-45.00 Y-56.00 F6000
G1 Z0.200 F420
G1 E281.8443 F1800
G1 X-40.00 Y-56.00 E281.9482 F300
G1 X-30.00 Y-56.00 F60
G1 E287.2959 F1800
G1 X20.00 Y-56.00 E293.9479 F451
G1 E286.6502 F2400
G1 X40.00 Y-56.00 F600
G1 E288.9371 F1800
G1 X45.00 Y-56.00 E289.1450 F300
G1 E286.8363 F2400
G1 Z0.500 F420
G1 E286.3364 F2400
;end gcode
M107
M104 S0 T0
M140 S0 T0
G162 Z F1800
G28 X Y
M132 X Y A B
M652
G91
M18
