;gcode_flavor: flashforge
;machine_type: Adventurer 3 Series
;filament_diameter0: 1.75
;right_extruder_temperature: 210
;platform_temperature: 50
;extruder_fan: 100%
;case_fan: 100%
;base_print_speed: 60
;travel_speed: 100
;vertical_speed: 7
;retract_speed: 40
;restore_speed: 30
;layer_height: 0.30
;line_width: 0.50
;extrusion_ratio: 1.00
;command_line: ./gcodetest.py -Te 210 -Tp 50 -Fe 1.0 -Fc 1.0 -Kf=0.0 -Kb=0.0 -Re=5.0 -n 0
;start gcode
M118 X75.00 Y75.00 Z150.00 T0
M140 S50 T0
M104 S210 T0
M104 S0 T1
M107
M900 K0.000 T0
G90
G28
M132 X Y Z A B
G1 Z50.000 F420
G161 X Y F3300
M7 T0
M6 T0
M652 S255
M108 T0
M106
;preExtrude:0.20
;structure:pre-extrude
G1 X-55.00 Y-65.00 F6000
G1 Z0.200 F420
G1 X-55.00 Y55.00 E19.9561 F1200
G1 E14.9561 F2400
G1 Z0.400 F420
;layer:0.30
;structure:brim
;structure:shell-outer
G1 X-42.50 Y59.88 F6000
G1 Z0.300 F420
G1 E19.9561 F1800
G1 X-42.50 Y56.48 E20.1681 F600
G1 E15.1681 F2400
G1 Z0.500 F420
G1 X-40.04 Y56.48 F6000
G1 Z0.300 F420
G1 E20.1681 F1800
G1 X-41.53 Y58.51 E20.3252 F600
G1 E15.3252 F2400
G1 Z0.500 F420
G1 X-42.50 Y57.67 F6000
G1 Z0.300 F420
G1 E20.3252 F1800
G1 X-39.98 Y59.88 E20.5342 F600
G1 E15.5342 F2400
G1 Z0.500 F420
G1 X-37.73 Y59.90 F6000
G1 Z0.300 F420
G1 E20.5342 F1800
G1 X-37.88 Y59.90 E20.5435 F600
G1 X-38.06 Y59.86 E20.5550
G1 X-38.22 Y59.73 E20.5679
G1 X-38.34 Y59.54 E20.5819
G1 X-38.42 Y59.17 E20.6055
G1 X-38.42 Y56.48 E20.7733
G1 E15.7733 F2400
G1 Z0.500 F420
G1 X-38.92 Y58.76 F6000
G1 Z0.300 F420
G1 E20.7733 F1800
G1 X-37.84 Y58.76 E20.8406 F600
G1 E15.8406 F2400
G1 Z0.500 F420
G1 X-36.66 Y58.26 F6000
G1 Z0.300 F420
G1 E20.8406 F1800
G1 X-34.97 Y58.26 E20.9460 F600
G1 E15.9460 F2400
G1 Z0.500 F420
G1 X-34.97 Y57.55 F6000
G1 Z0.300 F420
G1 E20.9460 F1800
G1 X-36.66 Y57.55 E21.0514 F600
G1 E16.0514 F2400
G1 Z0.500 F420
G1 X-32.69 Y59.94 F6000
G1 Z0.300 F420
G1 E21.0514 F1800
G1 X-32.18 Y59.80 E21.0844 F600
G1 X-31.79 Y59.42 E21.1183
G1 X-31.55 Y58.86 E21.1563
G1 X-31.47 Y58.18 E21.1990
G1 X-31.55 Y57.51 E21.2411
G1 X-31.79 Y56.95 E21.2791
G1 X-32.18 Y56.56 E21.3135
G1 X-32.69 Y56.42 E21.3465
G1 X-33.21 Y56.56 E21.3801
G1 X-33.59 Y56.95 E21.4140
G1 X-33.83 Y57.51 E21.4520
G1 X-33.91 Y58.18 E21.4941
G1 X-33.83 Y58.85 E21.5362
G1 X-33.59 Y59.42 E21.5748
G1 X-33.21 Y59.80 E21.6083
G1 X-32.69 Y59.94 E21.6418
G1 E16.6418 F2400
G1 Z0.500 F420
G1 X-30.41 Y56.71 F6000
G1 Z0.300 F420
G1 E21.6418 F1800
G1 X-30.41 Y56.65 E21.6456 F600
G1 E16.6456 F2400
G1 Z0.500 F420
G1 X-28.13 Y59.94 F6000
G1 Z0.300 F420
G1 E21.6456 F1800
G1 X-27.62 Y59.80 E21.6786 F600
G1 X-27.23 Y59.42 E21.7125
G1 X-26.99 Y58.86 E21.7505
G1 X-26.91 Y58.18 E21.7932
G1 X-26.99 Y57.51 E21.8353
G1 X-27.23 Y56.95 E21.8733
G1 X-27.62 Y56.56 E21.9077
G1 X-28.13 Y56.42 E21.9407
G1 X-28.65 Y56.56 E21.9743
G1 X-29.03 Y56.95 E22.0082
G1 X-29.27 Y57.51 E22.0462
G1 X-29.35 Y58.18 E22.0883
G1 X-29.27 Y58.85 E22.1304
G1 X-29.03 Y59.42 E22.1690
G1 X-28.65 Y59.80 E22.2025
G1 X-28.13 Y59.94 E22.2361
G1 E17.2361 F2400
G1 Z0.500 F420
G1 X-22.53 Y59.88 F6000
G1 Z0.300 F420
G1 E22.2361 F1800
G1 X-22.53 Y56.48 E22.4481 F600
G1 E17.4481 F2400
G1 Z0.500 F420
G1 X-20.07 Y56.48 F6000
G1 Z0.300 F420
G1 E22.4481 F1800
G1 X-21.56 Y58.51 E22.6052 F600
G1 E17.6052 F2400
G1 Z0.500 F420
G1 X-22.53 Y57.67 F6000
G1 Z0.300 F420
G1 E22.6052 F1800
G1 X-20.01 Y59.88 E22.8142 F600
G1 E17.8142 F2400
G1 Z0.500 F420
G1 X-18.95 Y59.88 F6000
G1 Z0.300 F420
G1 E22.8142 F1800
G1 X-18.95 Y56.48 E23.0263 F600
G1 E18.0263 F2400
G1 Z0.500 F420
G1 X-18.95 Y56.98 F6000
G1 Z0.300 F420
G1 E23.0263 F1800
G1 X-18.70 Y56.74 E23.0479 F600
G1 X-18.31 Y56.49 E23.0768
G1 X-17.93 Y56.42 E23.1009
G1 X-17.55 Y56.51 E23.1252
G1 X-17.24 Y56.77 E23.1505
G1 X-17.04 Y57.18 E23.1789
G1 X-16.97 Y57.71 E23.2123
G1 X-17.03 Y58.22 E23.2443
G1 X-17.21 Y58.61 E23.2711
G1 X-17.50 Y58.86 E23.2950
G1 X-17.90 Y58.95 E23.3205
G1 X-18.09 Y58.93 E23.3324
G1 X-18.29 Y58.85 E23.3459
G1 X-18.50 Y58.72 E23.3613
G1 X-18.70 Y58.50 E23.3798
G1 X-18.95 Y58.03 E23.4130
G1 E18.4130 F2400
G1 Z0.500 F420
G1 X-15.91 Y58.26 F6000
G1 Z0.300 F420
G1 E23.4130 F1800
G1 X-14.21 Y58.26 E23.5190 F600
G1 E18.5190 F2400
G1 Z0.500 F420
G1 X-14.21 Y57.55 F6000
G1 Z0.300 F420
G1 E23.5190 F1800
G1 X-15.91 Y57.55 E23.6251 F600
G1 E18.6251 F2400
G1 Z0.500 F420
G1 X-11.94 Y59.94 F6000
G1 Z0.300 F420
G1 E23.6251 F1800
G1 X-11.43 Y59.80 E23.6580 F600
G1 X-11.04 Y59.42 E23.6920
G1 X-10.80 Y58.86 E23.7300
G1 X-10.72 Y58.18 E23.7727
G1 X-10.80 Y57.51 E23.8148
G1 X-11.04 Y56.95 E23.8528
G1 X-11.43 Y56.56 E23.8872
G1 X-11.94 Y56.42 E23.9202
G1 X-12.46 Y56.56 E23.9537
G1 X-12.84 Y56.95 E23.9877
G1 X-13.08 Y57.51 E24.0257
G1 X-13.16 Y58.18 E24.0678
G1 X-13.08 Y58.85 E24.1099
G1 X-12.84 Y59.42 E24.1484
G1 X-12.46 Y59.80 E24.1819
G1 X-11.94 Y59.94 E24.2155
G1 E19.2155 F2400
G1 Z0.500 F420
G1 X-9.65 Y56.71 F6000
G1 Z0.300 F420
G1 E24.2155 F1800
G1 X-9.65 Y56.65 E24.2193 F600
G1 E19.2193 F2400
G1 Z0.500 F420
G1 X-7.37 Y59.94 F6000
G1 Z0.300 F420
G1 E24.2193 F1800
G1 X-6.86 Y59.80 E24.2522 F600
G1 X-6.47 Y59.42 E24.2862
G1 X-6.23 Y58.86 E24.3242
G1 X-6.15 Y58.18 E24.3669
G1 X-6.23 Y57.51 E24.4090
G1 X-6.47 Y56.95 E24.4470
G1 X-6.86 Y56.56 E24.4814
G1 X-7.37 Y56.42 E24.5144
G1 X-7.89 Y56.56 E24.5480
G1 X-8.27 Y56.95 E24.5819
G1 X-8.51 Y57.51 E24.6199
G1 X-8.59 Y58.18 E24.6620
G1 X-8.51 Y58.85 E24.7041
G1 X-8.27 Y59.42 E24.7427
G1 X-7.89 Y59.80 E24.7762
G1 X-7.37 Y59.94 E24.8098
G1 E19.8098 F2400
G1 Z0.500 F420
G1 X-1.77 Y56.48 F6000
G1 Z0.300 F420
G1 E24.8098 F1800
G1 X-1.77 Y59.88 E25.0218 F600
G1 X-0.54 Y59.88 E25.0985
G1 X-0.15 Y59.78 E25.1236
G1 X0.16 Y59.58 E25.1466
G1 X0.26 Y59.45 E25.1569
G1 X0.39 Y59.04 E25.1837
G1 X0.34 Y58.80 E25.1990
G1 X0.23 Y58.56 E25.2154
G1 X0.01 Y58.36 E25.2340
G1 X-0.76 Y58.18 E25.2833
G1 E20.2833 F2400
G1 Z0.500 F420
G1 X-1.77 Y58.18 F6000
G1 Z0.300 F420
G1 E25.2833 F1800
G1 X-0.76 Y58.18 E25.3463 F600
G1 X-0.25 Y58.00 E25.3800
G1 X0.14 Y57.38 E25.4257
G1 X0.39 Y56.48 E25.4840
G1 E20.4840 F2400
G1 Z0.500 F420
G1 X1.45 Y57.69 F6000
G1 Z0.300 F420
G1 E25.4840 F1800
G1 X3.59 Y57.69 E25.6174 F600
G1 X3.51 Y58.22 E25.6509
G1 X3.30 Y58.61 E25.6785
G1 X2.96 Y58.86 E25.7048
G1 X2.52 Y58.95 E25.7328
G1 X2.09 Y58.86 E25.7602
G1 X1.75 Y58.61 E25.7865
G1 X1.53 Y58.22 E25.8145
G1 X1.45 Y57.69 E25.8479
G1 X1.53 Y57.15 E25.8819
G1 X1.76 Y56.75 E25.9107
G1 X2.11 Y56.51 E25.9372
G1 X2.57 Y56.42 E25.9664
G1 X2.91 Y56.47 E25.9878
G1 X3.20 Y56.61 E26.0079
G1 X3.41 Y56.83 E26.0269
G1 X3.53 Y57.13 E26.0470
G1 E21.0470 F2400
G1 Z0.500 F420
G1 X4.65 Y58.26 F6000
G1 Z0.300 F420
G1 E26.0470 F1800
G1 X6.34 Y58.26 E26.1524 F600
G1 E21.1524 F2400
G1 Z0.500 F420
G1 X6.34 Y57.55 F6000
G1 Z0.300 F420
G1 E26.1524 F1800
G1 X4.65 Y57.55 E26.2578 F600
G1 E21.2578 F2400
G1 Z0.500 F420
G1 X9.39 Y59.88 F6000
G1 Z0.300 F420
G1 E26.2578 F1800
G1 X7.64 Y59.88 E26.3670 F600
G1 X7.50 Y58.14 E26.4758
G1 X7.78 Y58.45 E26.5019
G1 X7.95 Y58.57 E26.5149
G1 X8.14 Y58.64 E26.5275
G1 X8.33 Y58.67 E26.5395
G1 X8.53 Y58.68 E26.5520
G1 X8.94 Y58.59 E26.5782
G1 X9.26 Y58.37 E26.6024
G1 X9.47 Y58.03 E26.6273
G1 X9.55 Y57.61 E26.6540
G1 X9.48 Y57.14 E26.6836
G1 X9.27 Y56.77 E26.7101
G1 X8.92 Y56.51 E26.7373
G1 X8.42 Y56.42 E26.7690
G1 X8.05 Y56.48 E26.7924
G1 X7.74 Y56.64 E26.8141
G1 X7.52 Y56.91 E26.8358
G1 X7.40 Y57.27 E26.8595
G1 E21.8595 F2400
G1 Z0.500 F420
G1 X10.61 Y56.71 F6000
G1 Z0.300 F420
G1 E26.8595 F1800
G1 X10.61 Y56.65 E26.8633 F600
G1 E21.8633 F2400
G1 Z0.500 F420
G1 X12.89 Y59.94 F6000
G1 Z0.300 F420
G1 E26.8633 F1800
G1 X13.40 Y59.80 E26.8962 F600
G1 X13.79 Y59.42 E26.9302
G1 X14.03 Y58.86 E26.9682
G1 X14.11 Y58.18 E27.0109
G1 X14.03 Y57.51 E27.0530
G1 X13.79 Y56.95 E27.0910
G1 X13.40 Y56.56 E27.1254
G1 X12.89 Y56.42 E27.1584
G1 X12.37 Y56.56 E27.1919
G1 X11.99 Y56.95 E27.2259
G1 X11.75 Y57.51 E27.2639
G1 X11.67 Y58.18 E27.3060
G1 X11.75 Y58.85 E27.3481
G1 X11.99 Y59.42 E27.3866
G1 X12.37 Y59.80 E27.4202
G1 X12.89 Y59.94 E27.4537
G1 E22.4537 F2400
G1 Z0.500 F420
;structure:brim
G1 X-45.00 Y60.00 F6000
G1 Z0.300 F420
G1 E27.4537 F1800
G1 X-45.00 Y-61.00 E35.0002 F600
G1 X-45.50 Y-61.00 E35.0314
G1 X-45.50 Y60.00 E42.5779
G1 E37.5779 F2400
G1 Z0.500 F420
G1 X45.00 Y60.00 F6000
G1 Z0.300 F420
G1 E42.5779 F1800
G1 X45.00 Y-61.00 E50.1245 F600
G1 X45.50 Y-61.00 E50.1556
G1 X45.50 Y60.00 E57.7022
G1 E52.7022 F2400
G1 Z0.500 F420
;structure:shell-outer
G1 X-45.00 Y55.00 F6000
G1 Z0.300 F420
G1 E57.7022 F1800
G1 X45.00 Y55.00 E63.3153 F600
G1 E58.3153 F2400
G1 Z0.500 F420
G1 X-42.00 Y55.00 F6000
G1 X-40.00 Y55.00
G1 Z0.300 F420
G1 E63.3153 F1800
G1 X-40.00 Y52.00 E63.5024 F600
G1 E58.5024 F2400
G1 Z0.500 F420
G1 X-38.00 Y55.00 F6000
G1 Z0.300 F420
G1 E63.5024 F1800
G1 X-38.00 Y53.50 E63.5959 F600
G1 E58.5959 F2400
G1 Z0.500 F420
G1 X-36.00 Y55.00 F6000
G1 Z0.300 F420
G1 E63.5959 F1800
G1 X-36.00 Y53.50 E63.6895 F600
G1 E58.6895 F2400
G1 Z0.500 F420
G1 X-34.00 Y55.00 F6000
G1 Z0.300 F420
G1 E63.6895 F1800
G1 X-34.00 Y53.50 E63.7831 F600
G1 E58.7831 F2400
G1 Z0.500 F420
G1 X-32.00 Y55.00 F6000
G1 Z0.300 F420
G1 E63.7831 F1800
G1 X-32.00 Y53.50 E63.8766 F600
G1 E58.8766 F2400
G1 Z0.500 F420
G1 X-30.00 Y55.00 F6000
G1 Z0.300 F420
G1 E63.8766 F1800
G1 X-30.00 Y52.00 E64.0637 F600
G1 E59.0637 F2400
G1 Z0.500 F420
G1 X-28.00 Y55.00 F6000
G1 Z0.300 F420
G1 E64.0637 F1800
G1 X-28.00 Y53.50 E64.1573 F600
G1 E59.1573 F2400
G1 Z0.500 F420
G1 X-26.00 Y55.00 F6000
G1 Z0.300 F420
G1 E64.1573 F1800
G1 X-26.00 Y53.50 E64.2508 F600
G1 E59.2508 F2400
G1 Z0.500 F420
G1 X-24.00 Y55.00 F6000
G1 Z0.300 F420
G1 E64.2508 F1800
G1 X-24.00 Y53.50 E64.3444 F600
G1 E59.3444 F2400
G1 Z0.500 F420
G1 X-22.00 Y55.00 F6000
G1 Z0.300 F420
G1 E64.3444 F1800
G1 X-22.00 Y53.50 E64.4379 F600
G1 E59.4379 F2400
G1 Z0.500 F420
G1 X-20.00 Y55.00 F6000
G1 Z0.300 F420
G1 E64.4379 F1800
G1 X-20.00 Y52.00 E64.6250 F600
G1 E59.6250 F2400
G1 Z0.500 F420
G1 X-18.00 Y55.00 F6000
G1 Z0.300 F420
G1 E64.6250 F1800
G1 X-18.00 Y53.50 E64.7186 F600
G1 E59.7186 F2400
G1 Z0.500 F420
G1 X-16.00 Y55.00 F6000
G1 Z0.300 F420
G1 E64.7186 F1800
G1 X-16.00 Y53.50 E64.8121 F600
G1 E59.8121 F2400
G1 Z0.500 F420
G1 X-14.00 Y55.00 F6000
G1 Z0.300 F420
G1 E64.8121 F1800
G1 X-14.00 Y53.50 E64.9057 F600
G1 E59.9057 F2400
G1 Z0.500 F420
G1 X-12.00 Y55.00 F6000
G1 Z0.300 F420
G1 E64.9057 F1800
G1 X-12.00 Y53.50 E64.9992 F600
G1 E59.9992 F2400
G1 Z0.500 F420
G1 X-10.00 Y55.00 F6000
G1 Z0.300 F420
G1 E64.9992 F1800
G1 X-10.00 Y52.00 E65.1863 F600
G1 E60.1863 F2400
G1 Z0.500 F420
G1 X-8.00 Y55.00 F6000
G1 Z0.300 F420
G1 E65.1863 F1800
G1 X-8.00 Y53.50 E65.2799 F600
G1 E60.2799 F2400
G1 Z0.500 F420
G1 X-6.00 Y55.00 F6000
G1 Z0.300 F420
G1 E65.2799 F1800
G1 X-6.00 Y53.50 E65.3734 F600
G1 E60.3734 F2400
G1 Z0.500 F420
G1 X-4.00 Y55.00 F6000
G1 Z0.300 F420
G1 E65.3734 F1800
G1 X-4.00 Y53.50 E65.4670 F600
G1 E60.4670 F2400
G1 Z0.500 F420
G1 X-2.00 Y55.00 F6000
G1 Z0.300 F420
G1 E65.4670 F1800
G1 X-2.00 Y53.50 E65.5605 F600
G1 E60.5605 F2400
G1 Z0.500 F420
G1 X0.00 Y55.00 F6000
G1 Z0.300 F420
G1 E65.5605 F1800
G1 X0.00 Y52.00 E65.7476 F600
G1 E60.7476 F2400
G1 Z0.500 F420
G1 X2.00 Y55.00 F6000
G1 Z0.300 F420
G1 E65.7476 F1800
G1 X2.00 Y53.50 E65.8412 F600
G1 E60.8412 F2400
G1 Z0.500 F420
G1 X4.00 Y55.00 F6000
G1 Z0.300 F420
G1 E65.8412 F1800
G1 X4.00 Y53.50 E65.9347 F600
G1 E60.9347 F2400
G1 Z0.500 F420
G1 X6.00 Y55.00 F6000
G1 Z0.300 F420
G1 E65.9347 F1800
G1 X6.00 Y53.50 E66.0283 F600
G1 E61.0283 F2400
G1 Z0.500 F420
G1 X8.00 Y55.00 F6000
G1 Z0.300 F420
G1 E66.0283 F1800
G1 X8.00 Y53.50 E66.1219 F600
G1 E61.1219 F2400
G1 Z0.500 F420
G1 X10.00 Y55.00 F6000
G1 Z0.300 F420
G1 E66.1219 F1800
G1 X10.00 Y52.00 E66.3090 F600
G1 E61.3090 F2400
G1 Z0.500 F420
G1 X12.00 Y55.00 F6000
G1 Z0.300 F420
G1 E66.3090 F1800
G1 X12.00 Y53.50 E66.4025 F600
G1 E61.4025 F2400
G1 Z0.500 F420
G1 X14.00 Y55.00 F6000
G1 Z0.300 F420
G1 E66.4025 F1800
G1 X14.00 Y53.50 E66.4961 F600
G1 E61.4961 F2400
G1 Z0.500 F420
G1 X16.00 Y55.00 F6000
G1 Z0.300 F420
G1 E66.4961 F1800
G1 X16.00 Y53.50 E66.5896 F600
G1 E61.5896 F2400
G1 Z0.500 F420
G1 X18.00 Y55.00 F6000
G1 Z0.300 F420
G1 E66.5896 F1800
G1 X18.00 Y53.50 E66.6832 F600
G1 E61.6832 F2400
G1 Z0.500 F420
G1 X20.00 Y55.00 F6000
G1 Z0.300 F420
G1 E66.6832 F1800
G1 X20.00 Y52.00 E66.8703 F600
G1 E61.8703 F2400
G1 Z0.500 F420
G1 X22.00 Y55.00 F6000
G1 Z0.300 F420
G1 E66.8703 F1800
G1 X22.00 Y53.50 E66.9638 F600
G1 E61.9638 F2400
G1 Z0.500 F420
G1 X24.00 Y55.00 F6000
G1 Z0.300 F420
G1 E66.9638 F1800
G1 X24.00 Y53.50 E67.0574 F600
G1 E62.0574 F2400
G1 Z0.500 F420
G1 X26.00 Y55.00 F6000
G1 Z0.300 F420
G1 E67.0574 F1800
G1 X26.00 Y53.50 E67.1509 F600
G1 E62.1509 F2400
G1 Z0.500 F420
G1 X28.00 Y55.00 F6000
G1 Z0.300 F420
G1 E67.1509 F1800
G1 X28.00 Y53.50 E67.2445 F600
G1 E62.2445 F2400
G1 Z0.500 F420
G1 X30.00 Y55.00 F6000
G1 Z0.300 F420
G1 E67.2445 F1800
G1 X30.00 Y52.00 E67.4316 F600
G1 E62.4316 F2400
G1 Z0.500 F420
G1 X32.00 Y55.00 F6000
G1 Z0.300 F420
G1 E67.4316 F1800
G1 X32.00 Y53.50 E67.5251 F600
G1 E62.5251 F2400
G1 Z0.500 F420
G1 X34.00 Y55.00 F6000
G1 Z0.300 F420
G1 E67.5251 F1800
G1 X34.00 Y53.50 E67.6187 F600
G1 E62.6187 F2400
G1 Z0.500 F420
G1 X36.00 Y55.00 F6000
G1 Z0.300 F420
G1 E67.6187 F1800
G1 X36.00 Y53.50 E67.7122 F600
G1 E62.7122 F2400
G1 Z0.500 F420
G1 X38.00 Y55.00 F6000
G1 Z0.300 F420
G1 E67.7122 F1800
G1 X38.00 Y53.50 E67.8058 F600
G1 E62.8058 F2400
G1 Z0.500 F420
G1 X40.00 Y55.00 F6000
G1 Z0.300 F420
G1 E67.8058 F1800
G1 X40.00 Y52.00 E67.9929 F600
G1 E62.9929 F2400
G1 Z0.500 F420
;structure:brim
;structure:shell-outer
G1 X47.69 Y54.90 F6000
G1 Z0.300 F420
G1 E67.9929 F1800
G1 X47.54 Y54.90 E68.0022 F600
G1 X47.36 Y54.86 E68.0137
G1 X47.20 Y54.73 E68.0266
G1 X47.08 Y54.54 E68.0406
G1 X47.00 Y54.17 E68.0642
G1 X47.00 Y51.48 E68.2320
G1 E63.2320 F2400
G1 Z0.500 F420
G1 X46.50 Y53.76 F6000
G1 Z0.300 F420
G1 E68.2320 F1800
G1 X47.58 Y53.76 E68.2994 F600
G1 E63.2994 F2400
G1 Z0.500 F420
G1 X48.75 Y54.88 F6000
G1 Z0.300 F420
G1 E68.2994 F1800
G1 X48.75 Y51.48 E68.5114 F600
G1 E63.5114 F2400
G1 Z0.500 F420
G1 X51.21 Y51.48 F6000
G1 Z0.300 F420
G1 E68.5114 F1800
G1 X49.72 Y53.51 E68.6684 F600
G1 E63.6684 F2400
G1 Z0.500 F420
G1 X48.75 Y52.67 F6000
G1 Z0.300 F420
G1 E68.6684 F1800
G1 X51.28 Y54.88 E68.8780 F600
G1 E63.8780 F2400
G1 Z0.500 F420
G1 X53.53 Y54.90 F6000
G1 Z0.300 F420
G1 E68.8780 F1800
G1 X53.38 Y54.90 E68.8873 F600
G1 X53.20 Y54.86 E68.8988
G1 X53.04 Y54.73 E68.9117
G1 X52.92 Y54.54 E68.9257
G1 X52.84 Y54.17 E68.9493
G1 X52.84 Y51.48 E69.1171
G1 E64.1171 F2400
G1 Z0.500 F420
G1 X52.34 Y53.76 F6000
G1 Z0.300 F420
G1 E69.1171 F1800
G1 X53.42 Y53.76 E69.1844 F600
G1 E64.1844 F2400
G1 Z0.500 F420
G1 X54.59 Y53.26 F6000
G1 Z0.300 F420
G1 E69.1844 F1800
G1 X56.28 Y53.26 E69.2898 F600
G1 E64.2898 F2400
G1 Z0.500 F420
G1 X56.28 Y52.55 F6000
G1 Z0.300 F420
G1 E69.2898 F1800
G1 X54.59 Y52.55 E69.3952 F600
G1 E64.3952 F2400
G1 Z0.500 F420
G1 X58.56 Y54.94 F6000
G1 Z0.300 F420
G1 E69.3952 F1800
G1 X59.07 Y54.80 E69.4282 F600
G1 X59.46 Y54.42 E69.4622
G1 X59.70 Y53.86 E69.5002
G1 X59.78 Y53.18 E69.5429
G1 X59.70 Y52.51 E69.5849
G1 X59.46 Y51.95 E69.6229
G1 X59.07 Y51.56 E69.6573
G1 X58.56 Y51.42 E69.6903
G1 X58.04 Y51.56 E69.7239
G1 X57.66 Y51.95 E69.7579
G1 X57.42 Y52.51 E69.7959
G1 X57.34 Y53.18 E69.8380
G1 X57.42 Y53.85 E69.8800
G1 X57.66 Y54.42 E69.9186
G1 X58.04 Y54.80 E69.9521
G1 X58.56 Y54.94 E69.9857
G1 E64.9857 F2400
G1 Z0.500 F420
G1 X60.85 Y51.71 F6000
G1 Z0.300 F420
G1 E69.9857 F1800
G1 X60.85 Y51.65 E69.9894 F600
G1 E64.9894 F2400
G1 Z0.500 F420
G1 X63.13 Y54.94 F6000
G1 Z0.300 F420
G1 E69.9894 F1800
G1 X63.64 Y54.80 E70.0224 F600
G1 X64.03 Y54.42 E70.0564
G1 X64.27 Y53.86 E70.0944
G1 X64.35 Y53.18 E70.1371
G1 X64.27 Y52.51 E70.1792
G1 X64.03 Y51.95 E70.2172
G1 X63.64 Y51.56 E70.2516
G1 X63.13 Y51.42 E70.2846
G1 X62.61 Y51.56 E70.3181
G1 X62.23 Y51.95 E70.3521
G1 X61.99 Y52.51 E70.3901
G1 X61.91 Y53.18 E70.4322
G1 X61.99 Y53.85 E70.4743
G1 X62.23 Y54.42 E70.5128
G1 X62.61 Y54.80 E70.5464
G1 X63.13 Y54.94 E70.5799
G1 E65.5799 F2400
G1 Z0.500 F420
G1 X65.41 Y52.90 F6000
G1 Z0.300 F420
G1 E70.5799 F1800
G1 X67.28 Y52.90 E70.6966 F600
G1 E65.6966 F2400
G1 Z0.500 F420
G1 X68.34 Y54.44 F6000
G1 Z0.300 F420
G1 E70.6966 F1800
G1 X68.53 Y54.65 E70.7142 F600
G1 X68.76 Y54.81 E70.7317
G1 X69.02 Y54.90 E70.7489
G1 X69.30 Y54.94 E70.7665
G1 X69.67 Y54.88 E70.7899
G1 X69.97 Y54.68 E70.8124
G1 X70.16 Y54.39 E70.8340
G1 X70.23 Y54.02 E70.8575
G1 X70.13 Y53.63 E70.8826
G1 X69.85 Y53.27 E70.9110
G1 X69.07 Y52.64 E70.9736
G1 X68.77 Y52.23 E71.0053
G1 X68.38 Y51.48 E71.0580
G1 X70.20 Y51.48 E71.1715
G1 E66.1715 F2400
G1 Z0.500 F420
G1 X71.30 Y51.71 F6000
G1 Z0.300 F420
G1 E71.1715 F1800
G1 X71.30 Y51.65 E71.1752 F600
G1 E66.1752 F2400
G1 Z0.500 F420
G1 X73.58 Y54.94 F6000
G1 Z0.300 F420
G1 E71.1752 F1800
G1 X74.09 Y54.80 E71.2082 F600
G1 X74.48 Y54.42 E71.2422
G1 X74.72 Y53.86 E71.2802
G1 X74.80 Y53.18 E71.3229
G1 X74.72 Y52.51 E71.3650
G1 X74.48 Y51.95 E71.4030
G1 X74.09 Y51.56 E71.4374
G1 X73.58 Y51.42 E71.4703
G1 X73.06 Y51.56 E71.5039
G1 X72.68 Y51.95 E71.5379
G1 X72.44 Y52.51 E71.5759
G1 X72.36 Y53.18 E71.6180
G1 X72.44 Y53.85 E71.6601
G1 X72.68 Y54.42 E71.6986
G1 X73.06 Y54.80 E71.7321
G1 X73.58 Y54.94 E71.7657
G1 E66.7657 F2400
G1 Z0.500 F420
G1 X46.50 Y48.89 F6000
G1 Z0.300 F420
G1 E71.7657 F1800
G1 X47.52 Y46.48 E71.9289 F600
G1 X48.54 Y48.89 E72.0922
G1 E67.0922 F2400
G1 Z0.500 F420
G1 X49.60 Y48.89 F6000
G1 Z0.300 F420
G1 E72.0922 F1800
G1 X51.60 Y46.48 E72.2875 F600
G1 E67.2875 F2400
G1 Z0.500 F420
G1 X49.60 Y46.48 F6000
G1 Z0.300 F420
G1 E72.2875 F1800
G1 X51.60 Y48.89 E72.4828 F600
G1 E67.4828 F2400
G1 Z0.500 F420
G1 X53.88 Y49.94 F6000
G1 Z0.300 F420
G1 E72.4828 F1800
G1 X54.39 Y49.80 E72.5158 F600
G1 X54.78 Y49.42 E72.5497
G1 X55.02 Y48.86 E72.5877
G1 X55.10 Y48.18 E72.6304
G1 X55.02 Y47.51 E72.6725
G1 X54.78 Y46.95 E72.7105
G1 X54.39 Y46.56 E72.7449
G1 X53.88 Y46.42 E72.7779
G1 X53.36 Y46.56 E72.8115
G1 X52.98 Y46.95 E72.8455
G1 X52.74 Y47.51 E72.8834
G1 X52.66 Y48.18 E72.9255
G1 X52.74 Y48.85 E72.9676
G1 X52.98 Y49.42 E73.0062
G1 X53.36 Y49.80 E73.0397
G1 X53.88 Y49.94 E73.0733
G1 E68.0733 F2400
G1 Z0.500 F420
G1 X56.17 Y48.26 F6000
G1 Z0.300 F420
G1 E73.0733 F1800
G1 X57.86 Y48.26 E73.1787 F600
G1 E68.1787 F2400
G1 Z0.500 F420
G1 X57.86 Y47.55 F6000
G1 Z0.300 F420
G1 E73.1787 F1800
G1 X56.17 Y47.55 E73.2841 F600
G1 E68.2841 F2400
G1 Z0.500 F420
G1 X58.92 Y49.44 F6000
G1 Z0.300 F420
G1 E73.2841 F1800
G1 X59.11 Y49.65 E73.3018 F600
G1 X59.34 Y49.81 E73.3192
G1 X59.60 Y49.90 E73.3364
G1 X59.88 Y49.94 E73.3540
G1 X60.25 Y49.88 E73.3774
G1 X60.55 Y49.68 E73.3999
G1 X60.74 Y49.39 E73.4215
G1 X60.81 Y49.02 E73.4450
G1 X60.71 Y48.63 E73.4701
G1 X60.43 Y48.27 E73.4986
G1 X59.65 Y47.64 E73.5611
G1 X59.35 Y47.23 E73.5928
G1 X58.96 Y46.48 E73.6455
G1 X60.78 Y46.48 E73.7590
G1 E68.7590 F2400
G1 Z0.500 F420
G1 X63.09 Y49.94 F6000
G1 Z0.300 F420
G1 E73.7590 F1800
G1 X63.60 Y49.80 E73.7920 F600
G1 X63.99 Y49.42 E73.8260
G1 X64.23 Y48.86 E73.8640
G1 X64.31 Y48.18 E73.9067
G1 X64.23 Y47.51 E73.9488
G1 X63.99 Y46.95 E73.9868
G1 X63.60 Y46.56 E74.0212
G1 X63.09 Y46.42 E74.0541
G1 X62.57 Y46.56 E74.0877
G1 X62.19 Y46.95 E74.1217
G1 X61.95 Y47.51 E74.1597
G1 X61.87 Y48.18 E74.2018
G1 X61.95 Y48.85 E74.2439
G1 X62.19 Y49.42 E74.2824
G1 X62.57 Y49.80 E74.3160
G1 X63.09 Y49.94 E74.3495
G1 E69.3495 F2400
G1 Z0.500 F420
G1 X46.50 Y43.89 F6000
G1 Z0.300 F420
G1 E74.3495 F1800
G1 X47.52 Y41.48 E74.5128 F600
G1 X48.54 Y43.89 E74.6760
G1 E69.6760 F2400
G1 Z0.500 F420
G1 X49.60 Y43.89 F6000
G1 Z0.300 F420
G1 E74.6760 F1800
G1 X51.60 Y41.48 E74.8713 F600
G1 E69.8713 F2400
G1 Z0.500 F420
G1 X49.60 Y41.48 F6000
G1 Z0.300 F420
G1 E74.8713 F1800
G1 X51.60 Y43.89 E75.0667 F600
G1 E70.0667 F2400
G1 Z0.500 F420
G1 X52.66 Y44.00 F6000
G1 Z0.300 F420
G1 E75.0667 F1800
G1 X53.13 Y44.24 E75.0996 F600
G1 X53.50 Y44.55 E75.1297
G1 X53.75 Y44.88 E75.1555
G1 X53.75 Y41.48 E75.3676
G1 E70.3676 F2400
G1 Z0.500 F420
G1 X54.81 Y43.26 F6000
G1 Z0.300 F420
G1 E75.3676 F1800
G1 X56.50 Y43.26 E75.4730 F600
G1 E70.4730 F2400
G1 Z0.500 F420
G1 X56.50 Y42.55 F6000
G1 Z0.300 F420
G1 E75.4730 F1800
G1 X54.81 Y42.55 E75.5784 F600
G1 E70.5784 F2400
G1 Z0.500 F420
G1 X57.56 Y44.00 F6000
G1 Z0.300 F420
G1 E75.5784 F1800
G1 X58.03 Y44.24 E75.6113 F600
G1 X58.40 Y44.55 E75.6414
G1 X58.65 Y44.88 E75.6672
G1 X58.65 Y41.48 E75.8793
G1 E70.8793 F2400
G1 Z0.500 F420
G1 X60.93 Y44.94 F6000
G1 Z0.300 F420
G1 E75.8793 F1800
G1 X61.44 Y44.80 E75.9122 F600
G1 X61.83 Y44.42 E75.9462
G1 X62.07 Y43.86 E75.9842
G1 X62.15 Y43.18 E76.0269
G1 X62.07 Y42.51 E76.0690
G1 X61.83 Y41.95 E76.1070
G1 X61.44 Y41.56 E76.1414
G1 X60.93 Y41.42 E76.1744
G1 X60.41 Y41.56 E76.2080
G1 X60.03 Y41.95 E76.2419
G1 X59.79 Y42.51 E76.2799
G1 X59.71 Y43.18 E76.3220
G1 X59.79 Y43.85 E76.3641
G1 X60.03 Y44.42 E76.4027
G1 X60.41 Y44.80 E76.4362
G1 X60.93 Y44.94 E76.4698
G1 E71.4698 F2400
G1 Z0.500 F420
G1 X64.43 Y44.94 F6000
G1 Z0.300 F420
G1 E76.4698 F1800
G1 X64.94 Y44.80 E76.5027 F600
G1 X65.33 Y44.42 E76.5367
G1 X65.57 Y43.86 E76.5747
G1 X65.65 Y43.18 E76.6174
G1 X65.57 Y42.51 E76.6595
G1 X65.33 Y41.95 E76.6975
G1 X64.94 Y41.56 E76.7319
G1 X64.43 Y41.42 E76.7649
G1 X63.91 Y41.56 E76.7985
G1 X63.53 Y41.95 E76.8324
G1 X63.29 Y42.51 E76.8704
G1 X63.21 Y43.18 E76.9125
G1 X63.29 Y43.85 E76.9546
G1 X63.53 Y44.42 E76.9932
G1 X63.91 Y44.80 E77.0267
G1 X64.43 Y44.94 E77.0603
G1 E72.0603 F2400
G1 Z0.500 F420
;structure:shell-inner
G1 X-45.00 Y51.00 F6000
G1 Z0.300 F420
G1 E77.0603 F1800
G1 X-40.00 Y51.00 E77.3721 F300
G1 X-20.00 Y51.00 E78.6195 F1200
G1 X20.00 Y51.00 E81.1143 F6000
G1 X40.00 Y51.00 E82.3617 F1200
G1 X45.00 Y51.00 E82.6735 F300
G1 E77.6735 F2400
G1 Z0.500 F420
M900 K0.200 T0
G1 X-45.00 Y49.00 F6000
G1 Z0.300 F420
G1 E82.6735 F1800
G1 X-40.00 Y49.00 E82.9854 F300
G1 X-20.00 Y49.00 E84.2328 F1200
G1 X20.00 Y49.00 E86.7275 F6000
G1 X40.00 Y49.00 E87.9749 F1200
G1 X45.00 Y49.00 E88.2868 F300
G1 E83.2868 F2400
G1 Z0.500 F420
M900 K0.400 T0
G1 X-45.00 Y47.00 F6000
G1 Z0.300 F420
G1 E88.2868 F1800
G1 X-40.00 Y47.00 E88.5986 F300
G1 X-20.00 Y47.00 E89.8460 F1200
G1 X20.00 Y47.00 E92.3408 F6000
G1 X40.00 Y47.00 E93.5882 F1200
G1 X45.00 Y47.00 E93.9000 F300
G1 E88.9000 F2400
G1 Z0.500 F420
M900 K0.600 T0
G1 X-45.00 Y45.00 F6000
G1 Z0.300 F420
G1 E93.9000 F1800
G1 X-40.00 Y45.00 E94.2119 F300
G1 X-20.00 Y45.00 E95.4592 F1200
G1 X20.00 Y45.00 E97.9540 F6000
G1 X40.00 Y45.00 E99.2014 F1200
G1 X45.00 Y45.00 E99.5133 F300
G1 E94.5133 F2400
G1 Z0.500 F420
M900 K0.800 T0
G1 X-45.00 Y43.00 F6000
G1 Z0.300 F420
G1 E99.5133 F1800
G1 X-40.00 Y43.00 E99.8251 F300
G1 X-20.00 Y43.00 E101.0725 F1200
G1 X20.00 Y43.00 E103.5673 F6000
G1 X40.00 Y43.00 E104.8147 F1200
G1 X45.00 Y43.00 E105.1265 F300
G1 E100.1265 F2400
G1 Z0.500 F420
M900 K1.000 T0
G1 X-45.00 Y41.00 F6000
G1 Z0.300 F420
G1 E105.1265 F1800
G1 X-40.00 Y41.00 E105.4384 F300
G1 X-20.00 Y41.00 E106.6857 F1200
G1 X20.00 Y41.00 E109.1805 F6000
G1 X40.00 Y41.00 E110.4279 F1200
G1 X45.00 Y41.00 E110.7398 F300
G1 E105.7398 F2400
G1 Z0.500 F420
M900 K1.200 T0
G1 X-45.00 Y39.00 F6000
G1 Z0.300 F420
G1 E110.7398 F1800
G1 X-40.00 Y39.00 E111.0516 F300
G1 X-20.00 Y39.00 E112.2990 F1200
G1 X20.00 Y39.00 E114.7938 F6000
G1 X40.00 Y39.00 E116.0412 F1200
G1 X45.00 Y39.00 E116.3530 F300
G1 E111.3530 F2400
G1 Z0.500 F420
M900 K1.400 T0
G1 X-45.00 Y37.00 F6000
G1 Z0.300 F420
G1 E116.3530 F1800
G1 X-40.00 Y37.00 E116.6649 F300
G1 X-20.00 Y37.00 E117.9122 F1200
G1 X20.00 Y37.00 E120.4070 F6000
G1 X40.00 Y37.00 E121.6544 F1200
G1 X45.00 Y37.00 E121.9663 F300
G1 E116.9663 F2400
G1 Z0.500 F420
M900 K1.600 T0
G1 X-45.00 Y35.00 F6000
G1 Z0.300 F420
G1 E121.9663 F1800
G1 X-40.00 Y35.00 E122.2781 F300
G1 X-20.00 Y35.00 E123.5255 F1200
G1 X20.00 Y35.00 E126.0203 F6000
G1 X40.00 Y35.00 E127.2677 F1200
G1 X45.00 Y35.00 E127.5795 F300
G1 E122.5795 F2400
G1 Z0.500 F420
M900 K1.800 T0
G1 X-45.00 Y33.00 F6000
G1 Z0.300 F420
G1 E127.5795 F1800
G1 X-40.00 Y33.00 E127.8914 F300
G1 X-20.00 Y33.00 E129.1387 F1200
G1 X20.00 Y33.00 E131.6335 F6000
G1 X40.00 Y33.00 E132.8809 F1200
G1 X45.00 Y33.00 E133.1928 F300
G1 E128.1928 F2400
G1 Z0.500 F420
M900 K2.000 T0
G1 X-45.00 Y31.00 F6000
G1 Z0.300 F420
G1 E133.1928 F1800
G1 X-40.00 Y31.00 E133.5046 F300
G1 X-20.00 Y31.00 E134.7520 F1200
G1 X20.00 Y31.00 E137.2468 F6000
G1 X40.00 Y31.00 E138.4942 F1200
G1 X45.00 Y31.00 E138.8060 F300
G1 E133.8060 F2400
G1 Z0.500 F420
M900 K0.000 T0
G1 E136.3060 F1800
;end gcode
M107
M104 S0 T0
M140 S0 T0
G162 Z F1800
G28 X Y
M132 X Y A B
M652
G91
M18
