;gcode_flavor: flashforge
;machine_type: Adventurer 3 Series
;filament_diameter0: 1.75
;right_extruder_temperature: 210
;platform_temperature: 50
;extruder_fan: 100%
;case_fan: 100%
;base_print_speed: 60
;travel_speed: 100
;vertical_speed: 7
;retract_speed: 40
;restore_speed: 30
;layer_height: 0.30
;line_width: 0.50
;extrusion_ratio: 1.00
;command_line: ./gcodetest.py -Te 210 -Tp 50 -Fe 1.0 -Fc 1.0 -Kf=0.0 -Kb=0.0 -Re=5.0 -n 3
;start gcode
M118 X75.00 Y75.00 Z150.00 T0
M140 S50 T0
M104 S210 T0
M104 S0 T1
M107
M900 K0.000 T0
G90
G28
M132 X Y Z A B
G1 Z50.000 F420
G161 X Y F3300
M7 T0
M6 T0
M652 S255
M108 T0
M106
;preExtrude:0.20
;structure:pre-extrude
G1 X-61.00 Y-65.00 F6000
G1 Z0.200 F420
G1 X-61.00 Y55.00 E19.9561 F1200
G1 E14.9561 F2400
G1 Z0.400 F420
;layer:0.30
;structure:shell-outer
G1 X-45.00 Y-32.00 F6000
G1 Z0.300 F420
G1 E19.9561 F1800
G1 X45.00 Y-32.00 E25.5687 F600
G1 E20.5687 F2400
G1 Z0.500 F420
G1 X-42.00 Y-32.00 F6000
G1 X-40.00 Y-32.00
G1 Z0.300 F420
G1 E25.5687 F1800
G1 X-40.00 Y-35.00 E25.7558 F600
G1 E20.7558 F2400
G1 Z0.500 F420
G1 X-38.00 Y-32.00 F6000
G1 Z0.300 F420
G1 E25.7558 F1800
G1 X-38.00 Y-33.50 E25.8494 F600
G1 E20.8494 F2400
G1 Z0.500 F420
G1 X-36.00 Y-32.00 F6000
G1 Z0.300 F420
G1 E25.8494 F1800
G1 X-36.00 Y-33.50 E25.9429 F600
G1 E20.9429 F2400
G1 Z0.500 F420
G1 X-34.00 Y-32.00 F6000
G1 Z0.300 F420
G1 E25.9429 F1800
G1 X-34.00 Y-33.50 E26.0364 F600
G1 E21.0364 F2400
G1 Z0.500 F420
G1 X-32.00 Y-32.00 F6000
G1 Z0.300 F420
G1 E26.0364 F1800
G1 X-32.00 Y-33.50 E26.1300 F600
G1 E21.1300 F2400
G1 Z0.500 F420
G1 X-30.00 Y-32.00 F6000
G1 Z0.300 F420
G1 E26.1300 F1800
G1 X-30.00 Y-35.00 E26.3171 F600
G1 E21.3171 F2400
G1 Z0.500 F420
G1 X-28.00 Y-32.00 F6000
G1 Z0.300 F420
G1 E26.3171 F1800
G1 X-28.00 Y-33.50 E26.4106 F600
G1 E21.4106 F2400
G1 Z0.500 F420
G1 X-26.00 Y-32.00 F6000
G1 Z0.300 F420
G1 E26.4106 F1800
G1 X-26.00 Y-33.50 E26.5042 F600
G1 E21.5042 F2400
G1 Z0.500 F420
G1 X-24.00 Y-32.00 F6000
G1 Z0.300 F420
G1 E26.5042 F1800
G1 X-24.00 Y-33.50 E26.5977 F600
G1 E21.5977 F2400
G1 Z0.500 F420
G1 X-22.00 Y-32.00 F6000
G1 Z0.300 F420
G1 E26.5977 F1800
G1 X-22.00 Y-33.50 E26.6913 F600
G1 E21.6913 F2400
G1 Z0.500 F420
G1 X-20.00 Y-32.00 F6000
G1 Z0.300 F420
G1 E26.6913 F1800
G1 X-20.00 Y-35.00 E26.8783 F600
G1 E21.8783 F2400
G1 Z0.500 F420
G1 X-18.00 Y-32.00 F6000
G1 Z0.300 F420
G1 E26.8783 F1800
G1 X-18.00 Y-33.50 E26.9719 F600
G1 E21.9719 F2400
G1 Z0.500 F420
G1 X-16.00 Y-32.00 F6000
G1 Z0.300 F420
G1 E26.9719 F1800
G1 X-16.00 Y-33.50 E27.0654 F600
G1 E22.0654 F2400
G1 Z0.500 F420
G1 X-14.00 Y-32.00 F6000
G1 Z0.300 F420
G1 E27.0654 F1800
G1 X-14.00 Y-33.50 E27.1590 F600
G1 E22.1590 F2400
G1 Z0.500 F420
G1 X-12.00 Y-32.00 F6000
G1 Z0.300 F420
G1 E27.1590 F1800
G1 X-12.00 Y-33.50 E27.2525 F600
G1 E22.2525 F2400
G1 Z0.500 F420
G1 X-10.00 Y-32.00 F6000
G1 Z0.300 F420
G1 E27.2525 F1800
G1 X-10.00 Y-35.00 E27.4396 F600
G1 E22.4396 F2400
G1 Z0.500 F420
G1 X-8.00 Y-32.00 F6000
G1 Z0.300 F420
G1 E27.4396 F1800
G1 X-8.00 Y-33.50 E27.5332 F600
G1 E22.5332 F2400
G1 Z0.500 F420
G1 X-6.00 Y-32.00 F6000
G1 Z0.300 F420
G1 E27.5332 F1800
G1 X-6.00 Y-33.50 E27.6267 F600
G1 E22.6267 F2400
G1 Z0.500 F420
G1 X-4.00 Y-32.00 F6000
G1 Z0.300 F420
G1 E27.6267 F1800
G1 X-4.00 Y-33.50 E27.7202 F600
G1 E22.7202 F2400
G1 Z0.500 F420
G1 X-2.00 Y-32.00 F6000
G1 Z0.300 F420
G1 E27.7202 F1800
G1 X-2.00 Y-33.50 E27.8138 F600
G1 E22.8138 F2400
G1 Z0.500 F420
G1 X0.00 Y-32.00 F6000
G1 Z0.300 F420
G1 E27.8138 F1800
G1 X0.00 Y-35.00 E28.0009 F600
G1 E23.0009 F2400
G1 Z0.500 F420
G1 X2.00 Y-32.00 F6000
G1 Z0.300 F420
G1 E28.0009 F1800
G1 X2.00 Y-33.50 E28.0944 F600
G1 E23.0944 F2400
G1 Z0.500 F420
G1 X4.00 Y-32.00 F6000
G1 Z0.300 F420
G1 E28.0944 F1800
G1 X4.00 Y-33.50 E28.1880 F600
G1 E23.1880 F2400
G1 Z0.500 F420
G1 X6.00 Y-32.00 F6000
G1 Z0.300 F420
G1 E28.1880 F1800
G1 X6.00 Y-33.50 E28.2815 F600
G1 E23.2815 F2400
G1 Z0.500 F420
G1 X8.00 Y-32.00 F6000
G1 Z0.300 F420
G1 E28.2815 F1800
G1 X8.00 Y-33.50 E28.3750 F600
G1 E23.3750 F2400
G1 Z0.500 F420
G1 X10.00 Y-32.00 F6000
G1 Z0.300 F420
G1 E28.3750 F1800
G1 X10.00 Y-35.00 E28.5621 F600
G1 E23.5621 F2400
G1 Z0.500 F420
G1 X12.00 Y-32.00 F6000
G1 Z0.300 F420
G1 E28.5621 F1800
G1 X12.00 Y-33.50 E28.6557 F600
G1 E23.6557 F2400
G1 Z0.500 F420
G1 X14.00 Y-32.00 F6000
G1 Z0.300 F420
G1 E28.6557 F1800
G1 X14.00 Y-33.50 E28.7492 F600
G1 E23.7492 F2400
G1 Z0.500 F420
G1 X16.00 Y-32.00 F6000
G1 Z0.300 F420
G1 E28.7492 F1800
G1 X16.00 Y-33.50 E28.8428 F600
G1 E23.8428 F2400
G1 Z0.500 F420
G1 X18.00 Y-32.00 F6000
G1 Z0.300 F420
G1 E28.8428 F1800
G1 X18.00 Y-33.50 E28.9363 F600
G1 E23.9363 F2400
G1 Z0.500 F420
G1 X20.00 Y-32.00 F6000
G1 Z0.300 F420
G1 E28.9363 F1800
G1 X20.00 Y-35.00 E29.1234 F600
G1 E24.1234 F2400
G1 Z0.500 F420
G1 X22.00 Y-32.00 F6000
G1 Z0.300 F420
G1 E29.1234 F1800
G1 X22.00 Y-33.50 E29.2169 F600
G1 E24.2169 F2400
G1 Z0.500 F420
G1 X24.00 Y-32.00 F6000
G1 Z0.300 F420
G1 E29.2169 F1800
G1 X24.00 Y-33.50 E29.3105 F600
G1 E24.3105 F2400
G1 Z0.500 F420
G1 X26.00 Y-32.00 F6000
G1 Z0.300 F420
G1 E29.3105 F1800
G1 X26.00 Y-33.50 E29.4040 F600
G1 E24.4040 F2400
G1 Z0.500 F420
G1 X28.00 Y-32.00 F6000
G1 Z0.300 F420
G1 E29.4040 F1800
G1 X28.00 Y-33.50 E29.4976 F600
G1 E24.4976 F2400
G1 Z0.500 F420
G1 X30.00 Y-32.00 F6000
G1 Z0.300 F420
G1 E29.4976 F1800
G1 X30.00 Y-35.00 E29.6847 F600
G1 E24.6847 F2400
G1 Z0.500 F420
G1 X32.00 Y-32.00 F6000
G1 Z0.300 F420
G1 E29.6847 F1800
G1 X32.00 Y-33.50 E29.7782 F600
G1 E24.7782 F2400
G1 Z0.500 F420
G1 X34.00 Y-32.00 F6000
G1 Z0.300 F420
G1 E29.7782 F1800
G1 X34.00 Y-33.50 E29.8718 F600
G1 E24.8718 F2400
G1 Z0.500 F420
G1 X36.00 Y-32.00 F6000
G1 Z0.300 F420
G1 E29.8718 F1800
G1 X36.00 Y-33.50 E29.9653 F600
G1 E24.9653 F2400
G1 Z0.500 F420
G1 X38.00 Y-32.00 F6000
G1 Z0.300 F420
G1 E29.9653 F1800
G1 X38.00 Y-33.50 E30.0588 F600
G1 E25.0588 F2400
G1 Z0.500 F420
G1 X40.00 Y-32.00 F6000
G1 Z0.300 F420
G1 E30.0588 F1800
G1 X40.00 Y-35.00 E30.2459 F600
G1 E25.2459 F2400
G1 Z0.500 F420
;structure:brim
;structure:shell-outer
G1 X47.69 Y-32.10 F6000
G1 Z0.300 F420
G1 E30.2459 F1800
G1 X47.54 Y-32.10 E30.2553 F600
G1 X47.36 Y-32.14 E30.2668
G1 X47.20 Y-32.27 E30.2796
G1 X47.08 Y-32.46 E30.2937
G1 X47.00 Y-32.83 E30.3173
G1 X47.00 Y-35.52 E30.4850
G1 E25.4850 F2400
G1 Z0.500 F420
G1 X46.50 Y-33.24 F6000
G1 Z0.300 F420
G1 E30.4850 F1800
G1 X47.58 Y-33.24 E30.5524 F600
G1 E25.5524 F2400
G1 Z0.500 F420
G1 X48.75 Y-32.12 F6000
G1 Z0.300 F420
G1 E30.5524 F1800
G1 X48.75 Y-35.52 E30.7644 F600
G1 E25.7644 F2400
G1 Z0.500 F420
G1 X51.21 Y-35.52 F6000
G1 Z0.300 F420
G1 E30.7644 F1800
G1 X49.72 Y-33.49 E30.9214 F600
G1 E25.9214 F2400
G1 Z0.500 F420
G1 X48.75 Y-34.33 F6000
G1 Z0.300 F420
G1 E30.9214 F1800
G1 X51.28 Y-32.12 E31.1309 F600
G1 E26.1309 F2400
G1 Z0.500 F420
G1 X53.53 Y-32.10 F6000
G1 Z0.300 F420
G1 E31.1309 F1800
G1 X53.38 Y-32.10 E31.1403 F600
G1 X53.20 Y-32.14 E31.1518
G1 X53.04 Y-32.27 E31.1646
G1 X52.92 Y-32.46 E31.1786
G1 X52.84 Y-32.83 E31.2023
G1 X52.84 Y-35.52 E31.3700
G1 E26.3700 F2400
G1 Z0.500 F420
G1 X52.34 Y-33.24 F6000
G1 Z0.300 F420
G1 E31.3700 F1800
G1 X53.42 Y-33.24 E31.4374 F600
G1 E26.4374 F2400
G1 Z0.500 F420
G1 X54.59 Y-33.74 F6000
G1 Z0.300 F420
G1 E31.4374 F1800
G1 X56.28 Y-33.74 E31.5427 F600
G1 E26.5428 F2400
G1 Z0.500 F420
G1 X56.28 Y-34.45 F6000
G1 Z0.300 F420
G1 E31.5428 F1800
G1 X54.59 Y-34.45 E31.6481 F600
G1 E26.6481 F2400
G1 Z0.500 F420
G1 X57.39 Y-32.87 F6000
G1 Z0.300 F420
G1 E31.6481 F1800
G1 X57.50 Y-32.53 E31.6704 F600
G1 X57.71 Y-32.27 E31.6913
G1 X58.00 Y-32.11 E31.7119
G1 X58.34 Y-32.06 E31.7334
G1 X58.73 Y-32.13 E31.7581
G1 X59.02 Y-32.32 E31.7797
G1 X59.20 Y-32.59 E31.7999
G1 X59.27 Y-32.94 E31.8222
G1 X59.20 Y-33.15 E31.8360
G1 X59.06 Y-33.32 E31.8497
G1 X58.69 Y-33.55 E31.8769
G1 X58.25 Y-33.70 E31.9059
G1 X58.69 Y-33.82 E31.9343
G1 X59.05 Y-33.98 E31.9589
G1 X59.34 Y-34.26 E31.9840
G1 X59.44 Y-34.55 E32.0032
G1 X59.37 Y-34.97 E32.0297
G1 X59.14 Y-35.30 E32.0548
G1 X58.80 Y-35.50 E32.0794
G1 X58.38 Y-35.58 E32.1061
G1 X57.98 Y-35.52 E32.1313
G1 X57.66 Y-35.35 E32.1539
G1 X57.44 Y-35.08 E32.1756
G1 X57.34 Y-34.72 E32.1989
G1 E27.1989 F2400
G1 Z0.500 F420
G1 X61.73 Y-32.06 F6000
G1 Z0.300 F420
G1 E32.1989 F1800
G1 X62.24 Y-32.20 E32.2319 F600
G1 X62.63 Y-32.58 E32.2658
G1 X62.87 Y-33.14 E32.3038
G1 X62.95 Y-33.82 E32.3465
G1 X62.87 Y-34.49 E32.3886
G1 X62.63 Y-35.05 E32.4266
G1 X62.24 Y-35.44 E32.4610
G1 X61.73 Y-35.58 E32.4940
G1 X61.21 Y-35.44 E32.5275
G1 X60.83 Y-35.05 E32.5615
G1 X60.59 Y-34.49 E32.5995
G1 X60.51 Y-33.82 E32.6416
G1 X60.59 Y-33.15 E32.6836
G1 X60.83 Y-32.58 E32.7222
G1 X61.21 Y-32.20 E32.7557
G1 X61.73 Y-32.06 E32.7893
G1 E27.7893 F2400
G1 Z0.500 F420
G1 X65.23 Y-32.06 F6000
G1 Z0.300 F420
G1 E32.7893 F1800
G1 X65.74 Y-32.20 E32.8223 F600
G1 X66.13 Y-32.58 E32.8562
G1 X66.37 Y-33.14 E32.8942
G1 X66.45 Y-33.82 E32.9369
G1 X66.37 Y-34.49 E32.9790
G1 X66.13 Y-35.05 E33.0170
G1 X65.74 Y-35.44 E33.0514
G1 X65.23 Y-35.58 E33.0844
G1 X64.71 Y-35.44 E33.1180
G1 X64.33 Y-35.05 E33.1519
G1 X64.09 Y-34.49 E33.1899
G1 X64.01 Y-33.82 E33.2320
G1 X64.09 Y-33.15 E33.2741
G1 X64.33 Y-32.58 E33.3126
G1 X64.71 Y-32.20 E33.3462
G1 X65.23 Y-32.06 E33.3797
G1 E28.3797 F2400
G1 Z0.500 F420
G1 X46.50 Y-38.11 F6000
G1 Z0.300 F420
G1 E33.3797 F1800
G1 X47.52 Y-40.52 E33.5429 F600
G1 X48.54 Y-38.11 E33.7062
G1 E28.7062 F2400
G1 Z0.500 F420
G1 X49.60 Y-38.11 F6000
G1 Z0.300 F420
G1 E33.7062 F1800
G1 X51.60 Y-40.52 E33.9015 F600
G1 E28.9015 F2400
G1 Z0.500 F420
G1 X49.60 Y-40.52 F6000
G1 Z0.300 F420
G1 E33.9015 F1800
G1 X51.60 Y-38.11 E34.0968 F600
G1 E29.0968 F2400
G1 Z0.500 F420
G1 X53.88 Y-37.06 F6000
G1 Z0.300 F420
G1 E34.0968 F1800
G1 X54.39 Y-37.20 E34.1298 F600
G1 X54.78 Y-37.58 E34.1637
G1 X55.02 Y-38.14 E34.2017
G1 X55.10 Y-38.82 E34.2444
G1 X55.02 Y-39.49 E34.2865
G1 X54.78 Y-40.05 E34.3245
G1 X54.39 Y-40.44 E34.3589
G1 X53.88 Y-40.58 E34.3919
G1 X53.36 Y-40.44 E34.4254
G1 X52.98 Y-40.05 E34.4594
G1 X52.74 Y-39.49 E34.4974
G1 X52.66 Y-38.82 E34.5395
G1 X52.74 Y-38.15 E34.5816
G1 X52.98 Y-37.58 E34.6201
G1 X53.36 Y-37.20 E34.6536
G1 X53.88 Y-37.06 E34.6872
G1 E29.6872 F2400
G1 Z0.500 F420
G1 X56.17 Y-38.74 F6000
G1 Z0.300 F420
G1 E34.6872 F1800
G1 X57.86 Y-38.74 E34.7926 F600
G1 E29.7926 F2400
G1 Z0.500 F420
G1 X57.86 Y-39.45 F6000
G1 Z0.300 F420
G1 E34.7926 F1800
G1 X56.17 Y-39.45 E34.8980 F600
G1 E29.8980 F2400
G1 Z0.500 F420
G1 X58.92 Y-38.00 F6000
G1 Z0.300 F420
G1 E34.8980 F1800
G1 X59.39 Y-37.76 E34.9309 F600
G1 X59.76 Y-37.45 E34.9610
G1 X60.01 Y-37.12 E34.9869
G1 X60.01 Y-40.52 E35.1989
G1 E30.1989 F2400
G1 Z0.500 F420
G1 X62.29 Y-37.06 F6000
G1 Z0.300 F420
G1 E35.1989 F1800
G1 X62.80 Y-37.20 E35.2319 F600
G1 X63.19 Y-37.58 E35.2658
G1 X63.43 Y-38.14 E35.3038
G1 X63.51 Y-38.82 E35.3465
G1 X63.43 Y-39.49 E35.3886
G1 X63.19 Y-40.05 E35.4266
G1 X62.80 Y-40.44 E35.4610
G1 X62.29 Y-40.58 E35.4940
G1 X61.77 Y-40.44 E35.5276
G1 X61.39 Y-40.05 E35.5615
G1 X61.15 Y-39.49 E35.5995
G1 X61.07 Y-38.82 E35.6416
G1 X61.15 Y-38.15 E35.6837
G1 X61.39 Y-37.58 E35.7223
G1 X61.77 Y-37.20 E35.7558
G1 X62.29 Y-37.06 E35.7893
G1 E30.7893 F2400
G1 Z0.500 F420
G1 X64.57 Y-39.10 F6000
G1 Z0.300 F420
G1 E35.7893 F1800
G1 X66.44 Y-39.10 E35.9060 F600
G1 E30.9060 F2400
G1 Z0.500 F420
G1 X69.49 Y-37.12 F6000
G1 Z0.300 F420
G1 E35.9060 F1800
G1 X67.74 Y-37.12 E36.0151 F600
G1 X67.60 Y-38.86 E36.1240
G1 X67.88 Y-38.55 E36.1500
G1 X68.05 Y-38.43 E36.1630
G1 X68.24 Y-38.36 E36.1756
G1 X68.43 Y-38.33 E36.1876
G1 X68.63 Y-38.32 E36.2001
G1 X69.04 Y-38.41 E36.2263
G1 X69.36 Y-38.63 E36.2505
G1 X69.57 Y-38.97 E36.2754
G1 X69.65 Y-39.39 E36.3021
G1 X69.58 Y-39.86 E36.3317
G1 X69.37 Y-40.23 E36.3583
G1 X69.02 Y-40.49 E36.3854
G1 X68.52 Y-40.58 E36.4171
G1 X68.15 Y-40.52 E36.4405
G1 X67.84 Y-40.36 E36.4623
G1 X67.62 Y-40.09 E36.4840
G1 X67.50 Y-39.73 E36.5076
G1 E31.5076 F2400
G1 Z0.500 F420
G1 X71.93 Y-37.06 F6000
G1 Z0.300 F420
G1 E36.5076 F1800
G1 X72.44 Y-37.20 E36.5406 F600
G1 X72.83 Y-37.58 E36.5746
G1 X73.07 Y-38.14 E36.6126
G1 X73.15 Y-38.82 E36.6553
G1 X73.07 Y-39.49 E36.6973
G1 X72.83 Y-40.05 E36.7353
G1 X72.44 Y-40.44 E36.7697
G1 X71.93 Y-40.58 E36.8027
G1 X71.41 Y-40.44 E36.8363
G1 X71.03 Y-40.05 E36.8703
G1 X70.79 Y-39.49 E36.9082
G1 X70.71 Y-38.82 E36.9503
G1 X70.79 Y-38.15 E36.9924
G1 X71.03 Y-37.58 E37.0310
G1 X71.41 Y-37.20 E37.0645
G1 X71.93 Y-37.06 E37.0981
G1 E32.0981 F2400
G1 Z0.500 F420
G1 X46.50 Y-43.11 F6000
G1 Z0.300 F420
G1 E37.0981 F1800
G1 X47.52 Y-45.52 E37.2613 F600
G1 X48.54 Y-43.11 E37.4245
G1 E32.4245 F2400
G1 Z0.500 F420
G1 X49.60 Y-43.11 F6000
G1 Z0.300 F420
G1 E37.4245 F1800
G1 X51.60 Y-45.52 E37.6198 F600
G1 E32.6198 F2400
G1 Z0.500 F420
G1 X49.60 Y-45.52 F6000
G1 Z0.300 F420
G1 E37.6198 F1800
G1 X51.60 Y-43.11 E37.8151 F600
G1 E32.8151 F2400
G1 Z0.500 F420
G1 X52.66 Y-43.00 F6000
G1 Z0.300 F420
G1 E37.8151 F1800
G1 X53.13 Y-42.76 E37.8480 F600
G1 X53.50 Y-42.45 E37.8781
G1 X53.75 Y-42.12 E37.9039
G1 X53.75 Y-45.52 E38.1160
G1 E33.1160 F2400
G1 Z0.500 F420
G1 X54.81 Y-43.74 F6000
G1 Z0.300 F420
G1 E38.1160 F1800
G1 X56.50 Y-43.74 E38.2214 F600
G1 E33.2214 F2400
G1 Z0.500 F420
G1 X56.50 Y-44.45 F6000
G1 Z0.300 F420
G1 E38.2214 F1800
G1 X54.81 Y-44.45 E38.3268 F600
G1 E33.3268 F2400
G1 Z0.500 F420
G1 X57.56 Y-42.56 F6000
G1 Z0.300 F420
G1 E38.3268 F1800
G1 X57.75 Y-42.35 E38.3444 F600
G1 X57.98 Y-42.19 E38.3619
G1 X58.24 Y-42.10 E38.3791
G1 X58.52 Y-42.06 E38.3967
G1 X58.89 Y-42.12 E38.4201
G1 X59.19 Y-42.32 E38.4426
G1 X59.38 Y-42.61 E38.4642
G1 X59.45 Y-42.98 E38.4877
G1 X59.35 Y-43.37 E38.5128
G1 X59.07 Y-43.73 E38.5412
G1 X58.29 Y-44.36 E38.6038
G1 X57.99 Y-44.77 E38.6354
G1 X57.60 Y-45.52 E38.6882
G1 X59.42 Y-45.52 E38.8017
G1 E33.8017 F2400
G1 Z0.500 F420
G1 X61.73 Y-42.06 F6000
G1 Z0.300 F420
G1 E38.8017 F1800
G1 X62.24 Y-42.20 E38.8347 F600
G1 X62.63 Y-42.58 E38.8686
G1 X62.87 Y-43.14 E38.9066
G1 X62.95 Y-43.82 E38.9493
G1 X62.87 Y-44.49 E38.9914
G1 X62.63 Y-45.05 E39.0294
G1 X62.24 Y-45.44 E39.0638
G1 X61.73 Y-45.58 E39.0968
G1 X61.21 Y-45.44 E39.1304
G1 X60.83 Y-45.05 E39.1644
G1 X60.59 Y-44.49 E39.2024
G1 X60.51 Y-43.82 E39.2444
G1 X60.59 Y-43.15 E39.2865
G1 X60.83 Y-42.58 E39.3251
G1 X61.21 Y-42.20 E39.3586
G1 X61.73 Y-42.06 E39.3922
G1 E34.3922 F2400
G1 Z0.500 F420
G1 X64.02 Y-44.10 F6000
G1 Z0.300 F420
G1 E39.3922 F1800
G1 X65.89 Y-44.10 E39.5088 F600
G1 E34.5088 F2400
G1 Z0.500 F420
G1 X66.95 Y-43.00 F6000
G1 Z0.300 F420
G1 E39.5088 F1800
G1 X67.42 Y-42.76 E39.5418 F600
G1 X67.79 Y-42.45 E39.5719
G1 X68.04 Y-42.12 E39.5977
G1 X68.04 Y-45.52 E39.8097
G1 E34.8097 F2400
G1 Z0.500 F420
G1 X70.32 Y-42.06 F6000
G1 Z0.300 F420
G1 E39.8097 F1800
G1 X70.83 Y-42.20 E39.8427 F600
G1 X71.22 Y-42.58 E39.8767
G1 X71.46 Y-43.14 E39.9147
G1 X71.54 Y-43.82 E39.9574
G1 X71.46 Y-44.49 E39.9995
G1 X71.22 Y-45.05 E40.0375
G1 X70.83 Y-45.44 E40.0719
G1 X70.32 Y-45.58 E40.1049
G1 X69.80 Y-45.44 E40.1384
G1 X69.42 Y-45.05 E40.1724
G1 X69.18 Y-44.49 E40.2104
G1 X69.10 Y-43.82 E40.2525
G1 X69.18 Y-43.15 E40.2946
G1 X69.42 Y-42.58 E40.3331
G1 X69.80 Y-42.20 E40.3667
G1 X70.32 Y-42.06 E40.4002
G1 E35.4002 F2400
G1 Z0.500 F420
G1 X73.82 Y-42.06 F6000
G1 Z0.300 F420
G1 E40.4002 F1800
G1 X74.33 Y-42.20 E40.4332 F600
G1 X74.72 Y-42.58 E40.4672
G1 X74.96 Y-43.14 E40.5052
G1 X75.04 Y-43.82 E40.5479
G1 X74.96 Y-44.49 E40.5900
G1 X74.72 Y-45.05 E40.6280
G1 X74.33 Y-45.44 E40.6624
G1 X73.82 Y-45.58 E40.6954
G1 X73.30 Y-45.44 E40.7289
G1 X72.92 Y-45.05 E40.7629
G1 X72.68 Y-44.49 E40.8009
G1 X72.60 Y-43.82 E40.8430
G1 X72.68 Y-43.15 E40.8851
G1 X72.92 Y-42.58 E40.9236
G1 X73.30 Y-42.20 E40.9572
G1 X73.82 Y-42.06 E40.9908
G1 E35.9908 F2400
G1 Z0.500 F420
M900 K300 T0
;structure:shell-inner
G1 X-45.00 Y-36.00 F6000
G1 Z0.300 F420
G1 E40.9908 F1800
G1 X-40.00 Y-36.00 E41.3026 F300
G1 X-20.00 Y-36.00 E42.5500 F600
G1 X20.00 Y-36.00 E45.0448 F1200
G1 X40.00 Y-36.00 E46.2922 F600
G1 X45.00 Y-36.00 E46.6040 F300
G1 E41.6040 F2400
G1 Z0.500 F420
G1 X-45.00 Y-38.00 F6000
G1 Z0.300 F420
G1 E46.6040 F1800
G1 X-40.00 Y-38.00 E46.9158 F300
G1 X-20.00 Y-38.00 E48.1632 F840
G1 X20.00 Y-38.00 E50.6580 F1680
G1 X40.00 Y-38.00 E51.9054 F840
G1 X45.00 Y-38.00 E52.2172 F300
G1 E47.2172 F2400
G1 Z0.500 F420
G1 X-45.00 Y-40.00 F6000
G1 Z0.300 F420
G1 E52.2172 F1800
G1 X-40.00 Y-40.00 E52.5291 F300
G1 X-20.00 Y-40.00 E53.7765 F1080
G1 X20.00 Y-40.00 E56.2713 F2160
G1 X40.00 Y-40.00 E57.5187 F1080
G1 X45.00 Y-40.00 E57.8305 F300
G1 E52.8305 F2400
G1 Z0.500 F420
G1 X-45.00 Y-42.00 F6000
G1 Z0.300 F420
G1 E57.8305 F1800
G1 X-40.00 Y-42.00 E58.1423 F300
G1 X-20.00 Y-42.00 E59.3897 F1320
G1 X20.00 Y-42.00 E61.8845 F2640
G1 X40.00 Y-42.00 E63.1319 F1320
G1 X45.00 Y-42.00 E63.4437 F300
G1 E58.4437 F2400
G1 Z0.500 F420
G1 X-45.00 Y-44.00 F6000
G1 Z0.300 F420
G1 E63.4437 F1800
G1 X-40.00 Y-44.00 E63.7556 F300
G1 X-20.00 Y-44.00 E65.0030 F1560
G1 X20.00 Y-44.00 E67.4978 F3120
G1 X40.00 Y-44.00 E68.7451 F1560
G1 X45.00 Y-44.00 E69.0570 F300
G1 E64.0570 F2400
G1 Z0.500 F420
G1 X-45.00 Y-46.00 F6000
G1 Z0.300 F420
G1 E69.0570 F1800
G1 X-40.00 Y-46.00 E69.3688 F300
G1 X-20.00 Y-46.00 E70.6162 F1800
G1 X20.00 Y-46.00 E73.1110 F3600
G1 X40.00 Y-46.00 E74.3584 F1800
G1 X45.00 Y-46.00 E74.6702 F300
G1 E69.6702 F2400
G1 Z0.500 F420
G1 X-45.00 Y-48.00 F6000
G1 Z0.300 F420
G1 E74.6702 F1800
G1 X-40.00 Y-48.00 E74.9821 F300
G1 X-20.00 Y-48.00 E76.2295 F2040
G1 X20.00 Y-48.00 E78.7243 F4080
G1 X40.00 Y-48.00 E79.9716 F2040
G1 X45.00 Y-48.00 E80.2835 F300
G1 E75.2835 F2400
G1 Z0.500 F420
G1 X-45.00 Y-50.00 F6000
G1 Z0.300 F420
G1 E80.2835 F1800
G1 X-40.00 Y-50.00 E80.5953 F300
G1 X-20.00 Y-50.00 E81.8427 F2280
G1 X20.00 Y-50.00 E84.3375 F4560
G1 X40.00 Y-50.00 E85.5849 F2280
G1 X45.00 Y-50.00 E85.8967 F300
G1 E80.8967 F2400
G1 Z0.500 F420
G1 X-45.00 Y-52.00 F6000
G1 Z0.300 F420
G1 E85.8967 F1800
G1 X-40.00 Y-52.00 E86.2086 F300
G1 X-20.00 Y-52.00 E87.4560 F2520
G1 X20.00 Y-52.00 E89.9508 F5040
G1 X40.00 Y-52.00 E91.1981 F2520
G1 X45.00 Y-52.00 E91.5100 F300
G1 E86.5100 F2400
G1 Z0.500 F420
G1 X-45.00 Y-54.00 F6000
G1 Z0.300 F420
G1 E91.5100 F1800
G1 X-40.00 Y-54.00 E91.8218 F300
G1 X-20.00 Y-54.00 E93.0692 F2760
G1 X20.00 Y-54.00 E95.5640 F5520
G1 X40.00 Y-54.00 E96.8114 F2760
G1 X45.00 Y-54.00 E97.1232 F300
G1 E92.1232 F2400
G1 Z0.500 F420
G1 X-45.00 Y-56.00 F6000
G1 Z0.300 F420
G1 E97.1232 F1800
G1 X-40.00 Y-56.00 E97.4351 F300
G1 X-20.00 Y-56.00 E98.6825 F3000
G1 X20.00 Y-56.00 E101.1773 F6000
G1 X40.00 Y-56.00 E102.4246 F3000
G1 X45.00 Y-56.00 E102.7365 F300
G1 E97.7365 F2400
G1 Z0.500 F420
M900 K0 T0
G1 E100.2365 F1800
;end gcode
M107
M104 S0 T0
M140 S0 T0
G162 Z F1800
G28 X Y
M132 X Y A B
M652
G91
M18
