;gcode_flavor: flashforge
;machine_type: Adventurer 3 Series
;filament_diameter0: 1.75
;right_extruder_temperature: 210
;platform_temperature: 50
;extruder_fan: 100%
;case_fan: 100%
;base_print_speed: 60
;travel_speed: 100
;vertical_speed: 7
;retract_speed: 40
;restore_speed: 30
;layer_height: 0.30
;line_width: 0.50
;extrusion_ratio: 1.00
;command_line: ./gcodetest.py -Te 210 -Tp 50 -Fe 1.0 -Fc 1.0 -Kf=0.0 -Kb=0.0 -Re=5.0 -n 3 -v
;start gcode
M118 X75.00 Y75.00 Z150.00 T0
M140 S50 T0
M104 S210 T0
M104 S0 T1
M107
M900 K0.000 T0
G90
G28
M132 X Y Z A B
G1 Z50.000 F420
G161 X Y F3300
M7 T0
M6 T0
M652 S255
M108 T0
M106
;preExtrude:0.20
;00:00:00.000: layer=0 h=0.20 w=0.50 r=1.00
;structure:pre-extrude
G1 X-61.00 Y-65.00 F6000                ; move dl=89.1@100(0<100>0) de=0.000@0.0(0.0<0.0>0.0) l=0.00x0.50x0.00 r=0.00
;00:00:01.091: pe=0.0000 eb=0.0000 ve=0.0000 vn=0.0000 vl=0.000 db=0.00
G1 Z0.200 F420                          ; hopup dz=0.20@7 h=0.2 r=0.00
;00:00:01.120: pe=0.0000 eb=0.0000 ve=0.0000 vn=0.0000 vl=0.000 db=0.00
;00:00:01.120: skipping empty move move dl=0.0@7(0<0>0) de=0.000@0.0(0.0<0.0>0.0) l=0.20x0.50x0.00
G1 X-61.00 Y55.00 E19.9561 F1200        ; draw dl=120.0@20(0<20>0) de=19.956@3.3(0.0<3.33>0.0) l=0.20x0.50x4.00 r=4.00
;00:00:07.160: pe=0.0000 eb=0.2612 ve=0.0000 vn=0.0000 vl=0.000 db=2.00
G1 E14.9561 F2400                       ; retract de=-5.0000@-40.0 r=4.00
;00:00:07.285: pe=-5.0000 eb=0.2612 ve=-40.0000 vn=0.0000 vl=0.000 db=2.00
G1 Z0.400 F420                          ; hopup dz=0.20@7 h=0.4 r=2.83
;00:00:07.314: pe=-5.0000 eb=0.2612 ve=0.0000 vn=0.0000 vl=0.000 db=1.41
;layer:0.30
;00:00:07.314: layer=1 h=0.30 w=0.50 r=1.00
;00:00:07.314: Test fKf fKf=300 vx0=10-50 vx1=20-100
;structure:shell-outer
G1 X-45.00 Y-32.00 F6000                ; move dl=88.5@100(0<100>0) de=0.000@0.0(0.0<0.0>0.0) l=0.40x0.50x0.00 r=0.00
;00:00:08.398: pe=-5.0000 eb=0.0000 ve=0.0000 vn=0.0000 vl=0.000 db=0.00
G1 Z0.300 F420                          ; hopdn dz=-0.10@7 h=0.3 r=0.00
;00:00:08.412: pe=-5.0000 eb=0.0000 ve=0.0000 vn=0.0000 vl=0.000 db=0.00
G1 E19.9561 F1800                       ; restore de=5.0000@30.0 r=0.00
;00:00:08.579: pe=-0.0000 eb=0.0000 ve=30.0000 vn=0.0000 vl=0.000 db=0.00
G1 X45.00 Y-32.00 E25.5687 F600         ; draw dl=90.0@10(0<10>0) de=5.613@0.62(0.0<0.62>0.0) l=0.30x0.50x1.00 r=1.00
;00:00:17.599: pe=0.0000 eb=0.0245 ve=0.0000 vn=0.0000 vl=0.000 db=0.50
G1 E20.5687 F2400                       ; retract de=-5.0000@-40.0 r=1.00
;00:00:17.724: pe=-5.0000 eb=0.0245 ve=-40.0000 vn=0.0000 vl=0.000 db=0.50
G1 Z0.500 F420                          ; hopup dz=0.20@7 h=0.5 r=0.77
;00:00:17.753: pe=-5.0000 eb=0.0245 ve=0.0000 vn=0.0000 vl=0.000 db=0.39
G1 X-42.00 Y-32.00 F6000                ; move dl=87.0@100(0<100>0) de=0.000@0.0(0.0<0.0>0.0) l=0.50x0.50x0.00 r=0.00
;00:00:18.823: pe=-5.0000 eb=0.0000 ve=0.0000 vn=0.0000 vl=0.000 db=0.00
G1 X-40.00 Y-32.00                      ; move dl=2.0@100(0<22>0) de=0.000@0.0(0.0<0.0>0.0) l=0.50x0.50x0.00 r=0.00
;00:00:18.957: pe=-5.0000 eb=0.0000 ve=0.0000 vn=0.0000 vl=0.000 db=0.00
G1 Z0.300 F420                          ; hopdn dz=-0.20@7 h=0.3 r=0.00
;00:00:18.985: pe=-5.0000 eb=0.0000 ve=0.0000 vn=0.0000 vl=0.000 db=0.00
G1 E25.5687 F1800                       ; restore de=5.0000@30.0 r=0.00
;00:00:19.152: pe=-0.0000 eb=0.0000 ve=30.0000 vn=0.0000 vl=0.000 db=0.00
G1 X-40.00 Y-35.00 E25.7558 F600        ; draw dl=3.0@10(0<10>0) de=0.187@0.58(0.0<0.62>0.0) l=0.30x0.50x1.00 r=1.00
;00:00:19.472: pe=0.0000 eb=0.0241 ve=0.0000 vn=0.0000 vl=0.000 db=0.50
G1 E20.7558 F2400                       ; retract de=-5.0000@-40.0 r=0.99
;00:00:19.597: pe=-5.0000 eb=0.0241 ve=-40.0000 vn=0.0000 vl=0.000 db=0.50
G1 Z0.500 F420                          ; hopup dz=0.20@7 h=0.5 r=0.77
;00:00:19.626: pe=-5.0000 eb=0.0241 ve=0.0000 vn=0.0000 vl=0.000 db=0.38
G1 X-38.00 Y-32.00 F6000                ; move dl=3.6@100(0<30>0) de=0.000@0.0(0.0<0.0>0.0) l=0.50x0.50x0.00 r=0.00
;00:00:19.806: pe=-5.0000 eb=0.0000 ve=0.0000 vn=0.0000 vl=0.000 db=0.00
G1 Z0.300 F420                          ; hopdn dz=-0.20@7 h=0.3 r=0.00
;00:00:19.834: pe=-5.0000 eb=0.0000 ve=0.0000 vn=0.0000 vl=0.000 db=0.00
G1 E25.7558 F1800                       ; restore de=5.0000@30.0 r=0.00
;00:00:20.001: pe=-0.0000 eb=0.0000 ve=30.0000 vn=0.0000 vl=0.000 db=0.00
G1 X-38.00 Y-33.50 E25.8494 F600        ; draw dl=1.5@10(0<10>0) de=0.094@0.55(0.0<0.62>0.0) l=0.30x0.50x1.00 r=1.00
;00:00:20.171: pe=0.0000 eb=0.0218 ve=0.0000 vn=0.0000 vl=0.000 db=0.47
G1 E20.8494 F2400                       ; retract de=-5.0000@-40.0 r=0.94
;00:00:20.296: pe=-5.0000 eb=0.0218 ve=-40.0000 vn=0.0000 vl=0.000 db=0.47
G1 Z0.500 F420                          ; hopup dz=0.20@7 h=0.5 r=0.73
;00:00:20.325: pe=-5.0000 eb=0.0218 ve=0.0000 vn=0.0000 vl=0.000 db=0.37
G1 X-36.00 Y-32.00 F6000                ; move dl=2.5@100(0<25>0) de=0.000@0.0(0.0<0.0>0.0) l=0.50x0.50x0.00 r=0.00
;00:00:20.475: pe=-5.0000 eb=0.0000 ve=0.0000 vn=0.0000 vl=0.000 db=0.00
G1 Z0.300 F420                          ; hopdn dz=-0.20@7 h=0.3 r=0.00
;00:00:20.503: pe=-5.0000 eb=0.0000 ve=0.0000 vn=0.0000 vl=0.000 db=0.00
G1 E25.8494 F1800                       ; restore de=5.0000@30.0 r=0.00
;00:00:20.670: pe=-0.0000 eb=0.0000 ve=30.0000 vn=0.0000 vl=0.000 db=0.00
G1 X-36.00 Y-33.50 E25.9429 F600        ; draw dl=1.5@10(0<10>0) de=0.094@0.55(0.0<0.62>0.0) l=0.30x0.50x1.00 r=1.00
;00:00:20.840: pe=0.0000 eb=0.0218 ve=0.0000 vn=0.0000 vl=0.000 db=0.47
G1 E20.9429 F2400                       ; retract de=-5.0000@-40.0 r=0.94
;00:00:20.965: pe=-5.0000 eb=0.0218 ve=-40.0000 vn=0.0000 vl=0.000 db=0.47
G1 Z0.500 F420                          ; hopup dz=0.20@7 h=0.5 r=0.73
;00:00:20.993: pe=-5.0000 eb=0.0218 ve=0.0000 vn=0.0000 vl=0.000 db=0.37
G1 X-34.00 Y-32.00 F6000                ; move dl=2.5@100(0<25>0) de=0.000@0.0(0.0<0.0>0.0) l=0.50x0.50x0.00 r=0.00
;00:00:21.143: pe=-5.0000 eb=0.0000 ve=0.0000 vn=0.0000 vl=0.000 db=0.00
G1 Z0.300 F420                          ; hopdn dz=-0.20@7 h=0.3 r=0.00
;00:00:21.172: pe=-5.0000 eb=0.0000 ve=0.0000 vn=0.0000 vl=0.000 db=0.00
G1 E25.9429 F1800                       ; restore de=5.0000@30.0 r=0.00
;00:00:21.339: pe=-0.0000 eb=0.0000 ve=30.0000 vn=0.0000 vl=0.000 db=0.00
G1 X-34.00 Y-33.50 E26.0364 F600        ; draw dl=1.5@10(0<10>0) de=0.094@0.55(0.0<0.62>0.0) l=0.30x0.50x1.00 r=1.00
;00:00:21.509: pe=0.0000 eb=0.0218 ve=0.0000 vn=0.0000 vl=0.000 db=0.47
G1 E21.0364 F2400                       ; retract de=-5.0000@-40.0 r=0.94
;00:00:21.634: pe=-5.0000 eb=0.0218 ve=-40.0000 vn=0.0000 vl=0.000 db=0.47
G1 Z0.500 F420                          ; hopup dz=0.20@7 h=0.5 r=0.73
;00:00:21.662: pe=-5.0000 eb=0.0218 ve=0.0000 vn=0.0000 vl=0.000 db=0.37
G1 X-32.00 Y-32.00 F6000                ; move dl=2.5@100(0<25>0) de=0.000@0.0(0.0<0.0>0.0) l=0.50x0.50x0.00 r=0.00
;00:00:21.812: pe=-5.0000 eb=0.0000 ve=0.0000 vn=0.0000 vl=0.000 db=0.00
G1 Z0.300 F420                          ; hopdn dz=-0.20@7 h=0.3 r=0.00
;00:00:21.841: pe=-5.0000 eb=0.0000 ve=0.0000 vn=0.0000 vl=0.000 db=0.00
G1 E26.0364 F1800                       ; restore de=5.0000@30.0 r=0.00
;00:00:22.007: pe=-0.0000 eb=0.0000 ve=30.0000 vn=0.0000 vl=0.000 db=0.00
G1 X-32.00 Y-33.50 E26.1300 F600        ; draw dl=1.5@10(0<10>0) de=0.094@0.55(0.0<0.62>0.0) l=0.30x0.50x1.00 r=1.00
;00:00:22.177: pe=0.0000 eb=0.0218 ve=0.0000 vn=0.0000 vl=0.000 db=0.47
G1 E21.1300 F2400                       ; retract de=-5.0000@-40.0 r=0.94
;00:00:22.302: pe=-5.0000 eb=0.0218 ve=-40.0000 vn=0.0000 vl=0.000 db=0.47
G1 Z0.500 F420                          ; hopup dz=0.20@7 h=0.5 r=0.73
;00:00:22.331: pe=-5.0000 eb=0.0218 ve=0.0000 vn=0.0000 vl=0.000 db=0.37
G1 X-30.00 Y-32.00 F6000                ; move dl=2.5@100(0<25>0) de=0.000@0.0(0.0<0.0>0.0) l=0.50x0.50x0.00 r=0.00
;00:00:22.481: pe=-5.0000 eb=0.0000 ve=0.0000 vn=0.0000 vl=0.000 db=0.00
G1 Z0.300 F420                          ; hopdn dz=-0.20@7 h=0.3 r=0.00
;00:00:22.510: pe=-5.0000 eb=0.0000 ve=0.0000 vn=0.0000 vl=0.000 db=0.00
G1 E26.1300 F1800                       ; restore de=5.0000@30.0 r=0.00
;00:00:22.676: pe=-0.0000 eb=0.0000 ve=30.0000 vn=0.0000 vl=0.000 db=0.00
G1 X-30.00 Y-35.00 E26.3171 F600        ; draw dl=3.0@10(0<10>0) de=0.187@0.58(0.0<0.62>0.0) l=0.30x0.50x1.00 r=1.00
;00:00:22.996: pe=0.0000 eb=0.0241 ve=0.0000 vn=0.0000 vl=0.000 db=0.50
G1 E21.3171 F2400                       ; retract de=-5.0000@-40.0 r=0.99
;00:00:23.121: pe=-5.0000 eb=0.0241 ve=-40.0000 vn=0.0000 vl=0.000 db=0.50
G1 Z0.500 F420                          ; hopup dz=0.20@7 h=0.5 r=0.77
;00:00:23.150: pe=-5.0000 eb=0.0241 ve=0.0000 vn=0.0000 vl=0.000 db=0.38
G1 X-28.00 Y-32.00 F6000                ; move dl=3.6@100(0<30>0) de=0.000@0.0(0.0<0.0>0.0) l=0.50x0.50x0.00 r=0.00
;00:00:23.330: pe=-5.0000 eb=0.0000 ve=0.0000 vn=0.0000 vl=0.000 db=0.00
G1 Z0.300 F420                          ; hopdn dz=-0.20@7 h=0.3 r=0.00
;00:00:23.359: pe=-5.0000 eb=0.0000 ve=0.0000 vn=0.0000 vl=0.000 db=0.00
G1 E26.3171 F1800                       ; restore de=5.0000@30.0 r=0.00
;00:00:23.525: pe=-0.0000 eb=0.0000 ve=30.0000 vn=0.0000 vl=0.000 db=0.00
G1 X-28.00 Y-33.50 E26.4106 F600        ; draw dl=1.5@10(0<10>0) de=0.094@0.55(0.0<0.62>0.0) l=0.30x0.50x1.00 r=1.00
;00:00:23.695: pe=0.0000 eb=0.0218 ve=0.0000 vn=0.0000 vl=0.000 db=0.47
G1 E21.4106 F2400                       ; retract de=-5.0000@-40.0 r=0.94
;00:00:23.820: pe=-5.0000 eb=0.0218 ve=-40.0000 vn=0.0000 vl=0.000 db=0.47
G1 Z0.500 F420                          ; hopup dz=0.20@7 h=0.5 r=0.73
;00:00:23.849: pe=-5.0000 eb=0.0218 ve=0.0000 vn=0.0000 vl=0.000 db=0.37
G1 X-26.00 Y-32.00 F6000                ; move dl=2.5@100(0<25>0) de=0.000@0.0(0.0<0.0>0.0) l=0.50x0.50x0.00 r=0.00
;00:00:23.999: pe=-5.0000 eb=0.0000 ve=0.0000 vn=0.0000 vl=0.000 db=0.00
G1 Z0.300 F420                          ; hopdn dz=-0.20@7 h=0.3 r=0.00
;00:00:24.027: pe=-5.0000 eb=0.0000 ve=0.0000 vn=0.0000 vl=0.000 db=0.00
G1 E26.4106 F1800                       ; restore de=5.0000@30.0 r=0.00
;00:00:24.194: pe=-0.0000 eb=0.0000 ve=30.0000 vn=0.0000 vl=0.000 db=0.00
G1 X-26.00 Y-33.50 E26.5042 F600        ; draw dl=1.5@10(0<10>0) de=0.094@0.55(0.0<0.62>0.0) l=0.30x0.50x1.00 r=1.00
;00:00:24.364: pe=0.0000 eb=0.0218 ve=0.0000 vn=0.0000 vl=0.000 db=0.47
G1 E21.5042 F2400                       ; retract de=-5.0000@-40.0 r=0.94
;00:00:24.489: pe=-5.0000 eb=0.0218 ve=-40.0000 vn=0.0000 vl=0.000 db=0.47
G1 Z0.500 F420                          ; hopup dz=0.20@7 h=0.5 r=0.73
;00:00:24.518: pe=-5.0000 eb=0.0218 ve=0.0000 vn=0.0000 vl=0.000 db=0.37
G1 X-24.00 Y-32.00 F6000                ; move dl=2.5@100(0<25>0) de=0.000@0.0(0.0<0.0>0.0) l=0.50x0.50x0.00 r=0.00
;00:00:24.668: pe=-5.0000 eb=0.0000 ve=0.0000 vn=0.0000 vl=0.000 db=0.00
G1 Z0.300 F420                          ; hopdn dz=-0.20@7 h=0.3 r=0.00
;00:00:24.696: pe=-5.0000 eb=0.0000 ve=0.0000 vn=0.0000 vl=0.000 db=0.00
G1 E26.5042 F1800                       ; restore de=5.0000@30.0 r=0.00
;00:00:24.863: pe=-0.0000 eb=0.0000 ve=30.0000 vn=0.0000 vl=0.000 db=0.00
G1 X-24.00 Y-33.50 E26.5977 F600        ; draw dl=1.5@10(0<10>0) de=0.094@0.55(0.0<0.62>0.0) l=0.30x0.50x1.00 r=1.00
;00:00:25.033: pe=0.0000 eb=0.0218 ve=0.0000 vn=0.0000 vl=0.000 db=0.47
G1 E21.5977 F2400                       ; retract de=-5.0000@-40.0 r=0.94
;00:00:25.158: pe=-5.0000 eb=0.0218 ve=-40.0000 vn=0.0000 vl=0.000 db=0.47
G1 Z0.500 F420                          ; hopup dz=0.20@7 h=0.5 r=0.73
;00:00:25.186: pe=-5.0000 eb=0.0218 ve=0.0000 vn=0.0000 vl=0.000 db=0.37
G1 X-22.00 Y-32.00 F6000                ; move dl=2.5@100(0<25>0) de=0.000@0.0(0.0<0.0>0.0) l=0.50x0.50x0.00 r=0.00
;00:00:25.336: pe=-5.0000 eb=0.0000 ve=0.0000 vn=0.0000 vl=0.000 db=0.00
G1 Z0.300 F420                          ; hopdn dz=-0.20@7 h=0.3 r=0.00
;00:00:25.365: pe=-5.0000 eb=0.0000 ve=0.0000 vn=0.0000 vl=0.000 db=0.00
G1 E26.5977 F1800                       ; restore de=5.0000@30.0 r=0.00
;00:00:25.532: pe=-0.0000 eb=0.0000 ve=30.0000 vn=0.0000 vl=0.000 db=0.00
G1 X-22.00 Y-33.50 E26.6913 F600        ; draw dl=1.5@10(0<10>0) de=0.094@0.55(0.0<0.62>0.0) l=0.30x0.50x1.00 r=1.00
;00:00:25.702: pe=0.0000 eb=0.0218 ve=0.0000 vn=0.0000 vl=0.000 db=0.47
G1 E21.6913 F2400                       ; retract de=-5.0000@-40.0 r=0.94
;00:00:25.827: pe=-5.0000 eb=0.0218 ve=-40.0000 vn=0.0000 vl=0.000 db=0.47
G1 Z0.500 F420                          ; hopup dz=0.20@7 h=0.5 r=0.73
;00:00:25.855: pe=-5.0000 eb=0.0218 ve=0.0000 vn=0.0000 vl=0.000 db=0.37
G1 X-20.00 Y-32.00 F6000                ; move dl=2.5@100(0<25>0) de=0.000@0.0(0.0<0.0>0.0) l=0.50x0.50x0.00 r=0.00
;00:00:26.005: pe=-5.0000 eb=0.0000 ve=0.0000 vn=0.0000 vl=0.000 db=0.00
G1 Z0.300 F420                          ; hopdn dz=-0.20@7 h=0.3 r=0.00
;00:00:26.034: pe=-5.0000 eb=0.0000 ve=0.0000 vn=0.0000 vl=0.000 db=0.00
G1 E26.6913 F1800                       ; restore de=5.0000@30.0 r=0.00
;00:00:26.200: pe=-0.0000 eb=0.0000 ve=30.0000 vn=0.0000 vl=0.000 db=0.00
G1 X-20.00 Y-35.00 E26.8783 F600        ; draw dl=3.0@10(0<10>0) de=0.187@0.58(0.0<0.62>0.0) l=0.30x0.50x1.00 r=1.00
;00:00:26.520: pe=0.0000 eb=0.0241 ve=0.0000 vn=0.0000 vl=0.000 db=0.50
G1 E21.8783 F2400                       ; retract de=-5.0000@-40.0 r=0.99
;00:00:26.645: pe=-5.0000 eb=0.0241 ve=-40.0000 vn=0.0000 vl=0.000 db=0.50
G1 Z0.500 F420                          ; hopup dz=0.20@7 h=0.5 r=0.77
;00:00:26.674: pe=-5.0000 eb=0.0241 ve=0.0000 vn=0.0000 vl=0.000 db=0.38
G1 X-18.00 Y-32.00 F6000                ; move dl=3.6@100(0<30>0) de=0.000@0.0(0.0<0.0>0.0) l=0.50x0.50x0.00 r=0.00
;00:00:26.854: pe=-5.0000 eb=0.0000 ve=0.0000 vn=0.0000 vl=0.000 db=0.00
G1 Z0.300 F420                          ; hopdn dz=-0.20@7 h=0.3 r=0.00
;00:00:26.883: pe=-5.0000 eb=0.0000 ve=0.0000 vn=0.0000 vl=0.000 db=0.00
G1 E26.8783 F1800                       ; restore de=5.0000@30.0 r=0.00
;00:00:27.049: pe=-0.0000 eb=0.0000 ve=30.0000 vn=0.0000 vl=0.000 db=0.00
G1 X-18.00 Y-33.50 E26.9719 F600        ; draw dl=1.5@10(0<10>0) de=0.094@0.55(0.0<0.62>0.0) l=0.30x0.50x1.00 r=1.00
;00:00:27.219: pe=0.0000 eb=0.0218 ve=0.0000 vn=0.0000 vl=0.000 db=0.47
G1 E21.9719 F2400                       ; retract de=-5.0000@-40.0 r=0.94
;00:00:27.344: pe=-5.0000 eb=0.0218 ve=-40.0000 vn=0.0000 vl=0.000 db=0.47
G1 Z0.500 F420                          ; hopup dz=0.20@7 h=0.5 r=0.73
;00:00:27.373: pe=-5.0000 eb=0.0218 ve=0.0000 vn=0.0000 vl=0.000 db=0.37
G1 X-16.00 Y-32.00 F6000                ; move dl=2.5@100(0<25>0) de=0.000@0.0(0.0<0.0>0.0) l=0.50x0.50x0.00 r=0.00
;00:00:27.523: pe=-5.0000 eb=0.0000 ve=0.0000 vn=0.0000 vl=0.000 db=0.00
G1 Z0.300 F420                          ; hopdn dz=-0.20@7 h=0.3 r=0.00
;00:00:27.552: pe=-5.0000 eb=0.0000 ve=0.0000 vn=0.0000 vl=0.000 db=0.00
G1 E26.9719 F1800                       ; restore de=5.0000@30.0 r=0.00
;00:00:27.718: pe=-0.0000 eb=0.0000 ve=30.0000 vn=0.0000 vl=0.000 db=0.00
G1 X-16.00 Y-33.50 E27.0654 F600        ; draw dl=1.5@10(0<10>0) de=0.094@0.55(0.0<0.62>0.0) l=0.30x0.50x1.00 r=1.00
;00:00:27.888: pe=0.0000 eb=0.0218 ve=0.0000 vn=0.0000 vl=0.000 db=0.47
G1 E22.0654 F2400                       ; retract de=-5.0000@-40.0 r=0.94
;00:00:28.013: pe=-5.0000 eb=0.0218 ve=-40.0000 vn=0.0000 vl=0.000 db=0.47
G1 Z0.500 F420                          ; hopup dz=0.20@7 h=0.5 r=0.73
;00:00:28.042: pe=-5.0000 eb=0.0218 ve=0.0000 vn=0.0000 vl=0.000 db=0.37
G1 X-14.00 Y-32.00 F6000                ; move dl=2.5@100(0<25>0) de=0.000@0.0(0.0<0.0>0.0) l=0.50x0.50x0.00 r=0.00
;00:00:28.192: pe=-5.0000 eb=0.0000 ve=0.0000 vn=0.0000 vl=0.000 db=0.00
G1 Z0.300 F420                          ; hopdn dz=-0.20@7 h=0.3 r=0.00
;00:00:28.220: pe=-5.0000 eb=0.0000 ve=0.0000 vn=0.0000 vl=0.000 db=0.00
G1 E27.0654 F1800                       ; restore de=5.0000@30.0 r=0.00
;00:00:28.387: pe=-0.0000 eb=0.0000 ve=30.0000 vn=0.0000 vl=0.000 db=0.00
G1 X-14.00 Y-33.50 E27.1590 F600        ; draw dl=1.5@10(0<10>0) de=0.094@0.55(0.0<0.62>0.0) l=0.30x0.50x1.00 r=1.00
;00:00:28.557: pe=0.0000 eb=0.0218 ve=0.0000 vn=0.0000 vl=0.000 db=0.47
G1 E22.1590 F2400                       ; retract de=-5.0000@-40.0 r=0.94
;00:00:28.682: pe=-5.0000 eb=0.0218 ve=-40.0000 vn=0.0000 vl=0.000 db=0.47
G1 Z0.500 F420                          ; hopup dz=0.20@7 h=0.5 r=0.73
;00:00:28.711: pe=-5.0000 eb=0.0218 ve=0.0000 vn=0.0000 vl=0.000 db=0.37
G1 X-12.00 Y-32.00 F6000                ; move dl=2.5@100(0<25>0) de=0.000@0.0(0.0<0.0>0.0) l=0.50x0.50x0.00 r=0.00
;00:00:28.861: pe=-5.0000 eb=0.0000 ve=0.0000 vn=0.0000 vl=0.000 db=0.00
G1 Z0.300 F420                          ; hopdn dz=-0.20@7 h=0.3 r=0.00
;00:00:28.889: pe=-5.0000 eb=0.0000 ve=0.0000 vn=0.0000 vl=0.000 db=0.00
G1 E27.1590 F1800                       ; restore de=5.0000@30.0 r=0.00
;00:00:29.056: pe=-0.0000 eb=0.0000 ve=30.0000 vn=0.0000 vl=0.000 db=0.00
G1 X-12.00 Y-33.50 E27.2525 F600        ; draw dl=1.5@10(0<10>0) de=0.094@0.55(0.0<0.62>0.0) l=0.30x0.50x1.00 r=1.00
;00:00:29.226: pe=0.0000 eb=0.0218 ve=0.0000 vn=0.0000 vl=0.000 db=0.47
G1 E22.2525 F2400                       ; retract de=-5.0000@-40.0 r=0.94
;00:00:29.351: pe=-5.0000 eb=0.0218 ve=-40.0000 vn=0.0000 vl=0.000 db=0.47
G1 Z0.500 F420                          ; hopup dz=0.20@7 h=0.5 r=0.73
;00:00:29.379: pe=-5.0000 eb=0.0218 ve=0.0000 vn=0.0000 vl=0.000 db=0.37
G1 X-10.00 Y-32.00 F6000                ; move dl=2.5@100(0<25>0) de=0.000@0.0(0.0<0.0>0.0) l=0.50x0.50x0.00 r=0.00
;00:00:29.529: pe=-5.0000 eb=0.0000 ve=0.0000 vn=0.0000 vl=0.000 db=0.00
G1 Z0.300 F420                          ; hopdn dz=-0.20@7 h=0.3 r=0.00
;00:00:29.558: pe=-5.0000 eb=0.0000 ve=0.0000 vn=0.0000 vl=0.000 db=0.00
G1 E27.2525 F1800                       ; restore de=5.0000@30.0 r=0.00
;00:00:29.725: pe=-0.0000 eb=0.0000 ve=30.0000 vn=0.0000 vl=0.000 db=0.00
G1 X-10.00 Y-35.00 E27.4396 F600        ; draw dl=3.0@10(0<10>0) de=0.187@0.58(0.0<0.62>0.0) l=0.30x0.50x1.00 r=1.00
;00:00:30.045: pe=0.0000 eb=0.0241 ve=0.0000 vn=0.0000 vl=0.000 db=0.50
G1 E22.4396 F2400                       ; retract de=-5.0000@-40.0 r=0.99
;00:00:30.170: pe=-5.0000 eb=0.0241 ve=-40.0000 vn=0.0000 vl=0.000 db=0.50
G1 Z0.500 F420                          ; hopup dz=0.20@7 h=0.5 r=0.77
;00:00:30.198: pe=-5.0000 eb=0.0241 ve=0.0000 vn=0.0000 vl=0.000 db=0.38
G1 X-8.00 Y-32.00 F6000                 ; move dl=3.6@100(0<30>0) de=0.000@0.0(0.0<0.0>0.0) l=0.50x0.50x0.00 r=0.00
;00:00:30.378: pe=-5.0000 eb=0.0000 ve=0.0000 vn=0.0000 vl=0.000 db=0.00
G1 Z0.300 F420                          ; hopdn dz=-0.20@7 h=0.3 r=0.00
;00:00:30.407: pe=-5.0000 eb=0.0000 ve=0.0000 vn=0.0000 vl=0.000 db=0.00
G1 E27.4396 F1800                       ; restore de=5.0000@30.0 r=0.00
;00:00:30.574: pe=-0.0000 eb=0.0000 ve=30.0000 vn=0.0000 vl=0.000 db=0.00
G1 X-8.00 Y-33.50 E27.5332 F600         ; draw dl=1.5@10(0<10>0) de=0.094@0.55(0.0<0.62>0.0) l=0.30x0.50x1.00 r=1.00
;00:00:30.744: pe=0.0000 eb=0.0218 ve=0.0000 vn=0.0000 vl=0.000 db=0.47
G1 E22.5332 F2400                       ; retract de=-5.0000@-40.0 r=0.94
;00:00:30.869: pe=-5.0000 eb=0.0218 ve=-40.0000 vn=0.0000 vl=0.000 db=0.47
G1 Z0.500 F420                          ; hopup dz=0.20@7 h=0.5 r=0.73
;00:00:30.897: pe=-5.0000 eb=0.0218 ve=0.0000 vn=0.0000 vl=0.000 db=0.37
G1 X-6.00 Y-32.00 F6000                 ; move dl=2.5@100(0<25>0) de=0.000@0.0(0.0<0.0>0.0) l=0.50x0.50x0.00 r=0.00
;00:00:31.047: pe=-5.0000 eb=0.0000 ve=0.0000 vn=0.0000 vl=0.000 db=0.00
G1 Z0.300 F420                          ; hopdn dz=-0.20@7 h=0.3 r=0.00
;00:00:31.076: pe=-5.0000 eb=0.0000 ve=0.0000 vn=0.0000 vl=0.000 db=0.00
G1 E27.5332 F1800                       ; restore de=5.0000@30.0 r=0.00
;00:00:31.242: pe=-0.0000 eb=0.0000 ve=30.0000 vn=0.0000 vl=0.000 db=0.00
G1 X-6.00 Y-33.50 E27.6267 F600         ; draw dl=1.5@10(0<10>0) de=0.094@0.55(0.0<0.62>0.0) l=0.30x0.50x1.00 r=1.00
;00:00:31.412: pe=0.0000 eb=0.0218 ve=0.0000 vn=0.0000 vl=0.000 db=0.47
G1 E22.6267 F2400                       ; retract de=-5.0000@-40.0 r=0.94
;00:00:31.537: pe=-5.0000 eb=0.0218 ve=-40.0000 vn=0.0000 vl=0.000 db=0.47
G1 Z0.500 F420                          ; hopup dz=0.20@7 h=0.5 r=0.73
;00:00:31.566: pe=-5.0000 eb=0.0218 ve=0.0000 vn=0.0000 vl=0.000 db=0.37
G1 X-4.00 Y-32.00 F6000                 ; move dl=2.5@100(0<25>0) de=0.000@0.0(0.0<0.0>0.0) l=0.50x0.50x0.00 r=0.00
;00:00:31.716: pe=-5.0000 eb=0.0000 ve=0.0000 vn=0.0000 vl=0.000 db=0.00
G1 Z0.300 F420                          ; hopdn dz=-0.20@7 h=0.3 r=0.00
;00:00:31.745: pe=-5.0000 eb=0.0000 ve=0.0000 vn=0.0000 vl=0.000 db=0.00
G1 E27.6267 F1800                       ; restore de=5.0000@30.0 r=0.00
;00:00:31.911: pe=-0.0000 eb=0.0000 ve=30.0000 vn=0.0000 vl=0.000 db=0.00
G1 X-4.00 Y-33.50 E27.7202 F600         ; draw dl=1.5@10(0<10>0) de=0.094@0.55(0.0<0.62>0.0) l=0.30x0.50x1.00 r=1.00
;00:00:32.081: pe=0.0000 eb=0.0218 ve=0.0000 vn=0.0000 vl=0.000 db=0.47
G1 E22.7202 F2400                       ; retract de=-5.0000@-40.0 r=0.94
;00:00:32.206: pe=-5.0000 eb=0.0218 ve=-40.0000 vn=0.0000 vl=0.000 db=0.47
G1 Z0.500 F420                          ; hopup dz=0.20@7 h=0.5 r=0.73
;00:00:32.235: pe=-5.0000 eb=0.0218 ve=0.0000 vn=0.0000 vl=0.000 db=0.37
G1 X-2.00 Y-32.00 F6000                 ; move dl=2.5@100(0<25>0) de=0.000@0.0(0.0<0.0>0.0) l=0.50x0.50x0.00 r=0.00
;00:00:32.385: pe=-5.0000 eb=0.0000 ve=0.0000 vn=0.0000 vl=0.000 db=0.00
G1 Z0.300 F420                          ; hopdn dz=-0.20@7 h=0.3 r=0.00
;00:00:32.413: pe=-5.0000 eb=0.0000 ve=0.0000 vn=0.0000 vl=0.000 db=0.00
G1 E27.7202 F1800                       ; restore de=5.0000@30.0 r=0.00
;00:00:32.580: pe=-0.0000 eb=0.0000 ve=30.0000 vn=0.0000 vl=0.000 db=0.00
G1 X-2.00 Y-33.50 E27.8138 F600         ; draw dl=1.5@10(0<10>0) de=0.094@0.55(0.0<0.62>0.0) l=0.30x0.50x1.00 r=1.00
;00:00:32.750: pe=0.0000 eb=0.0218 ve=0.0000 vn=0.0000 vl=0.000 db=0.47
G1 E22.8138 F2400                       ; retract de=-5.0000@-40.0 r=0.94
;00:00:32.875: pe=-5.0000 eb=0.0218 ve=-40.0000 vn=0.0000 vl=0.000 db=0.47
G1 Z0.500 F420                          ; hopup dz=0.20@7 h=0.5 r=0.73
;00:00:32.904: pe=-5.0000 eb=0.0218 ve=0.0000 vn=0.0000 vl=0.000 db=0.37
G1 X0.00 Y-32.00 F6000                  ; move dl=2.5@100(0<25>0) de=0.000@0.0(0.0<0.0>0.0) l=0.50x0.50x0.00 r=0.00
;00:00:33.054: pe=-5.0000 eb=0.0000 ve=0.0000 vn=0.0000 vl=0.000 db=0.00
G1 Z0.300 F420                          ; hopdn dz=-0.20@7 h=0.3 r=0.00
;00:00:33.082: pe=-5.0000 eb=0.0000 ve=0.0000 vn=0.0000 vl=0.000 db=0.00
G1 E27.8138 F1800                       ; restore de=5.0000@30.0 r=0.00
;00:00:33.249: pe=-0.0000 eb=0.0000 ve=30.0000 vn=0.0000 vl=0.000 db=0.00
G1 X0.00 Y-35.00 E28.0009 F600          ; draw dl=3.0@10(0<10>0) de=0.187@0.58(0.0<0.62>0.0) l=0.30x0.50x1.00 r=1.00
;00:00:33.569: pe=0.0000 eb=0.0241 ve=0.0000 vn=0.0000 vl=0.000 db=0.50
G1 E23.0009 F2400                       ; retract de=-5.0000@-40.0 r=0.99
;00:00:33.694: pe=-5.0000 eb=0.0241 ve=-40.0000 vn=0.0000 vl=0.000 db=0.50
G1 Z0.500 F420                          ; hopup dz=0.20@7 h=0.5 r=0.77
;00:00:33.722: pe=-5.0000 eb=0.0241 ve=0.0000 vn=0.0000 vl=0.000 db=0.38
G1 X2.00 Y-32.00 F6000                  ; move dl=3.6@100(0<30>0) de=0.000@0.0(0.0<0.0>0.0) l=0.50x0.50x0.00 r=0.00
;00:00:33.903: pe=-5.0000 eb=0.0000 ve=0.0000 vn=0.0000 vl=0.000 db=0.00
G1 Z0.300 F420                          ; hopdn dz=-0.20@7 h=0.3 r=0.00
;00:00:33.931: pe=-5.0000 eb=0.0000 ve=0.0000 vn=0.0000 vl=0.000 db=0.00
G1 E28.0009 F1800                       ; restore de=5.0000@30.0 r=0.00
;00:00:34.098: pe=-0.0000 eb=0.0000 ve=30.0000 vn=0.0000 vl=0.000 db=0.00
G1 X2.00 Y-33.50 E28.0944 F600          ; draw dl=1.5@10(0<10>0) de=0.094@0.55(0.0<0.62>0.0) l=0.30x0.50x1.00 r=1.00
;00:00:34.268: pe=0.0000 eb=0.0218 ve=0.0000 vn=0.0000 vl=0.000 db=0.47
G1 E23.0944 F2400                       ; retract de=-5.0000@-40.0 r=0.94
;00:00:34.393: pe=-5.0000 eb=0.0218 ve=-40.0000 vn=0.0000 vl=0.000 db=0.47
G1 Z0.500 F420                          ; hopup dz=0.20@7 h=0.5 r=0.73
;00:00:34.421: pe=-5.0000 eb=0.0218 ve=0.0000 vn=0.0000 vl=0.000 db=0.37
G1 X4.00 Y-32.00 F6000                  ; move dl=2.5@100(0<25>0) de=0.000@0.0(0.0<0.0>0.0) l=0.50x0.50x0.00 r=0.00
;00:00:34.571: pe=-5.0000 eb=0.0000 ve=0.0000 vn=0.0000 vl=0.000 db=0.00
G1 Z0.300 F420                          ; hopdn dz=-0.20@7 h=0.3 r=0.00
;00:00:34.600: pe=-5.0000 eb=0.0000 ve=0.0000 vn=0.0000 vl=0.000 db=0.00
G1 E28.0944 F1800                       ; restore de=5.0000@30.0 r=0.00
;00:00:34.767: pe=-0.0000 eb=0.0000 ve=30.0000 vn=0.0000 vl=0.000 db=0.00
G1 X4.00 Y-33.50 E28.1880 F600          ; draw dl=1.5@10(0<10>0) de=0.094@0.55(0.0<0.62>0.0) l=0.30x0.50x1.00 r=1.00
;00:00:34.937: pe=0.0000 eb=0.0218 ve=0.0000 vn=0.0000 vl=0.000 db=0.47
G1 E23.1880 F2400                       ; retract de=-5.0000@-40.0 r=0.94
;00:00:35.062: pe=-5.0000 eb=0.0218 ve=-40.0000 vn=0.0000 vl=0.000 db=0.47
G1 Z0.500 F420                          ; hopup dz=0.20@7 h=0.5 r=0.73
;00:00:35.090: pe=-5.0000 eb=0.0218 ve=0.0000 vn=0.0000 vl=0.000 db=0.37
G1 X6.00 Y-32.00 F6000                  ; move dl=2.5@100(0<25>0) de=0.000@0.0(0.0<0.0>0.0) l=0.50x0.50x0.00 r=0.00
;00:00:35.240: pe=-5.0000 eb=0.0000 ve=0.0000 vn=0.0000 vl=0.000 db=0.00
G1 Z0.300 F420                          ; hopdn dz=-0.20@7 h=0.3 r=0.00
;00:00:35.269: pe=-5.0000 eb=0.0000 ve=0.0000 vn=0.0000 vl=0.000 db=0.00
G1 E28.1880 F1800                       ; restore de=5.0000@30.0 r=0.00
;00:00:35.435: pe=-0.0000 eb=0.0000 ve=30.0000 vn=0.0000 vl=0.000 db=0.00
G1 X6.00 Y-33.50 E28.2815 F600          ; draw dl=1.5@10(0<10>0) de=0.094@0.55(0.0<0.62>0.0) l=0.30x0.50x1.00 r=1.00
;00:00:35.605: pe=0.0000 eb=0.0218 ve=0.0000 vn=0.0000 vl=0.000 db=0.47
G1 E23.2815 F2400                       ; retract de=-5.0000@-40.0 r=0.94
;00:00:35.730: pe=-5.0000 eb=0.0218 ve=-40.0000 vn=0.0000 vl=0.000 db=0.47
G1 Z0.500 F420                          ; hopup dz=0.20@7 h=0.5 r=0.73
;00:00:35.759: pe=-5.0000 eb=0.0218 ve=0.0000 vn=0.0000 vl=0.000 db=0.37
G1 X8.00 Y-32.00 F6000                  ; move dl=2.5@100(0<25>0) de=0.000@0.0(0.0<0.0>0.0) l=0.50x0.50x0.00 r=0.00
;00:00:35.909: pe=-5.0000 eb=0.0000 ve=0.0000 vn=0.0000 vl=0.000 db=0.00
G1 Z0.300 F420                          ; hopdn dz=-0.20@7 h=0.3 r=0.00
;00:00:35.938: pe=-5.0000 eb=0.0000 ve=0.0000 vn=0.0000 vl=0.000 db=0.00
G1 E28.2815 F1800                       ; restore de=5.0000@30.0 r=0.00
;00:00:36.104: pe=-0.0000 eb=0.0000 ve=30.0000 vn=0.0000 vl=0.000 db=0.00
G1 X8.00 Y-33.50 E28.3750 F600          ; draw dl=1.5@10(0<10>0) de=0.094@0.55(0.0<0.62>0.0) l=0.30x0.50x1.00 r=1.00
;00:00:36.274: pe=0.0000 eb=0.0218 ve=0.0000 vn=0.0000 vl=0.000 db=0.47
G1 E23.3750 F2400                       ; retract de=-5.0000@-40.0 r=0.94
;00:00:36.399: pe=-5.0000 eb=0.0218 ve=-40.0000 vn=0.0000 vl=0.000 db=0.47
G1 Z0.500 F420                          ; hopup dz=0.20@7 h=0.5 r=0.73
;00:00:36.428: pe=-5.0000 eb=0.0218 ve=0.0000 vn=0.0000 vl=0.000 db=0.37
G1 X10.00 Y-32.00 F6000                 ; move dl=2.5@100(0<25>0) de=0.000@0.0(0.0<0.0>0.0) l=0.50x0.50x0.00 r=0.00
;00:00:36.578: pe=-5.0000 eb=0.0000 ve=0.0000 vn=0.0000 vl=0.000 db=0.00
G1 Z0.300 F420                          ; hopdn dz=-0.20@7 h=0.3 r=0.00
;00:00:36.606: pe=-5.0000 eb=0.0000 ve=0.0000 vn=0.0000 vl=0.000 db=0.00
G1 E28.3750 F1800                       ; restore de=5.0000@30.0 r=0.00
;00:00:36.773: pe=-0.0000 eb=0.0000 ve=30.0000 vn=0.0000 vl=0.000 db=0.00
G1 X10.00 Y-35.00 E28.5621 F600         ; draw dl=3.0@10(0<10>0) de=0.187@0.58(0.0<0.62>0.0) l=0.30x0.50x1.00 r=1.00
;00:00:37.093: pe=0.0000 eb=0.0241 ve=0.0000 vn=0.0000 vl=0.000 db=0.50
G1 E23.5621 F2400                       ; retract de=-5.0000@-40.0 r=0.99
;00:00:37.218: pe=-5.0000 eb=0.0241 ve=-40.0000 vn=0.0000 vl=0.000 db=0.50
G1 Z0.500 F420                          ; hopup dz=0.20@7 h=0.5 r=0.77
;00:00:37.247: pe=-5.0000 eb=0.0241 ve=0.0000 vn=0.0000 vl=0.000 db=0.38
G1 X12.00 Y-32.00 F6000                 ; move dl=3.6@100(0<30>0) de=0.000@0.0(0.0<0.0>0.0) l=0.50x0.50x0.00 r=0.00
;00:00:37.427: pe=-5.0000 eb=0.0000 ve=0.0000 vn=0.0000 vl=0.000 db=0.00
G1 Z0.300 F420                          ; hopdn dz=-0.20@7 h=0.3 r=0.00
;00:00:37.455: pe=-5.0000 eb=0.0000 ve=0.0000 vn=0.0000 vl=0.000 db=0.00
G1 E28.5621 F1800                       ; restore de=5.0000@30.0 r=0.00
;00:00:37.622: pe=-0.0000 eb=0.0000 ve=30.0000 vn=0.0000 vl=0.000 db=0.00
G1 X12.00 Y-33.50 E28.6557 F600         ; draw dl=1.5@10(0<10>0) de=0.094@0.55(0.0<0.62>0.0) l=0.30x0.50x1.00 r=1.00
;00:00:37.792: pe=0.0000 eb=0.0218 ve=0.0000 vn=0.0000 vl=0.000 db=0.47
G1 E23.6557 F2400                       ; retract de=-5.0000@-40.0 r=0.94
;00:00:37.917: pe=-5.0000 eb=0.0218 ve=-40.0000 vn=0.0000 vl=0.000 db=0.47
G1 Z0.500 F420                          ; hopup dz=0.20@7 h=0.5 r=0.73
;00:00:37.946: pe=-5.0000 eb=0.0218 ve=0.0000 vn=0.0000 vl=0.000 db=0.37
G1 X14.00 Y-32.00 F6000                 ; move dl=2.5@100(0<25>0) de=0.000@0.0(0.0<0.0>0.0) l=0.50x0.50x0.00 r=0.00
;00:00:38.096: pe=-5.0000 eb=0.0000 ve=0.0000 vn=0.0000 vl=0.000 db=0.00
G1 Z0.300 F420                          ; hopdn dz=-0.20@7 h=0.3 r=0.00
;00:00:38.124: pe=-5.0000 eb=0.0000 ve=0.0000 vn=0.0000 vl=0.000 db=0.00
G1 E28.6557 F1800                       ; restore de=5.0000@30.0 r=0.00
;00:00:38.291: pe=-0.0000 eb=0.0000 ve=30.0000 vn=0.0000 vl=0.000 db=0.00
G1 X14.00 Y-33.50 E28.7492 F600         ; draw dl=1.5@10(0<10>0) de=0.094@0.55(0.0<0.62>0.0) l=0.30x0.50x1.00 r=1.00
;00:00:38.461: pe=0.0000 eb=0.0218 ve=0.0000 vn=0.0000 vl=0.000 db=0.47
G1 E23.7492 F2400                       ; retract de=-5.0000@-40.0 r=0.94
;00:00:38.586: pe=-5.0000 eb=0.0218 ve=-40.0000 vn=0.0000 vl=0.000 db=0.47
G1 Z0.500 F420                          ; hopup dz=0.20@7 h=0.5 r=0.73
;00:00:38.614: pe=-5.0000 eb=0.0218 ve=0.0000 vn=0.0000 vl=0.000 db=0.37
G1 X16.00 Y-32.00 F6000                 ; move dl=2.5@100(0<25>0) de=0.000@0.0(0.0<0.0>0.0) l=0.50x0.50x0.00 r=0.00
;00:00:38.764: pe=-5.0000 eb=0.0000 ve=0.0000 vn=0.0000 vl=0.000 db=0.00
G1 Z0.300 F420                          ; hopdn dz=-0.20@7 h=0.3 r=0.00
;00:00:38.793: pe=-5.0000 eb=0.0000 ve=0.0000 vn=0.0000 vl=0.000 db=0.00
G1 E28.7492 F1800                       ; restore de=5.0000@30.0 r=0.00
;00:00:38.960: pe=-0.0000 eb=0.0000 ve=30.0000 vn=0.0000 vl=0.000 db=0.00
G1 X16.00 Y-33.50 E28.8428 F600         ; draw dl=1.5@10(0<10>0) de=0.094@0.55(0.0<0.62>0.0) l=0.30x0.50x1.00 r=1.00
;00:00:39.130: pe=0.0000 eb=0.0218 ve=0.0000 vn=0.0000 vl=0.000 db=0.47
G1 E23.8428 F2400                       ; retract de=-5.0000@-40.0 r=0.94
;00:00:39.255: pe=-5.0000 eb=0.0218 ve=-40.0000 vn=0.0000 vl=0.000 db=0.47
G1 Z0.500 F420                          ; hopup dz=0.20@7 h=0.5 r=0.73
;00:00:39.283: pe=-5.0000 eb=0.0218 ve=0.0000 vn=0.0000 vl=0.000 db=0.37
G1 X18.00 Y-32.00 F6000                 ; move dl=2.5@100(0<25>0) de=0.000@0.0(0.0<0.0>0.0) l=0.50x0.50x0.00 r=0.00
;00:00:39.433: pe=-5.0000 eb=0.0000 ve=0.0000 vn=0.0000 vl=0.000 db=0.00
G1 Z0.300 F420                          ; hopdn dz=-0.20@7 h=0.3 r=0.00
;00:00:39.462: pe=-5.0000 eb=0.0000 ve=0.0000 vn=0.0000 vl=0.000 db=0.00
G1 E28.8428 F1800                       ; restore de=5.0000@30.0 r=0.00
;00:00:39.628: pe=-0.0000 eb=0.0000 ve=30.0000 vn=0.0000 vl=0.000 db=0.00
G1 X18.00 Y-33.50 E28.9363 F600         ; draw dl=1.5@10(0<10>0) de=0.094@0.55(0.0<0.62>0.0) l=0.30x0.50x1.00 r=1.00
;00:00:39.798: pe=0.0000 eb=0.0218 ve=0.0000 vn=0.0000 vl=0.000 db=0.47
G1 E23.9363 F2400                       ; retract de=-5.0000@-40.0 r=0.94
;00:00:39.923: pe=-5.0000 eb=0.0218 ve=-40.0000 vn=0.0000 vl=0.000 db=0.47
G1 Z0.500 F420                          ; hopup dz=0.20@7 h=0.5 r=0.73
;00:00:39.952: pe=-5.0000 eb=0.0218 ve=0.0000 vn=0.0000 vl=0.000 db=0.37
G1 X20.00 Y-32.00 F6000                 ; move dl=2.5@100(0<25>0) de=0.000@0.0(0.0<0.0>0.0) l=0.50x0.50x0.00 r=0.00
;00:00:40.102: pe=-5.0000 eb=0.0000 ve=0.0000 vn=0.0000 vl=0.000 db=0.00
G1 Z0.300 F420                          ; hopdn dz=-0.20@7 h=0.3 r=0.00
;00:00:40.131: pe=-5.0000 eb=0.0000 ve=0.0000 vn=0.0000 vl=0.000 db=0.00
G1 E28.9363 F1800                       ; restore de=5.0000@30.0 r=0.00
;00:00:40.297: pe=-0.0000 eb=0.0000 ve=30.0000 vn=0.0000 vl=0.000 db=0.00
G1 X20.00 Y-35.00 E29.1234 F600         ; draw dl=3.0@10(0<10>0) de=0.187@0.58(0.0<0.62>0.0) l=0.30x0.50x1.00 r=1.00
;00:00:40.617: pe=0.0000 eb=0.0241 ve=0.0000 vn=0.0000 vl=0.000 db=0.50
G1 E24.1234 F2400                       ; retract de=-5.0000@-40.0 r=0.99
;00:00:40.742: pe=-5.0000 eb=0.0241 ve=-40.0000 vn=0.0000 vl=0.000 db=0.50
G1 Z0.500 F420                          ; hopup dz=0.20@7 h=0.5 r=0.77
;00:00:40.771: pe=-5.0000 eb=0.0241 ve=0.0000 vn=0.0000 vl=0.000 db=0.38
G1 X22.00 Y-32.00 F6000                 ; move dl=3.6@100(0<30>0) de=0.000@0.0(0.0<0.0>0.0) l=0.50x0.50x0.00 r=0.00
;00:00:40.951: pe=-5.0000 eb=0.0000 ve=0.0000 vn=0.0000 vl=0.000 db=0.00
G1 Z0.300 F420                          ; hopdn dz=-0.20@7 h=0.3 r=0.00
;00:00:40.979: pe=-5.0000 eb=0.0000 ve=0.0000 vn=0.0000 vl=0.000 db=0.00
G1 E29.1234 F1800                       ; restore de=5.0000@30.0 r=0.00
;00:00:41.146: pe=-0.0000 eb=0.0000 ve=30.0000 vn=0.0000 vl=0.000 db=0.00
G1 X22.00 Y-33.50 E29.2169 F600         ; draw dl=1.5@10(0<10>0) de=0.094@0.55(0.0<0.62>0.0) l=0.30x0.50x1.00 r=1.00
;00:00:41.316: pe=0.0000 eb=0.0218 ve=0.0000 vn=0.0000 vl=0.000 db=0.47
G1 E24.2169 F2400                       ; retract de=-5.0000@-40.0 r=0.94
;00:00:41.441: pe=-5.0000 eb=0.0218 ve=-40.0000 vn=0.0000 vl=0.000 db=0.47
G1 Z0.500 F420                          ; hopup dz=0.20@7 h=0.5 r=0.73
;00:00:41.470: pe=-5.0000 eb=0.0218 ve=0.0000 vn=0.0000 vl=0.000 db=0.37
G1 X24.00 Y-32.00 F6000                 ; move dl=2.5@100(0<25>0) de=0.000@0.0(0.0<0.0>0.0) l=0.50x0.50x0.00 r=0.00
;00:00:41.620: pe=-5.0000 eb=0.0000 ve=0.0000 vn=0.0000 vl=0.000 db=0.00
G1 Z0.300 F420                          ; hopdn dz=-0.20@7 h=0.3 r=0.00
;00:00:41.648: pe=-5.0000 eb=0.0000 ve=0.0000 vn=0.0000 vl=0.000 db=0.00
G1 E29.2169 F1800                       ; restore de=5.0000@30.0 r=0.00
;00:00:41.815: pe=-0.0000 eb=0.0000 ve=30.0000 vn=0.0000 vl=0.000 db=0.00
G1 X24.00 Y-33.50 E29.3105 F600         ; draw dl=1.5@10(0<10>0) de=0.094@0.55(0.0<0.62>0.0) l=0.30x0.50x1.00 r=1.00
;00:00:41.985: pe=0.0000 eb=0.0218 ve=0.0000 vn=0.0000 vl=0.000 db=0.47
G1 E24.3105 F2400                       ; retract de=-5.0000@-40.0 r=0.94
;00:00:42.110: pe=-5.0000 eb=0.0218 ve=-40.0000 vn=0.0000 vl=0.000 db=0.47
G1 Z0.500 F420                          ; hopup dz=0.20@7 h=0.5 r=0.73
;00:00:42.139: pe=-5.0000 eb=0.0218 ve=0.0000 vn=0.0000 vl=0.000 db=0.37
G1 X26.00 Y-32.00 F6000                 ; move dl=2.5@100(0<25>0) de=0.000@0.0(0.0<0.0>0.0) l=0.50x0.50x0.00 r=0.00
;00:00:42.289: pe=-5.0000 eb=0.0000 ve=0.0000 vn=0.0000 vl=0.000 db=0.00
G1 Z0.300 F420                          ; hopdn dz=-0.20@7 h=0.3 r=0.00
;00:00:42.317: pe=-5.0000 eb=0.0000 ve=0.0000 vn=0.0000 vl=0.000 db=0.00
G1 E29.3105 F1800                       ; restore de=5.0000@30.0 r=0.00
;00:00:42.484: pe=-0.0000 eb=0.0000 ve=30.0000 vn=0.0000 vl=0.000 db=0.00
G1 X26.00 Y-33.50 E29.4040 F600         ; draw dl=1.5@10(0<10>0) de=0.094@0.55(0.0<0.62>0.0) l=0.30x0.50x1.00 r=1.00
;00:00:42.654: pe=0.0000 eb=0.0218 ve=0.0000 vn=0.0000 vl=0.000 db=0.47
G1 E24.4040 F2400                       ; retract de=-5.0000@-40.0 r=0.94
;00:00:42.779: pe=-5.0000 eb=0.0218 ve=-40.0000 vn=0.0000 vl=0.000 db=0.47
G1 Z0.500 F420                          ; hopup dz=0.20@7 h=0.5 r=0.73
;00:00:42.807: pe=-5.0000 eb=0.0218 ve=0.0000 vn=0.0000 vl=0.000 db=0.37
G1 X28.00 Y-32.00 F6000                 ; move dl=2.5@100(0<25>0) de=0.000@0.0(0.0<0.0>0.0) l=0.50x0.50x0.00 r=0.00
;00:00:42.957: pe=-5.0000 eb=0.0000 ve=0.0000 vn=0.0000 vl=0.000 db=0.00
G1 Z0.300 F420                          ; hopdn dz=-0.20@7 h=0.3 r=0.00
;00:00:42.986: pe=-5.0000 eb=0.0000 ve=0.0000 vn=0.0000 vl=0.000 db=0.00
G1 E29.4040 F1800                       ; restore de=5.0000@30.0 r=0.00
;00:00:43.153: pe=-0.0000 eb=0.0000 ve=30.0000 vn=0.0000 vl=0.000 db=0.00
G1 X28.00 Y-33.50 E29.4976 F600         ; draw dl=1.5@10(0<10>0) de=0.094@0.55(0.0<0.62>0.0) l=0.30x0.50x1.00 r=1.00
;00:00:43.323: pe=0.0000 eb=0.0218 ve=0.0000 vn=0.0000 vl=0.000 db=0.47
G1 E24.4976 F2400                       ; retract de=-5.0000@-40.0 r=0.94
;00:00:43.448: pe=-5.0000 eb=0.0218 ve=-40.0000 vn=0.0000 vl=0.000 db=0.47
G1 Z0.500 F420                          ; hopup dz=0.20@7 h=0.5 r=0.73
;00:00:43.476: pe=-5.0000 eb=0.0218 ve=0.0000 vn=0.0000 vl=0.000 db=0.37
G1 X30.00 Y-32.00 F6000                 ; move dl=2.5@100(0<25>0) de=0.000@0.0(0.0<0.0>0.0) l=0.50x0.50x0.00 r=0.00
;00:00:43.626: pe=-5.0000 eb=0.0000 ve=0.0000 vn=0.0000 vl=0.000 db=0.00
G1 Z0.300 F420                          ; hopdn dz=-0.20@7 h=0.3 r=0.00
;00:00:43.655: pe=-5.0000 eb=0.0000 ve=0.0000 vn=0.0000 vl=0.000 db=0.00
G1 E29.4976 F1800                       ; restore de=5.0000@30.0 r=0.00
;00:00:43.821: pe=-0.0000 eb=0.0000 ve=30.0000 vn=0.0000 vl=0.000 db=0.00
G1 X30.00 Y-35.00 E29.6847 F600         ; draw dl=3.0@10(0<10>0) de=0.187@0.58(0.0<0.62>0.0) l=0.30x0.50x1.00 r=1.00
;00:00:44.141: pe=0.0000 eb=0.0241 ve=0.0000 vn=0.0000 vl=0.000 db=0.50
G1 E24.6847 F2400                       ; retract de=-5.0000@-40.0 r=0.99
;00:00:44.266: pe=-5.0000 eb=0.0241 ve=-40.0000 vn=0.0000 vl=0.000 db=0.50
G1 Z0.500 F420                          ; hopup dz=0.20@7 h=0.5 r=0.77
;00:00:44.295: pe=-5.0000 eb=0.0241 ve=0.0000 vn=0.0000 vl=0.000 db=0.38
G1 X32.00 Y-32.00 F6000                 ; move dl=3.6@100(0<30>0) de=0.000@0.0(0.0<0.0>0.0) l=0.50x0.50x0.00 r=0.00
;00:00:44.475: pe=-5.0000 eb=0.0000 ve=0.0000 vn=0.0000 vl=0.000 db=0.00
G1 Z0.300 F420                          ; hopdn dz=-0.20@7 h=0.3 r=0.00
;00:00:44.504: pe=-5.0000 eb=0.0000 ve=0.0000 vn=0.0000 vl=0.000 db=0.00
G1 E29.6847 F1800                       ; restore de=5.0000@30.0 r=0.00
;00:00:44.670: pe=-0.0000 eb=0.0000 ve=30.0000 vn=0.0000 vl=0.000 db=0.00
G1 X32.00 Y-33.50 E29.7782 F600         ; draw dl=1.5@10(0<10>0) de=0.094@0.55(0.0<0.62>0.0) l=0.30x0.50x1.00 r=1.00
;00:00:44.840: pe=0.0000 eb=0.0218 ve=0.0000 vn=0.0000 vl=0.000 db=0.47
G1 E24.7782 F2400                       ; retract de=-5.0000@-40.0 r=0.94
;00:00:44.965: pe=-5.0000 eb=0.0218 ve=-40.0000 vn=0.0000 vl=0.000 db=0.47
G1 Z0.500 F420                          ; hopup dz=0.20@7 h=0.5 r=0.73
;00:00:44.994: pe=-5.0000 eb=0.0218 ve=0.0000 vn=0.0000 vl=0.000 db=0.37
G1 X34.00 Y-32.00 F6000                 ; move dl=2.5@100(0<25>0) de=0.000@0.0(0.0<0.0>0.0) l=0.50x0.50x0.00 r=0.00
;00:00:45.144: pe=-5.0000 eb=0.0000 ve=0.0000 vn=0.0000 vl=0.000 db=0.00
G1 Z0.300 F420                          ; hopdn dz=-0.20@7 h=0.3 r=0.00
;00:00:45.172: pe=-5.0000 eb=0.0000 ve=0.0000 vn=0.0000 vl=0.000 db=0.00
G1 E29.7782 F1800                       ; restore de=5.0000@30.0 r=0.00
;00:00:45.339: pe=-0.0000 eb=0.0000 ve=30.0000 vn=0.0000 vl=0.000 db=0.00
G1 X34.00 Y-33.50 E29.8718 F600         ; draw dl=1.5@10(0<10>0) de=0.094@0.55(0.0<0.62>0.0) l=0.30x0.50x1.00 r=1.00
;00:00:45.509: pe=0.0000 eb=0.0218 ve=0.0000 vn=0.0000 vl=0.000 db=0.47
G1 E24.8718 F2400                       ; retract de=-5.0000@-40.0 r=0.94
;00:00:45.634: pe=-5.0000 eb=0.0218 ve=-40.0000 vn=0.0000 vl=0.000 db=0.47
G1 Z0.500 F420                          ; hopup dz=0.20@7 h=0.5 r=0.73
;00:00:45.663: pe=-5.0000 eb=0.0218 ve=0.0000 vn=0.0000 vl=0.000 db=0.37
G1 X36.00 Y-32.00 F6000                 ; move dl=2.5@100(0<25>0) de=0.000@0.0(0.0<0.0>0.0) l=0.50x0.50x0.00 r=0.00
;00:00:45.813: pe=-5.0000 eb=0.0000 ve=0.0000 vn=0.0000 vl=0.000 db=0.00
G1 Z0.300 F420                          ; hopdn dz=-0.20@7 h=0.3 r=0.00
;00:00:45.841: pe=-5.0000 eb=0.0000 ve=0.0000 vn=0.0000 vl=0.000 db=0.00
G1 E29.8718 F1800                       ; restore de=5.0000@30.0 r=0.00
;00:00:46.008: pe=-0.0000 eb=0.0000 ve=30.0000 vn=0.0000 vl=0.000 db=0.00
G1 X36.00 Y-33.50 E29.9653 F600         ; draw dl=1.5@10(0<10>0) de=0.094@0.55(0.0<0.62>0.0) l=0.30x0.50x1.00 r=1.00
;00:00:46.178: pe=0.0000 eb=0.0218 ve=0.0000 vn=0.0000 vl=0.000 db=0.47
G1 E24.9653 F2400                       ; retract de=-5.0000@-40.0 r=0.94
;00:00:46.303: pe=-5.0000 eb=0.0218 ve=-40.0000 vn=0.0000 vl=0.000 db=0.47
G1 Z0.500 F420                          ; hopup dz=0.20@7 h=0.5 r=0.73
;00:00:46.332: pe=-5.0000 eb=0.0218 ve=0.0000 vn=0.0000 vl=0.000 db=0.37
G1 X38.00 Y-32.00 F6000                 ; move dl=2.5@100(0<25>0) de=0.000@0.0(0.0<0.0>0.0) l=0.50x0.50x0.00 r=0.00
;00:00:46.482: pe=-5.0000 eb=0.0000 ve=0.0000 vn=0.0000 vl=0.000 db=0.00
G1 Z0.300 F420                          ; hopdn dz=-0.20@7 h=0.3 r=0.00
;00:00:46.510: pe=-5.0000 eb=0.0000 ve=0.0000 vn=0.0000 vl=0.000 db=0.00
G1 E29.9653 F1800                       ; restore de=5.0000@30.0 r=0.00
;00:00:46.677: pe=-0.0000 eb=0.0000 ve=30.0000 vn=0.0000 vl=0.000 db=0.00
G1 X38.00 Y-33.50 E30.0588 F600         ; draw dl=1.5@10(0<10>0) de=0.094@0.55(0.0<0.62>0.0) l=0.30x0.50x1.00 r=1.00
;00:00:46.847: pe=0.0000 eb=0.0218 ve=0.0000 vn=0.0000 vl=0.000 db=0.47
G1 E25.0588 F2400                       ; retract de=-5.0000@-40.0 r=0.94
;00:00:46.972: pe=-5.0000 eb=0.0218 ve=-40.0000 vn=0.0000 vl=0.000 db=0.47
G1 Z0.500 F420                          ; hopup dz=0.20@7 h=0.5 r=0.73
;00:00:47.000: pe=-5.0000 eb=0.0218 ve=0.0000 vn=0.0000 vl=0.000 db=0.37
G1 X40.00 Y-32.00 F6000                 ; move dl=2.5@100(0<25>0) de=0.000@0.0(0.0<0.0>0.0) l=0.50x0.50x0.00 r=0.00
;00:00:47.150: pe=-5.0000 eb=0.0000 ve=0.0000 vn=0.0000 vl=0.000 db=0.00
G1 Z0.300 F420                          ; hopdn dz=-0.20@7 h=0.3 r=0.00
;00:00:47.179: pe=-5.0000 eb=0.0000 ve=0.0000 vn=0.0000 vl=0.000 db=0.00
G1 E30.0588 F1800                       ; restore de=5.0000@30.0 r=0.00
;00:00:47.346: pe=-0.0000 eb=0.0000 ve=30.0000 vn=0.0000 vl=0.000 db=0.00
G1 X40.00 Y-35.00 E30.2459 F600         ; draw dl=3.0@10(0<10>0) de=0.187@0.58(0.0<0.62>0.0) l=0.30x0.50x1.00 r=1.00
;00:00:47.666: pe=0.0000 eb=0.0241 ve=0.0000 vn=0.0000 vl=0.000 db=0.50
G1 E25.2459 F2400                       ; retract de=-5.0000@-40.0 r=0.99
;00:00:47.791: pe=-5.0000 eb=0.0241 ve=-40.0000 vn=0.0000 vl=0.000 db=0.50
G1 Z0.500 F420                          ; hopup dz=0.20@7 h=0.5 r=0.77
;00:00:47.819: pe=-5.0000 eb=0.0241 ve=0.0000 vn=0.0000 vl=0.000 db=0.38
;structure:brim
;structure:shell-outer
;00:00:47.819: text [(46.0, -32), (None, None)] fsize=5 angle=0 'fKf=300\nvx0=10-50\nvx1=20-100'
G1 X47.69 Y-32.10 F6000                 ; move dl=8.2@100(0<45>0) de=0.000@0.0(0.0<0.0>0.0) l=0.50x0.50x0.00 r=0.00
;00:00:48.091: pe=-5.0000 eb=0.0000 ve=0.0000 vn=0.0000 vl=0.000 db=0.00
G1 Z0.300 F420                          ; hopdn dz=-0.20@7 h=0.3 r=0.00
;00:00:48.120: pe=-5.0000 eb=0.0000 ve=0.0000 vn=0.0000 vl=0.000 db=0.00
G1 E30.2459 F1800                       ; restore de=5.0000@30.0 r=0.00
;00:00:48.286: pe=-0.0000 eb=0.0000 ve=30.0000 vn=0.0000 vl=0.000 db=0.00
G1 X47.54 Y-32.10 E30.2553 F600         ; draw dl=0.1@10(0<10>10) de=0.009@0.37(0.0<0.62>0.62) l=0.30x0.50x1.00 r=1.00
;00:00:48.311: pe=0.0000 eb=0.0061 ve=0.6236 vn=0.6236 vl=10.000 db=0.25
G1 X47.36 Y-32.14 E30.2668              ; draw dl=0.2@10(10<10>10) de=0.011@0.62(0.62<0.62>0.62) l=0.30x0.50x1.00 r=1.00
;00:00:48.330: pe=0.0000 eb=0.0109 ve=0.6236 vn=0.6236 vl=10.000 db=0.33
G1 X47.20 Y-32.27 E30.2796              ; draw dl=0.2@10(10<10>10) de=0.013@0.62(0.62<0.62>0.62) l=0.30x0.50x1.00 r=1.00
;00:00:48.350: pe=0.0000 eb=0.0145 ve=0.6236 vn=0.6236 vl=10.000 db=0.38
G1 X47.08 Y-32.46 E30.2937              ; draw dl=0.2@10(10<10>10) de=0.014@0.62(0.62<0.62>0.62) l=0.30x0.50x1.00 r=1.00
;00:00:48.373: pe=0.0000 eb=0.0172 ve=0.6236 vn=0.6236 vl=10.000 db=0.42
G1 X47.00 Y-32.83 E30.3173              ; draw dl=0.4@10(10<10>10) de=0.024@0.62(0.62<0.62>0.62) l=0.30x0.50x1.00 r=1.00
;00:00:48.411: pe=0.0000 eb=0.0202 ve=0.6236 vn=0.6236 vl=10.000 db=0.45
G1 X47.00 Y-35.52 E30.4850              ; draw dl=2.7@10(10<10>0) de=0.168@0.6(0.62<0.62>0.0) l=0.30x0.50x1.00 r=1.00
;00:00:48.690: pe=0.0000 eb=0.0244 ve=0.0000 vn=0.0000 vl=0.000 db=0.50
G1 E25.4850 F2400                       ; retract de=-5.0000@-40.0 r=1.00
;00:00:48.815: pe=-5.0000 eb=0.0244 ve=-40.0000 vn=0.0000 vl=0.000 db=0.50
G1 Z0.500 F420                          ; hopup dz=0.20@7 h=0.5 r=0.77
;00:00:48.843: pe=-5.0000 eb=0.0244 ve=0.0000 vn=0.0000 vl=0.000 db=0.39
G1 X46.50 Y-33.24 F6000                 ; move dl=2.3@100(0<24>0) de=0.000@0.0(0.0<0.0>0.0) l=0.50x0.50x0.00 r=0.00
;00:00:48.988: pe=-5.0000 eb=0.0000 ve=0.0000 vn=0.0000 vl=0.000 db=0.00
G1 Z0.300 F420                          ; hopdn dz=-0.20@7 h=0.3 r=0.00
;00:00:49.017: pe=-5.0000 eb=0.0000 ve=0.0000 vn=0.0000 vl=0.000 db=0.00
G1 E30.4850 F1800                       ; restore de=5.0000@30.0 r=0.00
;00:00:49.183: pe=-0.0000 eb=0.0000 ve=30.0000 vn=0.0000 vl=0.000 db=0.00
G1 X47.58 Y-33.24 E30.5524 F600         ; draw dl=1.1@10(0<10>0) de=0.067@0.53(0.0<0.62>0.0) l=0.30x0.50x1.00 r=1.00
;00:00:49.311: pe=0.0000 eb=0.0198 ve=0.0000 vn=0.0000 vl=0.000 db=0.45
G1 E25.5524 F2400                       ; retract de=-5.0000@-40.0 r=0.90
;00:00:49.436: pe=-5.0000 eb=0.0198 ve=-40.0000 vn=0.0000 vl=0.000 db=0.45
G1 Z0.500 F420                          ; hopup dz=0.20@7 h=0.5 r=0.70
;00:00:49.465: pe=-5.0000 eb=0.0198 ve=0.0000 vn=0.0000 vl=0.000 db=0.35
G1 X48.75 Y-32.12 F6000                 ; move dl=1.6@100(0<20>0) de=0.000@0.0(0.0<0.0>0.0) l=0.50x0.50x0.00 r=0.00
;00:00:49.586: pe=-5.0000 eb=0.0000 ve=0.0000 vn=0.0000 vl=0.000 db=0.00
G1 Z0.300 F420                          ; hopdn dz=-0.20@7 h=0.3 r=0.00
;00:00:49.614: pe=-5.0000 eb=0.0000 ve=0.0000 vn=0.0000 vl=0.000 db=0.00
G1 E30.5524 F1800                       ; restore de=5.0000@30.0 r=0.00
;00:00:49.781: pe=-0.0000 eb=0.0000 ve=30.0000 vn=0.0000 vl=0.000 db=0.00
G1 X48.75 Y-35.52 E30.7644 F600         ; draw dl=3.4@10(0<10>0) de=0.212@0.59(0.0<0.62>0.0) l=0.30x0.50x1.00 r=1.00
;00:00:50.141: pe=0.0000 eb=0.0243 ve=0.0000 vn=0.0000 vl=0.000 db=0.50
G1 E25.7644 F2400                       ; retract de=-5.0000@-40.0 r=1.00
;00:00:50.266: pe=-5.0000 eb=0.0243 ve=-40.0000 vn=0.0000 vl=0.000 db=0.50
G1 Z0.500 F420                          ; hopup dz=0.20@7 h=0.5 r=0.77
;00:00:50.295: pe=-5.0000 eb=0.0243 ve=0.0000 vn=0.0000 vl=0.000 db=0.39
G1 X51.21 Y-35.52 F6000                 ; move dl=2.5@100(0<25>0) de=0.000@0.0(0.0<0.0>0.0) l=0.50x0.50x0.00 r=0.00
;00:00:50.443: pe=-5.0000 eb=0.0000 ve=0.0000 vn=0.0000 vl=0.000 db=0.00
G1 Z0.300 F420                          ; hopdn dz=-0.20@7 h=0.3 r=0.00
;00:00:50.472: pe=-5.0000 eb=0.0000 ve=0.0000 vn=0.0000 vl=0.000 db=0.00
G1 E30.7644 F1800                       ; restore de=5.0000@30.0 r=0.00
;00:00:50.639: pe=-0.0000 eb=0.0000 ve=30.0000 vn=0.0000 vl=0.000 db=0.00
G1 X49.72 Y-33.49 E30.9214 F600         ; draw dl=2.5@10(0<10>0) de=0.157@0.58(0.0<0.62>0.0) l=0.30x0.50x1.00 r=1.00
;00:00:50.910: pe=0.0000 eb=0.0238 ve=0.0000 vn=0.0000 vl=0.000 db=0.49
G1 E25.9214 F2400                       ; retract de=-5.0000@-40.0 r=0.99
;00:00:51.035: pe=-5.0000 eb=0.0238 ve=-40.0000 vn=0.0000 vl=0.000 db=0.49
G1 Z0.500 F420                          ; hopup dz=0.20@7 h=0.5 r=0.76
;00:00:51.064: pe=-5.0000 eb=0.0238 ve=0.0000 vn=0.0000 vl=0.000 db=0.38
G1 X48.75 Y-34.33 F6000                 ; move dl=1.3@100(0<18>0) de=0.000@0.0(0.0<0.0>0.0) l=0.50x0.50x0.00 r=0.00
;00:00:51.171: pe=-5.0000 eb=0.0000 ve=0.0000 vn=0.0000 vl=0.000 db=0.00
G1 Z0.300 F420                          ; hopdn dz=-0.20@7 h=0.3 r=0.00
;00:00:51.200: pe=-5.0000 eb=0.0000 ve=0.0000 vn=0.0000 vl=0.000 db=0.00
G1 E30.9214 F1800                       ; restore de=5.0000@30.0 r=0.00
;00:00:51.367: pe=-0.0000 eb=0.0000 ve=30.0000 vn=0.0000 vl=0.000 db=0.00
G1 X51.28 Y-32.12 E31.1309 F600         ; draw dl=3.4@10(0<10>0) de=0.209@0.59(0.0<0.62>0.0) l=0.30x0.50x1.00 r=1.00
;00:00:51.723: pe=0.0000 eb=0.0242 ve=0.0000 vn=0.0000 vl=0.000 db=0.50
G1 E26.1309 F2400                       ; retract de=-5.0000@-40.0 r=1.00
;00:00:51.848: pe=-5.0000 eb=0.0242 ve=-40.0000 vn=0.0000 vl=0.000 db=0.50
G1 Z0.500 F420                          ; hopup dz=0.20@7 h=0.5 r=0.77
;00:00:51.876: pe=-5.0000 eb=0.0242 ve=0.0000 vn=0.0000 vl=0.000 db=0.39
G1 X53.53 Y-32.10 F6000                 ; move dl=2.3@100(0<24>0) de=0.000@0.0(0.0<0.0>0.0) l=0.50x0.50x0.00 r=0.00
;00:00:52.019: pe=-5.0000 eb=0.0000 ve=0.0000 vn=0.0000 vl=0.000 db=0.00
G1 Z0.300 F420                          ; hopdn dz=-0.20@7 h=0.3 r=0.00
;00:00:52.047: pe=-5.0000 eb=0.0000 ve=0.0000 vn=0.0000 vl=0.000 db=0.00
G1 E31.1309 F1800                       ; restore de=5.0000@30.0 r=0.00
;00:00:52.214: pe=-0.0000 eb=0.0000 ve=30.0000 vn=0.0000 vl=0.000 db=0.00
G1 X53.38 Y-32.10 E31.1403 F600         ; draw dl=0.1@10(0<10>10) de=0.009@0.37(0.0<0.62>0.62) l=0.30x0.50x1.00 r=1.00
;00:00:52.239: pe=0.0000 eb=0.0061 ve=0.6236 vn=0.6236 vl=10.000 db=0.25
G1 X53.20 Y-32.14 E31.1518              ; draw dl=0.2@10(10<10>10) de=0.011@0.62(0.62<0.62>0.62) l=0.30x0.50x1.00 r=1.00
;00:00:52.257: pe=0.0000 eb=0.0109 ve=0.6236 vn=0.6236 vl=10.000 db=0.33
G1 X53.04 Y-32.27 E31.1646              ; draw dl=0.2@10(10<10>10) de=0.013@0.62(0.62<0.62>0.62) l=0.30x0.50x1.00 r=1.00
;00:00:52.278: pe=0.0000 eb=0.0145 ve=0.6236 vn=0.6236 vl=10.000 db=0.38
G1 X52.92 Y-32.46 E31.1786              ; draw dl=0.2@10(10<10>10) de=0.014@0.62(0.62<0.62>0.62) l=0.30x0.50x1.00 r=1.00
;00:00:52.300: pe=0.0000 eb=0.0172 ve=0.6236 vn=0.6236 vl=10.000 db=0.42
G1 X52.84 Y-32.83 E31.2023              ; draw dl=0.4@10(10<10>10) de=0.024@0.62(0.62<0.62>0.62) l=0.30x0.50x1.00 r=1.00
;00:00:52.338: pe=0.0000 eb=0.0202 ve=0.6236 vn=0.6236 vl=10.000 db=0.45
G1 X52.84 Y-35.52 E31.3700              ; draw dl=2.7@10(10<10>0) de=0.168@0.6(0.62<0.62>0.0) l=0.30x0.50x1.00 r=1.00
;00:00:52.617: pe=0.0000 eb=0.0244 ve=0.0000 vn=0.0000 vl=0.000 db=0.50
G1 E26.3700 F2400                       ; retract de=-5.0000@-40.0 r=1.00
;00:00:52.742: pe=-5.0000 eb=0.0244 ve=-40.0000 vn=0.0000 vl=0.000 db=0.50
G1 Z0.500 F420                          ; hopup dz=0.20@7 h=0.5 r=0.77
;00:00:52.771: pe=-5.0000 eb=0.0244 ve=0.0000 vn=0.0000 vl=0.000 db=0.39
G1 X52.34 Y-33.24 F6000                 ; move dl=2.3@100(0<24>0) de=0.000@0.0(0.0<0.0>0.0) l=0.50x0.50x0.00 r=0.00
;00:00:52.916: pe=-5.0000 eb=0.0000 ve=0.0000 vn=0.0000 vl=0.000 db=0.00
G1 Z0.300 F420                          ; hopdn dz=-0.20@7 h=0.3 r=0.00
;00:00:52.944: pe=-5.0000 eb=0.0000 ve=0.0000 vn=0.0000 vl=0.000 db=0.00
G1 E31.3700 F1800                       ; restore de=5.0000@30.0 r=0.00
;00:00:53.111: pe=-0.0000 eb=0.0000 ve=30.0000 vn=0.0000 vl=0.000 db=0.00
G1 X53.42 Y-33.24 E31.4374 F600         ; draw dl=1.1@10(0<10>0) de=0.067@0.53(0.0<0.62>0.0) l=0.30x0.50x1.00 r=1.00
;00:00:53.239: pe=0.0000 eb=0.0198 ve=0.0000 vn=0.0000 vl=0.000 db=0.45
G1 E26.4374 F2400                       ; retract de=-5.0000@-40.0 r=0.90
;00:00:53.364: pe=-5.0000 eb=0.0198 ve=-40.0000 vn=0.0000 vl=0.000 db=0.45
G1 Z0.500 F420                          ; hopup dz=0.20@7 h=0.5 r=0.70
;00:00:53.392: pe=-5.0000 eb=0.0198 ve=0.0000 vn=0.0000 vl=0.000 db=0.35
G1 X54.59 Y-33.74 F6000                 ; move dl=1.3@100(0<18>0) de=0.000@0.0(0.0<0.0>0.0) l=0.50x0.50x0.00 r=0.00
;00:00:53.499: pe=-5.0000 eb=0.0000 ve=0.0000 vn=0.0000 vl=0.000 db=0.00
G1 Z0.300 F420                          ; hopdn dz=-0.20@7 h=0.3 r=0.00
;00:00:53.528: pe=-5.0000 eb=0.0000 ve=0.0000 vn=0.0000 vl=0.000 db=0.00
G1 E31.4374 F1800                       ; restore de=5.0000@30.0 r=0.00
;00:00:53.695: pe=-0.0000 eb=0.0000 ve=30.0000 vn=0.0000 vl=0.000 db=0.00
G1 X56.28 Y-33.74 E31.5427 F600         ; draw dl=1.7@10(0<10>0) de=0.105@0.56(0.0<0.62>0.0) l=0.30x0.50x1.00 r=1.00
;00:00:53.884: pe=0.0000 eb=0.0224 ve=0.0000 vn=0.0000 vl=0.000 db=0.48
G1 E26.5428 F2400                       ; retract de=-5.0000@-40.0 r=0.96
;00:00:54.009: pe=-5.0000 eb=0.0224 ve=-40.0000 vn=0.0000 vl=0.000 db=0.48
G1 Z0.500 F420                          ; hopup dz=0.20@7 h=0.5 r=0.74
;00:00:54.037: pe=-5.0000 eb=0.0224 ve=0.0000 vn=0.0000 vl=0.000 db=0.37
G1 X56.28 Y-34.45 F6000                 ; move dl=0.7@100(0<13>0) de=0.000@0.0(0.0<0.0>0.0) l=0.50x0.50x0.00 r=0.00
;00:00:54.117: pe=-5.0000 eb=0.0000 ve=0.0000 vn=0.0000 vl=0.000 db=0.00
G1 Z0.300 F420                          ; hopdn dz=-0.20@7 h=0.3 r=0.00
;00:00:54.146: pe=-5.0000 eb=0.0000 ve=0.0000 vn=0.0000 vl=0.000 db=0.00
G1 E31.5428 F1800                       ; restore de=5.0000@30.0 r=0.00
;00:00:54.312: pe=-0.0000 eb=0.0000 ve=30.0000 vn=0.0000 vl=0.000 db=0.00
G1 X54.59 Y-34.45 E31.6481 F600         ; draw dl=1.7@10(0<10>0) de=0.105@0.56(0.0<0.62>0.0) l=0.30x0.50x1.00 r=1.00
;00:00:54.501: pe=0.0000 eb=0.0224 ve=0.0000 vn=0.0000 vl=0.000 db=0.48
G1 E26.6481 F2400                       ; retract de=-5.0000@-40.0 r=0.96
;00:00:54.626: pe=-5.0000 eb=0.0224 ve=-40.0000 vn=0.0000 vl=0.000 db=0.48
G1 Z0.500 F420                          ; hopup dz=0.20@7 h=0.5 r=0.74
;00:00:54.655: pe=-5.0000 eb=0.0224 ve=0.0000 vn=0.0000 vl=0.000 db=0.37
G1 X57.39 Y-32.87 F6000                 ; move dl=3.2@100(0<28>0) de=0.000@0.0(0.0<0.0>0.0) l=0.50x0.50x0.00 r=0.00
;00:00:54.825: pe=-5.0000 eb=0.0000 ve=0.0000 vn=0.0000 vl=0.000 db=0.00
G1 Z0.300 F420                          ; hopdn dz=-0.20@7 h=0.3 r=0.00
;00:00:54.854: pe=-5.0000 eb=0.0000 ve=0.0000 vn=0.0000 vl=0.000 db=0.00
G1 E31.6481 F1800                       ; restore de=5.0000@30.0 r=0.00
;00:00:55.020: pe=-0.0000 eb=0.0000 ve=30.0000 vn=0.0000 vl=0.000 db=0.00
G1 X57.50 Y-32.53 E31.6704 F600         ; draw dl=0.4@10(0<10>10) de=0.022@0.49(0.0<0.62>0.62) l=0.30x0.50x1.00 r=1.00
;00:00:55.066: pe=0.0000 eb=0.0113 ve=0.6236 vn=0.6236 vl=10.000 db=0.34
G1 X57.71 Y-32.27 E31.6913              ; draw dl=0.3@10(10<10>10) de=0.021@0.62(0.62<0.62>0.62) l=0.30x0.50x1.00 r=1.00
;00:00:55.100: pe=0.0000 eb=0.0164 ve=0.6236 vn=0.6236 vl=10.000 db=0.41
G1 X58.00 Y-32.11 E31.7119              ; draw dl=0.3@10(10<10>10) de=0.021@0.62(0.62<0.62>0.62) l=0.30x0.50x1.00 r=1.00
;00:00:55.133: pe=0.0000 eb=0.0194 ve=0.6236 vn=0.6236 vl=10.000 db=0.44
G1 X58.34 Y-32.06 E31.7334              ; draw dl=0.3@10(10<10>10) de=0.021@0.62(0.62<0.62>0.62) l=0.30x0.50x1.00 r=1.00
;00:00:55.167: pe=0.0000 eb=0.0213 ve=0.6236 vn=0.6236 vl=10.000 db=0.47
G1 X58.73 Y-32.13 E31.7581              ; draw dl=0.4@10(10<10>10) de=0.025@0.62(0.62<0.62>0.62) l=0.30x0.50x1.00 r=1.00
;00:00:55.207: pe=0.0000 eb=0.0226 ve=0.6236 vn=0.6236 vl=10.000 db=0.48
G1 X59.02 Y-32.32 E31.7797              ; draw dl=0.3@10(10<10>10) de=0.022@0.62(0.62<0.62>0.62) l=0.30x0.50x1.00 r=1.00
;00:00:55.241: pe=0.0000 eb=0.0233 ve=0.6236 vn=0.6236 vl=10.000 db=0.49
G1 X59.20 Y-32.59 E31.7999              ; draw dl=0.3@10(10<10>10) de=0.020@0.62(0.62<0.62>0.62) l=0.30x0.50x1.00 r=1.00
;00:00:55.274: pe=0.0000 eb=0.0237 ve=0.6236 vn=0.6236 vl=10.000 db=0.49
G1 X59.27 Y-32.94 E31.8222              ; draw dl=0.4@10(10<10>10) de=0.022@0.62(0.62<0.62>0.62) l=0.30x0.50x1.00 r=1.00
;00:00:55.309: pe=0.0000 eb=0.0240 ve=0.6236 vn=0.6236 vl=10.000 db=0.49
G1 X59.20 Y-33.15 E31.8360              ; draw dl=0.2@10(10<10>10) de=0.014@0.62(0.62<0.62>0.62) l=0.30x0.50x1.00 r=1.00
;00:00:55.332: pe=0.0000 eb=0.0241 ve=0.6236 vn=0.6236 vl=10.000 db=0.50
G1 X59.06 Y-33.32 E31.8497              ; draw dl=0.2@10(10<10>10) de=0.014@0.62(0.62<0.62>0.62) l=0.30x0.50x1.00 r=1.00
;00:00:55.354: pe=0.0000 eb=0.0242 ve=0.6236 vn=0.6236 vl=10.000 db=0.50
G1 X58.69 Y-33.55 E31.8769              ; draw dl=0.4@10(10<10>10) de=0.027@0.62(0.62<0.62>0.62) l=0.30x0.50x1.00 r=1.00
;00:00:55.397: pe=0.0000 eb=0.0243 ve=0.6236 vn=0.6236 vl=10.000 db=0.50
G1 X58.25 Y-33.70 E31.9059              ; draw dl=0.5@10(10<10>5) de=0.029@0.59(0.62<0.62>0.28) l=0.30x0.50x1.00 r=1.00
;00:00:55.447: pe=0.0000 eb=0.0244 ve=0.2839 vn=0.2839 vl=4.552 db=0.50
G1 X58.69 Y-33.82 E31.9343              ; draw dl=0.5@10(5<10>10) de=0.028@0.59(0.28<0.62>0.62) l=0.30x0.50x1.00 r=1.00
;00:00:55.495: pe=-0.0000 eb=0.0244 ve=0.6236 vn=0.0000 vl=10.000 db=0.50
G1 X59.05 Y-33.98 E31.9589              ; draw dl=0.4@10(10<10>10) de=0.025@0.62(0.62<0.62>0.62) l=0.30x0.50x1.00 r=1.00
;00:00:55.535: pe=0.0000 eb=0.0245 ve=0.6236 vn=0.6236 vl=10.000 db=0.50
G1 X59.34 Y-34.26 E31.9840              ; draw dl=0.4@10(10<10>10) de=0.025@0.62(0.62<0.62>0.62) l=0.30x0.50x1.00 r=1.00
;00:00:55.575: pe=-0.0000 eb=0.0245 ve=0.6236 vn=0.0000 vl=10.000 db=0.50
G1 X59.44 Y-34.55 E32.0032              ; draw dl=0.3@10(10<10>10) de=0.019@0.62(0.62<0.62>0.62) l=0.30x0.50x1.00 r=1.00
;00:00:55.606: pe=-0.0000 eb=0.0245 ve=0.6236 vn=0.0000 vl=10.000 db=0.50
G1 X59.37 Y-34.97 E32.0297              ; draw dl=0.4@10(10<10>10) de=0.027@0.62(0.62<0.62>0.62) l=0.30x0.50x1.00 r=1.00
;00:00:55.648: pe=0.0000 eb=0.0245 ve=0.6236 vn=0.6236 vl=10.000 db=0.50
G1 X59.14 Y-35.30 E32.0548              ; draw dl=0.4@10(10<10>10) de=0.025@0.62(0.62<0.62>0.62) l=0.30x0.50x1.00 r=1.00
;00:00:55.688: pe=-0.0000 eb=0.0245 ve=0.6236 vn=0.0000 vl=10.000 db=0.50
G1 X58.80 Y-35.50 E32.0794              ; draw dl=0.4@10(10<10>10) de=0.025@0.62(0.62<0.62>0.62) l=0.30x0.50x1.00 r=1.00
;00:00:55.728: pe=0.0000 eb=0.0245 ve=0.6236 vn=0.6236 vl=10.000 db=0.50
G1 X58.38 Y-35.58 E32.1061              ; draw dl=0.4@10(10<10>10) de=0.027@0.62(0.62<0.62>0.62) l=0.30x0.50x1.00 r=1.00
;00:00:55.771: pe=0.0000 eb=0.0245 ve=0.6236 vn=0.6236 vl=10.000 db=0.50
G1 X57.98 Y-35.52 E32.1313              ; draw dl=0.4@10(10<10>10) de=0.025@0.62(0.62<0.62>0.62) l=0.30x0.50x1.00 r=1.00
;00:00:55.811: pe=0.0000 eb=0.0245 ve=0.6236 vn=0.6236 vl=10.000 db=0.50
G1 X57.66 Y-35.35 E32.1539              ; draw dl=0.4@10(10<10>10) de=0.023@0.62(0.62<0.62>0.62) l=0.30x0.50x1.00 r=1.00
;00:00:55.847: pe=0.0000 eb=0.0245 ve=0.6236 vn=0.6236 vl=10.000 db=0.50
G1 X57.44 Y-35.08 E32.1756              ; draw dl=0.3@10(10<10>10) de=0.022@0.62(0.62<0.62>0.62) l=0.30x0.50x1.00 r=1.00
;00:00:55.882: pe=0.0000 eb=0.0245 ve=0.6236 vn=0.6236 vl=10.000 db=0.50
G1 X57.34 Y-34.72 E32.1989              ; draw dl=0.4@10(10<10>0) de=0.023@0.49(0.62<0.62>0.0) l=0.30x0.50x1.00 r=1.00
;00:00:55.929: pe=0.0000 eb=0.0245 ve=0.0000 vn=0.0000 vl=0.000 db=0.50
G1 E27.1989 F2400                       ; retract de=-5.0000@-40.0 r=1.00
;00:00:56.054: pe=-5.0000 eb=0.0245 ve=-40.0000 vn=0.0000 vl=0.000 db=0.50
G1 Z0.500 F420                          ; hopup dz=0.20@7 h=0.5 r=0.77
;00:00:56.083: pe=-5.0000 eb=0.0245 ve=0.0000 vn=0.0000 vl=0.000 db=0.39
G1 X61.73 Y-32.06 F6000                 ; move dl=5.1@100(0<36>0) de=0.000@0.0(0.0<0.0>0.0) l=0.50x0.50x0.00 r=0.00
;00:00:56.298: pe=-5.0000 eb=0.0000 ve=0.0000 vn=0.0000 vl=0.000 db=0.00
G1 Z0.300 F420                          ; hopdn dz=-0.20@7 h=0.3 r=0.00
;00:00:56.327: pe=-5.0000 eb=0.0000 ve=0.0000 vn=0.0000 vl=0.000 db=0.00
G1 E32.1989 F1800                       ; restore de=5.0000@30.0 r=0.00
;00:00:56.493: pe=-0.0000 eb=0.0000 ve=30.0000 vn=0.0000 vl=0.000 db=0.00
G1 X62.24 Y-32.20 E32.2319 F600         ; draw dl=0.5@10(0<10>10) de=0.033@0.52(0.0<0.62>0.62) l=0.30x0.50x1.00 r=1.00
;00:00:56.556: pe=0.0000 eb=0.0143 ve=0.6236 vn=0.6236 vl=10.000 db=0.38
G1 X62.63 Y-32.58 E32.2658              ; draw dl=0.5@10(10<10>10) de=0.034@0.62(0.62<0.62>0.62) l=0.30x0.50x1.00 r=1.00
;00:00:56.611: pe=0.0000 eb=0.0197 ve=0.6236 vn=0.6236 vl=10.000 db=0.45
G1 X62.87 Y-33.14 E32.3038              ; draw dl=0.6@10(10<10>10) de=0.038@0.62(0.62<0.62>0.62) l=0.30x0.50x1.00 r=1.00
;00:00:56.671: pe=0.0000 eb=0.0224 ve=0.6236 vn=0.6236 vl=10.000 db=0.48
G1 X62.95 Y-33.82 E32.3465              ; draw dl=0.7@10(10<10>10) de=0.043@0.62(0.62<0.62>0.62) l=0.30x0.50x1.00 r=1.00
;00:00:56.740: pe=0.0000 eb=0.0236 ve=0.6236 vn=0.6236 vl=10.000 db=0.49
G1 X62.87 Y-34.49 E32.3886              ; draw dl=0.7@10(10<10>10) de=0.042@0.62(0.62<0.62>0.62) l=0.30x0.50x1.00 r=1.00
;00:00:56.807: pe=0.0000 eb=0.0241 ve=0.6236 vn=0.6236 vl=10.000 db=0.50
G1 X62.63 Y-35.05 E32.4266              ; draw dl=0.6@10(10<10>10) de=0.038@0.62(0.62<0.62>0.62) l=0.30x0.50x1.00 r=1.00
;00:00:56.868: pe=0.0000 eb=0.0243 ve=0.6236 vn=0.6236 vl=10.000 db=0.50
G1 X62.24 Y-35.44 E32.4610              ; draw dl=0.6@10(10<10>10) de=0.034@0.62(0.62<0.62>0.62) l=0.30x0.50x1.00 r=1.00
;00:00:56.923: pe=0.0000 eb=0.0244 ve=0.6236 vn=0.6236 vl=10.000 db=0.50
G1 X61.73 Y-35.58 E32.4940              ; draw dl=0.5@10(10<10>10) de=0.033@0.62(0.62<0.62>0.62) l=0.30x0.50x1.00 r=1.00
;00:00:56.976: pe=-0.0000 eb=0.0244 ve=0.6236 vn=0.0000 vl=10.000 db=0.50
G1 X61.21 Y-35.44 E32.5275              ; draw dl=0.5@10(10<10>10) de=0.034@0.62(0.62<0.62>0.62) l=0.30x0.50x1.00 r=1.00
;00:00:57.030: pe=0.0000 eb=0.0245 ve=0.6236 vn=0.6236 vl=10.000 db=0.50
G1 X60.83 Y-35.05 E32.5615              ; draw dl=0.5@10(10<10>10) de=0.034@0.62(0.62<0.62>0.62) l=0.30x0.50x1.00 r=1.00
;00:00:57.085: pe=0.0000 eb=0.0245 ve=0.6236 vn=0.6236 vl=10.000 db=0.50
G1 X60.59 Y-34.49 E32.5995              ; draw dl=0.6@10(10<10>10) de=0.038@0.62(0.62<0.62>0.62) l=0.30x0.50x1.00 r=1.00
;00:00:57.146: pe=0.0000 eb=0.0245 ve=0.6236 vn=0.6236 vl=10.000 db=0.50
G1 X60.51 Y-33.82 E32.6416              ; draw dl=0.7@10(10<10>10) de=0.042@0.62(0.62<0.62>0.62) l=0.30x0.50x1.00 r=1.00
;00:00:57.213: pe=0.0000 eb=0.0245 ve=0.6236 vn=0.6236 vl=10.000 db=0.50
G1 X60.59 Y-33.15 E32.6836              ; draw dl=0.7@10(10<10>10) de=0.042@0.62(0.62<0.62>0.62) l=0.30x0.50x1.00 r=1.00
;00:00:57.281: pe=0.0000 eb=0.0245 ve=0.6236 vn=0.6236 vl=10.000 db=0.50
G1 X60.83 Y-32.58 E32.7222              ; draw dl=0.6@10(10<10>10) de=0.039@0.62(0.62<0.62>0.62) l=0.30x0.50x1.00 r=1.00
;00:00:57.342: pe=0.0000 eb=0.0245 ve=0.6236 vn=0.6236 vl=10.000 db=0.50
G1 X61.21 Y-32.20 E32.7557              ; draw dl=0.5@10(10<10>10) de=0.034@0.62(0.62<0.62>0.62) l=0.30x0.50x1.00 r=1.00
;00:00:57.396: pe=-0.0000 eb=0.0245 ve=0.6236 vn=0.0000 vl=10.000 db=0.50
G1 X61.73 Y-32.06 E32.7893              ; draw dl=0.5@10(10<10>0) de=0.034@0.53(0.62<0.62>0.0) l=0.30x0.50x1.00 r=1.00
;00:00:57.460: pe=0.0000 eb=0.0245 ve=0.0000 vn=0.0000 vl=0.000 db=0.50
G1 E27.7893 F2400                       ; retract de=-5.0000@-40.0 r=1.00
;00:00:57.585: pe=-5.0000 eb=0.0245 ve=-40.0000 vn=0.0000 vl=0.000 db=0.50
G1 Z0.500 F420                          ; hopup dz=0.20@7 h=0.5 r=0.77
;00:00:57.614: pe=-5.0000 eb=0.0245 ve=0.0000 vn=0.0000 vl=0.000 db=0.39
G1 X65.23 Y-32.06 F6000                 ; move dl=3.5@100(0<30>0) de=0.000@0.0(0.0<0.0>0.0) l=0.50x0.50x0.00 r=0.00
;00:00:57.791: pe=-5.0000 eb=0.0000 ve=0.0000 vn=0.0000 vl=0.000 db=0.00
G1 Z0.300 F420                          ; hopdn dz=-0.20@7 h=0.3 r=0.00
;00:00:57.820: pe=-5.0000 eb=0.0000 ve=0.0000 vn=0.0000 vl=0.000 db=0.00
G1 E32.7893 F1800                       ; restore de=5.0000@30.0 r=0.00
;00:00:57.986: pe=-0.0000 eb=0.0000 ve=30.0000 vn=0.0000 vl=0.000 db=0.00
G1 X65.74 Y-32.20 E32.8223 F600         ; draw dl=0.5@10(0<10>10) de=0.033@0.52(0.0<0.62>0.62) l=0.30x0.50x1.00 r=1.00
;00:00:58.049: pe=0.0000 eb=0.0143 ve=0.6236 vn=0.6236 vl=10.000 db=0.38
G1 X66.13 Y-32.58 E32.8562              ; draw dl=0.5@10(10<10>10) de=0.034@0.62(0.62<0.62>0.62) l=0.30x0.50x1.00 r=1.00
;00:00:58.104: pe=0.0000 eb=0.0197 ve=0.6236 vn=0.6236 vl=10.000 db=0.45
G1 X66.37 Y-33.14 E32.8942              ; draw dl=0.6@10(10<10>10) de=0.038@0.62(0.62<0.62>0.62) l=0.30x0.50x1.00 r=1.00
;00:00:58.165: pe=0.0000 eb=0.0224 ve=0.6236 vn=0.6236 vl=10.000 db=0.48
G1 X66.45 Y-33.82 E32.9369              ; draw dl=0.7@10(10<10>10) de=0.043@0.62(0.62<0.62>0.62) l=0.30x0.50x1.00 r=1.00
;00:00:58.233: pe=0.0000 eb=0.0236 ve=0.6236 vn=0.6236 vl=10.000 db=0.49
G1 X66.37 Y-34.49 E32.9790              ; draw dl=0.7@10(10<10>10) de=0.042@0.62(0.62<0.62>0.62) l=0.30x0.50x1.00 r=1.00
;00:00:58.300: pe=0.0000 eb=0.0241 ve=0.6236 vn=0.6236 vl=10.000 db=0.50
G1 X66.13 Y-35.05 E33.0170              ; draw dl=0.6@10(10<10>10) de=0.038@0.62(0.62<0.62>0.62) l=0.30x0.50x1.00 r=1.00
;00:00:58.361: pe=0.0000 eb=0.0243 ve=0.6236 vn=0.6236 vl=10.000 db=0.50
G1 X65.74 Y-35.44 E33.0514              ; draw dl=0.6@10(10<10>10) de=0.034@0.62(0.62<0.62>0.62) l=0.30x0.50x1.00 r=1.00
;00:00:58.417: pe=0.0000 eb=0.0244 ve=0.6236 vn=0.6236 vl=10.000 db=0.50
G1 X65.23 Y-35.58 E33.0844              ; draw dl=0.5@10(10<10>10) de=0.033@0.62(0.62<0.62>0.62) l=0.30x0.50x1.00 r=1.00
;00:00:58.469: pe=0.0000 eb=0.0244 ve=0.6236 vn=0.6236 vl=10.000 db=0.50
G1 X64.71 Y-35.44 E33.1180              ; draw dl=0.5@10(10<10>10) de=0.034@0.62(0.62<0.62>0.62) l=0.30x0.50x1.00 r=1.00
;00:00:58.523: pe=0.0000 eb=0.0245 ve=0.6236 vn=0.6236 vl=10.000 db=0.50
G1 X64.33 Y-35.05 E33.1519              ; draw dl=0.5@10(10<10>10) de=0.034@0.62(0.62<0.62>0.62) l=0.30x0.50x1.00 r=1.00
;00:00:58.578: pe=0.0000 eb=0.0245 ve=0.6236 vn=0.6236 vl=10.000 db=0.50
G1 X64.09 Y-34.49 E33.1899              ; draw dl=0.6@10(10<10>10) de=0.038@0.62(0.62<0.62>0.62) l=0.30x0.50x1.00 r=1.00
;00:00:58.639: pe=0.0000 eb=0.0245 ve=0.6236 vn=0.6236 vl=10.000 db=0.50
G1 X64.01 Y-33.82 E33.2320              ; draw dl=0.7@10(10<10>10) de=0.042@0.62(0.62<0.62>0.62) l=0.30x0.50x1.00 r=1.00
;00:00:58.706: pe=0.0000 eb=0.0245 ve=0.6236 vn=0.6236 vl=10.000 db=0.50
G1 X64.09 Y-33.15 E33.2741              ; draw dl=0.7@10(10<10>10) de=0.042@0.62(0.62<0.62>0.62) l=0.30x0.50x1.00 r=1.00
;00:00:58.774: pe=0.0000 eb=0.0245 ve=0.6236 vn=0.6236 vl=10.000 db=0.50
G1 X64.33 Y-32.58 E33.3126              ; draw dl=0.6@10(10<10>10) de=0.039@0.62(0.62<0.62>0.62) l=0.30x0.50x1.00 r=1.00
;00:00:58.835: pe=0.0000 eb=0.0245 ve=0.6236 vn=0.6236 vl=10.000 db=0.50
G1 X64.71 Y-32.20 E33.3462              ; draw dl=0.5@10(10<10>10) de=0.034@0.62(0.62<0.62>0.62) l=0.30x0.50x1.00 r=1.00
;00:00:58.889: pe=0.0000 eb=0.0245 ve=0.6236 vn=0.6236 vl=10.000 db=0.50
G1 X65.23 Y-32.06 E33.3797              ; draw dl=0.5@10(10<10>0) de=0.034@0.53(0.62<0.62>0.0) l=0.30x0.50x1.00 r=1.00
;00:00:58.953: pe=0.0000 eb=0.0245 ve=0.0000 vn=0.0000 vl=0.000 db=0.50
G1 E28.3797 F2400                       ; retract de=-5.0000@-40.0 r=1.00
;00:00:59.078: pe=-5.0000 eb=0.0245 ve=-40.0000 vn=0.0000 vl=0.000 db=0.50
G1 Z0.500 F420                          ; hopup dz=0.20@7 h=0.5 r=0.77
;00:00:59.107: pe=-5.0000 eb=0.0245 ve=0.0000 vn=0.0000 vl=0.000 db=0.39
G1 X46.50 Y-38.11 F6000                 ; move dl=19.7@100(0<70>0) de=0.000@0.0(0.0<0.0>0.0) l=0.50x0.50x0.00 r=0.00
;00:00:59.528: pe=-5.0000 eb=0.0000 ve=0.0000 vn=0.0000 vl=0.000 db=0.00
G1 Z0.300 F420                          ; hopdn dz=-0.20@7 h=0.3 r=0.00
;00:00:59.556: pe=-5.0000 eb=0.0000 ve=0.0000 vn=0.0000 vl=0.000 db=0.00
G1 E33.3797 F1800                       ; restore de=5.0000@30.0 r=0.00
;00:00:59.723: pe=-0.0000 eb=0.0000 ve=30.0000 vn=0.0000 vl=0.000 db=0.00
G1 X47.52 Y-40.52 E33.5429 F600         ; draw dl=2.6@10(0<10>6) de=0.163@0.6(0.0<0.62>0.35) l=0.30x0.50x1.00 r=1.00
;00:00:59.996: pe=0.0000 eb=0.0239 ve=0.3524 vn=0.3524 vl=5.651 db=0.49
G1 X48.54 Y-38.11 E33.7062              ; draw dl=2.6@10(6<10>0) de=0.163@0.6(0.35<0.62>0.0) l=0.30x0.50x1.00 r=1.00
;00:01:00.270: pe=0.0000 eb=0.0245 ve=0.0000 vn=0.0000 vl=0.000 db=0.50
G1 E28.7062 F2400                       ; retract de=-5.0000@-40.0 r=1.00
;00:01:00.395: pe=-5.0000 eb=0.0245 ve=-40.0000 vn=0.0000 vl=0.000 db=0.50
G1 Z0.500 F420                          ; hopup dz=0.20@7 h=0.5 r=0.77
;00:01:00.424: pe=-5.0000 eb=0.0245 ve=0.0000 vn=0.0000 vl=0.000 db=0.39
G1 X49.60 Y-38.11 F6000                 ; move dl=1.1@100(0<16>0) de=0.000@0.0(0.0<0.0>0.0) l=0.50x0.50x0.00 r=0.00
;00:01:00.521: pe=-5.0000 eb=0.0000 ve=0.0000 vn=0.0000 vl=0.000 db=0.00
G1 Z0.300 F420                          ; hopdn dz=-0.20@7 h=0.3 r=0.00
;00:01:00.550: pe=-5.0000 eb=0.0000 ve=0.0000 vn=0.0000 vl=0.000 db=0.00
G1 E33.7062 F1800                       ; restore de=5.0000@30.0 r=0.00
;00:01:00.716: pe=-0.0000 eb=0.0000 ve=30.0000 vn=0.0000 vl=0.000 db=0.00
G1 X51.60 Y-40.52 E33.9015 F600         ; draw dl=3.1@10(0<10>0) de=0.195@0.59(0.0<0.62>0.0) l=0.30x0.50x1.00 r=1.00
;00:01:01.050: pe=0.0000 eb=0.0242 ve=0.0000 vn=0.0000 vl=0.000 db=0.50
G1 E28.9015 F2400                       ; retract de=-5.0000@-40.0 r=0.99
;00:01:01.175: pe=-5.0000 eb=0.0242 ve=-40.0000 vn=0.0000 vl=0.000 db=0.50
G1 Z0.500 F420                          ; hopup dz=0.20@7 h=0.5 r=0.77
;00:01:01.203: pe=-5.0000 eb=0.0242 ve=0.0000 vn=0.0000 vl=0.000 db=0.38
G1 X49.60 Y-40.52 F6000                 ; move dl=2.0@100(0<22>0) de=0.000@0.0(0.0<0.0>0.0) l=0.50x0.50x0.00 r=0.00
;00:01:01.337: pe=-5.0000 eb=0.0000 ve=0.0000 vn=0.0000 vl=0.000 db=0.00
G1 Z0.300 F420                          ; hopdn dz=-0.20@7 h=0.3 r=0.00
;00:01:01.366: pe=-5.0000 eb=0.0000 ve=0.0000 vn=0.0000 vl=0.000 db=0.00
G1 E33.9015 F1800                       ; restore de=5.0000@30.0 r=0.00
;00:01:01.533: pe=-0.0000 eb=0.0000 ve=30.0000 vn=0.0000 vl=0.000 db=0.00
G1 X51.60 Y-38.11 E34.0968 F600         ; draw dl=3.1@10(0<10>0) de=0.195@0.59(0.0<0.62>0.0) l=0.30x0.50x1.00 r=1.00
;00:01:01.866: pe=0.0000 eb=0.0242 ve=0.0000 vn=0.0000 vl=0.000 db=0.50
G1 E29.0968 F2400                       ; retract de=-5.0000@-40.0 r=0.99
;00:01:01.991: pe=-5.0000 eb=0.0242 ve=-40.0000 vn=0.0000 vl=0.000 db=0.50
G1 Z0.500 F420                          ; hopup dz=0.20@7 h=0.5 r=0.77
;00:01:02.019: pe=-5.0000 eb=0.0242 ve=0.0000 vn=0.0000 vl=0.000 db=0.38
G1 X53.88 Y-37.06 F6000                 ; move dl=2.5@100(0<25>0) de=0.000@0.0(0.0<0.0>0.0) l=0.50x0.50x0.00 r=0.00
;00:01:02.170: pe=-5.0000 eb=0.0000 ve=0.0000 vn=0.0000 vl=0.000 db=0.00
G1 Z0.300 F420                          ; hopdn dz=-0.20@7 h=0.3 r=0.00
;00:01:02.198: pe=-5.0000 eb=0.0000 ve=0.0000 vn=0.0000 vl=0.000 db=0.00
G1 E34.0968 F1800                       ; restore de=5.0000@30.0 r=0.00
;00:01:02.365: pe=-0.0000 eb=0.0000 ve=30.0000 vn=0.0000 vl=0.000 db=0.00
G1 X54.39 Y-37.20 E34.1298 F600         ; draw dl=0.5@10(0<10>10) de=0.033@0.52(0.0<0.62>0.62) l=0.30x0.50x1.00 r=1.00
;00:01:02.428: pe=-0.0000 eb=0.0143 ve=0.6236 vn=0.0000 vl=10.000 db=0.38
G1 X54.78 Y-37.58 E34.1637              ; draw dl=0.5@10(10<10>10) de=0.034@0.62(0.62<0.62>0.62) l=0.30x0.50x1.00 r=1.00
;00:01:02.482: pe=-0.0000 eb=0.0197 ve=0.6236 vn=0.0000 vl=10.000 db=0.45
G1 X55.02 Y-38.14 E34.2017              ; draw dl=0.6@10(10<10>10) de=0.038@0.62(0.62<0.62>0.62) l=0.30x0.50x1.00 r=1.00
;00:01:02.543: pe=0.0000 eb=0.0224 ve=0.6236 vn=0.6236 vl=10.000 db=0.48
G1 X55.10 Y-38.82 E34.2444              ; draw dl=0.7@10(10<10>10) de=0.043@0.62(0.62<0.62>0.62) l=0.30x0.50x1.00 r=1.00
;00:01:02.612: pe=0.0000 eb=0.0236 ve=0.6236 vn=0.6236 vl=10.000 db=0.49
G1 X55.02 Y-39.49 E34.2865              ; draw dl=0.7@10(10<10>10) de=0.042@0.62(0.62<0.62>0.62) l=0.30x0.50x1.00 r=1.00
;00:01:02.679: pe=0.0000 eb=0.0241 ve=0.6236 vn=0.6236 vl=10.000 db=0.50
G1 X54.78 Y-40.05 E34.3245              ; draw dl=0.6@10(10<10>10) de=0.038@0.62(0.62<0.62>0.62) l=0.30x0.50x1.00 r=1.00
;00:01:02.740: pe=0.0000 eb=0.0243 ve=0.6236 vn=0.6236 vl=10.000 db=0.50
G1 X54.39 Y-40.44 E34.3589              ; draw dl=0.6@10(10<10>10) de=0.034@0.62(0.62<0.62>0.62) l=0.30x0.50x1.00 r=1.00
;00:01:02.795: pe=0.0000 eb=0.0244 ve=0.6236 vn=0.6236 vl=10.000 db=0.50
G1 X53.88 Y-40.58 E34.3919              ; draw dl=0.5@10(10<10>10) de=0.033@0.62(0.62<0.62>0.62) l=0.30x0.50x1.00 r=1.00
;00:01:02.848: pe=0.0000 eb=0.0244 ve=0.6236 vn=0.6236 vl=10.000 db=0.50
G1 X53.36 Y-40.44 E34.4254              ; draw dl=0.5@10(10<10>10) de=0.034@0.62(0.62<0.62>0.62) l=0.30x0.50x1.00 r=1.00
;00:01:02.902: pe=0.0000 eb=0.0245 ve=0.6236 vn=0.6236 vl=10.000 db=0.50
G1 X52.98 Y-40.05 E34.4594              ; draw dl=0.5@10(10<10>10) de=0.034@0.62(0.62<0.62>0.62) l=0.30x0.50x1.00 r=1.00
;00:01:02.956: pe=-0.0000 eb=0.0245 ve=0.6236 vn=0.0000 vl=10.000 db=0.50
G1 X52.74 Y-39.49 E34.4974              ; draw dl=0.6@10(10<10>10) de=0.038@0.62(0.62<0.62>0.62) l=0.30x0.50x1.00 r=1.00
;00:01:03.017: pe=0.0000 eb=0.0245 ve=0.6236 vn=0.6236 vl=10.000 db=0.50
G1 X52.66 Y-38.82 E34.5395              ; draw dl=0.7@10(10<10>10) de=0.042@0.62(0.62<0.62>0.62) l=0.30x0.50x1.00 r=1.00
;00:01:03.085: pe=0.0000 eb=0.0245 ve=0.6236 vn=0.6236 vl=10.000 db=0.50
G1 X52.74 Y-38.15 E34.5816              ; draw dl=0.7@10(10<10>10) de=0.042@0.62(0.62<0.62>0.62) l=0.30x0.50x1.00 r=1.00
;00:01:03.152: pe=0.0000 eb=0.0245 ve=0.6236 vn=0.6236 vl=10.000 db=0.50
G1 X52.98 Y-37.58 E34.6201              ; draw dl=0.6@10(10<10>10) de=0.039@0.62(0.62<0.62>0.62) l=0.30x0.50x1.00 r=1.00
;00:01:03.214: pe=0.0000 eb=0.0245 ve=0.6236 vn=0.6236 vl=10.000 db=0.50
G1 X53.36 Y-37.20 E34.6536              ; draw dl=0.5@10(10<10>10) de=0.034@0.62(0.62<0.62>0.62) l=0.30x0.50x1.00 r=1.00
;00:01:03.268: pe=0.0000 eb=0.0245 ve=0.6236 vn=0.6236 vl=10.000 db=0.50
G1 X53.88 Y-37.06 E34.6872              ; draw dl=0.5@10(10<10>0) de=0.034@0.53(0.62<0.62>0.0) l=0.30x0.50x1.00 r=1.00
;00:01:03.332: pe=0.0000 eb=0.0245 ve=0.0000 vn=0.0000 vl=0.000 db=0.50
G1 E29.6872 F2400                       ; retract de=-5.0000@-40.0 r=1.00
;00:01:03.457: pe=-5.0000 eb=0.0245 ve=-40.0000 vn=0.0000 vl=0.000 db=0.50
G1 Z0.500 F420                          ; hopup dz=0.20@7 h=0.5 r=0.77
;00:01:03.485: pe=-5.0000 eb=0.0245 ve=0.0000 vn=0.0000 vl=0.000 db=0.39
G1 X56.17 Y-38.74 F6000                 ; move dl=2.8@100(0<27>0) de=0.000@0.0(0.0<0.0>0.0) l=0.50x0.50x0.00 r=0.00
;00:01:03.645: pe=-5.0000 eb=0.0000 ve=0.0000 vn=0.0000 vl=0.000 db=0.00
G1 Z0.300 F420                          ; hopdn dz=-0.20@7 h=0.3 r=0.00
;00:01:03.674: pe=-5.0000 eb=0.0000 ve=0.0000 vn=0.0000 vl=0.000 db=0.00
G1 E34.6872 F1800                       ; restore de=5.0000@30.0 r=0.00
;00:01:03.840: pe=-0.0000 eb=0.0000 ve=30.0000 vn=0.0000 vl=0.000 db=0.00
G1 X57.86 Y-38.74 E34.7926 F600         ; draw dl=1.7@10(0<10>0) de=0.105@0.56(0.0<0.62>0.0) l=0.30x0.50x1.00 r=1.00
;00:01:04.029: pe=0.0000 eb=0.0224 ve=0.0000 vn=0.0000 vl=0.000 db=0.48
G1 E29.7926 F2400                       ; retract de=-5.0000@-40.0 r=0.96
;00:01:04.154: pe=-5.0000 eb=0.0224 ve=-40.0000 vn=0.0000 vl=0.000 db=0.48
G1 Z0.500 F420                          ; hopup dz=0.20@7 h=0.5 r=0.74
;00:01:04.183: pe=-5.0000 eb=0.0224 ve=0.0000 vn=0.0000 vl=0.000 db=0.37
G1 X57.86 Y-39.45 F6000                 ; move dl=0.7@100(0<13>0) de=0.000@0.0(0.0<0.0>0.0) l=0.50x0.50x0.00 r=0.00
;00:01:04.263: pe=-5.0000 eb=0.0000 ve=0.0000 vn=0.0000 vl=0.000 db=0.00
G1 Z0.300 F420                          ; hopdn dz=-0.20@7 h=0.3 r=0.00
;00:01:04.291: pe=-5.0000 eb=0.0000 ve=0.0000 vn=0.0000 vl=0.000 db=0.00
G1 E34.7926 F1800                       ; restore de=5.0000@30.0 r=0.00
;00:01:04.458: pe=-0.0000 eb=0.0000 ve=30.0000 vn=0.0000 vl=0.000 db=0.00
G1 X56.17 Y-39.45 E34.8980 F600         ; draw dl=1.7@10(0<10>0) de=0.105@0.56(0.0<0.62>0.0) l=0.30x0.50x1.00 r=1.00
;00:01:04.647: pe=0.0000 eb=0.0224 ve=0.0000 vn=0.0000 vl=0.000 db=0.48
G1 E29.8980 F2400                       ; retract de=-5.0000@-40.0 r=0.96
;00:01:04.772: pe=-5.0000 eb=0.0224 ve=-40.0000 vn=0.0000 vl=0.000 db=0.48
G1 Z0.500 F420                          ; hopup dz=0.20@7 h=0.5 r=0.74
;00:01:04.801: pe=-5.0000 eb=0.0224 ve=0.0000 vn=0.0000 vl=0.000 db=0.37
G1 X58.92 Y-38.00 F6000                 ; move dl=3.1@100(0<28>0) de=0.000@0.0(0.0<0.0>0.0) l=0.50x0.50x0.00 r=0.00
;00:01:04.968: pe=-5.0000 eb=0.0000 ve=0.0000 vn=0.0000 vl=0.000 db=0.00
G1 Z0.300 F420                          ; hopdn dz=-0.20@7 h=0.3 r=0.00
;00:01:04.997: pe=-5.0000 eb=0.0000 ve=0.0000 vn=0.0000 vl=0.000 db=0.00
G1 E34.8980 F1800                       ; restore de=5.0000@30.0 r=0.00
;00:01:05.163: pe=-0.0000 eb=0.0000 ve=30.0000 vn=0.0000 vl=0.000 db=0.00
G1 X59.39 Y-37.76 E34.9309 F600         ; draw dl=0.5@10(0<10>10) de=0.033@0.52(0.0<0.62>0.62) l=0.30x0.50x1.00 r=1.00
;00:01:05.226: pe=0.0000 eb=0.0143 ve=0.6236 vn=0.6236 vl=10.000 db=0.38
G1 X59.76 Y-37.45 E34.9610              ; draw dl=0.5@10(10<10>10) de=0.030@0.62(0.62<0.62>0.62) l=0.30x0.50x1.00 r=1.00
;00:01:05.274: pe=0.0000 eb=0.0193 ve=0.6236 vn=0.6236 vl=10.000 db=0.44
G1 X60.01 Y-37.12 E34.9869              ; draw dl=0.4@10(10<10>5) de=0.026@0.59(0.62<0.62>0.3) l=0.30x0.50x1.00 r=1.00
;00:01:05.318: pe=0.0000 eb=0.0215 ve=0.3015 vn=0.3015 vl=4.834 db=0.47
G1 X60.01 Y-40.52 E35.1989              ; draw dl=3.4@10(5<10>0) de=0.212@0.6(0.3<0.62>0.0) l=0.30x0.50x1.00 r=1.00
;00:01:05.671: pe=0.0000 eb=0.0245 ve=0.0000 vn=0.0000 vl=0.000 db=0.50
G1 E30.1989 F2400                       ; retract de=-5.0000@-40.0 r=1.00
;00:01:05.796: pe=-5.0000 eb=0.0245 ve=-40.0000 vn=0.0000 vl=0.000 db=0.50
G1 Z0.500 F420                          ; hopup dz=0.20@7 h=0.5 r=0.77
;00:01:05.825: pe=-5.0000 eb=0.0245 ve=0.0000 vn=0.0000 vl=0.000 db=0.39
G1 X62.29 Y-37.06 F6000                 ; move dl=4.1@100(0<32>0) de=0.000@0.0(0.0<0.0>0.0) l=0.50x0.50x0.00 r=0.00
;00:01:06.018: pe=-5.0000 eb=0.0000 ve=0.0000 vn=0.0000 vl=0.000 db=0.00
G1 Z0.300 F420                          ; hopdn dz=-0.20@7 h=0.3 r=0.00
;00:01:06.046: pe=-5.0000 eb=0.0000 ve=0.0000 vn=0.0000 vl=0.000 db=0.00
G1 E35.1989 F1800                       ; restore de=5.0000@30.0 r=0.00
;00:01:06.213: pe=-0.0000 eb=0.0000 ve=30.0000 vn=0.0000 vl=0.000 db=0.00
G1 X62.80 Y-37.20 E35.2319 F600         ; draw dl=0.5@10(0<10>10) de=0.033@0.52(0.0<0.62>0.62) l=0.30x0.50x1.00 r=1.00
;00:01:06.276: pe=-0.0000 eb=0.0143 ve=0.6236 vn=0.0000 vl=10.000 db=0.38
G1 X63.19 Y-37.58 E35.2658              ; draw dl=0.5@10(10<10>10) de=0.034@0.62(0.62<0.62>0.62) l=0.30x0.50x1.00 r=1.00
;00:01:06.330: pe=-0.0000 eb=0.0197 ve=0.6236 vn=0.0000 vl=10.000 db=0.45
G1 X63.43 Y-38.14 E35.3038              ; draw dl=0.6@10(10<10>10) de=0.038@0.62(0.62<0.62>0.62) l=0.30x0.50x1.00 r=1.00
;00:01:06.391: pe=0.0000 eb=0.0224 ve=0.6236 vn=0.6236 vl=10.000 db=0.48
G1 X63.51 Y-38.82 E35.3465              ; draw dl=0.7@10(10<10>10) de=0.043@0.62(0.62<0.62>0.62) l=0.30x0.50x1.00 r=1.00
;00:01:06.460: pe=0.0000 eb=0.0236 ve=0.6236 vn=0.6236 vl=10.000 db=0.49
G1 X63.43 Y-39.49 E35.3886              ; draw dl=0.7@10(10<10>10) de=0.042@0.62(0.62<0.62>0.62) l=0.30x0.50x1.00 r=1.00
;00:01:06.527: pe=0.0000 eb=0.0241 ve=0.6236 vn=0.6236 vl=10.000 db=0.50
G1 X63.19 Y-40.05 E35.4266              ; draw dl=0.6@10(10<10>10) de=0.038@0.62(0.62<0.62>0.62) l=0.30x0.50x1.00 r=1.00
;00:01:06.588: pe=0.0000 eb=0.0243 ve=0.6236 vn=0.6236 vl=10.000 db=0.50
G1 X62.80 Y-40.44 E35.4610              ; draw dl=0.6@10(10<10>10) de=0.034@0.62(0.62<0.62>0.62) l=0.30x0.50x1.00 r=1.00
;00:01:06.643: pe=0.0000 eb=0.0244 ve=0.6236 vn=0.6236 vl=10.000 db=0.50
G1 X62.29 Y-40.58 E35.4940              ; draw dl=0.5@10(10<10>10) de=0.033@0.62(0.62<0.62>0.62) l=0.30x0.50x1.00 r=1.00
;00:01:06.696: pe=0.0000 eb=0.0244 ve=0.6236 vn=0.6236 vl=10.000 db=0.50
G1 X61.77 Y-40.44 E35.5276              ; draw dl=0.5@10(10<10>10) de=0.034@0.62(0.62<0.62>0.62) l=0.30x0.50x1.00 r=1.00
;00:01:06.750: pe=0.0000 eb=0.0245 ve=0.6236 vn=0.6236 vl=10.000 db=0.50
G1 X61.39 Y-40.05 E35.5615              ; draw dl=0.5@10(10<10>10) de=0.034@0.62(0.62<0.62>0.62) l=0.30x0.50x1.00 r=1.00
;00:01:06.804: pe=-0.0000 eb=0.0245 ve=0.6236 vn=0.0000 vl=10.000 db=0.50
G1 X61.15 Y-39.49 E35.5995              ; draw dl=0.6@10(10<10>10) de=0.038@0.62(0.62<0.62>0.62) l=0.30x0.50x1.00 r=1.00
;00:01:06.865: pe=0.0000 eb=0.0245 ve=0.6236 vn=0.6236 vl=10.000 db=0.50
G1 X61.07 Y-38.82 E35.6416              ; draw dl=0.7@10(10<10>10) de=0.042@0.62(0.62<0.62>0.62) l=0.30x0.50x1.00 r=1.00
;00:01:06.933: pe=0.0000 eb=0.0245 ve=0.6236 vn=0.6236 vl=10.000 db=0.50
G1 X61.15 Y-38.15 E35.6837              ; draw dl=0.7@10(10<10>10) de=0.042@0.62(0.62<0.62>0.62) l=0.30x0.50x1.00 r=1.00
;00:01:07.000: pe=0.0000 eb=0.0245 ve=0.6236 vn=0.6236 vl=10.000 db=0.50
G1 X61.39 Y-37.58 E35.7223              ; draw dl=0.6@10(10<10>10) de=0.039@0.62(0.62<0.62>0.62) l=0.30x0.50x1.00 r=1.00
;00:01:07.062: pe=0.0000 eb=0.0245 ve=0.6236 vn=0.6236 vl=10.000 db=0.50
G1 X61.77 Y-37.20 E35.7558              ; draw dl=0.5@10(10<10>10) de=0.034@0.62(0.62<0.62>0.62) l=0.30x0.50x1.00 r=1.00
;00:01:07.116: pe=0.0000 eb=0.0245 ve=0.6236 vn=0.6236 vl=10.000 db=0.50
G1 X62.29 Y-37.06 E35.7893              ; draw dl=0.5@10(10<10>0) de=0.034@0.53(0.62<0.62>0.0) l=0.30x0.50x1.00 r=1.00
;00:01:07.180: pe=0.0000 eb=0.0245 ve=0.0000 vn=0.0000 vl=0.000 db=0.50
G1 E30.7893 F2400                       ; retract de=-5.0000@-40.0 r=1.00
;00:01:07.305: pe=-5.0000 eb=0.0245 ve=-40.0000 vn=0.0000 vl=0.000 db=0.50
G1 Z0.500 F420                          ; hopup dz=0.20@7 h=0.5 r=0.77
;00:01:07.333: pe=-5.0000 eb=0.0245 ve=0.0000 vn=0.0000 vl=0.000 db=0.39
G1 X64.57 Y-39.10 F6000                 ; move dl=3.1@100(0<28>0) de=0.000@0.0(0.0<0.0>0.0) l=0.50x0.50x0.00 r=0.00
;00:01:07.499: pe=-5.0000 eb=0.0000 ve=0.0000 vn=0.0000 vl=0.000 db=0.00
G1 Z0.300 F420                          ; hopdn dz=-0.20@7 h=0.3 r=0.00
;00:01:07.528: pe=-5.0000 eb=0.0000 ve=0.0000 vn=0.0000 vl=0.000 db=0.00
G1 E35.7893 F1800                       ; restore de=5.0000@30.0 r=0.00
;00:01:07.694: pe=-0.0000 eb=0.0000 ve=30.0000 vn=0.0000 vl=0.000 db=0.00
G1 X66.44 Y-39.10 E35.9060 F600         ; draw dl=1.9@10(0<10>0) de=0.117@0.56(0.0<0.62>0.0) l=0.30x0.50x1.00 r=1.00
;00:01:07.901: pe=0.0000 eb=0.0228 ve=0.0000 vn=0.0000 vl=0.000 db=0.48
G1 E30.9060 F2400                       ; retract de=-5.0000@-40.0 r=0.97
;00:01:08.026: pe=-5.0000 eb=0.0228 ve=-40.0000 vn=0.0000 vl=0.000 db=0.48
G1 Z0.500 F420                          ; hopup dz=0.20@7 h=0.5 r=0.75
;00:01:08.055: pe=-5.0000 eb=0.0228 ve=0.0000 vn=0.0000 vl=0.000 db=0.37
G1 X69.49 Y-37.12 F6000                 ; move dl=3.6@100(0<30>0) de=0.000@0.0(0.0<0.0>0.0) l=0.50x0.50x0.00 r=0.00
;00:01:08.236: pe=-5.0000 eb=0.0000 ve=0.0000 vn=0.0000 vl=0.000 db=0.00
G1 Z0.300 F420                          ; hopdn dz=-0.20@7 h=0.3 r=0.00
;00:01:08.264: pe=-5.0000 eb=0.0000 ve=0.0000 vn=0.0000 vl=0.000 db=0.00
G1 E35.9060 F1800                       ; restore de=5.0000@30.0 r=0.00
;00:01:08.431: pe=-0.0000 eb=0.0000 ve=30.0000 vn=0.0000 vl=0.000 db=0.00
G1 X67.74 Y-37.12 E36.0151 F600         ; draw dl=1.8@10(0<10>10) de=0.109@0.59(0.0<0.62>0.62) l=0.30x0.50x1.00 r=1.00
;00:01:08.616: pe=0.0000 eb=0.0225 ve=0.6236 vn=0.6236 vl=10.000 db=0.48
G1 X67.60 Y-38.86 E36.1240              ; draw dl=1.7@10(10<10>5) de=0.109@0.61(0.62<0.62>0.3) l=0.30x0.50x1.00 r=1.00
;00:01:08.793: pe=0.0000 eb=0.0243 ve=0.3034 vn=0.3034 vl=4.866 db=0.50
G1 X67.88 Y-38.55 E36.1500              ; draw dl=0.4@10(5<10>10) de=0.026@0.59(0.3<0.62>0.62) l=0.30x0.50x1.00 r=1.00
;00:01:08.838: pe=0.0000 eb=0.0244 ve=0.6236 vn=0.6236 vl=10.000 db=0.50
G1 X68.05 Y-38.43 E36.1630              ; draw dl=0.2@10(10<10>10) de=0.013@0.62(0.62<0.62>0.62) l=0.30x0.50x1.00 r=1.00
;00:01:08.859: pe=0.0000 eb=0.0244 ve=0.6236 vn=0.6236 vl=10.000 db=0.50
G1 X68.24 Y-38.36 E36.1756              ; draw dl=0.2@10(10<10>10) de=0.013@0.62(0.62<0.62>0.62) l=0.30x0.50x1.00 r=1.00
;00:01:08.879: pe=0.0000 eb=0.0244 ve=0.6237 vn=0.6237 vl=10.000 db=0.50
G1 X68.43 Y-38.33 E36.1876              ; draw dl=0.2@10(10<10>10) de=0.012@0.62(0.62<0.62>0.62) l=0.30x0.50x1.00 r=1.00
;00:01:08.898: pe=0.0000 eb=0.0244 ve=0.6236 vn=0.6236 vl=10.000 db=0.50
G1 X68.63 Y-38.32 E36.2001              ; draw dl=0.2@10(10<10>10) de=0.012@0.62(0.62<0.62>0.62) l=0.30x0.50x1.00 r=1.00
;00:01:08.918: pe=0.0000 eb=0.0244 ve=0.6236 vn=0.6236 vl=10.000 db=0.50
G1 X69.04 Y-38.41 E36.2263              ; draw dl=0.4@10(10<10>10) de=0.026@0.62(0.62<0.62>0.62) l=0.30x0.50x1.00 r=1.00
;00:01:08.960: pe=0.0000 eb=0.0245 ve=0.6236 vn=0.6236 vl=10.000 db=0.50
G1 X69.36 Y-38.63 E36.2505              ; draw dl=0.4@10(10<10>10) de=0.024@0.62(0.62<0.62>0.62) l=0.30x0.50x1.00 r=1.00
;00:01:08.999: pe=0.0000 eb=0.0245 ve=0.6236 vn=0.6236 vl=10.000 db=0.50
G1 X69.57 Y-38.97 E36.2754              ; draw dl=0.4@10(10<10>10) de=0.025@0.62(0.62<0.62>0.62) l=0.30x0.50x1.00 r=1.00
;00:01:09.039: pe=0.0000 eb=0.0245 ve=0.6236 vn=0.6236 vl=10.000 db=0.50
G1 X69.65 Y-39.39 E36.3021              ; draw dl=0.4@10(10<10>10) de=0.027@0.62(0.62<0.62>0.62) l=0.30x0.50x1.00 r=1.00
;00:01:09.082: pe=0.0000 eb=0.0245 ve=0.6236 vn=0.6236 vl=10.000 db=0.50
G1 X69.58 Y-39.86 E36.3317              ; draw dl=0.5@10(10<10>10) de=0.030@0.62(0.62<0.62>0.62) l=0.30x0.50x1.00 r=1.00
;00:01:09.129: pe=0.0000 eb=0.0245 ve=0.6236 vn=0.6236 vl=10.000 db=0.50
G1 X69.37 Y-40.23 E36.3583              ; draw dl=0.4@10(10<10>10) de=0.027@0.62(0.62<0.62>0.62) l=0.30x0.50x1.00 r=1.00
;00:01:09.172: pe=0.0000 eb=0.0245 ve=0.6236 vn=0.6236 vl=10.000 db=0.50
G1 X69.02 Y-40.49 E36.3854              ; draw dl=0.4@10(10<10>10) de=0.027@0.62(0.62<0.62>0.62) l=0.30x0.50x1.00 r=1.00
;00:01:09.215: pe=0.0000 eb=0.0245 ve=0.6236 vn=0.6236 vl=10.000 db=0.50
G1 X68.52 Y-40.58 E36.4171              ; draw dl=0.5@10(10<10>10) de=0.032@0.62(0.62<0.62>0.62) l=0.30x0.50x1.00 r=1.00
;00:01:09.266: pe=0.0000 eb=0.0245 ve=0.6236 vn=0.6236 vl=10.000 db=0.50
G1 X68.15 Y-40.52 E36.4405              ; draw dl=0.4@10(10<10>10) de=0.023@0.62(0.62<0.62>0.62) l=0.30x0.50x1.00 r=1.00
;00:01:09.304: pe=0.0000 eb=0.0245 ve=0.6236 vn=0.6236 vl=10.000 db=0.50
G1 X67.84 Y-40.36 E36.4623              ; draw dl=0.3@10(10<10>10) de=0.022@0.62(0.62<0.62>0.62) l=0.30x0.50x1.00 r=1.00
;00:01:09.338: pe=0.0000 eb=0.0245 ve=0.6236 vn=0.6236 vl=10.000 db=0.50
G1 X67.62 Y-40.09 E36.4840              ; draw dl=0.3@10(10<10>10) de=0.022@0.62(0.62<0.62>0.62) l=0.30x0.50x1.00 r=1.00
;00:01:09.373: pe=0.0000 eb=0.0245 ve=0.6236 vn=0.6236 vl=10.000 db=0.50
G1 X67.50 Y-39.73 E36.5076              ; draw dl=0.4@10(10<10>0) de=0.024@0.49(0.62<0.62>0.0) l=0.30x0.50x1.00 r=1.00
;00:01:09.421: pe=0.0000 eb=0.0245 ve=0.0000 vn=0.0000 vl=0.000 db=0.50
G1 E31.5076 F2400                       ; retract de=-5.0000@-40.0 r=1.00
;00:01:09.546: pe=-5.0000 eb=0.0245 ve=-40.0000 vn=0.0000 vl=0.000 db=0.50
G1 Z0.500 F420                          ; hopup dz=0.20@7 h=0.5 r=0.77
;00:01:09.575: pe=-5.0000 eb=0.0245 ve=0.0000 vn=0.0000 vl=0.000 db=0.39
G1 X71.93 Y-37.06 F6000                 ; move dl=5.2@100(0<36>0) de=0.000@0.0(0.0<0.0>0.0) l=0.50x0.50x0.00 r=0.00
;00:01:09.791: pe=-5.0000 eb=0.0000 ve=0.0000 vn=0.0000 vl=0.000 db=0.00
G1 Z0.300 F420                          ; hopdn dz=-0.20@7 h=0.3 r=0.00
;00:01:09.819: pe=-5.0000 eb=0.0000 ve=0.0000 vn=0.0000 vl=0.000 db=0.00
G1 E36.5076 F1800                       ; restore de=5.0000@30.0 r=0.00
;00:01:09.986: pe=-0.0000 eb=0.0000 ve=30.0000 vn=0.0000 vl=0.000 db=0.00
G1 X72.44 Y-37.20 E36.5406 F600         ; draw dl=0.5@10(0<10>10) de=0.033@0.52(0.0<0.62>0.62) l=0.30x0.50x1.00 r=1.00
;00:01:10.049: pe=0.0000 eb=0.0143 ve=0.6236 vn=0.6236 vl=10.000 db=0.38
G1 X72.83 Y-37.58 E36.5746              ; draw dl=0.5@10(10<10>10) de=0.034@0.62(0.62<0.62>0.62) l=0.30x0.50x1.00 r=1.00
;00:01:10.103: pe=0.0000 eb=0.0197 ve=0.6236 vn=0.6236 vl=10.000 db=0.45
G1 X73.07 Y-38.14 E36.6126              ; draw dl=0.6@10(10<10>10) de=0.038@0.62(0.62<0.62>0.62) l=0.30x0.50x1.00 r=1.00
;00:01:10.164: pe=0.0000 eb=0.0224 ve=0.6236 vn=0.6236 vl=10.000 db=0.48
G1 X73.15 Y-38.82 E36.6553              ; draw dl=0.7@10(10<10>10) de=0.043@0.62(0.62<0.62>0.62) l=0.30x0.50x1.00 r=1.00
;00:01:10.233: pe=0.0000 eb=0.0236 ve=0.6236 vn=0.6236 vl=10.000 db=0.49
G1 X73.07 Y-39.49 E36.6973              ; draw dl=0.7@10(10<10>10) de=0.042@0.62(0.62<0.62>0.62) l=0.30x0.50x1.00 r=1.00
;00:01:10.300: pe=0.0000 eb=0.0241 ve=0.6236 vn=0.6236 vl=10.000 db=0.50
G1 X72.83 Y-40.05 E36.7353              ; draw dl=0.6@10(10<10>10) de=0.038@0.62(0.62<0.62>0.62) l=0.30x0.50x1.00 r=1.00
;00:01:10.361: pe=0.0000 eb=0.0243 ve=0.6236 vn=0.6236 vl=10.000 db=0.50
G1 X72.44 Y-40.44 E36.7697              ; draw dl=0.6@10(10<10>10) de=0.034@0.62(0.62<0.62>0.62) l=0.30x0.50x1.00 r=1.00
;00:01:10.416: pe=0.0000 eb=0.0244 ve=0.6236 vn=0.6236 vl=10.000 db=0.50
G1 X71.93 Y-40.58 E36.8027              ; draw dl=0.5@10(10<10>10) de=0.033@0.62(0.62<0.62>0.62) l=0.30x0.50x1.00 r=1.00
;00:01:10.469: pe=0.0000 eb=0.0244 ve=0.6236 vn=0.6236 vl=10.000 db=0.50
G1 X71.41 Y-40.44 E36.8363              ; draw dl=0.5@10(10<10>10) de=0.034@0.62(0.62<0.62>0.62) l=0.30x0.50x1.00 r=1.00
;00:01:10.523: pe=0.0000 eb=0.0245 ve=0.6236 vn=0.6236 vl=10.000 db=0.50
G1 X71.03 Y-40.05 E36.8703              ; draw dl=0.5@10(10<10>10) de=0.034@0.62(0.62<0.62>0.62) l=0.30x0.50x1.00 r=1.00
;00:01:10.577: pe=0.0000 eb=0.0245 ve=0.6236 vn=0.6236 vl=10.000 db=0.50
G1 X70.79 Y-39.49 E36.9082              ; draw dl=0.6@10(10<10>10) de=0.038@0.62(0.62<0.62>0.62) l=0.30x0.50x1.00 r=1.00
;00:01:10.638: pe=0.0000 eb=0.0245 ve=0.6236 vn=0.6236 vl=10.000 db=0.50
G1 X70.71 Y-38.82 E36.9503              ; draw dl=0.7@10(10<10>10) de=0.042@0.62(0.62<0.62>0.62) l=0.30x0.50x1.00 r=1.00
;00:01:10.706: pe=0.0000 eb=0.0245 ve=0.6236 vn=0.6236 vl=10.000 db=0.50
G1 X70.79 Y-38.15 E36.9924              ; draw dl=0.7@10(10<10>10) de=0.042@0.62(0.62<0.62>0.62) l=0.30x0.50x1.00 r=1.00
;00:01:10.773: pe=0.0000 eb=0.0245 ve=0.6236 vn=0.6236 vl=10.000 db=0.50
G1 X71.03 Y-37.58 E37.0310              ; draw dl=0.6@10(10<10>10) de=0.039@0.62(0.62<0.62>0.62) l=0.30x0.50x1.00 r=1.00
;00:01:10.835: pe=0.0000 eb=0.0245 ve=0.6236 vn=0.6236 vl=10.000 db=0.50
G1 X71.41 Y-37.20 E37.0645              ; draw dl=0.5@10(10<10>10) de=0.034@0.62(0.62<0.62>0.62) l=0.30x0.50x1.00 r=1.00
;00:01:10.889: pe=0.0000 eb=0.0245 ve=0.6236 vn=0.6236 vl=10.000 db=0.50
G1 X71.93 Y-37.06 E37.0981              ; draw dl=0.5@10(10<10>0) de=0.034@0.53(0.62<0.62>0.0) l=0.30x0.50x1.00 r=1.00
;00:01:10.953: pe=0.0000 eb=0.0245 ve=0.0000 vn=0.0000 vl=0.000 db=0.50
G1 E32.0981 F2400                       ; retract de=-5.0000@-40.0 r=1.00
;00:01:11.078: pe=-5.0000 eb=0.0245 ve=-40.0000 vn=0.0000 vl=0.000 db=0.50
G1 Z0.500 F420                          ; hopup dz=0.20@7 h=0.5 r=0.77
;00:01:11.106: pe=-5.0000 eb=0.0245 ve=0.0000 vn=0.0000 vl=0.000 db=0.39
G1 X46.50 Y-43.11 F6000                 ; move dl=26.1@100(0<81>0) de=0.000@0.0(0.0<0.0>0.0) l=0.50x0.50x0.00 r=0.00
;00:01:11.591: pe=-5.0000 eb=0.0000 ve=0.0000 vn=0.0000 vl=0.000 db=0.00
G1 Z0.300 F420                          ; hopdn dz=-0.20@7 h=0.3 r=0.00
;00:01:11.620: pe=-5.0000 eb=0.0000 ve=0.0000 vn=0.0000 vl=0.000 db=0.00
G1 E37.0981 F1800                       ; restore de=5.0000@30.0 r=0.00
;00:01:11.786: pe=-0.0000 eb=0.0000 ve=30.0000 vn=0.0000 vl=0.000 db=0.00
G1 X47.52 Y-45.52 E37.2613 F600         ; draw dl=2.6@10(0<10>6) de=0.163@0.6(0.0<0.62>0.35) l=0.30x0.50x1.00 r=1.00
;00:01:12.060: pe=0.0000 eb=0.0239 ve=0.3524 vn=0.3524 vl=5.651 db=0.49
G1 X48.54 Y-43.11 E37.4245              ; draw dl=2.6@10(6<10>0) de=0.163@0.6(0.35<0.62>0.0) l=0.30x0.50x1.00 r=1.00
;00:01:12.334: pe=0.0000 eb=0.0245 ve=0.0000 vn=0.0000 vl=0.000 db=0.50
G1 E32.4245 F2400                       ; retract de=-5.0000@-40.0 r=1.00
;00:01:12.459: pe=-5.0000 eb=0.0245 ve=-40.0000 vn=0.0000 vl=0.000 db=0.50
G1 Z0.500 F420                          ; hopup dz=0.20@7 h=0.5 r=0.77
;00:01:12.487: pe=-5.0000 eb=0.0245 ve=0.0000 vn=0.0000 vl=0.000 db=0.39
G1 X49.60 Y-43.11 F6000                 ; move dl=1.1@100(0<16>0) de=0.000@0.0(0.0<0.0>0.0) l=0.50x0.50x0.00 r=0.00
;00:01:12.585: pe=-5.0000 eb=0.0000 ve=0.0000 vn=0.0000 vl=0.000 db=0.00
G1 Z0.300 F420                          ; hopdn dz=-0.20@7 h=0.3 r=0.00
;00:01:12.613: pe=-5.0000 eb=0.0000 ve=0.0000 vn=0.0000 vl=0.000 db=0.00
G1 E37.4245 F1800                       ; restore de=5.0000@30.0 r=0.00
;00:01:12.780: pe=-0.0000 eb=0.0000 ve=30.0000 vn=0.0000 vl=0.000 db=0.00
G1 X51.60 Y-45.52 E37.6198 F600         ; draw dl=3.1@10(0<10>0) de=0.195@0.59(0.0<0.62>0.0) l=0.30x0.50x1.00 r=1.00
;00:01:13.113: pe=0.0000 eb=0.0242 ve=0.0000 vn=0.0000 vl=0.000 db=0.50
G1 E32.6198 F2400                       ; retract de=-5.0000@-40.0 r=0.99
;00:01:13.238: pe=-5.0000 eb=0.0242 ve=-40.0000 vn=0.0000 vl=0.000 db=0.50
G1 Z0.500 F420                          ; hopup dz=0.20@7 h=0.5 r=0.77
;00:01:13.267: pe=-5.0000 eb=0.0242 ve=0.0000 vn=0.0000 vl=0.000 db=0.38
G1 X49.60 Y-45.52 F6000                 ; move dl=2.0@100(0<22>0) de=0.000@0.0(0.0<0.0>0.0) l=0.50x0.50x0.00 r=0.00
;00:01:13.401: pe=-5.0000 eb=0.0000 ve=0.0000 vn=0.0000 vl=0.000 db=0.00
G1 Z0.300 F420                          ; hopdn dz=-0.20@7 h=0.3 r=0.00
;00:01:13.430: pe=-5.0000 eb=0.0000 ve=0.0000 vn=0.0000 vl=0.000 db=0.00
G1 E37.6198 F1800                       ; restore de=5.0000@30.0 r=0.00
;00:01:13.596: pe=-0.0000 eb=0.0000 ve=30.0000 vn=0.0000 vl=0.000 db=0.00
G1 X51.60 Y-43.11 E37.8151 F600         ; draw dl=3.1@10(0<10>0) de=0.195@0.59(0.0<0.62>0.0) l=0.30x0.50x1.00 r=1.00
;00:01:13.929: pe=0.0000 eb=0.0242 ve=0.0000 vn=0.0000 vl=0.000 db=0.50
G1 E32.8151 F2400                       ; retract de=-5.0000@-40.0 r=0.99
;00:01:14.054: pe=-5.0000 eb=0.0242 ve=-40.0000 vn=0.0000 vl=0.000 db=0.50
G1 Z0.500 F420                          ; hopup dz=0.20@7 h=0.5 r=0.77
;00:01:14.083: pe=-5.0000 eb=0.0242 ve=0.0000 vn=0.0000 vl=0.000 db=0.38
G1 X52.66 Y-43.00 F6000                 ; move dl=1.1@100(0<16>0) de=0.000@0.0(0.0<0.0>0.0) l=0.50x0.50x0.00 r=0.00
;00:01:14.181: pe=-5.0000 eb=0.0000 ve=0.0000 vn=0.0000 vl=0.000 db=0.00
G1 Z0.300 F420                          ; hopdn dz=-0.20@7 h=0.3 r=0.00
;00:01:14.209: pe=-5.0000 eb=0.0000 ve=0.0000 vn=0.0000 vl=0.000 db=0.00
G1 E37.8151 F1800                       ; restore de=5.0000@30.0 r=0.00
;00:01:14.376: pe=-0.0000 eb=0.0000 ve=30.0000 vn=0.0000 vl=0.000 db=0.00
G1 X53.13 Y-42.76 E37.8480 F600         ; draw dl=0.5@10(0<10>10) de=0.033@0.52(0.0<0.62>0.62) l=0.30x0.50x1.00 r=1.00
;00:01:14.439: pe=0.0000 eb=0.0143 ve=0.6236 vn=0.6236 vl=10.000 db=0.38
G1 X53.50 Y-42.45 E37.8781              ; draw dl=0.5@10(10<10>10) de=0.030@0.62(0.62<0.62>0.62) l=0.30x0.50x1.00 r=1.00
;00:01:14.487: pe=0.0000 eb=0.0193 ve=0.6236 vn=0.6236 vl=10.000 db=0.44
G1 X53.75 Y-42.12 E37.9039              ; draw dl=0.4@10(10<10>5) de=0.026@0.59(0.62<0.62>0.3) l=0.30x0.50x1.00 r=1.00
;00:01:14.531: pe=0.0000 eb=0.0215 ve=0.3015 vn=0.3015 vl=4.834 db=0.47
G1 X53.75 Y-45.52 E38.1160              ; draw dl=3.4@10(5<10>0) de=0.212@0.6(0.3<0.62>0.0) l=0.30x0.50x1.00 r=1.00
;00:01:14.884: pe=0.0000 eb=0.0245 ve=0.0000 vn=0.0000 vl=0.000 db=0.50
G1 E33.1160 F2400                       ; retract de=-5.0000@-40.0 r=1.00
;00:01:15.009: pe=-5.0000 eb=0.0245 ve=-40.0000 vn=0.0000 vl=0.000 db=0.50
G1 Z0.500 F420                          ; hopup dz=0.20@7 h=0.5 r=0.77
;00:01:15.038: pe=-5.0000 eb=0.0245 ve=0.0000 vn=0.0000 vl=0.000 db=0.39
G1 X54.81 Y-43.74 F6000                 ; move dl=2.1@100(0<23>0) de=0.000@0.0(0.0<0.0>0.0) l=0.50x0.50x0.00 r=0.00
;00:01:15.174: pe=-5.0000 eb=0.0000 ve=0.0000 vn=0.0000 vl=0.000 db=0.00
G1 Z0.300 F420                          ; hopdn dz=-0.20@7 h=0.3 r=0.00
;00:01:15.203: pe=-5.0000 eb=0.0000 ve=0.0000 vn=0.0000 vl=0.000 db=0.00
G1 E38.1160 F1800                       ; restore de=5.0000@30.0 r=0.00
;00:01:15.369: pe=-0.0000 eb=0.0000 ve=30.0000 vn=0.0000 vl=0.000 db=0.00
G1 X56.50 Y-43.74 E38.2214 F600         ; draw dl=1.7@10(0<10>0) de=0.105@0.56(0.0<0.62>0.0) l=0.30x0.50x1.00 r=1.00
;00:01:15.558: pe=0.0000 eb=0.0224 ve=0.0000 vn=0.0000 vl=0.000 db=0.48
G1 E33.2214 F2400                       ; retract de=-5.0000@-40.0 r=0.96
;00:01:15.683: pe=-5.0000 eb=0.0224 ve=-40.0000 vn=0.0000 vl=0.000 db=0.48
G1 Z0.500 F420                          ; hopup dz=0.20@7 h=0.5 r=0.74
;00:01:15.712: pe=-5.0000 eb=0.0224 ve=0.0000 vn=0.0000 vl=0.000 db=0.37
G1 X56.50 Y-44.45 F6000                 ; move dl=0.7@100(0<13>0) de=0.000@0.0(0.0<0.0>0.0) l=0.50x0.50x0.00 r=0.00
;00:01:15.792: pe=-5.0000 eb=0.0000 ve=0.0000 vn=0.0000 vl=0.000 db=0.00
G1 Z0.300 F420                          ; hopdn dz=-0.20@7 h=0.3 r=0.00
;00:01:15.820: pe=-5.0000 eb=0.0000 ve=0.0000 vn=0.0000 vl=0.000 db=0.00
G1 E38.2214 F1800                       ; restore de=5.0000@30.0 r=0.00
;00:01:15.987: pe=-0.0000 eb=0.0000 ve=30.0000 vn=0.0000 vl=0.000 db=0.00
G1 X54.81 Y-44.45 E38.3268 F600         ; draw dl=1.7@10(0<10>0) de=0.105@0.56(0.0<0.62>0.0) l=0.30x0.50x1.00 r=1.00
;00:01:16.176: pe=0.0000 eb=0.0224 ve=0.0000 vn=0.0000 vl=0.000 db=0.48
G1 E33.3268 F2400                       ; retract de=-5.0000@-40.0 r=0.96
;00:01:16.301: pe=-5.0000 eb=0.0224 ve=-40.0000 vn=0.0000 vl=0.000 db=0.48
G1 Z0.500 F420                          ; hopup dz=0.20@7 h=0.5 r=0.74
;00:01:16.330: pe=-5.0000 eb=0.0224 ve=0.0000 vn=0.0000 vl=0.000 db=0.37
G1 X57.56 Y-42.56 F6000                 ; move dl=3.3@100(0<29>0) de=0.000@0.0(0.0<0.0>0.0) l=0.50x0.50x0.00 r=0.00
;00:01:16.503: pe=-5.0000 eb=0.0000 ve=0.0000 vn=0.0000 vl=0.000 db=0.00
G1 Z0.300 F420                          ; hopdn dz=-0.20@7 h=0.3 r=0.00
;00:01:16.531: pe=-5.0000 eb=0.0000 ve=0.0000 vn=0.0000 vl=0.000 db=0.00
G1 E38.3268 F1800                       ; restore de=5.0000@30.0 r=0.00
;00:01:16.698: pe=-0.0000 eb=0.0000 ve=30.0000 vn=0.0000 vl=0.000 db=0.00
G1 X57.75 Y-42.35 E38.3444 F600         ; draw dl=0.3@10(0<10>10) de=0.018@0.46(0.0<0.62>0.62) l=0.30x0.50x1.00 r=1.00
;00:01:16.736: pe=0.0000 eb=0.0097 ve=0.6236 vn=0.6236 vl=10.000 db=0.32
G1 X57.98 Y-42.19 E38.3619              ; draw dl=0.3@10(10<10>10) de=0.017@0.62(0.62<0.62>0.62) l=0.30x0.50x1.00 r=1.00
;00:01:16.764: pe=0.0000 eb=0.0148 ve=0.6236 vn=0.6236 vl=10.000 db=0.39
G1 X58.24 Y-42.10 E38.3791              ; draw dl=0.3@10(10<10>10) de=0.017@0.62(0.62<0.62>0.62) l=0.30x0.50x1.00 r=1.00
;00:01:16.792: pe=0.0000 eb=0.0179 ve=0.6237 vn=0.6237 vl=10.000 db=0.43
G1 X58.52 Y-42.06 E38.3967              ; draw dl=0.3@10(10<10>10) de=0.018@0.62(0.62<0.62>0.62) l=0.30x0.50x1.00 r=1.00
;00:01:16.820: pe=0.0000 eb=0.0200 ve=0.6237 vn=0.6237 vl=10.000 db=0.45
G1 X58.89 Y-42.12 E38.4201              ; draw dl=0.4@10(10<10>10) de=0.023@0.62(0.62<0.62>0.62) l=0.30x0.50x1.00 r=1.00
;00:01:16.858: pe=0.0000 eb=0.0218 ve=0.6237 vn=0.6237 vl=10.000 db=0.47
G1 X59.19 Y-42.32 E38.4426              ; draw dl=0.4@10(10<10>10) de=0.022@0.62(0.62<0.62>0.62) l=0.30x0.50x1.00 r=1.00
;00:01:16.894: pe=0.0000 eb=0.0228 ve=0.6237 vn=0.6237 vl=10.000 db=0.48
G1 X59.38 Y-42.61 E38.4642              ; draw dl=0.3@10(10<10>10) de=0.022@0.62(0.62<0.62>0.62) l=0.30x0.50x1.00 r=1.00
;00:01:16.928: pe=0.0000 eb=0.0234 ve=0.6237 vn=0.6237 vl=10.000 db=0.49
G1 X59.45 Y-42.98 E38.4877              ; draw dl=0.4@10(10<10>10) de=0.023@0.62(0.62<0.62>0.62) l=0.30x0.50x1.00 r=1.00
;00:01:16.966: pe=0.0000 eb=0.0238 ve=0.6237 vn=0.6237 vl=10.000 db=0.49
G1 X59.35 Y-43.37 E38.5128              ; draw dl=0.4@10(10<10>10) de=0.025@0.62(0.62<0.62>0.62) l=0.30x0.50x1.00 r=1.00
;00:01:17.006: pe=0.0000 eb=0.0241 ve=0.6237 vn=0.6237 vl=10.000 db=0.50
G1 X59.07 Y-43.73 E38.5412              ; draw dl=0.5@10(10<10>10) de=0.028@0.62(0.62<0.62>0.62) l=0.30x0.50x1.00 r=1.00
;00:01:17.052: pe=0.0000 eb=0.0243 ve=0.6237 vn=0.6237 vl=10.000 db=0.50
G1 X58.29 Y-44.36 E38.6038              ; draw dl=1.0@10(10<10>10) de=0.063@0.62(0.62<0.62>0.62) l=0.30x0.50x1.00 r=1.00
;00:01:17.152: pe=0.0000 eb=0.0244 ve=0.6237 vn=0.6237 vl=10.000 db=0.50
G1 X57.99 Y-44.77 E38.6354              ; draw dl=0.5@10(10<10>10) de=0.032@0.62(0.62<0.62>0.62) l=0.30x0.50x1.00 r=1.00
;00:01:17.203: pe=0.0000 eb=0.0245 ve=0.6237 vn=0.6237 vl=10.000 db=0.50
G1 X57.60 Y-45.52 E38.6882              ; draw dl=0.8@10(10<10>7) de=0.053@0.62(0.62<0.62>0.46) l=0.30x0.50x1.00 r=1.00
;00:01:17.288: pe=0.0000 eb=0.0245 ve=0.4581 vn=0.4581 vl=7.345 db=0.50
G1 X59.42 Y-45.52 E38.8017              ; draw dl=1.8@10(7<10>0) de=0.114@0.59(0.46<0.62>0.0) l=0.30x0.50x1.00 r=1.00
;00:01:17.481: pe=0.0000 eb=0.0245 ve=0.0000 vn=0.0000 vl=0.000 db=0.50
G1 E33.8017 F2400                       ; retract de=-5.0000@-40.0 r=1.00
;00:01:17.606: pe=-5.0000 eb=0.0245 ve=-40.0000 vn=0.0000 vl=0.000 db=0.50
G1 Z0.500 F420                          ; hopup dz=0.20@7 h=0.5 r=0.77
;00:01:17.635: pe=-5.0000 eb=0.0245 ve=0.0000 vn=0.0000 vl=0.000 db=0.39
G1 X61.73 Y-42.06 F6000                 ; move dl=4.2@100(0<32>0) de=0.000@0.0(0.0<0.0>0.0) l=0.50x0.50x0.00 r=0.00
