;gcode_flavor: flashforge
;machine_type: Adventurer 3 Series
;filament_diameter0: 1.75
;right_extruder_temperature: 210
;platform_temperature: 50
;extruder_fan: 100%
;case_fan: 100%
;base_print_speed: 60
;travel_speed: 100
;vertical_speed: 7
;retract_speed: 40
;restore_speed: 30
;layer_height: 0.30
;line_width: 0.50
;extrusion_ratio: 1.00
;command_line: ./gcodetest.py -Te 210 -Tp 50 -Fe 1.0 -Fc 1.0 -Kf=0.0 -Kb=0.0 -Re=5.0 -n 0 -v
;start gcode
M118 X75.00 Y75.00 Z150.00 T0
M140 S50 T0
M104 S210 T0
M104 S0 T1
M107
M900 K0.000 T0
G90
G28
M132 X Y Z A B
G1 Z50.000 F420
G161 X Y F3300
M7 T0
M6 T0
M652 S255
M108 T0
M106
;preExtrude:0.20
;00:00:00.000: layer=0 h=0.20 w=0.50 r=1.00
;structure:pre-extrude
G1 X-55.00 Y-65.00 F6000                ; move dl=85.1@100(0<100>0) de=0.000@0.0(0.0<0.0>0.0) l=0.00x0.50x0.00 r=0.00
;00:00:01.051: pe=0.0000 eb=0.0000 ve=0.0000 vn=0.0000 vl=0.000 db=0.00
G1 Z0.200 F420                          ; hopup dz=0.20@7 h=0.2 r=0.00
;00:00:01.080: pe=0.0000 eb=0.0000 ve=0.0000 vn=0.0000 vl=0.000 db=0.00
;00:00:01.080: skipping empty move move dl=0.0@7(0<0>0) de=0.000@0.0(0.0<0.0>0.0) l=0.20x0.50x0.00
G1 X-55.00 Y55.00 E19.9561 F1200        ; draw dl=120.0@20(0<20>0) de=19.956@3.3(0.0<3.33>0.0) l=0.20x0.50x4.00 r=4.00
;00:00:07.120: pe=0.0000 eb=0.2612 ve=0.0000 vn=0.0000 vl=0.000 db=2.00
G1 E14.9561 F2400                       ; retract de=-5.0000@-40.0 r=4.00
;00:00:07.245: pe=-5.0000 eb=0.2612 ve=-40.0000 vn=0.0000 vl=0.000 db=2.00
G1 Z0.400 F420                          ; hopup dz=0.20@7 h=0.4 r=2.83
;00:00:07.274: pe=-5.0000 eb=0.2612 ve=0.0000 vn=0.0000 vl=0.000 db=1.41
;layer:0.30
;00:00:07.274: layer=1 h=0.30 w=0.50 r=1.00
;structure:brim
;structure:shell-outer
;00:00:07.274: text [(-43.0, 60), (None, None)] fsize=5 angle=0 'Kf=0.0 Kb=0.0 Re=5.0'
G1 X-42.50 Y59.88 F6000                 ; move dl=13.4@100(0<58>0) de=0.000@0.0(0.0<0.0>0.0) l=0.40x0.50x0.00 r=0.00
;00:00:07.621: pe=-5.0000 eb=0.0000 ve=0.0000 vn=0.0000 vl=0.000 db=0.00
G1 Z0.300 F420                          ; hopdn dz=-0.10@7 h=0.3 r=0.00
;00:00:07.635: pe=-5.0000 eb=0.0000 ve=0.0000 vn=0.0000 vl=0.000 db=0.00
G1 E19.9561 F1800                       ; restore de=5.0000@30.0 r=0.00
;00:00:07.802: pe=-0.0000 eb=0.0000 ve=30.0000 vn=0.0000 vl=0.000 db=0.00
G1 X-42.50 Y56.48 E20.1681 F600         ; draw dl=3.4@10(0<10>0) de=0.212@0.59(0.0<0.62>0.0) l=0.30x0.50x1.00 r=1.00
;00:00:08.162: pe=0.0000 eb=0.0243 ve=0.0000 vn=0.0000 vl=0.000 db=0.50
G1 E15.1681 F2400                       ; retract de=-5.0000@-40.0 r=1.00
;00:00:08.287: pe=-5.0000 eb=0.0243 ve=-40.0000 vn=0.0000 vl=0.000 db=0.50
G1 Z0.500 F420                          ; hopup dz=0.20@7 h=0.5 r=0.77
;00:00:08.316: pe=-5.0000 eb=0.0243 ve=0.0000 vn=0.0000 vl=0.000 db=0.39
G1 X-40.04 Y56.48 F6000                 ; move dl=2.5@100(0<25>0) de=0.000@0.0(0.0<0.0>0.0) l=0.50x0.50x0.00 r=0.00
;00:00:08.464: pe=-5.0000 eb=0.0000 ve=0.0000 vn=0.0000 vl=0.000 db=0.00
G1 Z0.300 F420                          ; hopdn dz=-0.20@7 h=0.3 r=0.00
;00:00:08.493: pe=-5.0000 eb=0.0000 ve=0.0000 vn=0.0000 vl=0.000 db=0.00
G1 E20.1681 F1800                       ; restore de=5.0000@30.0 r=0.00
;00:00:08.660: pe=-0.0000 eb=0.0000 ve=30.0000 vn=0.0000 vl=0.000 db=0.00
G1 X-41.53 Y58.51 E20.3252 F600         ; draw dl=2.5@10(0<10>0) de=0.157@0.58(0.0<0.62>0.0) l=0.30x0.50x1.00 r=1.00
;00:00:08.932: pe=0.0000 eb=0.0238 ve=0.0000 vn=0.0000 vl=0.000 db=0.49
G1 E15.3252 F2400                       ; retract de=-5.0000@-40.0 r=0.99
;00:00:09.057: pe=-5.0000 eb=0.0238 ve=-40.0000 vn=0.0000 vl=0.000 db=0.49
G1 Z0.500 F420                          ; hopup dz=0.20@7 h=0.5 r=0.76
;00:00:09.085: pe=-5.0000 eb=0.0238 ve=0.0000 vn=0.0000 vl=0.000 db=0.38
G1 X-42.50 Y57.67 F6000                 ; move dl=1.3@100(0<18>0) de=0.000@0.0(0.0<0.0>0.0) l=0.50x0.50x0.00 r=0.00
;00:00:09.193: pe=-5.0000 eb=0.0000 ve=0.0000 vn=0.0000 vl=0.000 db=0.00
G1 Z0.300 F420                          ; hopdn dz=-0.20@7 h=0.3 r=0.00
;00:00:09.221: pe=-5.0000 eb=0.0000 ve=0.0000 vn=0.0000 vl=0.000 db=0.00
G1 E20.3252 F1800                       ; restore de=5.0000@30.0 r=0.00
;00:00:09.388: pe=-0.0000 eb=0.0000 ve=30.0000 vn=0.0000 vl=0.000 db=0.00
G1 X-39.98 Y59.88 E20.5342 F600         ; draw dl=3.4@10(0<10>0) de=0.209@0.59(0.0<0.62>0.0) l=0.30x0.50x1.00 r=1.00
;00:00:09.743: pe=0.0000 eb=0.0242 ve=0.0000 vn=0.0000 vl=0.000 db=0.50
G1 E15.5342 F2400                       ; retract de=-5.0000@-40.0 r=0.99
;00:00:09.868: pe=-5.0000 eb=0.0242 ve=-40.0000 vn=0.0000 vl=0.000 db=0.50
G1 Z0.500 F420                          ; hopup dz=0.20@7 h=0.5 r=0.77
;00:00:09.897: pe=-5.0000 eb=0.0242 ve=0.0000 vn=0.0000 vl=0.000 db=0.39
G1 X-37.73 Y59.90 F6000                 ; move dl=2.3@100(0<24>0) de=0.000@0.0(0.0<0.0>0.0) l=0.50x0.50x0.00 r=0.00
;00:00:10.039: pe=-5.0000 eb=0.0000 ve=0.0000 vn=0.0000 vl=0.000 db=0.00
G1 Z0.300 F420                          ; hopdn dz=-0.20@7 h=0.3 r=0.00
;00:00:10.067: pe=-5.0000 eb=0.0000 ve=0.0000 vn=0.0000 vl=0.000 db=0.00
G1 E20.5342 F1800                       ; restore de=5.0000@30.0 r=0.00
;00:00:10.234: pe=-0.0000 eb=0.0000 ve=30.0000 vn=0.0000 vl=0.000 db=0.00
G1 X-37.88 Y59.90 E20.5435 F600         ; draw dl=0.1@10(0<10>10) de=0.009@0.37(0.0<0.62>0.62) l=0.30x0.50x1.00 r=1.00
;00:00:10.259: pe=0.0000 eb=0.0061 ve=0.6236 vn=0.6236 vl=10.000 db=0.25
G1 X-38.06 Y59.86 E20.5550              ; draw dl=0.2@10(10<10>10) de=0.011@0.62(0.62<0.62>0.62) l=0.30x0.50x1.00 r=1.00
;00:00:10.278: pe=0.0000 eb=0.0109 ve=0.6236 vn=0.6236 vl=10.000 db=0.33
G1 X-38.22 Y59.73 E20.5679              ; draw dl=0.2@10(10<10>10) de=0.013@0.62(0.62<0.62>0.62) l=0.30x0.50x1.00 r=1.00
;00:00:10.298: pe=0.0000 eb=0.0145 ve=0.6236 vn=0.6236 vl=10.000 db=0.38
G1 X-38.34 Y59.54 E20.5819              ; draw dl=0.2@10(10<10>10) de=0.014@0.62(0.62<0.62>0.62) l=0.30x0.50x1.00 r=1.00
;00:00:10.321: pe=0.0000 eb=0.0172 ve=0.6236 vn=0.6236 vl=10.000 db=0.42
G1 X-38.42 Y59.17 E20.6055              ; draw dl=0.4@10(10<10>10) de=0.024@0.62(0.62<0.62>0.62) l=0.30x0.50x1.00 r=1.00
;00:00:10.358: pe=0.0000 eb=0.0202 ve=0.6236 vn=0.6236 vl=10.000 db=0.45
G1 X-38.42 Y56.48 E20.7733              ; draw dl=2.7@10(10<10>0) de=0.168@0.6(0.62<0.62>0.0) l=0.30x0.50x1.00 r=1.00
;00:00:10.637: pe=0.0000 eb=0.0244 ve=0.0000 vn=0.0000 vl=0.000 db=0.50
G1 E15.7733 F2400                       ; retract de=-5.0000@-40.0 r=1.00
;00:00:10.762: pe=-5.0000 eb=0.0244 ve=-40.0000 vn=0.0000 vl=0.000 db=0.50
G1 Z0.500 F420                          ; hopup dz=0.20@7 h=0.5 r=0.77
;00:00:10.791: pe=-5.0000 eb=0.0244 ve=0.0000 vn=0.0000 vl=0.000 db=0.39
G1 X-38.92 Y58.76 F6000                 ; move dl=2.3@100(0<24>0) de=0.000@0.0(0.0<0.0>0.0) l=0.50x0.50x0.00 r=0.00
;00:00:10.936: pe=-5.0000 eb=0.0000 ve=0.0000 vn=0.0000 vl=0.000 db=0.00
G1 Z0.300 F420                          ; hopdn dz=-0.20@7 h=0.3 r=0.00
;00:00:10.965: pe=-5.0000 eb=0.0000 ve=0.0000 vn=0.0000 vl=0.000 db=0.00
G1 E20.7733 F1800                       ; restore de=5.0000@30.0 r=0.00
;00:00:11.131: pe=-0.0000 eb=0.0000 ve=30.0000 vn=0.0000 vl=0.000 db=0.00
G1 X-37.84 Y58.76 E20.8406 F600         ; draw dl=1.1@10(0<10>0) de=0.067@0.53(0.0<0.62>0.0) l=0.30x0.50x1.00 r=1.00
;00:00:11.259: pe=0.0000 eb=0.0198 ve=0.0000 vn=0.0000 vl=0.000 db=0.45
G1 E15.8406 F2400                       ; retract de=-5.0000@-40.0 r=0.90
;00:00:11.384: pe=-5.0000 eb=0.0198 ve=-40.0000 vn=0.0000 vl=0.000 db=0.45
G1 Z0.500 F420                          ; hopup dz=0.20@7 h=0.5 r=0.70
;00:00:11.413: pe=-5.0000 eb=0.0198 ve=0.0000 vn=0.0000 vl=0.000 db=0.35
G1 X-36.66 Y58.26 F6000                 ; move dl=1.3@100(0<18>0) de=0.000@0.0(0.0<0.0>0.0) l=0.50x0.50x0.00 r=0.00
;00:00:11.520: pe=-5.0000 eb=0.0000 ve=0.0000 vn=0.0000 vl=0.000 db=0.00
G1 Z0.300 F420                          ; hopdn dz=-0.20@7 h=0.3 r=0.00
;00:00:11.549: pe=-5.0000 eb=0.0000 ve=0.0000 vn=0.0000 vl=0.000 db=0.00
G1 E20.8406 F1800                       ; restore de=5.0000@30.0 r=0.00
;00:00:11.715: pe=-0.0000 eb=0.0000 ve=30.0000 vn=0.0000 vl=0.000 db=0.00
G1 X-34.97 Y58.26 E20.9460 F600         ; draw dl=1.7@10(0<10>0) de=0.105@0.56(0.0<0.62>0.0) l=0.30x0.50x1.00 r=1.00
;00:00:11.904: pe=0.0000 eb=0.0224 ve=0.0000 vn=0.0000 vl=0.000 db=0.48
G1 E15.9460 F2400                       ; retract de=-5.0000@-40.0 r=0.96
;00:00:12.029: pe=-5.0000 eb=0.0224 ve=-40.0000 vn=0.0000 vl=0.000 db=0.48
G1 Z0.500 F420                          ; hopup dz=0.20@7 h=0.5 r=0.74
;00:00:12.058: pe=-5.0000 eb=0.0224 ve=0.0000 vn=0.0000 vl=0.000 db=0.37
G1 X-34.97 Y57.55 F6000                 ; move dl=0.7@100(0<13>0) de=0.000@0.0(0.0<0.0>0.0) l=0.50x0.50x0.00 r=0.00
;00:00:12.138: pe=-5.0000 eb=0.0000 ve=0.0000 vn=0.0000 vl=0.000 db=0.00
G1 Z0.300 F420                          ; hopdn dz=-0.20@7 h=0.3 r=0.00
;00:00:12.166: pe=-5.0000 eb=0.0000 ve=0.0000 vn=0.0000 vl=0.000 db=0.00
G1 E20.9460 F1800                       ; restore de=5.0000@30.0 r=0.00
;00:00:12.333: pe=-0.0000 eb=0.0000 ve=30.0000 vn=0.0000 vl=0.000 db=0.00
G1 X-36.66 Y57.55 E21.0514 F600         ; draw dl=1.7@10(0<10>0) de=0.105@0.56(0.0<0.62>0.0) l=0.30x0.50x1.00 r=1.00
;00:00:12.522: pe=0.0000 eb=0.0224 ve=0.0000 vn=0.0000 vl=0.000 db=0.48
G1 E16.0514 F2400                       ; retract de=-5.0000@-40.0 r=0.96
;00:00:12.647: pe=-5.0000 eb=0.0224 ve=-40.0000 vn=0.0000 vl=0.000 db=0.48
G1 Z0.500 F420                          ; hopup dz=0.20@7 h=0.5 r=0.74
;00:00:12.676: pe=-5.0000 eb=0.0224 ve=0.0000 vn=0.0000 vl=0.000 db=0.37
G1 X-32.69 Y59.94 F6000                 ; move dl=4.6@100(0<34>0) de=0.000@0.0(0.0<0.0>0.0) l=0.50x0.50x0.00 r=0.00
;00:00:12.880: pe=-5.0000 eb=0.0000 ve=0.0000 vn=0.0000 vl=0.000 db=0.00
G1 Z0.300 F420                          ; hopdn dz=-0.20@7 h=0.3 r=0.00
;00:00:12.909: pe=-5.0000 eb=0.0000 ve=0.0000 vn=0.0000 vl=0.000 db=0.00
G1 E21.0514 F1800                       ; restore de=5.0000@30.0 r=0.00
;00:00:13.075: pe=-0.0000 eb=0.0000 ve=30.0000 vn=0.0000 vl=0.000 db=0.00
G1 X-32.18 Y59.80 E21.0844 F600         ; draw dl=0.5@10(0<10>10) de=0.033@0.52(0.0<0.62>0.62) l=0.30x0.50x1.00 r=1.00
;00:00:13.138: pe=0.0000 eb=0.0143 ve=0.6236 vn=0.6236 vl=10.000 db=0.38
G1 X-31.79 Y59.42 E21.1183              ; draw dl=0.5@10(10<10>10) de=0.034@0.62(0.62<0.62>0.62) l=0.30x0.50x1.00 r=1.00
;00:00:13.193: pe=0.0000 eb=0.0197 ve=0.6236 vn=0.6236 vl=10.000 db=0.45
G1 X-31.55 Y58.86 E21.1563              ; draw dl=0.6@10(10<10>10) de=0.038@0.62(0.62<0.62>0.62) l=0.30x0.50x1.00 r=1.00
;00:00:13.253: pe=0.0000 eb=0.0224 ve=0.6236 vn=0.6236 vl=10.000 db=0.48
G1 X-31.47 Y58.18 E21.1990              ; draw dl=0.7@10(10<10>10) de=0.043@0.62(0.62<0.62>0.62) l=0.30x0.50x1.00 r=1.00
;00:00:13.322: pe=0.0000 eb=0.0236 ve=0.6236 vn=0.6236 vl=10.000 db=0.49
G1 X-31.55 Y57.51 E21.2411              ; draw dl=0.7@10(10<10>10) de=0.042@0.62(0.62<0.62>0.62) l=0.30x0.50x1.00 r=1.00
;00:00:13.389: pe=0.0000 eb=0.0241 ve=0.6236 vn=0.6236 vl=10.000 db=0.50
G1 X-31.79 Y56.95 E21.2791              ; draw dl=0.6@10(10<10>10) de=0.038@0.62(0.62<0.62>0.62) l=0.30x0.50x1.00 r=1.00
;00:00:13.450: pe=0.0000 eb=0.0243 ve=0.6236 vn=0.6236 vl=10.000 db=0.50
G1 X-32.18 Y56.56 E21.3135              ; draw dl=0.6@10(10<10>10) de=0.034@0.62(0.62<0.62>0.62) l=0.30x0.50x1.00 r=1.00
;00:00:13.505: pe=0.0000 eb=0.0244 ve=0.6236 vn=0.6236 vl=10.000 db=0.50
G1 X-32.69 Y56.42 E21.3465              ; draw dl=0.5@10(10<10>10) de=0.033@0.62(0.62<0.62>0.62) l=0.30x0.50x1.00 r=1.00
;00:00:13.558: pe=0.0000 eb=0.0244 ve=0.6236 vn=0.6236 vl=10.000 db=0.50
G1 X-33.21 Y56.56 E21.3801              ; draw dl=0.5@10(10<10>10) de=0.034@0.62(0.62<0.62>0.62) l=0.30x0.50x1.00 r=1.00
;00:00:13.612: pe=0.0000 eb=0.0245 ve=0.6236 vn=0.6236 vl=10.000 db=0.50
G1 X-33.59 Y56.95 E21.4140              ; draw dl=0.5@10(10<10>10) de=0.034@0.62(0.62<0.62>0.62) l=0.30x0.50x1.00 r=1.00
;00:00:13.667: pe=-0.0000 eb=0.0245 ve=0.6236 vn=0.0000 vl=10.000 db=0.50
G1 X-33.83 Y57.51 E21.4520              ; draw dl=0.6@10(10<10>10) de=0.038@0.62(0.62<0.62>0.62) l=0.30x0.50x1.00 r=1.00
;00:00:13.728: pe=0.0000 eb=0.0245 ve=0.6236 vn=0.6236 vl=10.000 db=0.50
G1 X-33.91 Y58.18 E21.4941              ; draw dl=0.7@10(10<10>10) de=0.042@0.62(0.62<0.62>0.62) l=0.30x0.50x1.00 r=1.00
;00:00:13.795: pe=0.0000 eb=0.0245 ve=0.6236 vn=0.6236 vl=10.000 db=0.50
G1 X-33.83 Y58.85 E21.5362              ; draw dl=0.7@10(10<10>10) de=0.042@0.62(0.62<0.62>0.62) l=0.30x0.50x1.00 r=1.00
;00:00:13.863: pe=0.0000 eb=0.0245 ve=0.6236 vn=0.6236 vl=10.000 db=0.50
G1 X-33.59 Y59.42 E21.5748              ; draw dl=0.6@10(10<10>10) de=0.039@0.62(0.62<0.62>0.62) l=0.30x0.50x1.00 r=1.00
;00:00:13.924: pe=0.0000 eb=0.0245 ve=0.6236 vn=0.6236 vl=10.000 db=0.50
G1 X-33.21 Y59.80 E21.6083              ; draw dl=0.5@10(10<10>10) de=0.034@0.62(0.62<0.62>0.62) l=0.30x0.50x1.00 r=1.00
;00:00:13.978: pe=0.0000 eb=0.0245 ve=0.6236 vn=0.6236 vl=10.000 db=0.50
G1 X-32.69 Y59.94 E21.6418              ; draw dl=0.5@10(10<10>0) de=0.034@0.53(0.62<0.62>0.0) l=0.30x0.50x1.00 r=1.00
;00:00:14.042: pe=0.0000 eb=0.0245 ve=0.0000 vn=0.0000 vl=0.000 db=0.50
G1 E16.6418 F2400                       ; retract de=-5.0000@-40.0 r=1.00
;00:00:14.167: pe=-5.0000 eb=0.0245 ve=-40.0000 vn=0.0000 vl=0.000 db=0.50
G1 Z0.500 F420                          ; hopup dz=0.20@7 h=0.5 r=0.77
;00:00:14.196: pe=-5.0000 eb=0.0245 ve=0.0000 vn=0.0000 vl=0.000 db=0.39
G1 X-30.41 Y56.71 F6000                 ; move dl=4.0@100(0<31>0) de=0.000@0.0(0.0<0.0>0.0) l=0.50x0.50x0.00 r=0.00
;00:00:14.384: pe=-5.0000 eb=0.0000 ve=0.0000 vn=0.0000 vl=0.000 db=0.00
G1 Z0.300 F420                          ; hopdn dz=-0.20@7 h=0.3 r=0.00
;00:00:14.413: pe=-5.0000 eb=0.0000 ve=0.0000 vn=0.0000 vl=0.000 db=0.00
G1 E21.6418 F1800                       ; restore de=5.0000@30.0 r=0.00
;00:00:14.579: pe=-0.0000 eb=0.0000 ve=30.0000 vn=0.0000 vl=0.000 db=0.00
G1 X-30.41 Y56.65 E21.6456 F600         ; draw dl=0.1@10(0<4>0) de=0.004@0.16(0.0<0.24>0.0) l=0.30x0.50x1.00 r=1.00
;00:00:14.603: pe=0.0000 eb=0.0029 ve=0.0000 vn=0.0000 vl=0.000 db=0.17
G1 E16.6456 F2400                       ; retract de=-5.0000@-40.0 r=0.34
;00:00:14.728: pe=-5.0000 eb=0.0029 ve=-40.0000 vn=0.0000 vl=0.000 db=0.17
G1 Z0.500 F420                          ; hopup dz=0.20@7 h=0.5 r=0.27
;00:00:14.756: pe=-5.0000 eb=0.0029 ve=0.0000 vn=0.0000 vl=0.000 db=0.13
G1 X-28.13 Y59.94 F6000                 ; move dl=4.0@100(0<32>0) de=0.000@0.0(0.0<0.0>0.0) l=0.50x0.50x0.00 r=0.00
;00:00:14.946: pe=-5.0000 eb=0.0000 ve=0.0000 vn=0.0000 vl=0.000 db=0.00
G1 Z0.300 F420                          ; hopdn dz=-0.20@7 h=0.3 r=0.00
;00:00:14.975: pe=-5.0000 eb=0.0000 ve=0.0000 vn=0.0000 vl=0.000 db=0.00
G1 E21.6456 F1800                       ; restore de=5.0000@30.0 r=0.00
;00:00:15.141: pe=-0.0000 eb=0.0000 ve=30.0000 vn=0.0000 vl=0.000 db=0.00
G1 X-27.62 Y59.80 E21.6786 F600         ; draw dl=0.5@10(0<10>10) de=0.033@0.52(0.0<0.62>0.62) l=0.30x0.50x1.00 r=1.00
;00:00:15.204: pe=0.0000 eb=0.0143 ve=0.6237 vn=0.6237 vl=10.000 db=0.38
G1 X-27.23 Y59.42 E21.7125              ; draw dl=0.5@10(10<10>10) de=0.034@0.62(0.62<0.62>0.62) l=0.30x0.50x1.00 r=1.00
;00:00:15.259: pe=0.0000 eb=0.0197 ve=0.6237 vn=0.6237 vl=10.000 db=0.45
G1 X-26.99 Y58.86 E21.7505              ; draw dl=0.6@10(10<10>10) de=0.038@0.62(0.62<0.62>0.62) l=0.30x0.50x1.00 r=1.00
;00:00:15.320: pe=0.0000 eb=0.0224 ve=0.6237 vn=0.6237 vl=10.000 db=0.48
G1 X-26.91 Y58.18 E21.7932              ; draw dl=0.7@10(10<10>10) de=0.043@0.62(0.62<0.62>0.62) l=0.30x0.50x1.00 r=1.00
;00:00:15.388: pe=0.0000 eb=0.0236 ve=0.6237 vn=0.6237 vl=10.000 db=0.49
G1 X-26.99 Y57.51 E21.8353              ; draw dl=0.7@10(10<10>10) de=0.042@0.62(0.62<0.62>0.62) l=0.30x0.50x1.00 r=1.00
;00:00:15.455: pe=0.0000 eb=0.0241 ve=0.6237 vn=0.6237 vl=10.000 db=0.50
G1 X-27.23 Y56.95 E21.8733              ; draw dl=0.6@10(10<10>10) de=0.038@0.62(0.62<0.62>0.62) l=0.30x0.50x1.00 r=1.00
;00:00:15.516: pe=0.0000 eb=0.0243 ve=0.6237 vn=0.6237 vl=10.000 db=0.50
G1 X-27.62 Y56.56 E21.9077              ; draw dl=0.6@10(10<10>10) de=0.034@0.62(0.62<0.62>0.62) l=0.30x0.50x1.00 r=1.00
;00:00:15.572: pe=0.0000 eb=0.0244 ve=0.6237 vn=0.6237 vl=10.000 db=0.50
G1 X-28.13 Y56.42 E21.9407              ; draw dl=0.5@10(10<10>10) de=0.033@0.62(0.62<0.62>0.62) l=0.30x0.50x1.00 r=1.00
;00:00:15.624: pe=0.0000 eb=0.0245 ve=0.6237 vn=0.6237 vl=10.000 db=0.50
G1 X-28.65 Y56.56 E21.9743              ; draw dl=0.5@10(10<10>10) de=0.034@0.62(0.62<0.62>0.62) l=0.30x0.50x1.00 r=1.00
;00:00:15.678: pe=0.0000 eb=0.0245 ve=0.6237 vn=0.6237 vl=10.000 db=0.50
G1 X-29.03 Y56.95 E22.0082              ; draw dl=0.5@10(10<10>10) de=0.034@0.62(0.62<0.62>0.62) l=0.30x0.50x1.00 r=1.00
;00:00:15.733: pe=0.0000 eb=0.0245 ve=0.6237 vn=0.6237 vl=10.000 db=0.50
G1 X-29.27 Y57.51 E22.0462              ; draw dl=0.6@10(10<10>10) de=0.038@0.62(0.62<0.62>0.62) l=0.30x0.50x1.00 r=1.00
;00:00:15.794: pe=0.0000 eb=0.0245 ve=0.6237 vn=0.6237 vl=10.000 db=0.50
G1 X-29.35 Y58.18 E22.0883              ; draw dl=0.7@10(10<10>10) de=0.042@0.62(0.62<0.62>0.62) l=0.30x0.50x1.00 r=1.00
;00:00:15.861: pe=0.0000 eb=0.0245 ve=0.6237 vn=0.6237 vl=10.000 db=0.50
G1 X-29.27 Y58.85 E22.1304              ; draw dl=0.7@10(10<10>10) de=0.042@0.62(0.62<0.62>0.62) l=0.30x0.50x1.00 r=1.00
;00:00:15.929: pe=0.0000 eb=0.0245 ve=0.6237 vn=0.6237 vl=10.000 db=0.50
G1 X-29.03 Y59.42 E22.1690              ; draw dl=0.6@10(10<10>10) de=0.039@0.62(0.62<0.62>0.62) l=0.30x0.50x1.00 r=1.00
;00:00:15.990: pe=0.0000 eb=0.0245 ve=0.6237 vn=0.6237 vl=10.000 db=0.50
G1 X-28.65 Y59.80 E22.2025              ; draw dl=0.5@10(10<10>10) de=0.034@0.62(0.62<0.62>0.62) l=0.30x0.50x1.00 r=1.00
;00:00:16.044: pe=0.0000 eb=0.0245 ve=0.6237 vn=0.6237 vl=10.000 db=0.50
G1 X-28.13 Y59.94 E22.2361              ; draw dl=0.5@10(10<10>0) de=0.034@0.53(0.62<0.62>0.0) l=0.30x0.50x1.00 r=1.00
;00:00:16.108: pe=0.0000 eb=0.0245 ve=0.0000 vn=0.0000 vl=0.000 db=0.50
G1 E17.2361 F2400                       ; retract de=-5.0000@-40.0 r=1.00
;00:00:16.233: pe=-5.0000 eb=0.0245 ve=-40.0000 vn=0.0000 vl=0.000 db=0.50
G1 Z0.500 F420                          ; hopup dz=0.20@7 h=0.5 r=0.77
;00:00:16.262: pe=-5.0000 eb=0.0245 ve=0.0000 vn=0.0000 vl=0.000 db=0.39
G1 X-22.53 Y59.88 F6000                 ; move dl=5.6@100(0<37>0) de=0.000@0.0(0.0<0.0>0.0) l=0.50x0.50x0.00 r=0.00
;00:00:16.486: pe=-5.0000 eb=0.0000 ve=0.0000 vn=0.0000 vl=0.000 db=0.00
G1 Z0.300 F420                          ; hopdn dz=-0.20@7 h=0.3 r=0.00
;00:00:16.515: pe=-5.0000 eb=0.0000 ve=0.0000 vn=0.0000 vl=0.000 db=0.00
G1 E22.2361 F1800                       ; restore de=5.0000@30.0 r=0.00
;00:00:16.681: pe=-0.0000 eb=0.0000 ve=30.0000 vn=0.0000 vl=0.000 db=0.00
G1 X-22.53 Y56.48 E22.4481 F600         ; draw dl=3.4@10(0<10>0) de=0.212@0.59(0.0<0.62>0.0) l=0.30x0.50x1.00 r=1.00
;00:00:17.041: pe=0.0000 eb=0.0243 ve=0.0000 vn=0.0000 vl=0.000 db=0.50
G1 E17.4481 F2400                       ; retract de=-5.0000@-40.0 r=1.00
;00:00:17.166: pe=-5.0000 eb=0.0243 ve=-40.0000 vn=0.0000 vl=0.000 db=0.50
G1 Z0.500 F420                          ; hopup dz=0.20@7 h=0.5 r=0.77
;00:00:17.195: pe=-5.0000 eb=0.0243 ve=0.0000 vn=0.0000 vl=0.000 db=0.39
G1 X-20.07 Y56.48 F6000                 ; move dl=2.5@100(0<25>0) de=0.000@0.0(0.0<0.0>0.0) l=0.50x0.50x0.00 r=0.00
;00:00:17.344: pe=-5.0000 eb=0.0000 ve=0.0000 vn=0.0000 vl=0.000 db=0.00
G1 Z0.300 F420                          ; hopdn dz=-0.20@7 h=0.3 r=0.00
;00:00:17.372: pe=-5.0000 eb=0.0000 ve=0.0000 vn=0.0000 vl=0.000 db=0.00
G1 E22.4481 F1800                       ; restore de=5.0000@30.0 r=0.00
;00:00:17.539: pe=-0.0000 eb=0.0000 ve=30.0000 vn=0.0000 vl=0.000 db=0.00
G1 X-21.56 Y58.51 E22.6052 F600         ; draw dl=2.5@10(0<10>0) de=0.157@0.58(0.0<0.62>0.0) l=0.30x0.50x1.00 r=1.00
;00:00:17.811: pe=0.0000 eb=0.0238 ve=0.0000 vn=0.0000 vl=0.000 db=0.49
G1 E17.6052 F2400                       ; retract de=-5.0000@-40.0 r=0.99
;00:00:17.936: pe=-5.0000 eb=0.0238 ve=-40.0000 vn=0.0000 vl=0.000 db=0.49
G1 Z0.500 F420                          ; hopup dz=0.20@7 h=0.5 r=0.76
;00:00:17.964: pe=-5.0000 eb=0.0238 ve=0.0000 vn=0.0000 vl=0.000 db=0.38
G1 X-22.53 Y57.67 F6000                 ; move dl=1.3@100(0<18>0) de=0.000@0.0(0.0<0.0>0.0) l=0.50x0.50x0.00 r=0.00
;00:00:18.072: pe=-5.0000 eb=0.0000 ve=0.0000 vn=0.0000 vl=0.000 db=0.00
G1 Z0.300 F420                          ; hopdn dz=-0.20@7 h=0.3 r=0.00
;00:00:18.100: pe=-5.0000 eb=0.0000 ve=0.0000 vn=0.0000 vl=0.000 db=0.00
G1 E22.6052 F1800                       ; restore de=5.0000@30.0 r=0.00
;00:00:18.267: pe=-0.0000 eb=0.0000 ve=30.0000 vn=0.0000 vl=0.000 db=0.00
G1 X-20.01 Y59.88 E22.8142 F600         ; draw dl=3.4@10(0<10>0) de=0.209@0.59(0.0<0.62>0.0) l=0.30x0.50x1.00 r=1.00
;00:00:18.622: pe=0.0000 eb=0.0242 ve=0.0000 vn=0.0000 vl=0.000 db=0.50
G1 E17.8142 F2400                       ; retract de=-5.0000@-40.0 r=1.00
;00:00:18.747: pe=-5.0000 eb=0.0242 ve=-40.0000 vn=0.0000 vl=0.000 db=0.50
G1 Z0.500 F420                          ; hopup dz=0.20@7 h=0.5 r=0.77
;00:00:18.776: pe=-5.0000 eb=0.0242 ve=0.0000 vn=0.0000 vl=0.000 db=0.39
G1 X-18.95 Y59.88 F6000                 ; move dl=1.1@100(0<16>0) de=0.000@0.0(0.0<0.0>0.0) l=0.50x0.50x0.00 r=0.00
;00:00:18.873: pe=-5.0000 eb=0.0000 ve=0.0000 vn=0.0000 vl=0.000 db=0.00
G1 Z0.300 F420                          ; hopdn dz=-0.20@7 h=0.3 r=0.00
;00:00:18.902: pe=-5.0000 eb=0.0000 ve=0.0000 vn=0.0000 vl=0.000 db=0.00
G1 E22.8142 F1800                       ; restore de=5.0000@30.0 r=0.00
;00:00:19.069: pe=-0.0000 eb=0.0000 ve=30.0000 vn=0.0000 vl=0.000 db=0.00
G1 X-18.95 Y56.48 E23.0263 F600         ; draw dl=3.4@10(0<10>0) de=0.212@0.59(0.0<0.62>0.0) l=0.30x0.50x1.00 r=1.00
;00:00:19.429: pe=0.0000 eb=0.0243 ve=0.0000 vn=0.0000 vl=0.000 db=0.50
G1 E18.0263 F2400                       ; retract de=-5.0000@-40.0 r=1.00
;00:00:19.554: pe=-5.0000 eb=0.0243 ve=-40.0000 vn=0.0000 vl=0.000 db=0.50
G1 Z0.500 F420                          ; hopup dz=0.20@7 h=0.5 r=0.77
;00:00:19.582: pe=-5.0000 eb=0.0243 ve=0.0000 vn=0.0000 vl=0.000 db=0.39
G1 X-18.95 Y56.98 F6000                 ; move dl=0.5@100(0<11>0) de=0.000@0.0(0.0<0.0>0.0) l=0.50x0.50x0.00 r=0.00
;00:00:19.649: pe=-5.0000 eb=0.0006 ve=0.0000 vn=0.0000 vl=0.000 db=0.06
G1 Z0.300 F420                          ; hopdn dz=-0.20@7 h=0.3 r=0.16
;00:00:19.678: pe=-5.0000 eb=0.0006 ve=0.0000 vn=0.0000 vl=0.000 db=0.08
G1 E23.0263 F1800                       ; restore de=5.0000@30.0 r=0.16
;00:00:19.845: pe=-0.0000 eb=0.0006 ve=30.0000 vn=0.0000 vl=0.000 db=0.08
G1 X-18.70 Y56.74 E23.0479 F600         ; draw dl=0.3@10(0<10>10) de=0.022@0.48(0.0<0.62>0.62) l=0.30x0.50x1.00 r=1.00
;00:00:19.889: pe=0.0000 eb=0.0113 ve=0.6237 vn=0.6237 vl=10.000 db=0.34
G1 X-18.31 Y56.49 E23.0768              ; draw dl=0.5@10(10<10>10) de=0.029@0.62(0.62<0.62>0.62) l=0.30x0.50x1.00 r=1.00
;00:00:19.936: pe=0.0000 eb=0.0178 ve=0.6237 vn=0.6237 vl=10.000 db=0.43
G1 X-17.93 Y56.42 E23.1009              ; draw dl=0.4@10(10<10>10) de=0.024@0.62(0.62<0.62>0.62) l=0.30x0.50x1.00 r=1.00
;00:00:19.974: pe=-0.0000 eb=0.0205 ve=0.6237 vn=0.0000 vl=10.000 db=0.46
G1 X-17.55 Y56.51 E23.1252              ; draw dl=0.4@10(10<10>10) de=0.024@0.62(0.62<0.62>0.62) l=0.30x0.50x1.00 r=1.00
;00:00:20.013: pe=0.0000 eb=0.0221 ve=0.6237 vn=0.6237 vl=10.000 db=0.48
G1 X-17.24 Y56.77 E23.1505              ; draw dl=0.4@10(10<10>10) de=0.025@0.62(0.62<0.62>0.62) l=0.30x0.50x1.00 r=1.00
;00:00:20.054: pe=0.0000 eb=0.0231 ve=0.6237 vn=0.6237 vl=10.000 db=0.49
G1 X-17.04 Y57.18 E23.1789              ; draw dl=0.5@10(10<10>10) de=0.028@0.62(0.62<0.62>0.62) l=0.30x0.50x1.00 r=1.00
;00:00:20.099: pe=0.0000 eb=0.0237 ve=0.6237 vn=0.6237 vl=10.000 db=0.49
G1 X-16.97 Y57.71 E23.2123              ; draw dl=0.5@10(10<10>10) de=0.033@0.62(0.62<0.62>0.62) l=0.30x0.50x1.00 r=1.00
;00:00:20.153: pe=0.0000 eb=0.0241 ve=0.6237 vn=0.6237 vl=10.000 db=0.50
G1 X-17.03 Y58.22 E23.2443              ; draw dl=0.5@10(10<10>10) de=0.032@0.62(0.62<0.62>0.62) l=0.30x0.50x1.00 r=1.00
;00:00:20.204: pe=0.0000 eb=0.0243 ve=0.6237 vn=0.6237 vl=10.000 db=0.50
G1 X-17.21 Y58.61 E23.2711              ; draw dl=0.4@10(10<10>10) de=0.027@0.62(0.62<0.62>0.62) l=0.30x0.50x1.00 r=1.00
;00:00:20.247: pe=0.0000 eb=0.0244 ve=0.6237 vn=0.6237 vl=10.000 db=0.50
G1 X-17.50 Y58.86 E23.2950              ; draw dl=0.4@10(10<10>10) de=0.024@0.62(0.62<0.62>0.62) l=0.30x0.50x1.00 r=1.00
;00:00:20.285: pe=0.0000 eb=0.0244 ve=0.6237 vn=0.6237 vl=10.000 db=0.50
G1 X-17.90 Y58.95 E23.3205              ; draw dl=0.4@10(10<10>10) de=0.026@0.62(0.62<0.62>0.62) l=0.30x0.50x1.00 r=1.00
;00:00:20.326: pe=0.0000 eb=0.0245 ve=0.6237 vn=0.6237 vl=10.000 db=0.50
G1 X-18.09 Y58.93 E23.3324              ; draw dl=0.2@10(10<10>10) de=0.012@0.62(0.62<0.62>0.62) l=0.30x0.50x1.00 r=1.00
;00:00:20.346: pe=0.0000 eb=0.0245 ve=0.6237 vn=0.6237 vl=10.000 db=0.50
G1 X-18.29 Y58.85 E23.3459              ; draw dl=0.2@10(10<10>10) de=0.013@0.62(0.62<0.62>0.62) l=0.30x0.50x1.00 r=1.00
;00:00:20.367: pe=0.0000 eb=0.0245 ve=0.6237 vn=0.6237 vl=10.000 db=0.50
G1 X-18.50 Y58.72 E23.3613              ; draw dl=0.2@10(10<10>10) de=0.015@0.62(0.62<0.62>0.62) l=0.30x0.50x1.00 r=1.00
;00:00:20.392: pe=0.0000 eb=0.0245 ve=0.6236 vn=0.6236 vl=10.000 db=0.50
G1 X-18.70 Y58.50 E23.3798              ; draw dl=0.3@10(10<10>10) de=0.019@0.62(0.62<0.62>0.62) l=0.30x0.50x1.00 r=1.00
;00:00:20.422: pe=0.0000 eb=0.0245 ve=0.6236 vn=0.6236 vl=10.000 db=0.50
G1 X-18.95 Y58.03 E23.4130              ; draw dl=0.5@10(10<10>0) de=0.033@0.53(0.62<0.62>0.0) l=0.30x0.50x1.00 r=1.00
;00:00:20.485: pe=0.0000 eb=0.0245 ve=0.0000 vn=0.0000 vl=0.000 db=0.50
G1 E18.4130 F2400                       ; retract de=-5.0000@-40.0 r=1.00
;00:00:20.610: pe=-5.0000 eb=0.0245 ve=-40.0000 vn=0.0000 vl=0.000 db=0.50
G1 Z0.500 F420                          ; hopup dz=0.20@7 h=0.5 r=0.77
;00:00:20.638: pe=-5.0000 eb=0.0245 ve=0.0000 vn=0.0000 vl=0.000 db=0.39
G1 X-15.91 Y58.26 F6000                 ; move dl=3.0@100(0<28>0) de=0.000@0.0(0.0<0.0>0.0) l=0.50x0.50x0.00 r=0.00
;00:00:20.804: pe=-5.0000 eb=0.0000 ve=0.0000 vn=0.0000 vl=0.000 db=0.00
G1 Z0.300 F420                          ; hopdn dz=-0.20@7 h=0.3 r=0.00
;00:00:20.833: pe=-5.0000 eb=0.0000 ve=0.0000 vn=0.0000 vl=0.000 db=0.00
G1 E23.4130 F1800                       ; restore de=5.0000@30.0 r=0.00
;00:00:20.999: pe=-0.0000 eb=0.0000 ve=30.0000 vn=0.0000 vl=0.000 db=0.00
G1 X-14.21 Y58.26 E23.5190 F600         ; draw dl=1.7@10(0<10>0) de=0.106@0.56(0.0<0.62>0.0) l=0.30x0.50x1.00 r=1.00
;00:00:21.189: pe=0.0000 eb=0.0224 ve=0.0000 vn=0.0000 vl=0.000 db=0.48
G1 E18.5190 F2400                       ; retract de=-5.0000@-40.0 r=0.96
;00:00:21.314: pe=-5.0000 eb=0.0224 ve=-40.0000 vn=0.0000 vl=0.000 db=0.48
G1 Z0.500 F420                          ; hopup dz=0.20@7 h=0.5 r=0.74
;00:00:21.343: pe=-5.0000 eb=0.0224 ve=0.0000 vn=0.0000 vl=0.000 db=0.37
G1 X-14.21 Y57.55 F6000                 ; move dl=0.7@100(0<13>0) de=0.000@0.0(0.0<0.0>0.0) l=0.50x0.50x0.00 r=0.00
;00:00:21.423: pe=-5.0000 eb=0.0000 ve=0.0000 vn=0.0000 vl=0.000 db=0.00
G1 Z0.300 F420                          ; hopdn dz=-0.20@7 h=0.3 r=0.00
;00:00:21.451: pe=-5.0000 eb=0.0000 ve=0.0000 vn=0.0000 vl=0.000 db=0.00
G1 E23.5190 F1800                       ; restore de=5.0000@30.0 r=0.00
;00:00:21.618: pe=-0.0000 eb=0.0000 ve=30.0000 vn=0.0000 vl=0.000 db=0.00
G1 X-15.91 Y57.55 E23.6251 F600         ; draw dl=1.7@10(0<10>0) de=0.106@0.56(0.0<0.62>0.0) l=0.30x0.50x1.00 r=1.00
;00:00:21.808: pe=0.0000 eb=0.0224 ve=0.0000 vn=0.0000 vl=0.000 db=0.48
G1 E18.6251 F2400                       ; retract de=-5.0000@-40.0 r=0.96
;00:00:21.933: pe=-5.0000 eb=0.0224 ve=-40.0000 vn=0.0000 vl=0.000 db=0.48
G1 Z0.500 F420                          ; hopup dz=0.20@7 h=0.5 r=0.74
;00:00:21.962: pe=-5.0000 eb=0.0224 ve=0.0000 vn=0.0000 vl=0.000 db=0.37
G1 X-11.94 Y59.94 F6000                 ; move dl=4.6@100(0<34>0) de=0.000@0.0(0.0<0.0>0.0) l=0.50x0.50x0.00 r=0.00
;00:00:22.166: pe=-5.0000 eb=0.0000 ve=0.0000 vn=0.0000 vl=0.000 db=0.00
G1 Z0.300 F420                          ; hopdn dz=-0.20@7 h=0.3 r=0.00
;00:00:22.194: pe=-5.0000 eb=0.0000 ve=0.0000 vn=0.0000 vl=0.000 db=0.00
G1 E23.6251 F1800                       ; restore de=5.0000@30.0 r=0.00
;00:00:22.361: pe=-0.0000 eb=0.0000 ve=30.0000 vn=0.0000 vl=0.000 db=0.00
G1 X-11.43 Y59.80 E23.6580 F600         ; draw dl=0.5@10(0<10>10) de=0.033@0.52(0.0<0.62>0.62) l=0.30x0.50x1.00 r=1.00
;00:00:22.424: pe=-0.0000 eb=0.0143 ve=0.6236 vn=0.0000 vl=10.000 db=0.38
G1 X-11.04 Y59.42 E23.6920              ; draw dl=0.5@10(10<10>10) de=0.034@0.62(0.62<0.62>0.62) l=0.30x0.50x1.00 r=1.00
;00:00:22.478: pe=-0.0000 eb=0.0197 ve=0.6236 vn=0.0000 vl=10.000 db=0.45
G1 X-10.80 Y58.86 E23.7300              ; draw dl=0.6@10(10<10>10) de=0.038@0.62(0.62<0.62>0.62) l=0.30x0.50x1.00 r=1.00
;00:00:22.539: pe=0.0000 eb=0.0224 ve=0.6236 vn=0.6236 vl=10.000 db=0.48
G1 X-10.72 Y58.18 E23.7727              ; draw dl=0.7@10(10<10>10) de=0.043@0.62(0.62<0.62>0.62) l=0.30x0.50x1.00 r=1.00
;00:00:22.608: pe=0.0000 eb=0.0236 ve=0.6236 vn=0.6236 vl=10.000 db=0.49
G1 X-10.80 Y57.51 E23.8148              ; draw dl=0.7@10(10<10>10) de=0.042@0.62(0.62<0.62>0.62) l=0.30x0.50x1.00 r=1.00
;00:00:22.675: pe=0.0000 eb=0.0241 ve=0.6236 vn=0.6236 vl=10.000 db=0.50
G1 X-11.04 Y56.95 E23.8528              ; draw dl=0.6@10(10<10>10) de=0.038@0.62(0.62<0.62>0.62) l=0.30x0.50x1.00 r=1.00
;00:00:22.736: pe=0.0000 eb=0.0243 ve=0.6236 vn=0.6236 vl=10.000 db=0.50
G1 X-11.43 Y56.56 E23.8872              ; draw dl=0.6@10(10<10>10) de=0.034@0.62(0.62<0.62>0.62) l=0.30x0.50x1.00 r=1.00
;00:00:22.791: pe=0.0000 eb=0.0244 ve=0.6236 vn=0.6236 vl=10.000 db=0.50
G1 X-11.94 Y56.42 E23.9202              ; draw dl=0.5@10(10<10>10) de=0.033@0.62(0.62<0.62>0.62) l=0.30x0.50x1.00 r=1.00
;00:00:22.844: pe=0.0000 eb=0.0244 ve=0.6236 vn=0.6236 vl=10.000 db=0.50
G1 X-12.46 Y56.56 E23.9537              ; draw dl=0.5@10(10<10>10) de=0.034@0.62(0.62<0.62>0.62) l=0.30x0.50x1.00 r=1.00
;00:00:22.898: pe=0.0000 eb=0.0245 ve=0.6236 vn=0.6236 vl=10.000 db=0.50
G1 X-12.84 Y56.95 E23.9877              ; draw dl=0.5@10(10<10>10) de=0.034@0.62(0.62<0.62>0.62) l=0.30x0.50x1.00 r=1.00
;00:00:22.952: pe=-0.0000 eb=0.0245 ve=0.6236 vn=0.0000 vl=10.000 db=0.50
G1 X-13.08 Y57.51 E24.0257              ; draw dl=0.6@10(10<10>10) de=0.038@0.62(0.62<0.62>0.62) l=0.30x0.50x1.00 r=1.00
;00:00:23.013: pe=0.0000 eb=0.0245 ve=0.6236 vn=0.6236 vl=10.000 db=0.50
G1 X-13.16 Y58.18 E24.0678              ; draw dl=0.7@10(10<10>10) de=0.042@0.62(0.62<0.62>0.62) l=0.30x0.50x1.00 r=1.00
;00:00:23.081: pe=0.0000 eb=0.0245 ve=0.6236 vn=0.6236 vl=10.000 db=0.50
G1 X-13.08 Y58.85 E24.1099              ; draw dl=0.7@10(10<10>10) de=0.042@0.62(0.62<0.62>0.62) l=0.30x0.50x1.00 r=1.00
;00:00:23.148: pe=0.0000 eb=0.0245 ve=0.6236 vn=0.6236 vl=10.000 db=0.50
G1 X-12.84 Y59.42 E24.1484              ; draw dl=0.6@10(10<10>10) de=0.039@0.62(0.62<0.62>0.62) l=0.30x0.50x1.00 r=1.00
;00:00:23.210: pe=0.0000 eb=0.0245 ve=0.6236 vn=0.6236 vl=10.000 db=0.50
G1 X-12.46 Y59.80 E24.1819              ; draw dl=0.5@10(10<10>10) de=0.034@0.62(0.62<0.62>0.62) l=0.30x0.50x1.00 r=1.00
;00:00:23.264: pe=0.0000 eb=0.0245 ve=0.6236 vn=0.6236 vl=10.000 db=0.50
G1 X-11.94 Y59.94 E24.2155              ; draw dl=0.5@10(10<10>0) de=0.034@0.53(0.62<0.62>0.0) l=0.30x0.50x1.00 r=1.00
;00:00:23.328: pe=0.0000 eb=0.0245 ve=0.0000 vn=0.0000 vl=0.000 db=0.50
G1 E19.2155 F2400                       ; retract de=-5.0000@-40.0 r=1.00
;00:00:23.453: pe=-5.0000 eb=0.0245 ve=-40.0000 vn=0.0000 vl=0.000 db=0.50
G1 Z0.500 F420                          ; hopup dz=0.20@7 h=0.5 r=0.77
;00:00:23.481: pe=-5.0000 eb=0.0245 ve=0.0000 vn=0.0000 vl=0.000 db=0.39
G1 X-9.65 Y56.71 F6000                  ; move dl=4.0@100(0<31>0) de=0.000@0.0(0.0<0.0>0.0) l=0.50x0.50x0.00 r=0.00
;00:00:23.670: pe=-5.0000 eb=0.0000 ve=0.0000 vn=0.0000 vl=0.000 db=0.00
G1 Z0.300 F420                          ; hopdn dz=-0.20@7 h=0.3 r=0.00
;00:00:23.699: pe=-5.0000 eb=0.0000 ve=0.0000 vn=0.0000 vl=0.000 db=0.00
G1 E24.2155 F1800                       ; restore de=5.0000@30.0 r=0.00
;00:00:23.865: pe=-0.0000 eb=0.0000 ve=30.0000 vn=0.0000 vl=0.000 db=0.00
G1 X-9.65 Y56.65 E24.2193 F600          ; draw dl=0.1@10(0<4>0) de=0.004@0.16(0.0<0.24>0.0) l=0.30x0.50x1.00 r=1.00
;00:00:23.889: pe=0.0000 eb=0.0029 ve=0.0000 vn=0.0000 vl=0.000 db=0.17
G1 E19.2193 F2400                       ; retract de=-5.0000@-40.0 r=0.34
;00:00:24.014: pe=-5.0000 eb=0.0029 ve=-40.0000 vn=0.0000 vl=0.000 db=0.17
G1 Z0.500 F420                          ; hopup dz=0.20@7 h=0.5 r=0.27
;00:00:24.042: pe=-5.0000 eb=0.0029 ve=0.0000 vn=0.0000 vl=0.000 db=0.13
G1 X-7.37 Y59.94 F6000                  ; move dl=4.0@100(0<32>0) de=0.000@0.0(0.0<0.0>0.0) l=0.50x0.50x0.00 r=0.00
;00:00:24.232: pe=-5.0000 eb=0.0000 ve=0.0000 vn=0.0000 vl=0.000 db=0.00
G1 Z0.300 F420                          ; hopdn dz=-0.20@7 h=0.3 r=0.00
;00:00:24.261: pe=-5.0000 eb=0.0000 ve=0.0000 vn=0.0000 vl=0.000 db=0.00
G1 E24.2193 F1800                       ; restore de=5.0000@30.0 r=0.00
;00:00:24.427: pe=-0.0000 eb=0.0000 ve=30.0000 vn=0.0000 vl=0.000 db=0.00
G1 X-6.86 Y59.80 E24.2522 F600          ; draw dl=0.5@10(0<10>10) de=0.033@0.52(0.0<0.62>0.62) l=0.30x0.50x1.00 r=1.00
;00:00:24.490: pe=0.0000 eb=0.0143 ve=0.6237 vn=0.6237 vl=10.000 db=0.38
G1 X-6.47 Y59.42 E24.2862               ; draw dl=0.5@10(10<10>10) de=0.034@0.62(0.62<0.62>0.62) l=0.30x0.50x1.00 r=1.00
;00:00:24.545: pe=0.0000 eb=0.0197 ve=0.6237 vn=0.6237 vl=10.000 db=0.45
G1 X-6.23 Y58.86 E24.3242               ; draw dl=0.6@10(10<10>10) de=0.038@0.62(0.62<0.62>0.62) l=0.30x0.50x1.00 r=1.00
;00:00:24.605: pe=0.0000 eb=0.0224 ve=0.6237 vn=0.6237 vl=10.000 db=0.48
G1 X-6.15 Y58.18 E24.3669               ; draw dl=0.7@10(10<10>10) de=0.043@0.62(0.62<0.62>0.62) l=0.30x0.50x1.00 r=1.00
;00:00:24.674: pe=0.0000 eb=0.0236 ve=0.6237 vn=0.6237 vl=10.000 db=0.49
G1 X-6.23 Y57.51 E24.4090               ; draw dl=0.7@10(10<10>10) de=0.042@0.62(0.62<0.62>0.62) l=0.30x0.50x1.00 r=1.00
;00:00:24.741: pe=0.0000 eb=0.0241 ve=0.6237 vn=0.6237 vl=10.000 db=0.50
G1 X-6.47 Y56.95 E24.4470               ; draw dl=0.6@10(10<10>10) de=0.038@0.62(0.62<0.62>0.62) l=0.30x0.50x1.00 r=1.00
;00:00:24.802: pe=0.0000 eb=0.0243 ve=0.6237 vn=0.6237 vl=10.000 db=0.50
G1 X-6.86 Y56.56 E24.4814               ; draw dl=0.6@10(10<10>10) de=0.034@0.62(0.62<0.62>0.62) l=0.30x0.50x1.00 r=1.00
;00:00:24.857: pe=0.0000 eb=0.0244 ve=0.6237 vn=0.6237 vl=10.000 db=0.50
G1 X-7.37 Y56.42 E24.5144               ; draw dl=0.5@10(10<10>10) de=0.033@0.62(0.62<0.62>0.62) l=0.30x0.50x1.00 r=1.00
;00:00:24.910: pe=0.0000 eb=0.0245 ve=0.6237 vn=0.6237 vl=10.000 db=0.50
G1 X-7.89 Y56.56 E24.5480               ; draw dl=0.5@10(10<10>10) de=0.034@0.62(0.62<0.62>0.62) l=0.30x0.50x1.00 r=1.00
;00:00:24.964: pe=0.0000 eb=0.0245 ve=0.6237 vn=0.6237 vl=10.000 db=0.50
G1 X-8.27 Y56.95 E24.5819               ; draw dl=0.5@10(10<10>10) de=0.034@0.62(0.62<0.62>0.62) l=0.30x0.50x1.00 r=1.00
;00:00:25.019: pe=0.0000 eb=0.0245 ve=0.6237 vn=0.6237 vl=10.000 db=0.50
G1 X-8.51 Y57.51 E24.6199               ; draw dl=0.6@10(10<10>10) de=0.038@0.62(0.62<0.62>0.62) l=0.30x0.50x1.00 r=1.00
;00:00:25.080: pe=0.0000 eb=0.0245 ve=0.6237 vn=0.6237 vl=10.000 db=0.50
G1 X-8.59 Y58.18 E24.6620               ; draw dl=0.7@10(10<10>10) de=0.042@0.62(0.62<0.62>0.62) l=0.30x0.50x1.00 r=1.00
;00:00:25.147: pe=0.0000 eb=0.0245 ve=0.6237 vn=0.6237 vl=10.000 db=0.50
G1 X-8.51 Y58.85 E24.7041               ; draw dl=0.7@10(10<10>10) de=0.042@0.62(0.62<0.62>0.62) l=0.30x0.50x1.00 r=1.00
;00:00:25.215: pe=0.0000 eb=0.0245 ve=0.6237 vn=0.6237 vl=10.000 db=0.50
G1 X-8.27 Y59.42 E24.7427               ; draw dl=0.6@10(10<10>10) de=0.039@0.62(0.62<0.62>0.62) l=0.30x0.50x1.00 r=1.00
;00:00:25.276: pe=0.0000 eb=0.0245 ve=0.6237 vn=0.6237 vl=10.000 db=0.50
G1 X-7.89 Y59.80 E24.7762               ; draw dl=0.5@10(10<10>10) de=0.034@0.62(0.62<0.62>0.62) l=0.30x0.50x1.00 r=1.00
;00:00:25.330: pe=0.0000 eb=0.0245 ve=0.6237 vn=0.6237 vl=10.000 db=0.50
G1 X-7.37 Y59.94 E24.8098               ; draw dl=0.5@10(10<10>0) de=0.034@0.53(0.62<0.62>0.0) l=0.30x0.50x1.00 r=1.00
;00:00:25.394: pe=0.0000 eb=0.0245 ve=0.0000 vn=0.0000 vl=0.000 db=0.50
G1 E19.8098 F2400                       ; retract de=-5.0000@-40.0 r=1.00
;00:00:25.519: pe=-5.0000 eb=0.0245 ve=-40.0000 vn=0.0000 vl=0.000 db=0.50
G1 Z0.500 F420                          ; hopup dz=0.20@7 h=0.5 r=0.77
;00:00:25.548: pe=-5.0000 eb=0.0245 ve=0.0000 vn=0.0000 vl=0.000 db=0.39
G1 X-1.77 Y56.48 F6000                  ; move dl=6.6@100(0<41>0) de=0.000@0.0(0.0<0.0>0.0) l=0.50x0.50x0.00 r=0.00
;00:00:25.791: pe=-5.0000 eb=0.0000 ve=0.0000 vn=0.0000 vl=0.000 db=0.00
G1 Z0.300 F420                          ; hopdn dz=-0.20@7 h=0.3 r=0.00
;00:00:25.820: pe=-5.0000 eb=0.0000 ve=0.0000 vn=0.0000 vl=0.000 db=0.00
G1 E24.8098 F1800                       ; restore de=5.0000@30.0 r=0.00
;00:00:25.986: pe=-0.0000 eb=0.0000 ve=30.0000 vn=0.0000 vl=0.000 db=0.00
G1 X-1.77 Y59.88 E25.0218 F600          ; draw dl=3.4@10(0<10>10) de=0.212@0.61(0.0<0.62>0.62) l=0.30x0.50x1.00 r=1.00
;00:00:26.336: pe=0.0000 eb=0.0243 ve=0.6237 vn=0.6237 vl=10.000 db=0.50
;00:00:26.336: skipping empty move move dl=0.0@7(0<0>0) de=0.000@0.0(0.0<0.0>0.0) l=0.30x0.50x0.00
G1 X-0.54 Y59.88 E25.0985               ; draw dl=1.2@10(10<10>10) de=0.077@0.62(0.62<0.62>0.62) l=0.30x0.50x1.00 r=1.00
;00:00:26.459: pe=0.0000 eb=0.0244 ve=0.6237 vn=0.6237 vl=10.000 db=0.50
G1 X-0.15 Y59.78 E25.1236               ; draw dl=0.4@10(10<10>10) de=0.025@0.62(0.62<0.62>0.62) l=0.30x0.50x1.00 r=1.00
;00:00:26.499: pe=0.0000 eb=0.0245 ve=0.6237 vn=0.6237 vl=10.000 db=0.50
G1 X0.16 Y59.58 E25.1466                ; draw dl=0.4@10(10<10>10) de=0.023@0.62(0.62<0.62>0.62) l=0.30x0.50x1.00 r=1.00
;00:00:26.536: pe=0.0000 eb=0.0245 ve=0.6237 vn=0.6237 vl=10.000 db=0.50
G1 X0.26 Y59.45 E25.1569                ; draw dl=0.2@10(10<10>10) de=0.010@0.62(0.62<0.62>0.62) l=0.30x0.50x1.00 r=1.00
;00:00:26.553: pe=0.0000 eb=0.0245 ve=0.6237 vn=0.6237 vl=10.000 db=0.50
G1 X0.39 Y59.04 E25.1837                ; draw dl=0.4@10(10<10>10) de=0.027@0.62(0.62<0.62>0.62) l=0.30x0.50x1.00 r=1.00
;00:00:26.596: pe=0.0000 eb=0.0245 ve=0.6237 vn=0.6237 vl=10.000 db=0.50
G1 X0.34 Y58.80 E25.1990                ; draw dl=0.2@10(10<10>10) de=0.015@0.62(0.62<0.62>0.62) l=0.30x0.50x1.00 r=1.00
;00:00:26.620: pe=0.0000 eb=0.0245 ve=0.6237 vn=0.6237 vl=10.000 db=0.50
G1 X0.23 Y58.56 E25.2154                ; draw dl=0.3@10(10<10>10) de=0.016@0.62(0.62<0.62>0.62) l=0.30x0.50x1.00 r=1.00
;00:00:26.647: pe=0.0000 eb=0.0245 ve=0.6237 vn=0.6237 vl=10.000 db=0.50
G1 X0.01 Y58.36 E25.2340                ; draw dl=0.3@10(10<10>10) de=0.019@0.62(0.62<0.62>0.62) l=0.30x0.50x1.00 r=1.00
;00:00:26.676: pe=0.0000 eb=0.0245 ve=0.6237 vn=0.6237 vl=10.000 db=0.50
G1 X-0.76 Y58.18 E25.2833               ; draw dl=0.8@10(10<10>0) de=0.049@0.55(0.62<0.62>0.0) l=0.30x0.50x1.00 r=1.00
;00:00:26.765: pe=0.0000 eb=0.0245 ve=0.0000 vn=0.0000 vl=0.000 db=0.50
G1 E20.2833 F2400                       ; retract de=-5.0000@-40.0 r=1.00
;00:00:26.890: pe=-5.0000 eb=0.0245 ve=-40.0000 vn=0.0000 vl=0.000 db=0.50
G1 Z0.500 F420                          ; hopup dz=0.20@7 h=0.5 r=0.77
;00:00:26.919: pe=-5.0000 eb=0.0245 ve=0.0000 vn=0.0000 vl=0.000 db=0.39
G1 X-1.77 Y58.18 F6000                  ; move dl=1.0@100(0<16>0) de=0.000@0.0(0.0<0.0>0.0) l=0.50x0.50x0.00 r=0.00
;00:00:27.014: pe=-5.0000 eb=0.0000 ve=0.0000 vn=0.0000 vl=0.000 db=0.00
G1 Z0.300 F420                          ; hopdn dz=-0.20@7 h=0.3 r=0.00
;00:00:27.043: pe=-5.0000 eb=0.0000 ve=0.0000 vn=0.0000 vl=0.000 db=0.00
G1 E25.2833 F1800                       ; restore de=5.0000@30.0 r=0.00
;00:00:27.210: pe=-0.0000 eb=0.0000 ve=30.0000 vn=0.0000 vl=0.000 db=0.00
G1 X-0.76 Y58.18 E25.3463 F600          ; draw dl=1.0@10(0<10>10) de=0.063@0.57(0.0<0.62>0.62) l=0.30x0.50x1.00 r=1.00
;00:00:27.321: pe=0.0000 eb=0.0193 ve=0.6237 vn=0.6237 vl=10.000 db=0.44
G1 X-0.25 Y58.00 E25.3800               ; draw dl=0.5@10(10<10>10) de=0.034@0.62(0.62<0.62>0.62) l=0.30x0.50x1.00 r=1.00
;00:00:27.375: pe=0.0000 eb=0.0220 ve=0.6237 vn=0.6237 vl=10.000 db=0.47
G1 X0.14 Y57.38 E25.4257                ; draw dl=0.7@10(10<10>10) de=0.046@0.62(0.62<0.62>0.62) l=0.30x0.50x1.00 r=1.00
;00:00:27.448: pe=0.0000 eb=0.0235 ve=0.6237 vn=0.6237 vl=10.000 db=0.49
G1 X0.39 Y56.48 E25.4840                ; draw dl=0.9@10(10<10>0) de=0.058@0.56(0.62<0.62>0.0) l=0.30x0.50x1.00 r=1.00
;00:00:27.551: pe=0.0000 eb=0.0242 ve=0.0000 vn=0.0000 vl=0.000 db=0.50
G1 E20.4840 F2400                       ; retract de=-5.0000@-40.0 r=0.99
;00:00:27.676: pe=-5.0000 eb=0.0242 ve=-40.0000 vn=0.0000 vl=0.000 db=0.50
G1 Z0.500 F420                          ; hopup dz=0.20@7 h=0.5 r=0.77
;00:00:27.705: pe=-5.0000 eb=0.0242 ve=0.0000 vn=0.0000 vl=0.000 db=0.39
G1 X1.45 Y57.69 F6000                   ; move dl=1.6@100(0<20>0) de=0.000@0.0(0.0<0.0>0.0) l=0.50x0.50x0.00 r=0.00
;00:00:27.825: pe=-5.0000 eb=0.0000 ve=0.0000 vn=0.0000 vl=0.000 db=0.00
G1 Z0.300 F420                          ; hopdn dz=-0.20@7 h=0.3 r=0.00
;00:00:27.854: pe=-5.0000 eb=0.0000 ve=0.0000 vn=0.0000 vl=0.000 db=0.00
G1 E25.4840 F1800                       ; restore de=5.0000@30.0 r=0.00
;00:00:28.021: pe=-0.0000 eb=0.0000 ve=30.0000 vn=0.0000 vl=0.000 db=0.00
G1 X3.59 Y57.69 E25.6174 F600           ; draw dl=2.1@10(0<10>10) de=0.133@0.6(0.0<0.62>0.6) l=0.30x0.50x1.00 r=1.00
;00:00:28.245: pe=0.0000 eb=0.0233 ve=0.6039 vn=0.6039 vl=9.683 db=0.49
G1 X3.51 Y58.22 E25.6509                ; draw dl=0.5@10(10<10>10) de=0.033@0.62(0.6<0.62>0.62) l=0.30x0.50x1.00 r=1.00
;00:00:28.298: pe=0.0000 eb=0.0239 ve=0.6237 vn=0.6237 vl=10.000 db=0.49
G1 X3.30 Y58.61 E25.6785                ; draw dl=0.4@10(10<10>10) de=0.028@0.62(0.62<0.62>0.62) l=0.30x0.50x1.00 r=1.00
;00:00:28.342: pe=0.0000 eb=0.0242 ve=0.6237 vn=0.6237 vl=10.000 db=0.50
G1 X2.96 Y58.86 E25.7048                ; draw dl=0.4@10(10<10>10) de=0.026@0.62(0.62<0.62>0.62) l=0.30x0.50x1.00 r=1.00
;00:00:28.385: pe=0.0000 eb=0.0243 ve=0.6237 vn=0.6237 vl=10.000 db=0.50
G1 X2.52 Y58.95 E25.7328                ; draw dl=0.4@10(10<10>10) de=0.028@0.62(0.62<0.62>0.62) l=0.30x0.50x1.00 r=1.00
;00:00:28.430: pe=0.0000 eb=0.0244 ve=0.6237 vn=0.6237 vl=10.000 db=0.50
G1 X2.09 Y58.86 E25.7602                ; draw dl=0.4@10(10<10>10) de=0.027@0.62(0.62<0.62>0.62) l=0.30x0.50x1.00 r=1.00
;00:00:28.473: pe=0.0000 eb=0.0244 ve=0.6237 vn=0.6237 vl=10.000 db=0.50
G1 X1.75 Y58.61 E25.7865                ; draw dl=0.4@10(10<10>10) de=0.026@0.62(0.62<0.62>0.62) l=0.30x0.50x1.00 r=1.00
;00:00:28.516: pe=0.0000 eb=0.0245 ve=0.6237 vn=0.6237 vl=10.000 db=0.50
G1 X1.53 Y58.22 E25.8145                ; draw dl=0.4@10(10<10>10) de=0.028@0.62(0.62<0.62>0.62) l=0.30x0.50x1.00 r=1.00
;00:00:28.560: pe=0.0000 eb=0.0245 ve=0.6237 vn=0.6237 vl=10.000 db=0.50
G1 X1.45 Y57.69 E25.8479                ; draw dl=0.5@10(10<10>10) de=0.033@0.62(0.62<0.62>0.62) l=0.30x0.50x1.00 r=1.00
;00:00:28.614: pe=0.0000 eb=0.0245 ve=0.6237 vn=0.6237 vl=10.000 db=0.50
G1 X1.53 Y57.15 E25.8819                ; draw dl=0.5@10(10<10>10) de=0.034@0.62(0.62<0.62>0.62) l=0.30x0.50x1.00 r=1.00
;00:00:28.669: pe=0.0000 eb=0.0245 ve=0.6237 vn=0.6237 vl=10.000 db=0.50
G1 X1.76 Y56.75 E25.9107                ; draw dl=0.5@10(10<10>10) de=0.029@0.62(0.62<0.62>0.62) l=0.30x0.50x1.00 r=1.00
;00:00:28.715: pe=0.0000 eb=0.0245 ve=0.6237 vn=0.6237 vl=10.000 db=0.50
G1 X2.11 Y56.51 E25.9372                ; draw dl=0.4@10(10<10>10) de=0.026@0.62(0.62<0.62>0.62) l=0.30x0.50x1.00 r=1.00
;00:00:28.757: pe=0.0000 eb=0.0245 ve=0.6237 vn=0.6237 vl=10.000 db=0.50
G1 X2.57 Y56.42 E25.9664                ; draw dl=0.5@10(10<10>10) de=0.029@0.62(0.62<0.62>0.62) l=0.30x0.50x1.00 r=1.00
;00:00:28.804: pe=0.0000 eb=0.0245 ve=0.6237 vn=0.6237 vl=10.000 db=0.50
G1 X2.91 Y56.47 E25.9878                ; draw dl=0.3@10(10<10>10) de=0.021@0.62(0.62<0.62>0.62) l=0.30x0.50x1.00 r=1.00
;00:00:28.838: pe=0.0000 eb=0.0245 ve=0.6237 vn=0.6237 vl=10.000 db=0.50
G1 X3.20 Y56.61 E26.0079                ; draw dl=0.3@10(10<10>10) de=0.020@0.62(0.62<0.62>0.62) l=0.30x0.50x1.00 r=1.00
;00:00:28.871: pe=0.0000 eb=0.0245 ve=0.6237 vn=0.6237 vl=10.000 db=0.50
G1 X3.41 Y56.83 E26.0269                ; draw dl=0.3@10(10<10>10) de=0.019@0.62(0.62<0.62>0.62) l=0.30x0.50x1.00 r=1.00
;00:00:28.901: pe=0.0000 eb=0.0245 ve=0.6237 vn=0.6237 vl=10.000 db=0.50
G1 X3.53 Y57.13 E26.0470                ; draw dl=0.3@10(10<10>0) de=0.020@0.48(0.62<0.62>0.0) l=0.30x0.50x1.00 r=1.00
;00:00:28.943: pe=0.0000 eb=0.0245 ve=0.0000 vn=0.0000 vl=0.000 db=0.50
G1 E21.0470 F2400                       ; retract de=-5.0000@-40.0 r=1.00
;00:00:29.068: pe=-5.0000 eb=0.0245 ve=-40.0000 vn=0.0000 vl=0.000 db=0.50
G1 Z0.500 F420                          ; hopup dz=0.20@7 h=0.5 r=0.77
;00:00:29.097: pe=-5.0000 eb=0.0245 ve=0.0000 vn=0.0000 vl=0.000 db=0.39
G1 X4.65 Y58.26 F6000                   ; move dl=1.6@100(0<20>0) de=0.000@0.0(0.0<0.0>0.0) l=0.50x0.50x0.00 r=0.00
;00:00:29.217: pe=-5.0000 eb=0.0000 ve=0.0000 vn=0.0000 vl=0.000 db=0.00
G1 Z0.300 F420                          ; hopdn dz=-0.20@7 h=0.3 r=0.00
;00:00:29.245: pe=-5.0000 eb=0.0000 ve=0.0000 vn=0.0000 vl=0.000 db=0.00
G1 E26.0470 F1800                       ; restore de=5.0000@30.0 r=0.00
;00:00:29.412: pe=-0.0000 eb=0.0000 ve=30.0000 vn=0.0000 vl=0.000 db=0.00
G1 X6.34 Y58.26 E26.1524 F600           ; draw dl=1.7@10(0<10>0) de=0.105@0.56(0.0<0.62>0.0) l=0.30x0.50x1.00 r=1.00
;00:00:29.601: pe=0.0000 eb=0.0224 ve=0.0000 vn=0.0000 vl=0.000 db=0.48
G1 E21.1524 F2400                       ; retract de=-5.0000@-40.0 r=0.96
;00:00:29.726: pe=-5.0000 eb=0.0224 ve=-40.0000 vn=0.0000 vl=0.000 db=0.48
G1 Z0.500 F420                          ; hopup dz=0.20@7 h=0.5 r=0.74
;00:00:29.754: pe=-5.0000 eb=0.0224 ve=0.0000 vn=0.0000 vl=0.000 db=0.37
G1 X6.34 Y57.55 F6000                   ; move dl=0.7@100(0<13>0) de=0.000@0.0(0.0<0.0>0.0) l=0.50x0.50x0.00 r=0.00
;00:00:29.834: pe=-5.0000 eb=0.0000 ve=0.0000 vn=0.0000 vl=0.000 db=0.00
G1 Z0.300 F420                          ; hopdn dz=-0.20@7 h=0.3 r=0.00
;00:00:29.863: pe=-5.0000 eb=0.0000 ve=0.0000 vn=0.0000 vl=0.000 db=0.00
G1 E26.1524 F1800                       ; restore de=5.0000@30.0 r=0.00
;00:00:30.030: pe=-0.0000 eb=0.0000 ve=30.0000 vn=0.0000 vl=0.000 db=0.00
G1 X4.65 Y57.55 E26.2578 F600           ; draw dl=1.7@10(0<10>0) de=0.105@0.56(0.0<0.62>0.0) l=0.30x0.50x1.00 r=1.00
;00:00:30.219: pe=0.0000 eb=0.0224 ve=0.0000 vn=0.0000 vl=0.000 db=0.48
G1 E21.2578 F2400                       ; retract de=-5.0000@-40.0 r=0.96
;00:00:30.344: pe=-5.0000 eb=0.0224 ve=-40.0000 vn=0.0000 vl=0.000 db=0.48
G1 Z0.500 F420                          ; hopup dz=0.20@7 h=0.5 r=0.74
;00:00:30.372: pe=-5.0000 eb=0.0224 ve=0.0000 vn=0.0000 vl=0.000 db=0.37
G1 X9.39 Y59.88 F6000                   ; move dl=5.3@100(0<36>0) de=0.000@0.0(0.0<0.0>0.0) l=0.50x0.50x0.00 r=0.00
;00:00:30.590: pe=-5.0000 eb=0.0000 ve=0.0000 vn=0.0000 vl=0.000 db=0.00
G1 Z0.300 F420                          ; hopdn dz=-0.20@7 h=0.3 r=0.00
;00:00:30.619: pe=-5.0000 eb=0.0000 ve=0.0000 vn=0.0000 vl=0.000 db=0.00
G1 E26.2578 F1800                       ; restore de=5.0000@30.0 r=0.00
;00:00:30.785: pe=-0.0000 eb=0.0000 ve=30.0000 vn=0.0000 vl=0.000 db=0.00
G1 X7.64 Y59.88 E26.3670 F600           ; draw dl=1.8@10(0<10>10) de=0.109@0.59(0.0<0.62>0.62) l=0.30x0.50x1.00 r=1.00
;00:00:30.970: pe=0.0000 eb=0.0225 ve=0.6237 vn=0.6237 vl=10.000 db=0.48
G1 X7.50 Y58.14 E26.4758                ; draw dl=1.7@10(10<10>5) de=0.109@0.61(0.62<0.62>0.3) l=0.30x0.50x1.00 r=1.00
;00:00:31.148: pe=0.0000 eb=0.0243 ve=0.3035 vn=0.3035 vl=4.866 db=0.50
G1 X7.78 Y58.45 E26.5019                ; draw dl=0.4@10(5<10>10) de=0.026@0.59(0.3<0.62>0.62) l=0.30x0.50x1.00 r=1.00
;00:00:31.192: pe=0.0000 eb=0.0244 ve=0.6237 vn=0.6237 vl=10.000 db=0.50
G1 X7.95 Y58.57 E26.5149                ; draw dl=0.2@10(10<10>10) de=0.013@0.62(0.62<0.62>0.62) l=0.30x0.50x1.00 r=1.00
;00:00:31.213: pe=0.0000 eb=0.0244 ve=0.6236 vn=0.6236 vl=10.000 db=0.50
G1 X8.14 Y58.64 E26.5275                ; draw dl=0.2@10(10<10>10) de=0.013@0.62(0.62<0.62>0.62) l=0.30x0.50x1.00 r=1.00
;00:00:31.233: pe=0.0000 eb=0.0244 ve=0.6237 vn=0.6237 vl=10.000 db=0.50
G1 X8.33 Y58.67 E26.5395                ; draw dl=0.2@10(10<10>10) de=0.012@0.62(0.62<0.62>0.62) l=0.30x0.50x1.00 r=1.00
;00:00:31.252: pe=0.0000 eb=0.0244 ve=0.6236 vn=0.6236 vl=10.000 db=0.50
G1 X8.53 Y58.68 E26.5520                ; draw dl=0.2@10(10<10>10) de=0.012@0.62(0.62<0.62>0.62) l=0.30x0.50x1.00 r=1.00
;00:00:31.272: pe=0.0000 eb=0.0244 ve=0.6236 vn=0.6236 vl=10.000 db=0.50
G1 X8.94 Y58.59 E26.5782                ; draw dl=0.4@10(10<10>10) de=0.026@0.62(0.62<0.62>0.62) l=0.30x0.50x1.00 r=1.00
;00:00:31.314: pe=0.0000 eb=0.0245 ve=0.6236 vn=0.6236 vl=10.000 db=0.50
G1 X9.26 Y58.37 E26.6024                ; draw dl=0.4@10(10<10>10) de=0.024@0.62(0.62<0.62>0.62) l=0.30x0.50x1.00 r=1.00
;00:00:31.353: pe=0.0000 eb=0.0245 ve=0.6236 vn=0.6236 vl=10.000 db=0.50
G1 X9.47 Y58.03 E26.6273                ; draw dl=0.4@10(10<10>10) de=0.025@0.62(0.62<0.62>0.62) l=0.30x0.50x1.00 r=1.00
;00:00:31.393: pe=0.0000 eb=0.0245 ve=0.6236 vn=0.6236 vl=10.000 db=0.50
G1 X9.55 Y57.61 E26.6540                ; draw dl=0.4@10(10<10>10) de=0.027@0.62(0.62<0.62>0.62) l=0.30x0.50x1.00 r=1.00
;00:00:31.436: pe=0.0000 eb=0.0245 ve=0.6236 vn=0.6236 vl=10.000 db=0.50
G1 X9.48 Y57.14 E26.6836                ; draw dl=0.5@10(10<10>10) de=0.030@0.62(0.62<0.62>0.62) l=0.30x0.50x1.00 r=1.00
;00:00:31.483: pe=0.0000 eb=0.0245 ve=0.6236 vn=0.6236 vl=10.000 db=0.50
G1 X9.27 Y56.77 E26.7101                ; draw dl=0.4@10(10<10>10) de=0.027@0.62(0.62<0.62>0.62) l=0.30x0.50x1.00 r=1.00
;00:00:31.526: pe=0.0000 eb=0.0245 ve=0.6236 vn=0.6236 vl=10.000 db=0.50
G1 X8.92 Y56.51 E26.7373                ; draw dl=0.4@10(10<10>10) de=0.027@0.62(0.62<0.62>0.62) l=0.30x0.50x1.00 r=1.00
;00:00:31.570: pe=0.0000 eb=0.0245 ve=0.6236 vn=0.6236 vl=10.000 db=0.50
G1 X8.42 Y56.42 E26.7690                ; draw dl=0.5@10(10<10>10) de=0.032@0.62(0.62<0.62>0.62) l=0.30x0.50x1.00 r=1.00
;00:00:31.620: pe=0.0000 eb=0.0245 ve=0.6236 vn=0.6236 vl=10.000 db=0.50
G1 X8.05 Y56.48 E26.7924                ; draw dl=0.4@10(10<10>10) de=0.023@0.62(0.62<0.62>0.62) l=0.30x0.50x1.00 r=1.00
;00:00:31.658: pe=0.0000 eb=0.0245 ve=0.6236 vn=0.6236 vl=10.000 db=0.50
G1 X7.74 Y56.64 E26.8141                ; draw dl=0.3@10(10<10>10) de=0.022@0.62(0.62<0.62>0.62) l=0.30x0.50x1.00 r=1.00
;00:00:31.693: pe=0.0000 eb=0.0245 ve=0.6236 vn=0.6236 vl=10.000 db=0.50
G1 X7.52 Y56.91 E26.8358                ; draw dl=0.3@10(10<10>10) de=0.022@0.62(0.62<0.62>0.62) l=0.30x0.50x1.00 r=1.00
;00:00:31.728: pe=0.0000 eb=0.0245 ve=0.6236 vn=0.6236 vl=10.000 db=0.50
G1 X7.40 Y57.27 E26.8595                ; draw dl=0.4@10(10<10>0) de=0.024@0.49(0.62<0.62>0.0) l=0.30x0.50x1.00 r=1.00
;00:00:31.776: pe=0.0000 eb=0.0245 ve=0.0000 vn=0.0000 vl=0.000 db=0.50
G1 E21.8595 F2400                       ; retract de=-5.0000@-40.0 r=1.00
;00:00:31.901: pe=-5.0000 eb=0.0245 ve=-40.0000 vn=0.0000 vl=0.000 db=0.50
G1 Z0.500 F420                          ; hopup dz=0.20@7 h=0.5 r=0.77
;00:00:31.929: pe=-5.0000 eb=0.0245 ve=0.0000 vn=0.0000 vl=0.000 db=0.39
G1 X10.61 Y56.71 F6000                  ; move dl=3.3@100(0<29>0) de=0.000@0.0(0.0<0.0>0.0) l=0.50x0.50x0.00 r=0.00
;00:00:32.100: pe=-5.0000 eb=0.0000 ve=0.0000 vn=0.0000 vl=0.000 db=0.00
G1 Z0.300 F420                          ; hopdn dz=-0.20@7 h=0.3 r=0.00
;00:00:32.129: pe=-5.0000 eb=0.0000 ve=0.0000 vn=0.0000 vl=0.000 db=0.00
G1 E26.8595 F1800                       ; restore de=5.0000@30.0 r=0.00
;00:00:32.296: pe=-0.0000 eb=0.0000 ve=30.0000 vn=0.0000 vl=0.000 db=0.00
G1 X10.61 Y56.65 E26.8633 F600          ; draw dl=0.1@10(0<4>0) de=0.004@0.16(0.0<0.24>0.0) l=0.30x0.50x1.00 r=1.00
;00:00:32.319: pe=0.0000 eb=0.0029 ve=0.0000 vn=0.0000 vl=0.000 db=0.17
G1 E21.8633 F2400                       ; retract de=-5.0000@-40.0 r=0.34
;00:00:32.444: pe=-5.0000 eb=0.0029 ve=-40.0000 vn=0.0000 vl=0.000 db=0.17
G1 Z0.500 F420                          ; hopup dz=0.20@7 h=0.5 r=0.27
;00:00:32.472: pe=-5.0000 eb=0.0029 ve=0.0000 vn=0.0000 vl=0.000 db=0.13
G1 X12.89 Y59.94 F6000                  ; move dl=4.0@100(0<32>0) de=0.000@0.0(0.0<0.0>0.0) l=0.50x0.50x0.00 r=0.00
;00:00:32.662: pe=-5.0000 eb=0.0000 ve=0.0000 vn=0.0000 vl=0.000 db=0.00
G1 Z0.300 F420                          ; hopdn dz=-0.20@7 h=0.3 r=0.00
;00:00:32.691: pe=-5.0000 eb=0.0000 ve=0.0000 vn=0.0000 vl=0.000 db=0.00
G1 E26.8633 F1800                       ; restore de=5.0000@30.0 r=0.00
;00:00:32.857: pe=-0.0000 eb=0.0000 ve=30.0000 vn=0.0000 vl=0.000 db=0.00
G1 X13.40 Y59.80 E26.8962 F600          ; draw dl=0.5@10(0<10>10) de=0.033@0.52(0.0<0.62>0.62) l=0.30x0.50x1.00 r=1.00
;00:00:32.920: pe=0.0000 eb=0.0143 ve=0.6237 vn=0.6237 vl=10.000 db=0.38
G1 X13.79 Y59.42 E26.9302               ; draw dl=0.5@10(10<10>10) de=0.034@0.62(0.62<0.62>0.62) l=0.30x0.50x1.00 r=1.00
;00:00:32.975: pe=0.0000 eb=0.0197 ve=0.6237 vn=0.6237 vl=10.000 db=0.45
G1 X14.03 Y58.86 E26.9682               ; draw dl=0.6@10(10<10>10) de=0.038@0.62(0.62<0.62>0.62) l=0.30x0.50x1.00 r=1.00
;00:00:33.036: pe=0.0000 eb=0.0224 ve=0.6237 vn=0.6237 vl=10.000 db=0.48
G1 X14.11 Y58.18 E27.0109               ; draw dl=0.7@10(10<10>10) de=0.043@0.62(0.62<0.62>0.62) l=0.30x0.50x1.00 r=1.00
;00:00:33.104: pe=0.0000 eb=0.0236 ve=0.6237 vn=0.6237 vl=10.000 db=0.49
G1 X14.03 Y57.51 E27.0530               ; draw dl=0.7@10(10<10>10) de=0.042@0.62(0.62<0.62>0.62) l=0.30x0.50x1.00 r=1.00
;00:00:33.172: pe=0.0000 eb=0.0241 ve=0.6237 vn=0.6237 vl=10.000 db=0.50
G1 X13.79 Y56.95 E27.0910               ; draw dl=0.6@10(10<10>10) de=0.038@0.62(0.62<0.62>0.62) l=0.30x0.50x1.00 r=1.00
;00:00:33.233: pe=0.0000 eb=0.0243 ve=0.6237 vn=0.6237 vl=10.000 db=0.50
G1 X13.40 Y56.56 E27.1254               ; draw dl=0.6@10(10<10>10) de=0.034@0.62(0.62<0.62>0.62) l=0.30x0.50x1.00 r=1.00
;00:00:33.288: pe=0.0000 eb=0.0244 ve=0.6237 vn=0.6237 vl=10.000 db=0.50
G1 X12.89 Y56.42 E27.1584               ; draw dl=0.5@10(10<10>10) de=0.033@0.62(0.62<0.62>0.62) l=0.30x0.50x1.00 r=1.00
;00:00:33.341: pe=0.0000 eb=0.0245 ve=0.6237 vn=0.6237 vl=10.000 db=0.50
G1 X12.37 Y56.56 E27.1919               ; draw dl=0.5@10(10<10>10) de=0.034@0.62(0.62<0.62>0.62) l=0.30x0.50x1.00 r=1.00
;00:00:33.394: pe=0.0000 eb=0.0245 ve=0.6237 vn=0.6237 vl=10.000 db=0.50
G1 X11.99 Y56.95 E27.2259               ; draw dl=0.5@10(10<10>10) de=0.034@0.62(0.62<0.62>0.62) l=0.30x0.50x1.00 r=1.00
;00:00:33.449: pe=0.0000 eb=0.0245 ve=0.6237 vn=0.6237 vl=10.000 db=0.50
G1 X11.75 Y57.51 E27.2639               ; draw dl=0.6@10(10<10>10) de=0.038@0.62(0.62<0.62>0.62) l=0.30x0.50x1.00 r=1.00
;00:00:33.510: pe=0.0000 eb=0.0245 ve=0.6237 vn=0.6237 vl=10.000 db=0.50
G1 X11.67 Y58.18 E27.3060               ; draw dl=0.7@10(10<10>10) de=0.042@0.62(0.62<0.62>0.62) l=0.30x0.50x1.00 r=1.00
;00:00:33.577: pe=0.0000 eb=0.0245 ve=0.6237 vn=0.6237 vl=10.000 db=0.50
G1 X11.75 Y58.85 E27.3481               ; draw dl=0.7@10(10<10>10) de=0.042@0.62(0.62<0.62>0.62) l=0.30x0.50x1.00 r=1.00
;00:00:33.645: pe=0.0000 eb=0.0245 ve=0.6237 vn=0.6237 vl=10.000 db=0.50
G1 X11.99 Y59.42 E27.3866               ; draw dl=0.6@10(10<10>10) de=0.039@0.62(0.62<0.62>0.62) l=0.30x0.50x1.00 r=1.00
;00:00:33.707: pe=0.0000 eb=0.0245 ve=0.6237 vn=0.6237 vl=10.000 db=0.50
G1 X12.37 Y59.80 E27.4202               ; draw dl=0.5@10(10<10>10) de=0.034@0.62(0.62<0.62>0.62) l=0.30x0.50x1.00 r=1.00
;00:00:33.760: pe=0.0000 eb=0.0245 ve=0.6237 vn=0.6237 vl=10.000 db=0.50
G1 X12.89 Y59.94 E27.4537               ; draw dl=0.5@10(10<10>0) de=0.034@0.53(0.62<0.62>0.0) l=0.30x0.50x1.00 r=1.00
;00:00:33.824: pe=0.0000 eb=0.0245 ve=0.0000 vn=0.0000 vl=0.000 db=0.50
G1 E22.4537 F2400                       ; retract de=-5.0000@-40.0 r=1.00
;00:00:33.949: pe=-5.0000 eb=0.0245 ve=-40.0000 vn=0.0000 vl=0.000 db=0.50
G1 Z0.500 F420                          ; hopup dz=0.20@7 h=0.5 r=0.77
;00:00:33.978: pe=-5.0000 eb=0.0245 ve=0.0000 vn=0.0000 vl=0.000 db=0.39
;structure:brim
G1 X-45.00 Y60.00 F6000                 ; move dl=57.9@100(0<100>0) de=0.000@0.0(0.0<0.0>0.0) l=0.50x0.50x0.00 r=0.00
;00:00:34.757: pe=-5.0000 eb=0.0000 ve=0.0000 vn=0.0000 vl=0.000 db=0.00
G1 Z0.300 F420                          ; hopdn dz=-0.20@7 h=0.3 r=0.00
;00:00:34.785: pe=-5.0000 eb=0.0000 ve=0.0000 vn=0.0000 vl=0.000 db=0.00
G1 E27.4537 F1800                       ; restore de=5.0000@30.0 r=0.00
;00:00:34.952: pe=-0.0000 eb=0.0000 ve=30.0000 vn=0.0000 vl=0.000 db=0.00
G1 X-45.00 Y-61.00 E35.0002 F600        ; draw dl=121.0@10(0<10>10) de=7.546@0.62(0.0<0.62>0.62) l=0.30x0.50x1.00 r=1.00
;00:00:47.062: pe=0.0000 eb=0.0245 ve=0.6237 vn=0.6237 vl=10.000 db=0.50
G1 X-45.50 Y-61.00 E35.0314             ; draw dl=0.5@10(10<10>10) de=0.031@0.62(0.62<0.62>0.62) l=0.30x0.50x1.00 r=1.00
;00:00:47.112: pe=0.0000 eb=0.0245 ve=0.6237 vn=0.6237 vl=10.000 db=0.50
G1 X-45.50 Y60.00 E42.5779              ; draw dl=121.0@10(10<10>0) de=7.547@0.62(0.62<0.62>0.0) l=0.30x0.50x1.00 r=1.00
;00:00:59.222: pe=0.0000 eb=0.0245 ve=0.0000 vn=0.0000 vl=0.000 db=0.50
G1 E37.5779 F2400                       ; retract de=-5.0000@-40.0 r=1.00
;00:00:59.347: pe=-5.0000 eb=0.0245 ve=-40.0000 vn=0.0000 vl=0.000 db=0.50
G1 Z0.500 F420                          ; hopup dz=0.20@7 h=0.5 r=0.77
;00:00:59.375: pe=-5.0000 eb=0.0245 ve=0.0000 vn=0.0000 vl=0.000 db=0.39
G1 X45.00 Y60.00 F6000                  ; move dl=90.5@100(0<100>0) de=0.000@0.0(0.0<0.0>0.0) l=0.50x0.50x0.00 r=0.00
;00:01:00.480: pe=-5.0000 eb=0.0000 ve=0.0000 vn=0.0000 vl=0.000 db=0.00
G1 Z0.300 F420                          ; hopdn dz=-0.20@7 h=0.3 r=0.00
;00:01:00.509: pe=-5.0000 eb=0.0000 ve=0.0000 vn=0.0000 vl=0.000 db=0.00
G1 E42.5779 F1800                       ; restore de=5.0000@30.0 r=0.00
;00:01:00.676: pe=-0.0000 eb=0.0000 ve=30.0000 vn=0.0000 vl=0.000 db=0.00
G1 X45.00 Y-61.00 E50.1245 F600         ; draw dl=121.0@10(0<10>10) de=7.547@0.62(0.0<0.62>0.62) l=0.30x0.50x1.00 r=1.00
;00:01:12.786: pe=0.0000 eb=0.0245 ve=0.6237 vn=0.6237 vl=10.000 db=0.50
G1 X45.50 Y-61.00 E50.1556              ; draw dl=0.5@10(10<10>10) de=0.031@0.62(0.62<0.62>0.62) l=0.30x0.50x1.00 r=1.00
;00:01:12.836: pe=0.0000 eb=0.0245 ve=0.6237 vn=0.6237 vl=10.000 db=0.50
G1 X45.50 Y60.00 E57.7022               ; draw dl=121.0@10(10<10>0) de=7.547@0.62(0.62<0.62>0.0) l=0.30x0.50x1.00 r=1.00
;00:01:24.946: pe=0.0000 eb=0.0245 ve=0.0000 vn=0.0000 vl=0.000 db=0.50
G1 E52.7022 F2400                       ; retract de=-5.0000@-40.0 r=1.00
;00:01:25.071: pe=-5.0000 eb=0.0245 ve=-40.0000 vn=0.0000 vl=0.000 db=0.50
G1 Z0.500 F420                          ; hopup dz=0.20@7 h=0.5 r=0.77
;00:01:25.099: pe=-5.0000 eb=0.0245 ve=0.0000 vn=0.0000 vl=0.000 db=0.39
;00:01:25.099: Test fKf fKf=0.0-2.0 vx0=20 vx1=100
;structure:shell-outer
G1 X-45.00 Y55.00 F6000                 ; move dl=90.6@100(0<100>0) de=0.000@0.0(0.0<0.0>0.0) l=0.50x0.50x0.00 r=0.00
;00:01:26.206: pe=-5.0000 eb=0.0000 ve=0.0000 vn=0.0000 vl=0.000 db=0.00
G1 Z0.300 F420                          ; hopdn dz=-0.20@7 h=0.3 r=0.00
;00:01:26.234: pe=-5.0000 eb=0.0000 ve=0.0000 vn=0.0000 vl=0.000 db=0.00
G1 E57.7022 F1800                       ; restore de=5.0000@30.0 r=0.00
;00:01:26.401: pe=-0.0000 eb=0.0000 ve=30.0000 vn=0.0000 vl=0.000 db=0.00
G1 X45.00 Y55.00 E63.3153 F600          ; draw dl=90.0@10(0<10>0) de=5.613@0.62(0.0<0.62>0.0) l=0.30x0.50x1.00 r=1.00
;00:01:35.421: pe=0.0000 eb=0.0245 ve=0.0000 vn=0.0000 vl=0.000 db=0.50
G1 E58.3153 F2400                       ; retract de=-5.0000@-40.0 r=1.00
;00:01:35.546: pe=-5.0000 eb=0.0245 ve=-40.0000 vn=0.0000 vl=0.000 db=0.50
G1 Z0.500 F420                          ; hopup dz=0.20@7 h=0.5 r=0.77
;00:01:35.574: pe=-5.0000 eb=0.0245 ve=0.0000 vn=0.0000 vl=0.000 db=0.39
G1 X-42.00 Y55.00 F6000                 ; move dl=87.0@100(0<100>0) de=0.000@0.0(0.0<0.0>0.0) l=0.50x0.50x0.00 r=0.00
;00:01:36.644: pe=-5.0000 eb=0.0000 ve=0.0000 vn=0.0000 vl=0.000 db=0.00
G1 X-40.00 Y55.00                       ; move dl=2.0@100(0<22>0) de=0.000@0.0(0.0<0.0>0.0) l=0.50x0.50x0.00 r=0.00
;00:01:36.779: pe=-5.0000 eb=0.0000 ve=0.0000 vn=0.0000 vl=0.000 db=0.00
G1 Z0.300 F420                          ; hopdn dz=-0.20@7 h=0.3 r=0.00
;00:01:36.807: pe=-5.0000 eb=0.0000 ve=0.0000 vn=0.0000 vl=0.000 db=0.00
G1 E63.3153 F1800                       ; restore de=5.0000@30.0 r=0.00
;00:01:36.974: pe=-0.0000 eb=0.0000 ve=30.0000 vn=0.0000 vl=0.000 db=0.00
G1 X-40.00 Y52.00 E63.5024 F600         ; draw dl=3.0@10(0<10>0) de=0.187@0.58(0.0<0.62>0.0) l=0.30x0.50x1.00 r=1.00
;00:01:37.294: pe=0.0000 eb=0.0241 ve=0.0000 vn=0.0000 vl=0.000 db=0.50
G1 E58.5024 F2400                       ; retract de=-5.0000@-40.0 r=0.99
;00:01:37.419: pe=-5.0000 eb=0.0241 ve=-40.0000 vn=0.0000 vl=0.000 db=0.50
G1 Z0.500 F420                          ; hopup dz=0.20@7 h=0.5 r=0.77
;00:01:37.447: pe=-5.0000 eb=0.0241 ve=0.0000 vn=0.0000 vl=0.000 db=0.38
G1 X-38.00 Y55.00 F6000                 ; move dl=3.6@100(0<30>0) de=0.000@0.0(0.0<0.0>0.0) l=0.50x0.50x0.00 r=0.00
;00:01:37.628: pe=-5.0000 eb=0.0000 ve=0.0000 vn=0.0000 vl=0.000 db=0.00
G1 Z0.300 F420                          ; hopdn dz=-0.20@7 h=0.3 r=0.00
;00:01:37.656: pe=-5.0000 eb=0.0000 ve=0.0000 vn=0.0000 vl=0.000 db=0.00
G1 E63.5024 F1800                       ; restore de=5.0000@30.0 r=0.00
;00:01:37.823: pe=-0.0000 eb=0.0000 ve=30.0000 vn=0.0000 vl=0.000 db=0.00
G1 X-38.00 Y53.50 E63.5959 F600         ; draw dl=1.5@10(0<10>0) de=0.094@0.55(0.0<0.62>0.0) l=0.30x0.50x1.00 r=1.00
;00:01:37.993: pe=0.0000 eb=0.0218 ve=0.0000 vn=0.0000 vl=0.000 db=0.47
G1 E58.5959 F2400                       ; retract de=-5.0000@-40.0 r=0.94
;00:01:38.118: pe=-5.0000 eb=0.0218 ve=-40.0000 vn=0.0000 vl=0.000 db=0.47
G1 Z0.500 F420                          ; hopup dz=0.20@7 h=0.5 r=0.73
;00:01:38.146: pe=-5.0000 eb=0.0218 ve=0.0000 vn=0.0000 vl=0.000 db=0.37
G1 X-36.00 Y55.00 F6000                 ; move dl=2.5@100(0<25>0) de=0.000@0.0(0.0<0.0>0.0) l=0.50x0.50x0.00 r=0.00
;00:01:38.296: pe=-5.0000 eb=0.0000 ve=0.0000 vn=0.0000 vl=0.000 db=0.00
G1 Z0.300 F420                          ; hopdn dz=-0.20@7 h=0.3 r=0.00
;00:01:38.325: pe=-5.0000 eb=0.0000 ve=0.0000 vn=0.0000 vl=0.000 db=0.00
G1 E63.5959 F1800                       ; restore de=5.0000@30.0 r=0.00
;00:01:38.492: pe=-0.0000 eb=0.0000 ve=30.0000 vn=0.0000 vl=0.000 db=0.00
G1 X-36.00 Y53.50 E63.6895 F600         ; draw dl=1.5@10(0<10>0) de=0.094@0.55(0.0<0.62>0.0) l=0.30x0.50x1.00 r=1.00
;00:01:38.662: pe=0.0000 eb=0.0218 ve=0.0000 vn=0.0000 vl=0.000 db=0.47
G1 E58.6895 F2400                       ; retract de=-5.0000@-40.0 r=0.94
;00:01:38.787: pe=-5.0000 eb=0.0218 ve=-40.0000 vn=0.0000 vl=0.000 db=0.47
G1 Z0.500 F420                          ; hopup dz=0.20@7 h=0.5 r=0.73
;00:01:38.815: pe=-5.0000 eb=0.0218 ve=0.0000 vn=0.0000 vl=0.000 db=0.37
G1 X-34.00 Y55.00 F6000                 ; move dl=2.5@100(0<25>0) de=0.000@0.0(0.0<0.0>0.0) l=0.50x0.50x0.00 r=0.00
;00:01:38.965: pe=-5.0000 eb=0.0000 ve=0.0000 vn=0.0000 vl=0.000 db=0.00
G1 Z0.300 F420                          ; hopdn dz=-0.20@7 h=0.3 r=0.00
;00:01:38.994: pe=-5.0000 eb=0.0000 ve=0.0000 vn=0.0000 vl=0.000 db=0.00
G1 E63.6895 F1800                       ; restore de=5.0000@30.0 r=0.00
;00:01:39.160: pe=-0.0000 eb=0.0000 ve=30.0000 vn=0.0000 vl=0.000 db=0.00
G1 X-34.00 Y53.50 E63.7831 F600         ; draw dl=1.5@10(0<10>0) de=0.094@0.55(0.0<0.62>0.0) l=0.30x0.50x1.00 r=1.00
;00:01:39.330: pe=0.0000 eb=0.0218 ve=0.0000 vn=0.0000 vl=0.000 db=0.47
G1 E58.7831 F2400                       ; retract de=-5.0000@-40.0 r=0.94
;00:01:39.455: pe=-5.0000 eb=0.0218 ve=-40.0000 vn=0.0000 vl=0.000 db=0.47
G1 Z0.500 F420                          ; hopup dz=0.20@7 h=0.5 r=0.73
;00:01:39.484: pe=-5.0000 eb=0.0218 ve=0.0000 vn=0.0000 vl=0.000 db=0.37
G1 X-32.00 Y55.00 F6000                 ; move dl=2.5@100(0<25>0) de=0.000@0.0(0.0<0.0>0.0) l=0.50x0.50x0.00 r=0.00
;00:01:39.634: pe=-5.0000 eb=0.0000 ve=0.0000 vn=0.0000 vl=0.000 db=0.00
G1 Z0.300 F420                          ; hopdn dz=-0.20@7 h=0.3 r=0.00
;00:01:39.663: pe=-5.0000 eb=0.0000 ve=0.0000 vn=0.0000 vl=0.000 db=0.00
G1 E63.7831 F1800                       ; restore de=5.0000@30.0 r=0.00
;00:01:39.829: pe=-0.0000 eb=0.0000 ve=30.0000 vn=0.0000 vl=0.000 db=0.00
G1 X-32.00 Y53.50 E63.8766 F600         ; draw dl=1.5@10(0<10>0) de=0.094@0.55(0.0<0.62>0.0) l=0.30x0.50x1.00 r=1.00
;00:01:39.999: pe=0.0000 eb=0.0218 ve=0.0000 vn=0.0000 vl=0.000 db=0.47
G1 E58.8766 F2400                       ; retract de=-5.0000@-40.0 r=0.94
;00:01:40.124: pe=-5.0000 eb=0.0218 ve=-40.0000 vn=0.0000 vl=0.000 db=0.47
G1 Z0.500 F420                          ; hopup dz=0.20@7 h=0.5 r=0.73
;00:01:40.153: pe=-5.0000 eb=0.0218 ve=0.0000 vn=0.0000 vl=0.000 db=0.37
G1 X-30.00 Y55.00 F6000                 ; move dl=2.5@100(0<25>0) de=0.000@0.0(0.0<0.0>0.0) l=0.50x0.50x0.00 r=0.00
;00:01:40.303: pe=-5.0000 eb=0.0000 ve=0.0000 vn=0.0000 vl=0.000 db=0.00
G1 Z0.300 F420                          ; hopdn dz=-0.20@7 h=0.3 r=0.00
;00:01:40.331: pe=-5.0000 eb=0.0000 ve=0.0000 vn=0.0000 vl=0.000 db=0.00
G1 E63.8766 F1800                       ; restore de=5.0000@30.0 r=0.00
;00:01:40.498: pe=-0.0000 eb=0.0000 ve=30.0000 vn=0.0000 vl=0.000 db=0.00
G1 X-30.00 Y52.00 E64.0637 F600         ; draw dl=3.0@10(0<10>0) de=0.187@0.58(0.0<0.62>0.0) l=0.30x0.50x1.00 r=1.00
;00:01:40.818: pe=0.0000 eb=0.0241 ve=0.0000 vn=0.0000 vl=0.000 db=0.50
G1 E59.0637 F2400                       ; retract de=-5.0000@-40.0 r=0.99
;00:01:40.943: pe=-5.0000 eb=0.0241 ve=-40.0000 vn=0.0000 vl=0.000 db=0.50
G1 Z0.500 F420                          ; hopup dz=0.20@7 h=0.5 r=0.77
;00:01:40.972: pe=-5.0000 eb=0.0241 ve=0.0000 vn=0.0000 vl=0.000 db=0.38
G1 X-28.00 Y55.00 F6000                 ; move dl=3.6@100(0<30>0) de=0.000@0.0(0.0<0.0>0.0) l=0.50x0.50x0.00 r=0.00
;00:01:41.152: pe=-5.0000 eb=0.0000 ve=0.0000 vn=0.0000 vl=0.000 db=0.00
G1 Z0.300 F420                          ; hopdn dz=-0.20@7 h=0.3 r=0.00
;00:01:41.180: pe=-5.0000 eb=0.0000 ve=0.0000 vn=0.0000 vl=0.000 db=0.00
G1 E64.0637 F1800                       ; restore de=5.0000@30.0 r=0.00
;00:01:41.347: pe=-0.0000 eb=0.0000 ve=30.0000 vn=0.0000 vl=0.000 db=0.00
G1 X-28.00 Y53.50 E64.1573 F600         ; draw dl=1.5@10(0<10>0) de=0.094@0.55(0.0<0.62>0.0) l=0.30x0.50x1.00 r=1.00
;00:01:41.517: pe=0.0000 eb=0.0218 ve=0.0000 vn=0.0000 vl=0.000 db=0.47
G1 E59.1573 F2400                       ; retract de=-5.0000@-40.0 r=0.94
;00:01:41.642: pe=-5.0000 eb=0.0218 ve=-40.0000 vn=0.0000 vl=0.000 db=0.47
G1 Z0.500 F420                          ; hopup dz=0.20@7 h=0.5 r=0.73
;00:01:41.671: pe=-5.0000 eb=0.0218 ve=0.0000 vn=0.0000 vl=0.000 db=0.37
G1 X-26.00 Y55.00 F6000                 ; move dl=2.5@100(0<25>0) de=0.000@0.0(0.0<0.0>0.0) l=0.50x0.50x0.00 r=0.00
;00:01:41.821: pe=-5.0000 eb=0.0000 ve=0.0000 vn=0.0000 vl=0.000 db=0.00
G1 Z0.300 F420                          ; hopdn dz=-0.20@7 h=0.3 r=0.00
;00:01:41.849: pe=-5.0000 eb=0.0000 ve=0.0000 vn=0.0000 vl=0.000 db=0.00
G1 E64.1573 F1800                       ; restore de=5.0000@30.0 r=0.00
;00:01:42.016: pe=-0.0000 eb=0.0000 ve=30.0000 vn=0.0000 vl=0.000 db=0.00
G1 X-26.00 Y53.50 E64.2508 F600         ; draw dl=1.5@10(0<10>0) de=0.094@0.55(0.0<0.62>0.0) l=0.30x0.50x1.00 r=1.00
;00:01:42.186: pe=0.0000 eb=0.0218 ve=0.0000 vn=0.0000 vl=0.000 db=0.47
G1 E59.2508 F2400                       ; retract de=-5.0000@-40.0 r=0.94
;00:01:42.311: pe=-5.0000 eb=0.0218 ve=-40.0000 vn=0.0000 vl=0.000 db=0.47
G1 Z0.500 F420                          ; hopup dz=0.20@7 h=0.5 r=0.73
;00:01:42.339: pe=-5.0000 eb=0.0218 ve=0.0000 vn=0.0000 vl=0.000 db=0.37
G1 X-24.00 Y55.00 F6000                 ; move dl=2.5@100(0<25>0) de=0.000@0.0(0.0<0.0>0.0) l=0.50x0.50x0.00 r=0.00
;00:01:42.489: pe=-5.0000 eb=0.0000 ve=0.0000 vn=0.0000 vl=0.000 db=0.00
G1 Z0.300 F420                          ; hopdn dz=-0.20@7 h=0.3 r=0.00
;00:01:42.518: pe=-5.0000 eb=0.0000 ve=0.0000 vn=0.0000 vl=0.000 db=0.00
G1 E64.2508 F1800                       ; restore de=5.0000@30.0 r=0.00
;00:01:42.685: pe=-0.0000 eb=0.0000 ve=30.0000 vn=0.0000 vl=0.000 db=0.00
G1 X-24.00 Y53.50 E64.3444 F600         ; draw dl=1.5@10(0<10>0) de=0.094@0.55(0.0<0.62>0.0) l=0.30x0.50x1.00 r=1.00
;00:01:42.855: pe=0.0000 eb=0.0218 ve=0.0000 vn=0.0000 vl=0.000 db=0.47
G1 E59.3444 F2400                       ; retract de=-5.0000@-40.0 r=0.94
;00:01:42.980: pe=-5.0000 eb=0.0218 ve=-40.0000 vn=0.0000 vl=0.000 db=0.47
G1 Z0.500 F420                          ; hopup dz=0.20@7 h=0.5 r=0.73
;00:01:43.008: pe=-5.0000 eb=0.0218 ve=0.0000 vn=0.0000 vl=0.000 db=0.37
G1 X-22.00 Y55.00 F6000                 ; move dl=2.5@100(0<25>0) de=0.000@0.0(0.0<0.0>0.0) l=0.50x0.50x0.00 r=0.00
;00:01:43.158: pe=-5.0000 eb=0.0000 ve=0.0000 vn=0.0000 vl=0.000 db=0.00
G1 Z0.300 F420                          ; hopdn dz=-0.20@7 h=0.3 r=0.00
;00:01:43.187: pe=-5.0000 eb=0.0000 ve=0.0000 vn=0.0000 vl=0.000 db=0.00
G1 E64.3444 F1800                       ; restore de=5.0000@30.0 r=0.00
;00:01:43.353: pe=-0.0000 eb=0.0000 ve=30.0000 vn=0.0000 vl=0.000 db=0.00
G1 X-22.00 Y53.50 E64.4379 F600         ; draw dl=1.5@10(0<10>0) de=0.094@0.55(0.0<0.62>0.0) l=0.30x0.50x1.00 r=1.00
;00:01:43.523: pe=0.0000 eb=0.0218 ve=0.0000 vn=0.0000 vl=0.000 db=0.47
G1 E59.4379 F2400                       ; retract de=-5.0000@-40.0 r=0.94
;00:01:43.648: pe=-5.0000 eb=0.0218 ve=-40.0000 vn=0.0000 vl=0.000 db=0.47
G1 Z0.500 F420                          ; hopup dz=0.20@7 h=0.5 r=0.73
;00:01:43.677: pe=-5.0000 eb=0.0218 ve=0.0000 vn=0.0000 vl=0.000 db=0.37
G1 X-20.00 Y55.00 F6000                 ; move dl=2.5@100(0<25>0) de=0.000@0.0(0.0<0.0>0.0) l=0.50x0.50x0.00 r=0.00
;00:01:43.827: pe=-5.0000 eb=0.0000 ve=0.0000 vn=0.0000 vl=0.000 db=0.00
G1 Z0.300 F420                          ; hopdn dz=-0.20@7 h=0.3 r=0.00
;00:01:43.856: pe=-5.0000 eb=0.0000 ve=0.0000 vn=0.0000 vl=0.000 db=0.00
G1 E64.4379 F1800                       ; restore de=5.0000@30.0 r=0.00
;00:01:44.022: pe=-0.0000 eb=0.0000 ve=30.0000 vn=0.0000 vl=0.000 db=0.00
G1 X-20.00 Y52.00 E64.6250 F600         ; draw dl=3.0@10(0<10>0) de=0.187@0.58(0.0<0.62>0.0) l=0.30x0.50x1.00 r=1.00
;00:01:44.342: pe=0.0000 eb=0.0241 ve=0.0000 vn=0.0000 vl=0.000 db=0.50
G1 E59.6250 F2400                       ; retract de=-5.0000@-40.0 r=0.99
;00:01:44.467: pe=-5.0000 eb=0.0241 ve=-40.0000 vn=0.0000 vl=0.000 db=0.50
G1 Z0.500 F420                          ; hopup dz=0.20@7 h=0.5 r=0.77
;00:01:44.496: pe=-5.0000 eb=0.0241 ve=0.0000 vn=0.0000 vl=0.000 db=0.38
G1 X-18.00 Y55.00 F6000                 ; move dl=3.6@100(0<30>0) de=0.000@0.0(0.0<0.0>0.0) l=0.50x0.50x0.00 r=0.00
;00:01:44.676: pe=-5.0000 eb=0.0000 ve=0.0000 vn=0.0000 vl=0.000 db=0.00
G1 Z0.300 F420                          ; hopdn dz=-0.20@7 h=0.3 r=0.00
;00:01:44.705: pe=-5.0000 eb=0.0000 ve=0.0000 vn=0.0000 vl=0.000 db=0.00
G1 E64.6250 F1800                       ; restore de=5.0000@30.0 r=0.00
;00:01:44.871: pe=-0.0000 eb=0.0000 ve=30.0000 vn=0.0000 vl=0.000 db=0.00
G1 X-18.00 Y53.50 E64.7186 F600         ; draw dl=1.5@10(0<10>0) de=0.094@0.55(0.0<0.62>0.0) l=0.30x0.50x1.00 r=1.00
;00:01:45.041: pe=0.0000 eb=0.0218 ve=0.0000 vn=0.0000 vl=0.000 db=0.47
G1 E59.7186 F2400                       ; retract de=-5.0000@-40.0 r=0.94
;00:01:45.166: pe=-5.0000 eb=0.0218 ve=-40.0000 vn=0.0000 vl=0.000 db=0.47
G1 Z0.500 F420                          ; hopup dz=0.20@7 h=0.5 r=0.73
;00:01:45.195: pe=-5.0000 eb=0.0218 ve=0.0000 vn=0.0000 vl=0.000 db=0.37
G1 X-16.00 Y55.00 F6000                 ; move dl=2.5@100(0<25>0) de=0.000@0.0(0.0<0.0>0.0) l=0.50x0.50x0.00 r=0.00
;00:01:45.345: pe=-5.0000 eb=0.0000 ve=0.0000 vn=0.0000 vl=0.000 db=0.00
G1 Z0.300 F420                          ; hopdn dz=-0.20@7 h=0.3 r=0.00
;00:01:45.373: pe=-5.0000 eb=0.0000 ve=0.0000 vn=0.0000 vl=0.000 db=0.00
G1 E64.7186 F1800                       ; restore de=5.0000@30.0 r=0.00
;00:01:45.540: pe=-0.0000 eb=0.0000 ve=30.0000 vn=0.0000 vl=0.000 db=0.00
G1 X-16.00 Y53.50 E64.8121 F600         ; draw dl=1.5@10(0<10>0) de=0.094@0.55(0.0<0.62>0.0) l=0.30x0.50x1.00 r=1.00
;00:01:45.710: pe=0.0000 eb=0.0218 ve=0.0000 vn=0.0000 vl=0.000 db=0.47
G1 E59.8121 F2400                       ; retract de=-5.0000@-40.0 r=0.94
;00:01:45.835: pe=-5.0000 eb=0.0218 ve=-40.0000 vn=0.0000 vl=0.000 db=0.47
G1 Z0.500 F420                          ; hopup dz=0.20@7 h=0.5 r=0.73
;00:01:45.864: pe=-5.0000 eb=0.0218 ve=0.0000 vn=0.0000 vl=0.000 db=0.37
G1 X-14.00 Y55.00 F6000                 ; move dl=2.5@100(0<25>0) de=0.000@0.0(0.0<0.0>0.0) l=0.50x0.50x0.00 r=0.00
;00:01:46.014: pe=-5.0000 eb=0.0000 ve=0.0000 vn=0.0000 vl=0.000 db=0.00
G1 Z0.300 F420                          ; hopdn dz=-0.20@7 h=0.3 r=0.00
;00:01:46.042: pe=-5.0000 eb=0.0000 ve=0.0000 vn=0.0000 vl=0.000 db=0.00
G1 E64.8121 F1800                       ; restore de=5.0000@30.0 r=0.00
;00:01:46.209: pe=-0.0000 eb=0.0000 ve=30.0000 vn=0.0000 vl=0.000 db=0.00
G1 X-14.00 Y53.50 E64.9057 F600         ; draw dl=1.5@10(0<10>0) de=0.094@0.55(0.0<0.62>0.0) l=0.30x0.50x1.00 r=1.00
;00:01:46.379: pe=0.0000 eb=0.0218 ve=0.0000 vn=0.0000 vl=0.000 db=0.47
G1 E59.9057 F2400                       ; retract de=-5.0000@-40.0 r=0.94
;00:01:46.504: pe=-5.0000 eb=0.0218 ve=-40.0000 vn=0.0000 vl=0.000 db=0.47
G1 Z0.500 F420                          ; hopup dz=0.20@7 h=0.5 r=0.73
;00:01:46.532: pe=-5.0000 eb=0.0218 ve=0.0000 vn=0.0000 vl=0.000 db=0.37
G1 X-12.00 Y55.00 F6000                 ; move dl=2.5@100(0<25>0) de=0.000@0.0(0.0<0.0>0.0) l=0.50x0.50x0.00 r=0.00
;00:01:46.682: pe=-5.0000 eb=0.0000 ve=0.0000 vn=0.0000 vl=0.000 db=0.00
G1 Z0.300 F420                          ; hopdn dz=-0.20@7 h=0.3 r=0.00
;00:01:46.711: pe=-5.0000 eb=0.0000 ve=0.0000 vn=0.0000 vl=0.000 db=0.00
G1 E64.9057 F1800                       ; restore de=5.0000@30.0 r=0.00
;00:01:46.878: pe=-0.0000 eb=0.0000 ve=30.0000 vn=0.0000 vl=0.000 db=0.00
G1 X-12.00 Y53.50 E64.9992 F600         ; draw dl=1.5@10(0<10>0) de=0.094@0.55(0.0<0.62>0.0) l=0.30x0.50x1.00 r=1.00
;00:01:47.048: pe=0.0000 eb=0.0218 ve=0.0000 vn=0.0000 vl=0.000 db=0.47
G1 E59.9992 F2400                       ; retract de=-5.0000@-40.0 r=0.94
;00:01:47.173: pe=-5.0000 eb=0.0218 ve=-40.0000 vn=0.0000 vl=0.000 db=0.47
G1 Z0.500 F420                          ; hopup dz=0.20@7 h=0.5 r=0.73
;00:01:47.201: pe=-5.0000 eb=0.0218 ve=0.0000 vn=0.0000 vl=0.000 db=0.37
G1 X-10.00 Y55.00 F6000                 ; move dl=2.5@100(0<25>0) de=0.000@0.0(0.0<0.0>0.0) l=0.50x0.50x0.00 r=0.00
;00:01:47.351: pe=-5.0000 eb=0.0000 ve=0.0000 vn=0.0000 vl=0.000 db=0.00
G1 Z0.300 F420                          ; hopdn dz=-0.20@7 h=0.3 r=0.00
;00:01:47.380: pe=-5.0000 eb=0.0000 ve=0.0000 vn=0.0000 vl=0.000 db=0.00
G1 E64.9992 F1800                       ; restore de=5.0000@30.0 r=0.00
;00:01:47.546: pe=-0.0000 eb=0.0000 ve=30.0000 vn=0.0000 vl=0.000 db=0.00
G1 X-10.00 Y52.00 E65.1863 F600         ; draw dl=3.0@10(0<10>0) de=0.187@0.58(0.0<0.62>0.0) l=0.30x0.50x1.00 r=1.00
;00:01:47.866: pe=0.0000 eb=0.0241 ve=0.0000 vn=0.0000 vl=0.000 db=0.50
G1 E60.1863 F2400                       ; retract de=-5.0000@-40.0 r=0.99
;00:01:47.991: pe=-5.0000 eb=0.0241 ve=-40.0000 vn=0.0000 vl=0.000 db=0.50
G1 Z0.500 F420                          ; hopup dz=0.20@7 h=0.5 r=0.77
;00:01:48.020: pe=-5.0000 eb=0.0241 ve=0.0000 vn=0.0000 vl=0.000 db=0.38
G1 X-8.00 Y55.00 F6000                  ; move dl=3.6@100(0<30>0) de=0.000@0.0(0.0<0.0>0.0) l=0.50x0.50x0.00 r=0.00
;00:01:48.200: pe=-5.0000 eb=0.0000 ve=0.0000 vn=0.0000 vl=0.000 db=0.00
G1 Z0.300 F420                          ; hopdn dz=-0.20@7 h=0.3 r=0.00
;00:01:48.229: pe=-5.0000 eb=0.0000 ve=0.0000 vn=0.0000 vl=0.000 db=0.00
G1 E65.1863 F1800                       ; restore de=5.0000@30.0 r=0.00
;00:01:48.395: pe=-0.0000 eb=0.0000 ve=30.0000 vn=0.0000 vl=0.000 db=0.00
G1 X-8.00 Y53.50 E65.2799 F600          ; draw dl=1.5@10(0<10>0) de=0.094@0.55(0.0<0.62>0.0) l=0.30x0.50x1.00 r=1.00
;00:01:48.565: pe=0.0000 eb=0.0218 ve=0.0000 vn=0.0000 vl=0.000 db=0.47
G1 E60.2799 F2400                       ; retract de=-5.0000@-40.0 r=0.94
;00:01:48.690: pe=-5.0000 eb=0.0218 ve=-40.0000 vn=0.0000 vl=0.000 db=0.47
G1 Z0.500 F420                          ; hopup dz=0.20@7 h=0.5 r=0.73
;00:01:48.719: pe=-5.0000 eb=0.0218 ve=0.0000 vn=0.0000 vl=0.000 db=0.37
G1 X-6.00 Y55.00 F6000                  ; move dl=2.5@100(0<25>0) de=0.000@0.0(0.0<0.0>0.0) l=0.50x0.50x0.00 r=0.00
;00:01:48.869: pe=-5.0000 eb=0.0000 ve=0.0000 vn=0.0000 vl=0.000 db=0.00
G1 Z0.300 F420                          ; hopdn dz=-0.20@7 h=0.3 r=0.00
;00:01:48.898: pe=-5.0000 eb=0.0000 ve=0.0000 vn=0.0000 vl=0.000 db=0.00
G1 E65.2799 F1800                       ; restore de=5.0000@30.0 r=0.00
;00:01:49.064: pe=-0.0000 eb=0.0000 ve=30.0000 vn=0.0000 vl=0.000 db=0.00
G1 X-6.00 Y53.50 E65.3734 F600          ; draw dl=1.5@10(0<10>0) de=0.094@0.55(0.0<0.62>0.0) l=0.30x0.50x1.00 r=1.00
;00:01:49.234: pe=0.0000 eb=0.0218 ve=0.0000 vn=0.0000 vl=0.000 db=0.47
G1 E60.3734 F2400                       ; retract de=-5.0000@-40.0 r=0.94
;00:01:49.359: pe=-5.0000 eb=0.0218 ve=-40.0000 vn=0.0000 vl=0.000 db=0.47
G1 Z0.500 F420                          ; hopup dz=0.20@7 h=0.5 r=0.73
;00:01:49.388: pe=-5.0000 eb=0.0218 ve=0.0000 vn=0.0000 vl=0.000 db=0.37
G1 X-4.00 Y55.00 F6000                  ; move dl=2.5@100(0<25>0) de=0.000@0.0(0.0<0.0>0.0) l=0.50x0.50x0.00 r=0.00
;00:01:49.538: pe=-5.0000 eb=0.0000 ve=0.0000 vn=0.0000 vl=0.000 db=0.00
G1 Z0.300 F420                          ; hopdn dz=-0.20@7 h=0.3 r=0.00
;00:01:49.566: pe=-5.0000 eb=0.0000 ve=0.0000 vn=0.0000 vl=0.000 db=0.00
G1 E65.3734 F1800                       ; restore de=5.0000@30.0 r=0.00
;00:01:49.733: pe=-0.0000 eb=0.0000 ve=30.0000 vn=0.0000 vl=0.000 db=0.00
G1 X-4.00 Y53.50 E65.4670 F600          ; draw dl=1.5@10(0<10>0) de=0.094@0.55(0.0<0.62>0.0) l=0.30x0.50x1.00 r=1.00
;00:01:49.903: pe=0.0000 eb=0.0218 ve=0.0000 vn=0.0000 vl=0.000 db=0.47
G1 E60.4670 F2400                       ; retract de=-5.0000@-40.0 r=0.94
;00:01:50.028: pe=-5.0000 eb=0.0218 ve=-40.0000 vn=0.0000 vl=0.000 db=0.47
G1 Z0.500 F420                          ; hopup dz=0.20@7 h=0.5 r=0.73
;00:01:50.057: pe=-5.0000 eb=0.0218 ve=0.0000 vn=0.0000 vl=0.000 db=0.37
G1 X-2.00 Y55.00 F6000                  ; move dl=2.5@100(0<25>0) de=0.000@0.0(0.0<0.0>0.0) l=0.50x0.50x0.00 r=0.00
;00:01:50.207: pe=-5.0000 eb=0.0000 ve=0.0000 vn=0.0000 vl=0.000 db=0.00
G1 Z0.300 F420                          ; hopdn dz=-0.20@7 h=0.3 r=0.00
;00:01:50.235: pe=-5.0000 eb=0.0000 ve=0.0000 vn=0.0000 vl=0.000 db=0.00
G1 E65.4670 F1800                       ; restore de=5.0000@30.0 r=0.00
;00:01:50.402: pe=-0.0000 eb=0.0000 ve=30.0000 vn=0.0000 vl=0.000 db=0.00
G1 X-2.00 Y53.50 E65.5605 F600          ; draw dl=1.5@10(0<10>0) de=0.094@0.55(0.0<0.62>0.0) l=0.30x0.50x1.00 r=1.00
;00:01:50.572: pe=0.0000 eb=0.0218 ve=0.0000 vn=0.0000 vl=0.000 db=0.47
G1 E60.5605 F2400                       ; retract de=-5.0000@-40.0 r=0.94
;00:01:50.697: pe=-5.0000 eb=0.0218 ve=-40.0000 vn=0.0000 vl=0.000 db=0.47
G1 Z0.500 F420                          ; hopup dz=0.20@7 h=0.5 r=0.73
;00:01:50.725: pe=-5.0000 eb=0.0218 ve=0.0000 vn=0.0000 vl=0.000 db=0.37
G1 X0.00 Y55.00 F6000                   ; move dl=2.5@100(0<25>0) de=0.000@0.0(0.0<0.0>0.0) l=0.50x0.50x0.00 r=0.00
;00:01:50.875: pe=-5.0000 eb=0.0000 ve=0.0000 vn=0.0000 vl=0.000 db=0.00
G1 Z0.300 F420                          ; hopdn dz=-0.20@7 h=0.3 r=0.00
;00:01:50.904: pe=-5.0000 eb=0.0000 ve=0.0000 vn=0.0000 vl=0.000 db=0.00
G1 E65.5605 F1800                       ; restore de=5.0000@30.0 r=0.00
;00:01:51.071: pe=-0.0000 eb=0.0000 ve=30.0000 vn=0.0000 vl=0.000 db=0.00
G1 X0.00 Y52.00 E65.7476 F600           ; draw dl=3.0@10(0<10>0) de=0.187@0.58(0.0<0.62>0.0) l=0.30x0.50x1.00 r=1.00
;00:01:51.391: pe=0.0000 eb=0.0241 ve=0.0000 vn=0.0000 vl=0.000 db=0.50
G1 E60.7476 F2400                       ; retract de=-5.0000@-40.0 r=0.99
;00:01:51.516: pe=-5.0000 eb=0.0241 ve=-40.0000 vn=0.0000 vl=0.000 db=0.50
G1 Z0.500 F420                          ; hopup dz=0.20@7 h=0.5 r=0.77
;00:01:51.544: pe=-5.0000 eb=0.0241 ve=0.0000 vn=0.0000 vl=0.000 db=0.38
G1 X2.00 Y55.00 F6000                   ; move dl=3.6@100(0<30>0) de=0.000@0.0(0.0<0.0>0.0) l=0.50x0.50x0.00 r=0.00
;00:01:51.724: pe=-5.0000 eb=0.0000 ve=0.0000 vn=0.0000 vl=0.000 db=0.00
G1 Z0.300 F420                          ; hopdn dz=-0.20@7 h=0.3 r=0.00
;00:01:51.753: pe=-5.0000 eb=0.0000 ve=0.0000 vn=0.0000 vl=0.000 db=0.00
G1 E65.7476 F1800                       ; restore de=5.0000@30.0 r=0.00
;00:01:51.920: pe=-0.0000 eb=0.0000 ve=30.0000 vn=0.0000 vl=0.000 db=0.00
G1 X2.00 Y53.50 E65.8412 F600           ; draw dl=1.5@10(0<10>0) de=0.094@0.55(0.0<0.62>0.0) l=0.30x0.50x1.00 r=1.00
;00:01:52.090: pe=0.0000 eb=0.0218 ve=0.0000 vn=0.0000 vl=0.000 db=0.47
G1 E60.8412 F2400                       ; retract de=-5.0000@-40.0 r=0.94
;00:01:52.215: pe=-5.0000 eb=0.0218 ve=-40.0000 vn=0.0000 vl=0.000 db=0.47
G1 Z0.500 F420                          ; hopup dz=0.20@7 h=0.5 r=0.73
;00:01:52.243: pe=-5.0000 eb=0.0218 ve=0.0000 vn=0.0000 vl=0.000 db=0.37
G1 X4.00 Y55.00 F6000                   ; move dl=2.5@100(0<25>0) de=0.000@0.0(0.0<0.0>0.0) l=0.50x0.50x0.00 r=0.00
;00:01:52.393: pe=-5.0000 eb=0.0000 ve=0.0000 vn=0.0000 vl=0.000 db=0.00
G1 Z0.300 F420                          ; hopdn dz=-0.20@7 h=0.3 r=0.00
;00:01:52.422: pe=-5.0000 eb=0.0000 ve=0.0000 vn=0.0000 vl=0.000 db=0.00
G1 E65.8412 F1800                       ; restore de=5.0000@30.0 r=0.00
;00:01:52.588: pe=-0.0000 eb=0.0000 ve=30.0000 vn=0.0000 vl=0.000 db=0.00
G1 X4.00 Y53.50 E65.9347 F600           ; draw dl=1.5@10(0<10>0) de=0.094@0.55(0.0<0.62>0.0) l=0.30x0.50x1.00 r=1.00
;00:01:52.758: pe=0.0000 eb=0.0218 ve=0.0000 vn=0.0000 vl=0.000 db=0.47
G1 E60.9347 F2400                       ; retract de=-5.0000@-40.0 r=0.94
;00:01:52.883: pe=-5.0000 eb=0.0218 ve=-40.0000 vn=0.0000 vl=0.000 db=0.47
G1 Z0.500 F420                          ; hopup dz=0.20@7 h=0.5 r=0.73
;00:01:52.912: pe=-5.0000 eb=0.0218 ve=0.0000 vn=0.0000 vl=0.000 db=0.37
G1 X6.00 Y55.00 F6000                   ; move dl=2.5@100(0<25>0) de=0.000@0.0(0.0<0.0>0.0) l=0.50x0.50x0.00 r=0.00
;00:01:53.062: pe=-5.0000 eb=0.0000 ve=0.0000 vn=0.0000 vl=0.000 db=0.00
G1 Z0.300 F420                          ; hopdn dz=-0.20@7 h=0.3 r=0.00
;00:01:53.091: pe=-5.0000 eb=0.0000 ve=0.0000 vn=0.0000 vl=0.000 db=0.00
G1 E65.9347 F1800                       ; restore de=5.0000@30.0 r=0.00
;00:01:53.257: pe=-0.0000 eb=0.0000 ve=30.0000 vn=0.0000 vl=0.000 db=0.00
G1 X6.00 Y53.50 E66.0283 F600           ; draw dl=1.5@10(0<10>0) de=0.094@0.55(0.0<0.62>0.0) l=0.30x0.50x1.00 r=1.00
;00:01:53.427: pe=0.0000 eb=0.0218 ve=0.0000 vn=0.0000 vl=0.000 db=0.47
G1 E61.0283 F2400                       ; retract de=-5.0000@-40.0 r=0.94
;00:01:53.552: pe=-5.0000 eb=0.0218 ve=-40.0000 vn=0.0000 vl=0.000 db=0.47
G1 Z0.500 F420                          ; hopup dz=0.20@7 h=0.5 r=0.73
;00:01:53.581: pe=-5.0000 eb=0.0218 ve=0.0000 vn=0.0000 vl=0.000 db=0.37
G1 X8.00 Y55.00 F6000                   ; move dl=2.5@100(0<25>0) de=0.000@0.0(0.0<0.0>0.0) l=0.50x0.50x0.00 r=0.00
;00:01:53.731: pe=-5.0000 eb=0.0000 ve=0.0000 vn=0.0000 vl=0.000 db=0.00
G1 Z0.300 F420                          ; hopdn dz=-0.20@7 h=0.3 r=0.00
;00:01:53.759: pe=-5.0000 eb=0.0000 ve=0.0000 vn=0.0000 vl=0.000 db=0.00
G1 E66.0283 F1800                       ; restore de=5.0000@30.0 r=0.00
;00:01:53.926: pe=-0.0000 eb=0.0000 ve=30.0000 vn=0.0000 vl=0.000 db=0.00
G1 X8.00 Y53.50 E66.1219 F600           ; draw dl=1.5@10(0<10>0) de=0.094@0.55(0.0<0.62>0.0) l=0.30x0.50x1.00 r=1.00
;00:01:54.096: pe=0.0000 eb=0.0218 ve=0.0000 vn=0.0000 vl=0.000 db=0.47
G1 E61.1219 F2400                       ; retract de=-5.0000@-40.0 r=0.94
;00:01:54.221: pe=-5.0000 eb=0.0218 ve=-40.0000 vn=0.0000 vl=0.000 db=0.47
G1 Z0.500 F420                          ; hopup dz=0.20@7 h=0.5 r=0.73
;00:01:54.250: pe=-5.0000 eb=0.0218 ve=0.0000 vn=0.0000 vl=0.000 db=0.37
G1 X10.00 Y55.00 F6000                  ; move dl=2.5@100(0<25>0) de=0.000@0.0(0.0<0.0>0.0) l=0.50x0.50x0.00 r=0.00
;00:01:54.400: pe=-5.0000 eb=0.0000 ve=0.0000 vn=0.0000 vl=0.000 db=0.00
G1 Z0.300 F420                          ; hopdn dz=-0.20@7 h=0.3 r=0.00
;00:01:54.428: pe=-5.0000 eb=0.0000 ve=0.0000 vn=0.0000 vl=0.000 db=0.00
G1 E66.1219 F1800                       ; restore de=5.0000@30.0 r=0.00
;00:01:54.595: pe=-0.0000 eb=0.0000 ve=30.0000 vn=0.0000 vl=0.000 db=0.00
G1 X10.00 Y52.00 E66.3090 F600          ; draw dl=3.0@10(0<10>0) de=0.187@0.58(0.0<0.62>0.0) l=0.30x0.50x1.00 r=1.00
;00:01:54.915: pe=0.0000 eb=0.0241 ve=0.0000 vn=0.0000 vl=0.000 db=0.50
G1 E61.3090 F2400                       ; retract de=-5.0000@-40.0 r=0.99
;00:01:55.040: pe=-5.0000 eb=0.0241 ve=-40.0000 vn=0.0000 vl=0.000 db=0.50
G1 Z0.500 F420                          ; hopup dz=0.20@7 h=0.5 r=0.77
;00:01:55.068: pe=-5.0000 eb=0.0241 ve=0.0000 vn=0.0000 vl=0.000 db=0.38
G1 X12.00 Y55.00 F6000                  ; move dl=3.6@100(0<30>0) de=0.000@0.0(0.0<0.0>0.0) l=0.50x0.50x0.00 r=0.00
;00:01:55.249: pe=-5.0000 eb=0.0000 ve=0.0000 vn=0.0000 vl=0.000 db=0.00
G1 Z0.300 F420                          ; hopdn dz=-0.20@7 h=0.3 r=0.00
;00:01:55.277: pe=-5.0000 eb=0.0000 ve=0.0000 vn=0.0000 vl=0.000 db=0.00
G1 E66.3090 F1800                       ; restore de=5.0000@30.0 r=0.00
;00:01:55.444: pe=-0.0000 eb=0.0000 ve=30.0000 vn=0.0000 vl=0.000 db=0.00
G1 X12.00 Y53.50 E66.4025 F600          ; draw dl=1.5@10(0<10>0) de=0.094@0.55(0.0<0.62>0.0) l=0.30x0.50x1.00 r=1.00
;00:01:55.614: pe=0.0000 eb=0.0218 ve=0.0000 vn=0.0000 vl=0.000 db=0.47
G1 E61.4025 F2400                       ; retract de=-5.0000@-40.0 r=0.94
;00:01:55.739: pe=-5.0000 eb=0.0218 ve=-40.0000 vn=0.0000 vl=0.000 db=0.47
G1 Z0.500 F420                          ; hopup dz=0.20@7 h=0.5 r=0.73
;00:01:55.767: pe=-5.0000 eb=0.0218 ve=0.0000 vn=0.0000 vl=0.000 db=0.37
G1 X14.00 Y55.00 F6000                  ; move dl=2.5@100(0<25>0) de=0.000@0.0(0.0<0.0>0.0) l=0.50x0.50x0.00 r=0.00
;00:01:55.917: pe=-5.0000 eb=0.0000 ve=0.0000 vn=0.0000 vl=0.000 db=0.00
G1 Z0.300 F420                          ; hopdn dz=-0.20@7 h=0.3 r=0.00
;00:01:55.946: pe=-5.0000 eb=0.0000 ve=0.0000 vn=0.0000 vl=0.000 db=0.00
G1 E66.4025 F1800                       ; restore de=5.0000@30.0 r=0.00
;00:01:56.113: pe=-0.0000 eb=0.0000 ve=30.0000 vn=0.0000 vl=0.000 db=0.00
G1 X14.00 Y53.50 E66.4961 F600          ; draw dl=1.5@10(0<10>0) de=0.094@0.55(0.0<0.62>0.0) l=0.30x0.50x1.00 r=1.00
;00:01:56.283: pe=0.0000 eb=0.0218 ve=0.0000 vn=0.0000 vl=0.000 db=0.47
G1 E61.4961 F2400                       ; retract de=-5.0000@-40.0 r=0.94
;00:01:56.408: pe=-5.0000 eb=0.0218 ve=-40.0000 vn=0.0000 vl=0.000 db=0.47
G1 Z0.500 F420                          ; hopup dz=0.20@7 h=0.5 r=0.73
;00:01:56.436: pe=-5.0000 eb=0.0218 ve=0.0000 vn=0.0000 vl=0.000 db=0.37
G1 X16.00 Y55.00 F6000                  ; move dl=2.5@100(0<25>0) de=0.000@0.0(0.0<0.0>0.0) l=0.50x0.50x0.00 r=0.00
;00:01:56.586: pe=-5.0000 eb=0.0000 ve=0.0000 vn=0.0000 vl=0.000 db=0.00
G1 Z0.300 F420                          ; hopdn dz=-0.20@7 h=0.3 r=0.00
;00:01:56.615: pe=-5.0000 eb=0.0000 ve=0.0000 vn=0.0000 vl=0.000 db=0.00
G1 E66.4961 F1800                       ; restore de=5.0000@30.0 r=0.00
;00:01:56.781: pe=-0.0000 eb=0.0000 ve=30.0000 vn=0.0000 vl=0.000 db=0.00
G1 X16.00 Y53.50 E66.5896 F600          ; draw dl=1.5@10(0<10>0) de=0.094@0.55(0.0<0.62>0.0) l=0.30x0.50x1.00 r=1.00
;00:01:56.951: pe=0.0000 eb=0.0218 ve=0.0000 vn=0.0000 vl=0.000 db=0.47
G1 E61.5896 F2400                       ; retract de=-5.0000@-40.0 r=0.94
;00:01:57.076: pe=-5.0000 eb=0.0218 ve=-40.0000 vn=0.0000 vl=0.000 db=0.47
G1 Z0.500 F420                          ; hopup dz=0.20@7 h=0.5 r=0.73
;00:01:57.105: pe=-5.0000 eb=0.0218 ve=0.0000 vn=0.0000 vl=0.000 db=0.37
G1 X18.00 Y55.00 F6000                  ; move dl=2.5@100(0<25>0) de=0.000@0.0(0.0<0.0>0.0) l=0.50x0.50x0.00 r=0.00
;00:01:57.255: pe=-5.0000 eb=0.0000 ve=0.0000 vn=0.0000 vl=0.000 db=0.00
G1 Z0.300 F420                          ; hopdn dz=-0.20@7 h=0.3 r=0.00
;00:01:57.284: pe=-5.0000 eb=0.0000 ve=0.0000 vn=0.0000 vl=0.000 db=0.00
G1 E66.5896 F1800                       ; restore de=5.0000@30.0 r=0.00
;00:01:57.450: pe=-0.0000 eb=0.0000 ve=30.0000 vn=0.0000 vl=0.000 db=0.00
G1 X18.00 Y53.50 E66.6832 F600          ; draw dl=1.5@10(0<10>0) de=0.094@0.55(0.0<0.62>0.0) l=0.30x0.50x1.00 r=1.00
;00:01:57.620: pe=0.0000 eb=0.0218 ve=0.0000 vn=0.0000 vl=0.000 db=0.47
G1 E61.6832 F2400                       ; retract de=-5.0000@-40.0 r=0.94
;00:01:57.745: pe=-5.0000 eb=0.0218 ve=-40.0000 vn=0.0000 vl=0.000 db=0.47
G1 Z0.500 F420                          ; hopup dz=0.20@7 h=0.5 r=0.73
;00:01:57.774: pe=-5.0000 eb=0.0218 ve=0.0000 vn=0.0000 vl=0.000 db=0.37
G1 X20.00 Y55.00 F6000                  ; move dl=2.5@100(0<25>0) de=0.000@0.0(0.0<0.0>0.0) l=0.50x0.50x0.00 r=0.00
;00:01:57.924: pe=-5.0000 eb=0.0000 ve=0.0000 vn=0.0000 vl=0.000 db=0.00
G1 Z0.300 F420                          ; hopdn dz=-0.20@7 h=0.3 r=0.00
;00:01:57.952: pe=-5.0000 eb=0.0000 ve=0.0000 vn=0.0000 vl=0.000 db=0.00
G1 E66.6832 F1800                       ; restore de=5.0000@30.0 r=0.00
;00:01:58.119: pe=-0.0000 eb=0.0000 ve=30.0000 vn=0.0000 vl=0.000 db=0.00
G1 X20.00 Y52.00 E66.8703 F600          ; draw dl=3.0@10(0<10>0) de=0.187@0.58(0.0<0.62>0.0) l=0.30x0.50x1.00 r=1.00
;00:01:58.439: pe=0.0000 eb=0.0241 ve=0.0000 vn=0.0000 vl=0.000 db=0.50
G1 E61.8703 F2400                       ; retract de=-5.0000@-40.0 r=0.99
;00:01:58.564: pe=-5.0000 eb=0.0241 ve=-40.0000 vn=0.0000 vl=0.000 db=0.50
G1 Z0.500 F420                          ; hopup dz=0.20@7 h=0.5 r=0.77
;00:01:58.593: pe=-5.0000 eb=0.0241 ve=0.0000 vn=0.0000 vl=0.000 db=0.38
G1 X22.00 Y55.00 F6000                  ; move dl=3.6@100(0<30>0) de=0.000@0.0(0.0<0.0>0.0) l=0.50x0.50x0.00 r=0.00
;00:01:58.773: pe=-5.0000 eb=0.0000 ve=0.0000 vn=0.0000 vl=0.000 db=0.00
G1 Z0.300 F420                          ; hopdn dz=-0.20@7 h=0.3 r=0.00
;00:01:58.801: pe=-5.0000 eb=0.0000 ve=0.0000 vn=0.0000 vl=0.000 db=0.00
G1 E66.8703 F1800                       ; restore de=5.0000@30.0 r=0.00
;00:01:58.968: pe=-0.0000 eb=0.0000 ve=30.0000 vn=0.0000 vl=0.000 db=0.00
G1 X22.00 Y53.50 E66.9638 F600          ; draw dl=1.5@10(0<10>0) de=0.094@0.55(0.0<0.62>0.0) l=0.30x0.50x1.00 r=1.00
;00:01:59.138: pe=0.0000 eb=0.0218 ve=0.0000 vn=0.0000 vl=0.000 db=0.47
G1 E61.9638 F2400                       ; retract de=-5.0000@-40.0 r=0.94
;00:01:59.263: pe=-5.0000 eb=0.0218 ve=-40.0000 vn=0.0000 vl=0.000 db=0.47
G1 Z0.500 F420                          ; hopup dz=0.20@7 h=0.5 r=0.73
;00:01:59.292: pe=-5.0000 eb=0.0218 ve=0.0000 vn=0.0000 vl=0.000 db=0.37
G1 X24.00 Y55.00 F6000                  ; move dl=2.5@100(0<25>0) de=0.000@0.0(0.0<0.0>0.0) l=0.50x0.50x0.00 r=0.00
;00:01:59.442: pe=-5.0000 eb=0.0000 ve=0.0000 vn=0.0000 vl=0.000 db=0.00
G1 Z0.300 F420                          ; hopdn dz=-0.20@7 h=0.3 r=0.00
;00:01:59.470: pe=-5.0000 eb=0.0000 ve=0.0000 vn=0.0000 vl=0.000 db=0.00
G1 E66.9638 F1800                       ; restore de=5.0000@30.0 r=0.00
;00:01:59.637: pe=-0.0000 eb=0.0000 ve=30.0000 vn=0.0000 vl=0.000 db=0.00
G1 X24.00 Y53.50 E67.0574 F600          ; draw dl=1.5@10(0<10>0) de=0.094@0.55(0.0<0.62>0.0) l=0.30x0.50x1.00 r=1.00
;00:01:59.807: pe=0.0000 eb=0.0218 ve=0.0000 vn=0.0000 vl=0.000 db=0.47
G1 E62.0574 F2400                       ; retract de=-5.0000@-40.0 r=0.94
;00:01:59.932: pe=-5.0000 eb=0.0218 ve=-40.0000 vn=0.0000 vl=0.000 db=0.47
G1 Z0.500 F420                          ; hopup dz=0.20@7 h=0.5 r=0.73
;00:01:59.960: pe=-5.0000 eb=0.0218 ve=0.0000 vn=0.0000 vl=0.000 db=0.37
G1 X26.00 Y55.00 F6000                  ; move dl=2.5@100(0<25>0) de=0.000@0.0(0.0<0.0>0.0) l=0.50x0.50x0.00 r=0.00
;00:02:00.110: pe=-5.0000 eb=0.0000 ve=0.0000 vn=0.0000 vl=0.000 db=0.00
G1 Z0.300 F420                          ; hopdn dz=-0.20@7 h=0.3 r=0.00
;00:02:00.139: pe=-5.0000 eb=0.0000 ve=0.0000 vn=0.0000 vl=0.000 db=0.00
G1 E67.0574 F1800                       ; restore de=5.0000@30.0 r=0.00
;00:02:00.306: pe=-0.0000 eb=0.0000 ve=30.0000 vn=0.0000 vl=0.000 db=0.00
G1 X26.00 Y53.50 E67.1509 F600          ; draw dl=1.5@10(0<10>0) de=0.094@0.55(0.0<0.62>0.0) l=0.30x0.50x1.00 r=1.00
;00:02:00.476: pe=0.0000 eb=0.0218 ve=0.0000 vn=0.0000 vl=0.000 db=0.47
G1 E62.1509 F2400                       ; retract de=-5.0000@-40.0 r=0.94
;00:02:00.601: pe=-5.0000 eb=0.0218 ve=-40.0000 vn=0.0000 vl=0.000 db=0.47
G1 Z0.500 F420                          ; hopup dz=0.20@7 h=0.5 r=0.73
;00:02:00.629: pe=-5.0000 eb=0.0218 ve=0.0000 vn=0.0000 vl=0.000 db=0.37
G1 X28.00 Y55.00 F6000                  ; move dl=2.5@100(0<25>0) de=0.000@0.0(0.0<0.0>0.0) l=0.50x0.50x0.00 r=0.00
;00:02:00.779: pe=-5.0000 eb=0.0000 ve=0.0000 vn=0.0000 vl=0.000 db=0.00
G1 Z0.300 F420                          ; hopdn dz=-0.20@7 h=0.3 r=0.00
;00:02:00.808: pe=-5.0000 eb=0.0000 ve=0.0000 vn=0.0000 vl=0.000 db=0.00
G1 E67.1509 F1800                       ; restore de=5.0000@30.0 r=0.00
;00:02:00.974: pe=-0.0000 eb=0.0000 ve=30.0000 vn=0.0000 vl=0.000 db=0.00
G1 X28.00 Y53.50 E67.2445 F600          ; draw dl=1.5@10(0<10>0) de=0.094@0.55(0.0<0.62>0.0) l=0.30x0.50x1.00 r=1.00
;00:02:01.144: pe=0.0000 eb=0.0218 ve=0.0000 vn=0.0000 vl=0.000 db=0.47
G1 E62.2445 F2400                       ; retract de=-5.0000@-40.0 r=0.94
;00:02:01.269: pe=-5.0000 eb=0.0218 ve=-40.0000 vn=0.0000 vl=0.000 db=0.47
G1 Z0.500 F420                          ; hopup dz=0.20@7 h=0.5 r=0.73
;00:02:01.298: pe=-5.0000 eb=0.0218 ve=0.0000 vn=0.0000 vl=0.000 db=0.37
G1 X30.00 Y55.00 F6000                  ; move dl=2.5@100(0<25>0) de=0.000@0.0(0.0<0.0>0.0) l=0.50x0.50x0.00 r=0.00
;00:02:01.448: pe=-5.0000 eb=0.0000 ve=0.0000 vn=0.0000 vl=0.000 db=0.00
G1 Z0.300 F420                          ; hopdn dz=-0.20@7 h=0.3 r=0.00
;00:02:01.477: pe=-5.0000 eb=0.0000 ve=0.0000 vn=0.0000 vl=0.000 db=0.00
G1 E67.2445 F1800                       ; restore de=5.0000@30.0 r=0.00
;00:02:01.643: pe=-0.0000 eb=0.0000 ve=30.0000 vn=0.0000 vl=0.000 db=0.00
G1 X30.00 Y52.00 E67.4316 F600          ; draw dl=3.0@10(0<10>0) de=0.187@0.58(0.0<0.62>0.0) l=0.30x0.50x1.00 r=1.00
;00:02:01.963: pe=0.0000 eb=0.0241 ve=0.0000 vn=0.0000 vl=0.000 db=0.50
G1 E62.4316 F2400                       ; retract de=-5.0000@-40.0 r=0.99
;00:02:02.088: pe=-5.0000 eb=0.0241 ve=-40.0000 vn=0.0000 vl=0.000 db=0.50
G1 Z0.500 F420                          ; hopup dz=0.20@7 h=0.5 r=0.77
;00:02:02.117: pe=-5.0000 eb=0.0241 ve=0.0000 vn=0.0000 vl=0.000 db=0.38
G1 X32.00 Y55.00 F6000                  ; move dl=3.6@100(0<30>0) de=0.000@0.0(0.0<0.0>0.0) l=0.50x0.50x0.00 r=0.00
;00:02:02.297: pe=-5.0000 eb=0.0000 ve=0.0000 vn=0.0000 vl=0.000 db=0.00
G1 Z0.300 F420                          ; hopdn dz=-0.20@7 h=0.3 r=0.00
;00:02:02.325: pe=-5.0000 eb=0.0000 ve=0.0000 vn=0.0000 vl=0.000 db=0.00
G1 E67.4316 F1800                       ; restore de=5.0000@30.0 r=0.00
;00:02:02.492: pe=-0.0000 eb=0.0000 ve=30.0000 vn=0.0000 vl=0.000 db=0.00
G1 X32.00 Y53.50 E67.5251 F600          ; draw dl=1.5@10(0<10>0) de=0.094@0.55(0.0<0.62>0.0) l=0.30x0.50x1.00 r=1.00
;00:02:02.662: pe=0.0000 eb=0.0218 ve=0.0000 vn=0.0000 vl=0.000 db=0.47
G1 E62.5251 F2400                       ; retract de=-5.0000@-40.0 r=0.94
;00:02:02.787: pe=-5.0000 eb=0.0218 ve=-40.0000 vn=0.0000 vl=0.000 db=0.47
G1 Z0.500 F420                          ; hopup dz=0.20@7 h=0.5 r=0.73
;00:02:02.816: pe=-5.0000 eb=0.0218 ve=0.0000 vn=0.0000 vl=0.000 db=0.37
G1 X34.00 Y55.00 F6000                  ; move dl=2.5@100(0<25>0) de=0.000@0.0(0.0<0.0>0.0) l=0.50x0.50x0.00 r=0.00
;00:02:02.966: pe=-5.0000 eb=0.0000 ve=0.0000 vn=0.0000 vl=0.000 db=0.00
G1 Z0.300 F420                          ; hopdn dz=-0.20@7 h=0.3 r=0.00
;00:02:02.994: pe=-5.0000 eb=0.0000 ve=0.0000 vn=0.0000 vl=0.000 db=0.00
G1 E67.5251 F1800                       ; restore de=5.0000@30.0 r=0.00
;00:02:03.161: pe=-0.0000 eb=0.0000 ve=30.0000 vn=0.0000 vl=0.000 db=0.00
G1 X34.00 Y53.50 E67.6187 F600          ; draw dl=1.5@10(0<10>0) de=0.094@0.55(0.0<0.62>0.0) l=0.30x0.50x1.00 r=1.00
;00:02:03.331: pe=0.0000 eb=0.0218 ve=0.0000 vn=0.0000 vl=0.000 db=0.47
G1 E62.6187 F2400                       ; retract de=-5.0000@-40.0 r=0.94
;00:02:03.456: pe=-5.0000 eb=0.0218 ve=-40.0000 vn=0.0000 vl=0.000 db=0.47
G1 Z0.500 F420                          ; hopup dz=0.20@7 h=0.5 r=0.73
;00:02:03.485: pe=-5.0000 eb=0.0218 ve=0.0000 vn=0.0000 vl=0.000 db=0.37
G1 X36.00 Y55.00 F6000                  ; move dl=2.5@100(0<25>0) de=0.000@0.0(0.0<0.0>0.0) l=0.50x0.50x0.00 r=0.00
;00:02:03.635: pe=-5.0000 eb=0.0000 ve=0.0000 vn=0.0000 vl=0.000 db=0.00
G1 Z0.300 F420                          ; hopdn dz=-0.20@7 h=0.3 r=0.00
;00:02:03.663: pe=-5.0000 eb=0.0000 ve=0.0000 vn=0.0000 vl=0.000 db=0.00
G1 E67.6187 F1800                       ; restore de=5.0000@30.0 r=0.00
;00:02:03.830: pe=-0.0000 eb=0.0000 ve=30.0000 vn=0.0000 vl=0.000 db=0.00
G1 X36.00 Y53.50 E67.7122 F600          ; draw dl=1.5@10(0<10>0) de=0.094@0.55(0.0<0.62>0.0) l=0.30x0.50x1.00 r=1.00
;00:02:04.000: pe=0.0000 eb=0.0218 ve=0.0000 vn=0.0000 vl=0.000 db=0.47
G1 E62.7122 F2400                       ; retract de=-5.0000@-40.0 r=0.94
;00:02:04.125: pe=-5.0000 eb=0.0218 ve=-40.0000 vn=0.0000 vl=0.000 db=0.47
G1 Z0.500 F420                          ; hopup dz=0.20@7 h=0.5 r=0.73
;00:02:04.153: pe=-5.0000 eb=0.0218 ve=0.0000 vn=0.0000 vl=0.000 db=0.37
G1 X38.00 Y55.00 F6000                  ; move dl=2.5@100(0<25>0) de=0.000@0.0(0.0<0.0>0.0) l=0.50x0.50x0.00 r=0.00
;00:02:04.303: pe=-5.0000 eb=0.0000 ve=0.0000 vn=0.0000 vl=0.000 db=0.00
G1 Z0.300 F420                          ; hopdn dz=-0.20@7 h=0.3 r=0.00
;00:02:04.332: pe=-5.0000 eb=0.0000 ve=0.0000 vn=0.0000 vl=0.000 db=0.00
G1 E67.7122 F1800                       ; restore de=5.0000@30.0 r=0.00
;00:02:04.499: pe=-0.0000 eb=0.0000 ve=30.0000 vn=0.0000 vl=0.000 db=0.00
G1 X38.00 Y53.50 E67.8058 F600          ; draw dl=1.5@10(0<10>0) de=0.094@0.55(0.0<0.62>0.0) l=0.30x0.50x1.00 r=1.00
;00:02:04.669: pe=0.0000 eb=0.0218 ve=0.0000 vn=0.0000 vl=0.000 db=0.47
G1 E62.8058 F2400                       ; retract de=-5.0000@-40.0 r=0.94
;00:02:04.794: pe=-5.0000 eb=0.0218 ve=-40.0000 vn=0.0000 vl=0.000 db=0.47
G1 Z0.500 F420                          ; hopup dz=0.20@7 h=0.5 r=0.73
;00:02:04.822: pe=-5.0000 eb=0.0218 ve=0.0000 vn=0.0000 vl=0.000 db=0.37
G1 X40.00 Y55.00 F6000                  ; move dl=2.5@100(0<25>0) de=0.000@0.0(0.0<0.0>0.0) l=0.50x0.50x0.00 r=0.00
;00:02:04.972: pe=-5.0000 eb=0.0000 ve=0.0000 vn=0.0000 vl=0.000 db=0.00
G1 Z0.300 F420                          ; hopdn dz=-0.20@7 h=0.3 r=0.00
;00:02:05.001: pe=-5.0000 eb=0.0000 ve=0.0000 vn=0.0000 vl=0.000 db=0.00
G1 E67.8058 F1800                       ; restore de=5.0000@30.0 r=0.00
;00:02:05.167: pe=-0.0000 eb=0.0000 ve=30.0000 vn=0.0000 vl=0.000 db=0.00
G1 X40.00 Y52.00 E67.9929 F600          ; draw dl=3.0@10(0<10>0) de=0.187@0.58(0.0<0.62>0.0) l=0.30x0.50x1.00 r=1.00
;00:02:05.487: pe=0.0000 eb=0.0241 ve=0.0000 vn=0.0000 vl=0.000 db=0.50
G1 E62.9929 F2400                       ; retract de=-5.0000@-40.0 r=0.99
;00:02:05.612: pe=-5.0000 eb=0.0241 ve=-40.0000 vn=0.0000 vl=0.000 db=0.50
G1 Z0.500 F420                          ; hopup dz=0.20@7 h=0.5 r=0.77
;00:02:05.641: pe=-5.0000 eb=0.0241 ve=0.0000 vn=0.0000 vl=0.000 db=0.38
;structure:brim
;structure:shell-outer
;00:02:05.641: text [(46.0, 55), (None, None)] fsize=5 angle=0 'fKf=0.0-2.0\nvx0=20\nvx1=100'
G1 X47.69 Y54.90 F6000                  ; move dl=8.2@100(0<45>0) de=0.000@0.0(0.0<0.0>0.0) l=0.50x0.50x0.00 r=0.00
;00:02:05.913: pe=-5.0000 eb=0.0000 ve=0.0000 vn=0.0000 vl=0.000 db=0.00
G1 Z0.300 F420                          ; hopdn dz=-0.20@7 h=0.3 r=0.00
