;gcode_flavor: flashforge
;machine_type: Adventurer 3 Series
;filament_diameter0: 1.75
;right_extruder_temperature: 210
;platform_temperature: 50
;extruder_fan: 100%
;case_fan: 100%
;base_print_speed: 60
;travel_speed: 100
;vertical_speed: 7
;retract_speed: 40
;restore_speed: 30
;layer_height: 0.30
;line_width: 0.50
;extrusion_ratio: 1.00
;command_line: ./gcodetest.py -Te=210 -Tp=50 -Fe=1.0 -Fc=1.0 -Kf=0.5 -Kb=2.0 -Re=2.0 -R -v
;start gcode
M118 X75.00 Y75.00 Z150.00 T0
M140 S50 T0
M104 S210 T0
M104 S0 T1
M107
M900 K0.000 T0
G90
G28
M132 X Y Z A B
G1 Z50.000 F420
G161 X Y F3300
M7 T0
M6 T0
M652 S255
M108 T0
M106
;preExtrude:0.20
;00:00:00.000: layer=0 h=0.20 w=0.50 r=1.00
G1 X69.29 Y28.70 F6000                  ; move dl=75.0@100(0<100>0) de=0.000@0.0(0.0<0.0>0.0) l=0.00x0.50x0.00 r=0.00
;00:00:00.950: pe=0.0000 eb=0.0000 ve=0.0000 vn=0.0000 vl=0.000 db=0.00
G1 Z0.200 F420                          ; hopup dz=0.20@7 h=0.2 r=0.00
;00:00:00.979: pe=0.0000 eb=0.0000 ve=0.0000 vn=0.0000 vl=0.000 db=0.00
G1 E4.0274 F1800                        ; restore de=4.0274@30.0 r=2.91
;00:00:01.113: pe=3.8890 eb=0.1384 ve=30.0000 vn=1.9544 vl=0.000 db=1.46
;00:00:01.113: spiral RC0=(75.0,0.062) dRC=(0.0,0.125) dl=58.9@10 de=7.837@1.3 l=0.20x0.40x4.00
G1 X66.53 Y34.63 E4.8979 F600           ; draw dl=6.5@10(0<10>10) de=0.870@1.31(0.0<1.33>1.33) l=0.20x0.40x4.00 r=4.12
;00:00:01.777: pe=3.8628 eb=0.1670 ve=1.3304 vn=1.3296 vl=10.000 db=1.60
G1 X63.25 Y40.30 E5.7683                ; draw dl=6.5@10(10<10>10) de=0.870@1.33(1.33<1.33>1.33) l=0.20x0.40x4.00 r=4.00
;00:00:02.431: pe=3.8633 eb=0.1670 ve=1.3304 vn=1.3298 vl=10.000 db=1.60
G1 X59.50 Y45.66 E6.6388                ; draw dl=6.5@10(10<10>10) de=0.870@1.33(1.33<1.33>1.33) l=0.20x0.40x4.00 r=4.00
;00:00:03.086: pe=3.8636 eb=0.1670 ve=1.3304 vn=1.3299 vl=10.000 db=1.60
G1 X55.30 Y50.67 E7.5093                ; draw dl=6.5@10(10<10>10) de=0.870@1.33(1.33<1.33>1.33) l=0.20x0.40x4.00 r=4.00
;00:00:03.740: pe=3.8639 eb=0.1671 ve=1.3304 vn=1.3300 vl=10.000 db=1.60
G1 X50.67 Y55.30 E8.3797                ; draw dl=6.5@10(10<10>10) de=0.870@1.33(1.33<1.33>1.33) l=0.20x0.40x4.00 r=4.00
;00:00:04.394: pe=3.8642 eb=0.1671 ve=1.3304 vn=1.3301 vl=10.000 db=1.60
G1 X45.66 Y59.50 E9.2502                ; draw dl=6.5@10(10<10>10) de=0.870@1.33(1.33<1.33>1.33) l=0.20x0.40x4.00 r=4.00
;00:00:05.049: pe=3.8644 eb=0.1671 ve=1.3304 vn=1.3301 vl=10.000 db=1.60
G1 X40.30 Y63.25 E10.1207               ; draw dl=6.5@10(10<10>10) de=0.870@1.33(1.33<1.33>1.33) l=0.20x0.40x4.00 r=4.00
;00:00:05.703: pe=3.8645 eb=0.1671 ve=1.3304 vn=1.3302 vl=10.000 db=1.60
G1 X34.63 Y66.53 E10.9912               ; draw dl=6.5@10(10<10>10) de=0.870@1.33(1.33<1.33>1.33) l=0.20x0.40x4.00 r=4.00
;00:00:06.357: pe=3.8646 eb=0.1671 ve=1.3304 vn=1.3302 vl=10.000 db=1.60
G1 X28.70 Y69.29 E11.8616               ; draw dl=6.5@10(10<10>0) de=0.870@1.31(1.33<1.33>0.0) l=0.20x0.40x4.00 r=4.05
;00:00:07.021: pe=3.8531 eb=0.1787 ve=0.0042 vn=1.0891 vl=0.032 db=1.65
G1 X28.70 Y69.29                        ; move dl=0.0@10(0<0>0) de=0.000@0.0(0.0<0.0>0.0) l=0.20x0.40x0.00 r=2070.69
;00:00:07.021: pe=3.8530 eb=0.1788 ve=0.0000 vn=1.0877 vl=0.000 db=1.65
G1 E6.0086 F2400                        ; retract de=-5.8530@-40.0 r=4.20
;00:00:07.168: pe=-2.0059 eb=0.1847 ve=-40.0000 vn=0.0000 vl=0.000 db=1.68
G1 Z0.400 F420                          ; hopup dz=0.20@7 h=0.4 r=2.97
;00:00:07.196: pe=-2.0059 eb=0.1847 ve=0.0000 vn=0.0000 vl=0.000 db=1.19
;layer:0.30
;00:00:07.196: layer=1 h=0.30 w=0.50 r=1.00
;structure:shell-outer
;00:00:07.196: text [(-70, 70), (None, None)] fsize=5 angle=0 've=1.0\nh=0.3\ndynret=0\nBe=0.4'
G1 X-69.50 Y68.89 F6000                 ; move dl=98.2@100(0<100>0) de=0.000@0.0(0.0<0.0>0.0) l=0.40x0.50x0.00 r=0.00
;00:00:08.378: pe=-2.0059 eb=0.0000 ve=0.0000 vn=0.0000 vl=0.000 db=0.00
G1 Z0.300 F420                          ; hopdn dz=-0.10@7 h=0.3 r=0.00
;00:00:08.393: pe=-2.0059 eb=0.0000 ve=0.0000 vn=0.0000 vl=0.000 db=0.00
G1 E9.3372 F1800                        ; restore de=3.3286@30.0 r=0.89
;00:00:08.504: pe=1.3031 eb=0.0196 ve=30.0000 vn=0.8166 vl=0.000 db=0.45
G1 X-68.48 Y66.48 E9.5004 F600          ; draw dl=2.6@10(0<10>6) de=0.163@0.6(0.0<0.62>0.35) l=0.30x0.50x1.00 r=1.03
;00:00:08.777: pe=1.2987 eb=0.0251 ve=0.3524 vn=0.5739 vl=5.651 db=0.51
G1 X-67.46 Y68.89 E9.6636               ; draw dl=2.6@10(6<10>0) de=0.163@0.6(0.35<0.62>0.0) l=0.30x0.50x1.00 r=1.02
;00:00:09.051: pe=1.2959 eb=0.0288 ve=0.0000 vn=0.4217 vl=0.000 db=0.54
G1 E6.3678 F2400                        ; retract de=-3.2959@-40.0 r=1.10
;00:00:09.133: pe=-2.0008 eb=0.0297 ve=-40.0000 vn=0.0000 vl=0.000 db=0.55
G1 Z0.500 F420                          ; hopup dz=0.20@7 h=0.5 r=0.85
;00:00:09.162: pe=-2.0008 eb=0.0297 ve=0.0000 vn=0.0000 vl=0.000 db=0.43
G1 X-66.40 Y67.69 F6000                 ; move dl=1.6@100(0<20>0) de=0.000@0.0(0.0<0.0>0.0) l=0.50x0.50x0.00 r=0.00
;00:00:09.282: pe=-2.0008 eb=0.0000 ve=0.0000 vn=0.0000 vl=0.000 db=0.00
G1 Z0.300 F420                          ; hopdn dz=-0.20@7 h=0.3 r=0.00
;00:00:09.310: pe=-2.0008 eb=0.0000 ve=0.0000 vn=0.0000 vl=0.000 db=0.00
G1 E9.6990 F1800                        ; restore de=3.3312@30.0 r=0.90
;00:00:09.421: pe=1.3106 eb=0.0198 ve=30.0000 vn=0.8214 vl=0.000 db=0.45
G1 X-64.26 Y67.69 E9.8324 F600          ; draw dl=2.1@10(0<10>10) de=0.133@0.6(0.0<0.62>0.6) l=0.30x0.50x1.00 r=1.03
;00:00:09.645: pe=1.3062 eb=0.0243 ve=0.6039 vn=0.6208 vl=9.683 db=0.50
G1 X-64.34 Y68.22 E9.8658               ; draw dl=0.5@10(10<10>10) de=0.033@0.62(0.6<0.62>0.62) l=0.30x0.50x1.00 r=1.00
;00:00:09.699: pe=1.3063 eb=0.0243 ve=0.6236 vn=0.6211 vl=10.000 db=0.50
G1 X-64.55 Y68.61 E9.8935               ; draw dl=0.4@10(10<10>10) de=0.028@0.62(0.62<0.62>0.62) l=0.30x0.50x1.00 r=1.00
;00:00:09.743: pe=1.3064 eb=0.0243 ve=0.6236 vn=0.6211 vl=10.000 db=0.50
G1 X-64.89 Y68.86 E9.9198               ; draw dl=0.4@10(10<10>10) de=0.026@0.62(0.62<0.62>0.62) l=0.30x0.50x1.00 r=1.00
;00:00:09.786: pe=1.3065 eb=0.0243 ve=0.6236 vn=0.6212 vl=10.000 db=0.50
G1 X-65.33 Y68.95 E9.9478               ; draw dl=0.4@10(10<10>10) de=0.028@0.62(0.62<0.62>0.62) l=0.30x0.50x1.00 r=1.00
;00:00:09.830: pe=1.3067 eb=0.0243 ve=0.6237 vn=0.6212 vl=10.000 db=0.50
G1 X-65.76 Y68.86 E9.9752               ; draw dl=0.4@10(10<10>10) de=0.027@0.62(0.62<0.62>0.62) l=0.30x0.50x1.00 r=1.00
;00:00:09.874: pe=1.3068 eb=0.0243 ve=0.6236 vn=0.6213 vl=10.000 db=0.50
G1 X-66.10 Y68.61 E10.0015              ; draw dl=0.4@10(10<10>10) de=0.026@0.62(0.62<0.62>0.62) l=0.30x0.50x1.00 r=1.00
;00:00:09.917: pe=1.3069 eb=0.0243 ve=0.6236 vn=0.6213 vl=10.000 db=0.50
G1 X-66.32 Y68.22 E10.0294              ; draw dl=0.4@10(10<10>10) de=0.028@0.62(0.62<0.62>0.62) l=0.30x0.50x1.00 r=1.00
;00:00:09.961: pe=1.3070 eb=0.0243 ve=0.6236 vn=0.6214 vl=10.000 db=0.50
G1 X-66.40 Y67.69 E10.0629              ; draw dl=0.5@10(10<10>10) de=0.033@0.62(0.62<0.62>0.62) l=0.30x0.50x1.00 r=1.00
;00:00:10.015: pe=1.3071 eb=0.0243 ve=0.6237 vn=0.6214 vl=10.000 db=0.50
G1 X-66.32 Y67.15 E10.0969              ; draw dl=0.5@10(10<10>10) de=0.034@0.62(0.62<0.62>0.62) l=0.30x0.50x1.00 r=1.00
;00:00:10.070: pe=1.3072 eb=0.0243 ve=0.6237 vn=0.6215 vl=10.000 db=0.50
G1 X-66.09 Y66.75 E10.1257              ; draw dl=0.5@10(10<10>10) de=0.029@0.62(0.62<0.62>0.62) l=0.30x0.50x1.00 r=1.00
;00:00:10.116: pe=1.3073 eb=0.0243 ve=0.6237 vn=0.6215 vl=10.000 db=0.50
G1 X-65.74 Y66.51 E10.1522              ; draw dl=0.4@10(10<10>10) de=0.026@0.62(0.62<0.62>0.62) l=0.30x0.50x1.00 r=1.00
;00:00:10.158: pe=1.3074 eb=0.0243 ve=0.6237 vn=0.6216 vl=10.000 db=0.50
G1 X-65.28 Y66.42 E10.1814              ; draw dl=0.5@10(10<10>10) de=0.029@0.62(0.62<0.62>0.62) l=0.30x0.50x1.00 r=1.00
;00:00:10.205: pe=1.3075 eb=0.0243 ve=0.6237 vn=0.6216 vl=10.000 db=0.50
G1 X-64.94 Y66.47 E10.2028              ; draw dl=0.3@10(10<10>10) de=0.021@0.62(0.62<0.62>0.62) l=0.30x0.50x1.00 r=1.00
;00:00:10.239: pe=1.3076 eb=0.0243 ve=0.6236 vn=0.6217 vl=10.000 db=0.50
G1 X-64.65 Y66.61 E10.2229              ; draw dl=0.3@10(10<10>10) de=0.020@0.62(0.62<0.62>0.62) l=0.30x0.50x1.00 r=1.00
;00:00:10.272: pe=1.3076 eb=0.0243 ve=0.6236 vn=0.6217 vl=10.000 db=0.50
G1 X-64.44 Y66.83 E10.2419              ; draw dl=0.3@10(10<10>10) de=0.019@0.62(0.62<0.62>0.62) l=0.30x0.50x1.00 r=1.00
;00:00:10.302: pe=1.3077 eb=0.0243 ve=0.6236 vn=0.6217 vl=10.000 db=0.50
G1 X-64.32 Y67.13 E10.2620              ; draw dl=0.3@10(10<10>0) de=0.020@0.48(0.62<0.62>0.0) l=0.30x0.50x1.00 r=1.24
;00:00:10.344: pe=1.3028 eb=0.0291 ve=0.0000 vn=0.4246 vl=0.000 db=0.55
G1 E6.9592 F2400                        ; retract de=-3.3028@-40.0 r=1.11
;00:00:10.427: pe=-2.0008 eb=0.0300 ve=-40.0000 vn=0.0000 vl=0.000 db=0.55
G1 Z0.500 F420                          ; hopup dz=0.20@7 h=0.5 r=0.86
;00:00:10.455: pe=-2.0008 eb=0.0300 ve=0.0000 vn=0.0000 vl=0.000 db=0.43
G1 X-63.20 Y68.26 F6000                 ; move dl=1.6@100(0<20>0) de=0.000@0.0(0.0<0.0>0.0) l=0.50x0.50x0.00 r=0.00
;00:00:10.575: pe=-2.0008 eb=0.0000 ve=0.0000 vn=0.0000 vl=0.000 db=0.00
G1 Z0.300 F420                          ; hopdn dz=-0.20@7 h=0.3 r=0.00
;00:00:10.604: pe=-2.0008 eb=0.0000 ve=0.0000 vn=0.0000 vl=0.000 db=0.00
G1 E10.2633 F1800                       ; restore de=3.3041@30.0 r=0.88
;00:00:10.714: pe=1.2843 eb=0.0190 ve=30.0000 vn=0.8046 vl=0.000 db=0.44
G1 X-61.51 Y68.26 E10.3687 F600         ; draw dl=1.7@10(0<10>0) de=0.105@0.56(0.0<0.62>0.0) l=0.30x0.50x1.00 r=1.07
;00:00:10.903: pe=1.2771 eb=0.0281 ve=0.0000 vn=0.4138 vl=0.000 db=0.54
G1 E7.0916 F2400                        ; retract de=-3.2771@-40.0 r=1.09
;00:00:10.985: pe=-2.0008 eb=0.0288 ve=-40.0000 vn=0.0000 vl=0.000 db=0.54
G1 Z0.500 F420                          ; hopup dz=0.20@7 h=0.5 r=0.84
;00:00:11.013: pe=-2.0008 eb=0.0288 ve=0.0000 vn=0.0000 vl=0.000 db=0.42
G1 X-61.51 Y67.55 F6000                 ; move dl=0.7@100(0<13>0) de=0.000@0.0(0.0<0.0>0.0) l=0.50x0.50x0.00 r=0.00
;00:00:11.093: pe=-2.0008 eb=0.0000 ve=0.0000 vn=0.0000 vl=0.000 db=0.00
G1 Z0.300 F420                          ; hopdn dz=-0.20@7 h=0.3 r=0.00
;00:00:11.122: pe=-2.0008 eb=0.0000 ve=0.0000 vn=0.0000 vl=0.000 db=0.00
G1 E10.3956 F1800                       ; restore de=3.3041@30.0 r=0.88
;00:00:11.232: pe=1.2843 eb=0.0190 ve=30.0000 vn=0.8046 vl=0.000 db=0.44
G1 X-63.20 Y67.55 E10.5010 F600         ; draw dl=1.7@10(0<10>0) de=0.105@0.56(0.0<0.62>0.0) l=0.30x0.50x1.00 r=1.07
;00:00:11.421: pe=1.2771 eb=0.0281 ve=0.0000 vn=0.4138 vl=0.000 db=0.54
G1 E7.2239 F2400                        ; retract de=-3.2771@-40.0 r=1.09
;00:00:11.503: pe=-2.0008 eb=0.0288 ve=-40.0000 vn=0.0000 vl=0.000 db=0.54
G1 Z0.500 F420                          ; hopup dz=0.20@7 h=0.5 r=0.84
;00:00:11.531: pe=-2.0008 eb=0.0288 ve=0.0000 vn=0.0000 vl=0.000 db=0.42
G1 X-60.45 Y69.00 F6000                 ; move dl=3.1@100(0<28>0) de=0.000@0.0(0.0<0.0>0.0) l=0.50x0.50x0.00 r=0.00
;00:00:11.699: pe=-2.0008 eb=0.0000 ve=0.0000 vn=0.0000 vl=0.000 db=0.00
G1 Z0.300 F420                          ; hopdn dz=-0.20@7 h=0.3 r=0.00
;00:00:11.727: pe=-2.0008 eb=0.0000 ve=0.0000 vn=0.0000 vl=0.000 db=0.00
G1 E10.5461 F1800                       ; restore de=3.3222@30.0 r=0.89
;00:00:11.838: pe=1.3018 eb=0.0196 ve=30.0000 vn=0.8161 vl=0.000 db=0.45
G1 X-59.98 Y69.24 E10.5790 F600         ; draw dl=0.5@10(0<10>10) de=0.033@0.52(0.0<0.62>0.62) l=0.30x0.50x1.00 r=1.14
;00:00:11.901: pe=1.2972 eb=0.0241 ve=0.6236 vn=0.6106 vl=10.000 db=0.50
G1 X-59.61 Y69.55 E10.6091              ; draw dl=0.5@10(10<10>10) de=0.030@0.62(0.62<0.62>0.62) l=0.30x0.50x1.00 r=0.99
;00:00:11.949: pe=1.2976 eb=0.0240 ve=0.6236 vn=0.6167 vl=10.000 db=0.49
G1 X-59.36 Y69.88 E10.6349              ; draw dl=0.4@10(10<10>5) de=0.026@0.59(0.62<0.62>0.3) l=0.30x0.50x1.00 r=1.05
;00:00:11.993: pe=1.2964 eb=0.0254 ve=0.3015 vn=0.5565 vl=4.834 db=0.51
G1 X-59.36 Y66.48 E10.8469              ; draw dl=3.4@10(5<10>0) de=0.212@0.6(0.3<0.62>0.0) l=0.30x0.50x1.00 r=1.01
;00:00:12.346: pe=1.2945 eb=0.0288 ve=0.0000 vn=0.4211 vl=0.000 db=0.54
G1 E7.5525 F2400                        ; retract de=-3.2945@-40.0 r=1.10
;00:00:12.428: pe=-2.0008 eb=0.0296 ve=-40.0000 vn=0.0000 vl=0.000 db=0.55
G1 Z0.500 F420                          ; hopup dz=0.20@7 h=0.5 r=0.85
;00:00:12.457: pe=-2.0008 eb=0.0296 ve=0.0000 vn=0.0000 vl=0.000 db=0.43
G1 X-58.30 Y66.71 F6000                 ; move dl=1.1@100(0<16>0) de=0.000@0.0(0.0<0.0>0.0) l=0.50x0.50x0.00 r=0.00
;00:00:12.556: pe=-2.0008 eb=0.0000 ve=0.0000 vn=0.0000 vl=0.000 db=0.00
G1 Z0.300 F420                          ; hopdn dz=-0.20@7 h=0.3 r=0.00
;00:00:12.584: pe=-2.0008 eb=0.0000 ve=0.0000 vn=0.0000 vl=0.000 db=0.00
G1 E10.6583 F1800                       ; restore de=3.1059@30.0 r=0.75
;00:00:12.688: pe=1.0913 eb=0.0138 ve=30.0000 vn=0.6803 vl=0.000 db=0.38
G1 X-58.30 Y66.65 E10.6621 F600         ; draw dl=0.1@10(0<4>0) de=0.004@0.16(0.0<0.24>0.0) l=0.30x0.50x1.00 r=2.85
;00:00:12.711: pe=1.0843 eb=0.0213 ve=0.0000 vn=0.3050 vl=0.000 db=0.47
G1 E7.5778 F2400                        ; retract de=-3.0843@-40.0 r=0.94
;00:00:12.788: pe=-2.0004 eb=0.0217 ve=-40.0000 vn=0.0000 vl=0.000 db=0.47
G1 Z0.500 F420                          ; hopup dz=0.20@7 h=0.5 r=0.73
;00:00:12.817: pe=-2.0004 eb=0.0217 ve=0.0000 vn=0.0000 vl=0.000 db=0.36
G1 X-56.01 Y69.94 F6000                 ; move dl=4.0@100(0<32>0) de=0.000@0.0(0.0<0.0>0.0) l=0.50x0.50x0.00 r=0.00
;00:00:13.006: pe=-2.0004 eb=0.0000 ve=0.0000 vn=0.0000 vl=0.000 db=0.00
G1 Z0.300 F420                          ; hopdn dz=-0.20@7 h=0.3 r=0.00
;00:00:13.035: pe=-2.0004 eb=0.0000 ve=0.0000 vn=0.0000 vl=0.000 db=0.00
G1 E10.9090 F1800                       ; restore de=3.3313@30.0 r=0.90
;00:00:13.146: pe=1.3110 eb=0.0198 ve=30.0000 vn=0.8217 vl=0.000 db=0.45
G1 X-55.50 Y69.80 E10.9420 F600         ; draw dl=0.5@10(0<10>10) de=0.033@0.52(0.0<0.62>0.62) l=0.30x0.50x1.00 r=1.15
;00:00:13.209: pe=1.3061 eb=0.0244 ve=0.6237 vn=0.6147 vl=10.000 db=0.50
G1 X-55.11 Y69.42 E10.9760              ; draw dl=0.5@10(10<10>10) de=0.034@0.62(0.62<0.62>0.62) l=0.30x0.50x1.00 r=0.99
;00:00:13.263: pe=1.3063 eb=0.0243 ve=0.6237 vn=0.6208 vl=10.000 db=0.50
G1 X-54.88 Y68.86 E11.0137              ; draw dl=0.6@10(10<10>10) de=0.038@0.62(0.62<0.62>0.62) l=0.30x0.50x1.00 r=1.00
;00:00:13.324: pe=1.3065 eb=0.0243 ve=0.6237 vn=0.6212 vl=10.000 db=0.50
G1 X-54.79 Y68.18 E11.0565              ; draw dl=0.7@10(10<10>10) de=0.043@0.62(0.62<0.62>0.62) l=0.30x0.50x1.00 r=1.00
;00:00:13.393: pe=1.3067 eb=0.0243 ve=0.6237 vn=0.6212 vl=10.000 db=0.50
G1 X-54.88 Y67.51 E11.0987              ; draw dl=0.7@10(10<10>10) de=0.042@0.62(0.62<0.62>0.62) l=0.30x0.50x1.00 r=1.00
;00:00:13.460: pe=1.3068 eb=0.0243 ve=0.6237 vn=0.6213 vl=10.000 db=0.50
G1 X-55.11 Y66.95 E11.1364              ; draw dl=0.6@10(10<10>10) de=0.038@0.62(0.62<0.62>0.62) l=0.30x0.50x1.00 r=1.00
;00:00:13.521: pe=1.3070 eb=0.0243 ve=0.6237 vn=0.6214 vl=10.000 db=0.50
G1 X-55.50 Y66.56 E11.1708              ; draw dl=0.6@10(10<10>10) de=0.034@0.62(0.62<0.62>0.62) l=0.30x0.50x1.00 r=1.00
;00:00:13.576: pe=1.3071 eb=0.0243 ve=0.6237 vn=0.6214 vl=10.000 db=0.50
G1 X-56.01 Y66.42 E11.2038              ; draw dl=0.5@10(10<10>10) de=0.033@0.62(0.62<0.62>0.62) l=0.30x0.50x1.00 r=1.00
;00:00:13.629: pe=1.3072 eb=0.0243 ve=0.6237 vn=0.6215 vl=10.000 db=0.50
G1 X-56.54 Y66.56 E11.2380              ; draw dl=0.5@10(10<10>10) de=0.034@0.62(0.62<0.62>0.62) l=0.30x0.50x1.00 r=1.00
;00:00:13.684: pe=1.3073 eb=0.0243 ve=0.6237 vn=0.6216 vl=10.000 db=0.50
G1 X-56.91 Y66.95 E11.2715              ; draw dl=0.5@10(10<10>10) de=0.034@0.62(0.62<0.62>0.62) l=0.30x0.50x1.00 r=1.00
;00:00:13.737: pe=1.3074 eb=0.0243 ve=0.6237 vn=0.6216 vl=10.000 db=0.50
G1 X-57.15 Y67.51 E11.3095              ; draw dl=0.6@10(10<10>10) de=0.038@0.62(0.62<0.62>0.62) l=0.30x0.50x1.00 r=1.00
;00:00:13.798: pe=1.3076 eb=0.0243 ve=0.6237 vn=0.6217 vl=10.000 db=0.50
G1 X-57.23 Y68.18 E11.3516              ; draw dl=0.7@10(10<10>10) de=0.042@0.62(0.62<0.62>0.62) l=0.30x0.50x1.00 r=1.00
;00:00:13.866: pe=1.3077 eb=0.0243 ve=0.6237 vn=0.6217 vl=10.000 db=0.50
G1 X-57.15 Y68.85 E11.3937              ; draw dl=0.7@10(10<10>10) de=0.042@0.62(0.62<0.62>0.62) l=0.30x0.50x1.00 r=1.00
;00:00:13.933: pe=1.3078 eb=0.0243 ve=0.6237 vn=0.6218 vl=10.000 db=0.50
G1 X-56.91 Y69.42 E11.4323              ; draw dl=0.6@10(10<10>10) de=0.039@0.62(0.62<0.62>0.62) l=0.30x0.50x1.00 r=1.00
;00:00:13.995: pe=1.3079 eb=0.0243 ve=0.6237 vn=0.6218 vl=10.000 db=0.50
G1 X-56.54 Y69.80 E11.4653              ; draw dl=0.5@10(10<10>10) de=0.033@0.62(0.62<0.62>0.62) l=0.30x0.50x1.00 r=1.00
;00:00:14.048: pe=1.3080 eb=0.0243 ve=0.6237 vn=0.6219 vl=10.000 db=0.50
G1 X-56.01 Y69.94 E11.4995              ; draw dl=0.5@10(10<10>0) de=0.034@0.53(0.62<0.62>0.0) l=0.30x0.50x1.00 r=1.14
;00:00:14.113: pe=1.3032 eb=0.0291 ve=0.0000 vn=0.4248 vl=0.000 db=0.55
G1 E8.1963 F2400                        ; retract de=-3.3032@-40.0 r=1.11
;00:00:14.195: pe=-2.0008 eb=0.0300 ve=-40.0000 vn=0.0000 vl=0.000 db=0.55
G1 Z0.500 F420                          ; hopup dz=0.20@7 h=0.5 r=0.86
;00:00:14.224: pe=-2.0008 eb=0.0300 ve=0.0000 vn=0.0000 vl=0.000 db=0.43
G1 X-69.50 Y64.88 F6000                 ; move dl=14.4@100(0<60>0) de=0.000@0.0(0.0<0.0>0.0) l=0.50x0.50x0.00 r=0.00
;00:00:14.584: pe=-2.0008 eb=0.0000 ve=0.0000 vn=0.0000 vl=0.000 db=0.00
G1 Z0.300 F420                          ; hopdn dz=-0.20@7 h=0.3 r=0.00
;00:00:14.613: pe=-2.0008 eb=0.0000 ve=0.0000 vn=0.0000 vl=0.000 db=0.00
G1 E11.5162 F1800                       ; restore de=3.3199@30.0 r=0.89
;00:00:14.723: pe=1.2996 eb=0.0195 ve=30.0000 vn=0.8147 vl=0.000 db=0.45
G1 X-69.50 Y61.48 E11.7282 F600         ; draw dl=3.4@10(0<10>0) de=0.212@0.59(0.0<0.62>0.0) l=0.30x0.50x1.00 r=1.03
;00:00:15.083: pe=1.2923 eb=0.0287 ve=0.0000 vn=0.4202 vl=0.000 db=0.54
G1 E8.4359 F2400                        ; retract de=-3.2923@-40.0 r=1.10
;00:00:15.166: pe=-2.0008 eb=0.0295 ve=-40.0000 vn=0.0000 vl=0.000 db=0.55
G1 Z0.500 F420                          ; hopup dz=0.20@7 h=0.5 r=0.85
;00:00:15.194: pe=-2.0008 eb=0.0295 ve=0.0000 vn=0.0000 vl=0.000 db=0.43
G1 X-69.50 Y63.23 F6000                 ; move dl=1.8@100(0<21>0) de=0.000@0.0(0.0<0.0>0.0) l=0.50x0.50x0.00 r=0.00
;00:00:15.320: pe=-2.0008 eb=0.0000 ve=0.0000 vn=0.0000 vl=0.000 db=0.00
G1 Z0.300 F420                          ; hopdn dz=-0.20@7 h=0.3 r=0.00
;00:00:15.348: pe=-2.0008 eb=0.0000 ve=0.0000 vn=0.0000 vl=0.000 db=0.00
G1 E11.7603 F1800                       ; restore de=3.3244@30.0 r=0.90
;00:00:15.459: pe=1.3040 eb=0.0196 ve=30.0000 vn=0.8174 vl=0.000 db=0.45
G1 X-69.25 Y63.53 E11.7846 F600         ; draw dl=0.4@10(0<10>10) de=0.024@0.5(0.0<0.62>0.62) l=0.30x0.50x1.00 r=1.20
;00:00:15.508: pe=1.2990 eb=0.0243 ve=0.6237 vn=0.6040 vl=10.000 db=0.50
G1 X-69.02 Y63.75 E11.8045              ; draw dl=0.3@10(10<10>10) de=0.020@0.62(0.62<0.62>0.62) l=0.30x0.50x1.00 r=0.98
;00:00:15.540: pe=1.2994 eb=0.0241 ve=0.6237 vn=0.6157 vl=10.000 db=0.50
G1 X-68.80 Y63.88 E11.8204              ; draw dl=0.3@10(10<10>10) de=0.016@0.62(0.62<0.62>0.62) l=0.30x0.50x1.00 r=0.99
;00:00:15.566: pe=1.2996 eb=0.0240 ve=0.6237 vn=0.6175 vl=10.000 db=0.50
G1 X-68.60 Y63.93 E11.8333              ; draw dl=0.2@10(10<10>10) de=0.013@0.62(0.62<0.62>0.62) l=0.30x0.50x1.00 r=0.99
;00:00:15.586: pe=1.2997 eb=0.0240 ve=0.6237 vn=0.6179 vl=10.000 db=0.50
G1 X-68.41 Y63.95 E11.8452              ; draw dl=0.2@10(10<10>10) de=0.012@0.62(0.62<0.62>0.62) l=0.30x0.50x1.00 r=0.99
;00:00:15.605: pe=1.2998 eb=0.0240 ve=0.6237 vn=0.6180 vl=10.000 db=0.50
G1 X-68.09 Y63.88 E11.8656              ; draw dl=0.3@10(10<10>10) de=0.020@0.62(0.62<0.62>0.62) l=0.30x0.50x1.00 r=0.99
;00:00:15.638: pe=1.3000 eb=0.0240 ve=0.6237 vn=0.6182 vl=10.000 db=0.50
G1 X-67.86 Y63.71 E11.8835              ; draw dl=0.3@10(10<10>10) de=0.018@0.62(0.62<0.62>0.62) l=0.30x0.50x1.00 r=0.99
;00:00:15.667: pe=1.3002 eb=0.0241 ve=0.6237 vn=0.6182 vl=10.000 db=0.50
G1 X-67.76 Y63.51 E11.8974              ; draw dl=0.2@10(10<10>10) de=0.014@0.62(0.62<0.62>0.62) l=0.30x0.50x1.00 r=0.99
;00:00:15.689: pe=1.3003 eb=0.0241 ve=0.6236 vn=0.6183 vl=10.000 db=0.50
G1 X-67.67 Y63.08 E11.9248              ; draw dl=0.4@10(10<10>10) de=0.027@0.62(0.62<0.62>0.62) l=0.30x0.50x1.00 r=0.99
;00:00:15.733: pe=1.3005 eb=0.0241 ve=0.6236 vn=0.6184 vl=10.000 db=0.50
G1 X-67.67 Y61.48 E12.0246              ; draw dl=1.6@10(10<10>0) de=0.100@0.59(0.62<0.62>0.0) l=0.30x0.50x1.00 r=1.04
;00:00:15.903: pe=1.2965 eb=0.0289 ve=0.0000 vn=0.4219 vl=0.000 db=0.54
G1 E8.7281 F2400                        ; retract de=-3.2965@-40.0 r=1.10
;00:00:15.985: pe=-2.0008 eb=0.0297 ve=-40.0000 vn=0.0000 vl=0.000 db=0.55
G1 Z0.500 F420                          ; hopup dz=0.20@7 h=0.5 r=0.85
;00:00:16.014: pe=-2.0008 eb=0.0297 ve=0.0000 vn=0.0000 vl=0.000 db=0.43
G1 X-66.61 Y63.26 F6000                 ; move dl=2.1@100(0<23>0) de=0.000@0.0(0.0<0.0>0.0) l=0.50x0.50x0.00 r=0.00
;00:00:16.150: pe=-2.0008 eb=0.0000 ve=0.0000 vn=0.0000 vl=0.000 db=0.00
G1 Z0.300 F420                          ; hopdn dz=-0.20@7 h=0.3 r=0.00
;00:00:16.179: pe=-2.0008 eb=0.0000 ve=0.0000 vn=0.0000 vl=0.000 db=0.00
G1 E12.0323 F1800                       ; restore de=3.3042@30.0 r=0.88
;00:00:16.289: pe=1.2843 eb=0.0191 ve=30.0000 vn=0.8046 vl=0.000 db=0.44
G1 X-64.92 Y63.26 E12.1377 F600         ; draw dl=1.7@10(0<10>0) de=0.105@0.56(0.0<0.62>0.0) l=0.30x0.50x1.00 r=1.07
;00:00:16.478: pe=1.2772 eb=0.0281 ve=0.0000 vn=0.4138 vl=0.000 db=0.54
G1 E8.8605 F2400                        ; retract de=-3.2772@-40.0 r=1.09
;00:00:16.560: pe=-2.0008 eb=0.0288 ve=-40.0000 vn=0.0000 vl=0.000 db=0.54
G1 Z0.500 F420                          ; hopup dz=0.20@7 h=0.5 r=0.84
;00:00:16.589: pe=-2.0008 eb=0.0288 ve=0.0000 vn=0.0000 vl=0.000 db=0.42
G1 X-64.92 Y62.55 F6000                 ; move dl=0.7@100(0<13>0) de=0.000@0.0(0.0<0.0>0.0) l=0.50x0.50x0.00 r=0.00
;00:00:16.669: pe=-2.0008 eb=0.0000 ve=0.0000 vn=0.0000 vl=0.000 db=0.00
G1 Z0.300 F420                          ; hopdn dz=-0.20@7 h=0.3 r=0.00
;00:00:16.697: pe=-2.0008 eb=0.0000 ve=0.0000 vn=0.0000 vl=0.000 db=0.00
G1 E12.1646 F1800                       ; restore de=3.3041@30.0 r=0.88
;00:00:16.807: pe=1.2843 eb=0.0191 ve=30.0000 vn=0.8046 vl=0.000 db=0.44
G1 X-66.61 Y62.55 E12.2700 F600         ; draw dl=1.7@10(0<10>0) de=0.105@0.56(0.0<0.62>0.0) l=0.30x0.50x1.00 r=1.07
;00:00:16.996: pe=1.2772 eb=0.0281 ve=0.0000 vn=0.4138 vl=0.000 db=0.54
G1 E8.9928 F2400                        ; retract de=-3.2772@-40.0 r=1.09
;00:00:17.078: pe=-2.0008 eb=0.0288 ve=-40.0000 vn=0.0000 vl=0.000 db=0.54
G1 Z0.500 F420                          ; hopup dz=0.20@7 h=0.5 r=0.84
;00:00:17.107: pe=-2.0008 eb=0.0288 ve=0.0000 vn=0.0000 vl=0.000 db=0.42
G1 X-62.64 Y64.94 F6000                 ; move dl=4.6@100(0<34>0) de=0.000@0.0(0.0<0.0>0.0) l=0.50x0.50x0.00 r=0.00
;00:00:17.311: pe=-2.0008 eb=0.0000 ve=0.0000 vn=0.0000 vl=0.000 db=0.00
G1 Z0.300 F420                          ; hopdn dz=-0.20@7 h=0.3 r=0.00
;00:00:17.340: pe=-2.0008 eb=0.0000 ve=0.0000 vn=0.0000 vl=0.000 db=0.00
G1 E12.3244 F1800                       ; restore de=3.3316@30.0 r=0.90
;00:00:17.451: pe=1.3110 eb=0.0198 ve=30.0000 vn=0.8217 vl=0.000 db=0.45
G1 X-62.13 Y64.80 E12.3574 F600         ; draw dl=0.5@10(0<10>10) de=0.033@0.52(0.0<0.62>0.62) l=0.30x0.50x1.00 r=1.15
;00:00:17.514: pe=1.3061 eb=0.0244 ve=0.6237 vn=0.6147 vl=10.000 db=0.50
G1 X-61.74 Y64.42 E12.3914              ; draw dl=0.5@10(10<10>10) de=0.034@0.62(0.62<0.62>0.62) l=0.30x0.50x1.00 r=0.99
;00:00:17.568: pe=1.3063 eb=0.0243 ve=0.6237 vn=0.6208 vl=10.000 db=0.50
G1 X-61.50 Y63.86 E12.4294              ; draw dl=0.6@10(10<10>10) de=0.038@0.62(0.62<0.62>0.62) l=0.30x0.50x1.00 r=1.00
;00:00:17.629: pe=1.3065 eb=0.0243 ve=0.6237 vn=0.6211 vl=10.000 db=0.50
G1 X-61.42 Y63.18 E12.4721              ; draw dl=0.7@10(10<10>10) de=0.043@0.62(0.62<0.62>0.62) l=0.30x0.50x1.00 r=1.00
;00:00:17.697: pe=1.3066 eb=0.0243 ve=0.6237 vn=0.6212 vl=10.000 db=0.50
G1 X-61.50 Y62.51 E12.5142              ; draw dl=0.7@10(10<10>10) de=0.042@0.62(0.62<0.62>0.62) l=0.30x0.50x1.00 r=1.00
;00:00:17.765: pe=1.3068 eb=0.0243 ve=0.6237 vn=0.6213 vl=10.000 db=0.50
G1 X-61.74 Y61.95 E12.5522              ; draw dl=0.6@10(10<10>10) de=0.038@0.62(0.62<0.62>0.62) l=0.30x0.50x1.00 r=1.00
;00:00:17.826: pe=1.3069 eb=0.0243 ve=0.6237 vn=0.6214 vl=10.000 db=0.50
G1 X-62.13 Y61.56 E12.5866              ; draw dl=0.6@10(10<10>10) de=0.034@0.62(0.62<0.62>0.62) l=0.30x0.50x1.00 r=1.00
;00:00:17.881: pe=1.3071 eb=0.0243 ve=0.6237 vn=0.6214 vl=10.000 db=0.50
G1 X-62.64 Y61.42 E12.6195              ; draw dl=0.5@10(10<10>10) de=0.033@0.62(0.62<0.62>0.62) l=0.30x0.50x1.00 r=1.00
;00:00:17.934: pe=1.3072 eb=0.0243 ve=0.6237 vn=0.6215 vl=10.000 db=0.50
G1 X-63.16 Y61.56 E12.6531              ; draw dl=0.5@10(10<10>10) de=0.034@0.62(0.62<0.62>0.62) l=0.30x0.50x1.00 r=1.00
;00:00:17.988: pe=1.3073 eb=0.0243 ve=0.6237 vn=0.6215 vl=10.000 db=0.50
G1 X-63.54 Y61.95 E12.6871              ; draw dl=0.5@10(10<10>10) de=0.034@0.62(0.62<0.62>0.62) l=0.30x0.50x1.00 r=1.00
;00:00:18.042: pe=1.3074 eb=0.0243 ve=0.6237 vn=0.6216 vl=10.000 db=0.50
G1 X-63.78 Y62.51 E12.7251              ; draw dl=0.6@10(10<10>10) de=0.038@0.62(0.62<0.62>0.62) l=0.30x0.50x1.00 r=1.00
;00:00:18.103: pe=1.3075 eb=0.0243 ve=0.6237 vn=0.6216 vl=10.000 db=0.50
G1 X-63.86 Y63.18 E12.7672              ; draw dl=0.7@10(10<10>10) de=0.042@0.62(0.62<0.62>0.62) l=0.30x0.50x1.00 r=1.00
;00:00:18.171: pe=1.3077 eb=0.0243 ve=0.6237 vn=0.6217 vl=10.000 db=0.50
G1 X-63.78 Y63.85 E12.8092              ; draw dl=0.7@10(10<10>10) de=0.042@0.62(0.62<0.62>0.62) l=0.30x0.50x1.00 r=1.00
;00:00:18.238: pe=1.3078 eb=0.0243 ve=0.6237 vn=0.6218 vl=10.000 db=0.50
G1 X-63.54 Y64.42 E12.8478              ; draw dl=0.6@10(10<10>10) de=0.039@0.62(0.62<0.62>0.62) l=0.30x0.50x1.00 r=1.00
;00:00:18.300: pe=1.3079 eb=0.0243 ve=0.6237 vn=0.6218 vl=10.000 db=0.50
G1 X-63.16 Y64.80 E12.8813              ; draw dl=0.5@10(10<10>10) de=0.034@0.62(0.62<0.62>0.62) l=0.30x0.50x1.00 r=1.00
;00:00:18.354: pe=1.3080 eb=0.0243 ve=0.6236 vn=0.6219 vl=10.000 db=0.50
G1 X-62.64 Y64.94 E12.9149              ; draw dl=0.5@10(10<10>0) de=0.034@0.53(0.62<0.62>0.0) l=0.30x0.50x1.00 r=1.14
;00:00:18.417: pe=1.3032 eb=0.0291 ve=0.0000 vn=0.4248 vl=0.000 db=0.55
G1 E9.6117 F2400                        ; retract de=-3.3032@-40.0 r=1.11
;00:00:18.500: pe=-2.0008 eb=0.0300 ve=-40.0000 vn=0.0000 vl=0.000 db=0.55
G1 Z0.500 F420                          ; hopup dz=0.20@7 h=0.5 r=0.86
;00:00:18.529: pe=-2.0008 eb=0.0300 ve=0.0000 vn=0.0000 vl=0.000 db=0.43
G1 X-60.36 Y61.71 F6000                 ; move dl=4.0@100(0<31>0) de=0.000@0.0(0.0<0.0>0.0) l=0.50x0.50x0.00 r=0.00
;00:00:18.717: pe=-2.0008 eb=0.0000 ve=0.0000 vn=0.0000 vl=0.000 db=0.00
G1 Z0.300 F420                          ; hopdn dz=-0.20@7 h=0.3 r=0.00
;00:00:18.746: pe=-2.0008 eb=0.0000 ve=0.0000 vn=0.0000 vl=0.000 db=0.00
G1 E12.7176 F1800                       ; restore de=3.1059@30.0 r=0.75
;00:00:18.849: pe=1.0913 eb=0.0138 ve=30.0000 vn=0.6803 vl=0.000 db=0.38
G1 X-60.36 Y61.65 E12.7214 F600         ; draw dl=0.1@10(0<4>0) de=0.004@0.16(0.0<0.24>0.0) l=0.30x0.50x1.00 r=2.85
;00:00:18.873: pe=1.0843 eb=0.0213 ve=0.0000 vn=0.3050 vl=0.000 db=0.47
G1 E9.6370 F2400                        ; retract de=-3.0843@-40.0 r=0.94
;00:00:18.950: pe=-2.0004 eb=0.0217 ve=-40.0000 vn=0.0000 vl=0.000 db=0.47
G1 Z0.500 F420                          ; hopup dz=0.20@7 h=0.5 r=0.73
;00:00:18.978: pe=-2.0004 eb=0.0217 ve=0.0000 vn=0.0000 vl=0.000 db=0.36
G1 X-59.24 Y64.13 F6000                 ; move dl=2.7@100(0<26>0) de=0.000@0.0(0.0<0.0>0.0) l=0.50x0.50x0.00 r=0.00
;00:00:19.135: pe=-2.0004 eb=0.0000 ve=0.0000 vn=0.0000 vl=0.000 db=0.00
G1 Z0.300 F420                          ; hopdn dz=-0.20@7 h=0.3 r=0.00
;00:00:19.163: pe=-2.0004 eb=0.0000 ve=0.0000 vn=0.0000 vl=0.000 db=0.00
G1 E12.9663 F1800                       ; restore de=3.3293@30.0 r=0.90
;00:00:19.274: pe=1.3091 eb=0.0198 ve=30.0000 vn=0.8204 vl=0.000 db=0.45
G1 X-59.13 Y64.47 E12.9886 F600         ; draw dl=0.4@10(0<10>10) de=0.022@0.49(0.0<0.62>0.62) l=0.30x0.50x1.00 r=1.23
;00:00:19.320: pe=1.3040 eb=0.0246 ve=0.6237 vn=0.6034 vl=10.000 db=0.50
G1 X-58.92 Y64.73 E13.0094              ; draw dl=0.3@10(10<10>10) de=0.021@0.62(0.62<0.62>0.62) l=0.30x0.50x1.00 r=0.98
;00:00:19.353: pe=1.3044 eb=0.0243 ve=0.6237 vn=0.6177 vl=10.000 db=0.50
G1 X-58.63 Y64.89 E13.0301              ; draw dl=0.3@10(10<10>10) de=0.021@0.62(0.62<0.62>0.62) l=0.30x0.50x1.00 r=0.99
;00:00:19.387: pe=1.3045 eb=0.0242 ve=0.6237 vn=0.6199 vl=10.000 db=0.50
G1 X-58.29 Y64.94 E13.0515              ; draw dl=0.3@10(10<10>10) de=0.021@0.62(0.62<0.62>0.62) l=0.30x0.50x1.00 r=0.99
;00:00:19.421: pe=1.3046 eb=0.0242 ve=0.6237 vn=0.6202 vl=10.000 db=0.50
G1 X-57.90 Y64.87 E13.0762              ; draw dl=0.4@10(10<10>10) de=0.025@0.62(0.62<0.62>0.62) l=0.30x0.50x1.00 r=0.99
;00:00:19.461: pe=1.3048 eb=0.0242 ve=0.6237 vn=0.6204 vl=10.000 db=0.50
G1 X-57.61 Y64.68 E13.0979              ; draw dl=0.3@10(10<10>10) de=0.022@0.62(0.62<0.62>0.62) l=0.30x0.50x1.00 r=0.99
;00:00:19.495: pe=1.3049 eb=0.0242 ve=0.6237 vn=0.6204 vl=10.000 db=0.50
G1 X-57.43 Y64.41 E13.1181              ; draw dl=0.3@10(10<10>10) de=0.020@0.62(0.62<0.62>0.62) l=0.30x0.50x1.00 r=0.99
;00:00:19.528: pe=1.3050 eb=0.0242 ve=0.6237 vn=0.6205 vl=10.000 db=0.50
G1 X-57.36 Y64.06 E13.1404              ; draw dl=0.4@10(10<10>10) de=0.022@0.62(0.62<0.62>0.62) l=0.30x0.50x1.00 r=0.99
;00:00:19.563: pe=1.3051 eb=0.0242 ve=0.6237 vn=0.6205 vl=10.000 db=0.50
G1 X-57.43 Y63.85 E13.1542              ; draw dl=0.2@10(10<10>10) de=0.014@0.62(0.62<0.62>0.62) l=0.30x0.50x1.00 r=1.00
;00:00:19.586: pe=1.3052 eb=0.0242 ve=0.6237 vn=0.6205 vl=10.000 db=0.50
G1 X-57.57 Y63.68 E13.1679              ; draw dl=0.2@10(10<10>10) de=0.014@0.62(0.62<0.62>0.62) l=0.30x0.50x1.00 r=1.00
;00:00:19.608: pe=1.3052 eb=0.0242 ve=0.6237 vn=0.6206 vl=10.000 db=0.50
G1 X-57.94 Y63.45 E13.1951              ; draw dl=0.4@10(10<10>10) de=0.027@0.62(0.62<0.62>0.62) l=0.30x0.50x1.00 r=1.00
;00:00:19.651: pe=1.3054 eb=0.0242 ve=0.6237 vn=0.6206 vl=10.000 db=0.50
G1 X-58.38 Y63.30 E13.2241              ; draw dl=0.5@10(10<10>5) de=0.029@0.59(0.62<0.62>0.28) l=0.30x0.50x1.00 r=1.05
;00:00:19.701: pe=1.3039 eb=0.0258 ve=0.2839 vn=0.5538 vl=4.552 db=0.51
G1 X-57.94 Y63.18 E13.2525              ; draw dl=0.5@10(5<10>10) de=0.028@0.59(0.28<0.62>0.62) l=0.30x0.50x1.00 r=0.97
;00:00:19.749: pe=1.3047 eb=0.0245 ve=0.6237 vn=0.6092 vl=10.000 db=0.50
G1 X-57.58 Y63.02 E13.2771              ; draw dl=0.4@10(10<10>10) de=0.025@0.62(0.62<0.62>0.62) l=0.30x0.50x1.00 r=0.99
;00:00:19.789: pe=1.3050 eb=0.0243 ve=0.6237 vn=0.6193 vl=10.000 db=0.50
G1 X-57.29 Y62.74 E13.3022              ; draw dl=0.4@10(10<10>10) de=0.025@0.62(0.62<0.62>0.62) l=0.30x0.50x1.00 r=0.99
;00:00:19.829: pe=1.3052 eb=0.0242 ve=0.6236 vn=0.6204 vl=10.000 db=0.50
G1 X-57.19 Y62.45 E13.3214              ; draw dl=0.3@10(10<10>10) de=0.019@0.62(0.62<0.62>0.62) l=0.30x0.50x1.00 r=1.00
;00:00:19.860: pe=1.3052 eb=0.0242 ve=0.6237 vn=0.6206 vl=10.000 db=0.50
G1 X-57.26 Y62.03 E13.3479              ; draw dl=0.4@10(10<10>10) de=0.027@0.62(0.62<0.62>0.62) l=0.30x0.50x1.00 r=1.00
;00:00:19.902: pe=1.3054 eb=0.0242 ve=0.6237 vn=0.6206 vl=10.000 db=0.50
G1 X-57.49 Y61.70 E13.3730              ; draw dl=0.4@10(10<10>10) de=0.025@0.62(0.62<0.62>0.62) l=0.30x0.50x1.00 r=1.00
;00:00:19.942: pe=1.3055 eb=0.0243 ve=0.6237 vn=0.6207 vl=10.000 db=0.50
G1 X-57.83 Y61.50 E13.3976              ; draw dl=0.4@10(10<10>10) de=0.025@0.62(0.62<0.62>0.62) l=0.30x0.50x1.00 r=1.00
;00:00:19.982: pe=1.3056 eb=0.0243 ve=0.6237 vn=0.6208 vl=10.000 db=0.50
G1 X-58.25 Y61.42 E13.4243              ; draw dl=0.4@10(10<10>10) de=0.027@0.62(0.62<0.62>0.62) l=0.30x0.50x1.00 r=1.00
;00:00:20.025: pe=1.3057 eb=0.0243 ve=0.6237 vn=0.6208 vl=10.000 db=0.50
G1 X-58.65 Y61.48 E13.4495              ; draw dl=0.4@10(10<10>10) de=0.025@0.62(0.62<0.62>0.62) l=0.30x0.50x1.00 r=1.00
;00:00:20.065: pe=1.3058 eb=0.0243 ve=0.6237 vn=0.6209 vl=10.000 db=0.50
G1 X-58.97 Y61.65 E13.4721              ; draw dl=0.4@10(10<10>10) de=0.023@0.62(0.62<0.62>0.62) l=0.30x0.50x1.00 r=1.00
;00:00:20.101: pe=1.3060 eb=0.0243 ve=0.6237 vn=0.6209 vl=10.000 db=0.50
G1 X-59.19 Y61.92 E13.4938              ; draw dl=0.3@10(10<10>10) de=0.022@0.62(0.62<0.62>0.62) l=0.30x0.50x1.00 r=1.00
;00:00:20.136: pe=1.3060 eb=0.0243 ve=0.6237 vn=0.6210 vl=10.000 db=0.50
G1 X-59.29 Y62.28 E13.5171              ; draw dl=0.4@10(10<10>0) de=0.023@0.49(0.62<0.62>0.0) l=0.30x0.50x1.00 r=1.21
;00:00:20.183: pe=1.3013 eb=0.0291 ve=0.0000 vn=0.4240 vl=0.000 db=0.54
G1 E10.2158 F2400                       ; retract de=-3.3013@-40.0 r=1.10
;00:00:20.266: pe=-2.0008 eb=0.0299 ve=-40.0000 vn=0.0000 vl=0.000 db=0.55
G1 Z0.500 F420                          ; hopup dz=0.20@7 h=0.5 r=0.86
;00:00:20.295: pe=-2.0008 eb=0.0299 ve=0.0000 vn=0.0000 vl=0.000 db=0.43
G1 X-67.52 Y59.88 F6000                 ; move dl=8.6@100(0<46>0) de=0.000@0.0(0.0<0.0>0.0) l=0.50x0.50x0.00 r=0.00
;00:00:20.572: pe=-2.0008 eb=0.0000 ve=0.0000 vn=0.0000 vl=0.000 db=0.00
G1 Z0.300 F420                          ; hopdn dz=-0.20@7 h=0.3 r=0.00
;00:00:20.601: pe=-2.0008 eb=0.0000 ve=0.0000 vn=0.0000 vl=0.000 db=0.00
G1 E13.5357 F1800                       ; restore de=3.3199@30.0 r=0.89
;00:00:20.712: pe=1.2996 eb=0.0195 ve=30.0000 vn=0.8147 vl=0.000 db=0.45
G1 X-67.52 Y56.48 E13.7478 F600         ; draw dl=3.4@10(0<10>0) de=0.212@0.59(0.0<0.62>0.0) l=0.30x0.50x1.00 r=1.03
;00:00:21.072: pe=1.2923 eb=0.0287 ve=0.0000 vn=0.4202 vl=0.000 db=0.54
G1 E10.4554 F2400                       ; retract de=-3.2923@-40.0 r=1.10
;00:00:21.154: pe=-2.0008 eb=0.0295 ve=-40.0000 vn=0.0000 vl=0.000 db=0.55
G1 Z0.500 F420                          ; hopup dz=0.20@7 h=0.5 r=0.85
;00:00:21.182: pe=-2.0008 eb=0.0295 ve=0.0000 vn=0.0000 vl=0.000 db=0.43
G1 X-67.52 Y56.98 F6000                 ; move dl=0.5@100(0<11>0) de=0.000@0.0(0.0<0.0>0.0) l=0.50x0.50x0.00 r=0.00
;00:00:21.249: pe=-2.0008 eb=0.0017 ve=0.0000 vn=0.0000 vl=0.000 db=0.10
G1 Z0.300 F420                          ; hopdn dz=-0.20@7 h=0.3 r=0.27
;00:00:21.278: pe=-2.0008 eb=0.0017 ve=0.0000 vn=0.0000 vl=0.000 db=0.13
G1 E13.7845 F1800                       ; restore de=3.3290@30.0 r=0.90
;00:00:21.389: pe=1.3101 eb=0.0198 ve=30.0000 vn=0.8198 vl=0.000 db=0.45
G1 X-67.77 Y56.74 E13.8061 F600         ; draw dl=0.3@10(0<10>10) de=0.022@0.48(0.0<0.62>0.62) l=0.30x0.50x1.00 r=1.24
;00:00:21.434: pe=1.3050 eb=0.0247 ve=0.6237 vn=0.6027 vl=10.000 db=0.50
G1 X-68.16 Y56.49 E13.8350              ; draw dl=0.5@10(10<10>10) de=0.029@0.62(0.62<0.62>0.62) l=0.30x0.50x1.00 r=0.98
;00:00:21.480: pe=1.3054 eb=0.0243 ve=0.6237 vn=0.6194 vl=10.000 db=0.50
G1 X-68.54 Y56.42 E13.8591              ; draw dl=0.4@10(10<10>10) de=0.024@0.62(0.62<0.62>0.62) l=0.30x0.50x1.00 r=0.99
;00:00:21.519: pe=1.3055 eb=0.0243 ve=0.6237 vn=0.6206 vl=10.000 db=0.50
G1 X-68.92 Y56.51 E13.8834              ; draw dl=0.4@10(10<10>10) de=0.024@0.62(0.62<0.62>0.62) l=0.30x0.50x1.00 r=1.00
;00:00:21.558: pe=1.3057 eb=0.0243 ve=0.6237 vn=0.6208 vl=10.000 db=0.50
G1 X-69.22 Y56.77 E13.9082              ; draw dl=0.4@10(10<10>10) de=0.025@0.62(0.62<0.62>0.62) l=0.30x0.50x1.00 r=1.00
;00:00:21.597: pe=1.3058 eb=0.0243 ve=0.6237 vn=0.6208 vl=10.000 db=0.50
G1 X-69.43 Y57.18 E13.9369              ; draw dl=0.5@10(10<10>10) de=0.029@0.62(0.62<0.62>0.62) l=0.30x0.50x1.00 r=1.00
;00:00:21.643: pe=1.3059 eb=0.0243 ve=0.6237 vn=0.6209 vl=10.000 db=0.50
G1 X-69.50 Y57.71 E13.9703              ; draw dl=0.5@10(10<10>10) de=0.033@0.62(0.62<0.62>0.62) l=0.30x0.50x1.00 r=1.00
;00:00:21.697: pe=1.3060 eb=0.0243 ve=0.6237 vn=0.6210 vl=10.000 db=0.50
G1 X-69.44 Y58.22 E14.0023              ; draw dl=0.5@10(10<10>10) de=0.032@0.62(0.62<0.62>0.62) l=0.30x0.50x1.00 r=1.00
;00:00:21.748: pe=1.3062 eb=0.0243 ve=0.6237 vn=0.6210 vl=10.000 db=0.50
G1 X-69.26 Y58.61 E14.0291              ; draw dl=0.4@10(10<10>10) de=0.027@0.62(0.62<0.62>0.62) l=0.30x0.50x1.00 r=1.00
;00:00:21.791: pe=1.3063 eb=0.0243 ve=0.6237 vn=0.6211 vl=10.000 db=0.50
G1 X-68.97 Y58.86 E14.0530              ; draw dl=0.4@10(10<10>10) de=0.024@0.62(0.62<0.62>0.62) l=0.30x0.50x1.00 r=1.00
;00:00:21.830: pe=1.3064 eb=0.0243 ve=0.6237 vn=0.6211 vl=10.000 db=0.50
G1 X-68.57 Y58.95 E14.0785              ; draw dl=0.4@10(10<10>10) de=0.026@0.62(0.62<0.62>0.62) l=0.30x0.50x1.00 r=1.00
;00:00:21.871: pe=1.3065 eb=0.0243 ve=0.6237 vn=0.6212 vl=10.000 db=0.50
G1 X-68.38 Y58.93 E14.0904              ; draw dl=0.2@10(10<10>10) de=0.012@0.62(0.62<0.62>0.62) l=0.30x0.50x1.00 r=1.00
;00:00:21.890: pe=1.3065 eb=0.0243 ve=0.6237 vn=0.6212 vl=10.000 db=0.50
G1 X-68.18 Y58.85 E14.1039              ; draw dl=0.2@10(10<10>10) de=0.013@0.62(0.62<0.62>0.62) l=0.30x0.50x1.00 r=1.00
;00:00:21.911: pe=1.3066 eb=0.0243 ve=0.6237 vn=0.6212 vl=10.000 db=0.50
G1 X-67.97 Y58.72 E14.1193              ; draw dl=0.2@10(10<10>10) de=0.015@0.62(0.62<0.62>0.62) l=0.30x0.50x1.00 r=1.00
;00:00:21.936: pe=1.3067 eb=0.0243 ve=0.6236 vn=0.6212 vl=10.000 db=0.50
G1 X-67.77 Y58.50 E14.1378              ; draw dl=0.3@10(10<10>10) de=0.019@0.62(0.62<0.62>0.62) l=0.30x0.50x1.00 r=1.00
;00:00:21.966: pe=1.3067 eb=0.0243 ve=0.6236 vn=0.6213 vl=10.000 db=0.50
G1 X-67.52 Y58.03 E14.1710              ; draw dl=0.5@10(10<10>0) de=0.033@0.53(0.62<0.62>0.0) l=0.30x0.50x1.00 r=1.14
;00:00:22.029: pe=1.3020 eb=0.0291 ve=0.0000 vn=0.4243 vl=0.000 db=0.54
G1 E10.8691 F2400                       ; retract de=-3.3020@-40.0 r=1.11
;00:00:22.111: pe=-2.0008 eb=0.0299 ve=-40.0000 vn=0.0000 vl=0.000 db=0.55
G1 Z0.500 F420                          ; hopup dz=0.20@7 h=0.5 r=0.86
;00:00:22.140: pe=-2.0008 eb=0.0299 ve=0.0000 vn=0.0000 vl=0.000 db=0.43
G1 X-66.46 Y58.89 F6000                 ; move dl=1.4@100(0<18>0) de=0.000@0.0(0.0<0.0>0.0) l=0.50x0.50x0.00 r=0.00
;00:00:22.251: pe=-2.0008 eb=0.0000 ve=0.0000 vn=0.0000 vl=0.000 db=0.00
G1 Z0.300 F420                          ; hopdn dz=-0.20@7 h=0.3 r=0.00
;00:00:22.279: pe=-2.0008 eb=0.0000 ve=0.0000 vn=0.0000 vl=0.000 db=0.00
G1 E14.1848 F1800                       ; restore de=3.3157@30.0 r=0.89
;00:00:22.390: pe=1.2955 eb=0.0194 ve=30.0000 vn=0.8122 vl=0.000 db=0.44
G1 X-65.29 Y56.44 E14.3541 F600         ; draw dl=2.7@10(0<10>0) de=0.169@0.58(0.0<0.62>0.0) l=0.30x0.50x1.00 r=1.04
;00:00:22.681: pe=1.2884 eb=0.0285 ve=0.0000 vn=0.4185 vl=0.000 db=0.54
G1 E11.0658 F2400                       ; retract de=-3.2884@-40.0 r=1.09
;00:00:22.764: pe=-2.0008 eb=0.0293 ve=-40.0000 vn=0.0000 vl=0.000 db=0.55
G1 Z0.500 F420                          ; hopup dz=0.20@7 h=0.5 r=0.85
;00:00:22.792: pe=-2.0008 eb=0.0293 ve=0.0000 vn=0.0000 vl=0.000 db=0.42
G1 X-66.29 Y55.57 F6000                 ; move dl=1.3@100(0<18>0) de=0.000@0.0(0.0<0.0>0.0) l=0.50x0.50x0.00 r=0.00
;00:00:22.901: pe=-2.0008 eb=0.0000 ve=0.0000 vn=0.0000 vl=0.000 db=0.00
G1 Z0.300 F420                          ; hopdn dz=-0.20@7 h=0.3 r=0.00
;00:00:22.930: pe=-2.0008 eb=0.0000 ve=0.0000 vn=0.0000 vl=0.000 db=0.00
G1 E14.3915 F1800                       ; restore de=3.3258@30.0 r=0.90
;00:00:23.041: pe=1.3053 eb=0.0197 ve=30.0000 vn=0.8182 vl=0.000 db=0.45
G1 X-66.19 Y55.56 E14.3978 F600         ; draw dl=0.1@10(0<10>10) de=0.006@0.31(0.0<0.62>0.62) l=0.30x0.50x1.00 r=1.98
;00:00:23.061: pe=1.2992 eb=0.0257 ve=0.6236 vn=0.5481 vl=10.000 db=0.51
G1 X-66.10 Y55.56 E14.4034              ; draw dl=0.1@10(10<10>10) de=0.006@0.62(0.62<0.62>0.62) l=0.30x0.50x1.00 r=0.90
;00:00:23.070: pe=1.2997 eb=0.0251 ve=0.6236 vn=0.5758 vl=10.000 db=0.51
G1 X-65.84 Y55.62 E14.4201              ; draw dl=0.3@10(10<10>10) de=0.017@0.62(0.62<0.62>0.62) l=0.30x0.50x1.00 r=0.96
;00:00:23.097: pe=1.3005 eb=0.0243 ve=0.6236 vn=0.6090 vl=10.000 db=0.50
G1 X-65.63 Y55.78 E14.4365              ; draw dl=0.3@10(10<10>10) de=0.016@0.62(0.62<0.62>0.62) l=0.30x0.50x1.00 r=0.98
;00:00:23.123: pe=1.3007 eb=0.0241 ve=0.6236 vn=0.6164 vl=10.000 db=0.50
G1 X-65.45 Y56.06 E14.4573              ; draw dl=0.3@10(10<10>10) de=0.021@0.62(0.62<0.62>0.62) l=0.30x0.50x1.00 r=0.99
;00:00:23.156: pe=1.3009 eb=0.0241 ve=0.6236 vn=0.6183 vl=10.000 db=0.50
G1 X-65.29 Y56.44 E14.4830              ; draw dl=0.4@10(10<10>10) de=0.026@0.62(0.62<0.62>0.62) l=0.30x0.50x1.00 r=0.99
;00:00:23.197: pe=1.3011 eb=0.0241 ve=0.6236 vn=0.6187 vl=10.000 db=0.50
G1 X-64.41 Y58.89 E14.6453              ; draw dl=2.6@10(10<10>0) de=0.162@0.6(0.62<0.62>0.0) l=0.30x0.50x1.00 r=1.02
;00:00:23.468: pe=1.2975 eb=0.0289 ve=0.0000 vn=0.4224 vl=0.000 db=0.54
G1 E11.3479 F2400                       ; retract de=-3.2975@-40.0 r=1.10
;00:00:23.550: pe=-2.0008 eb=0.0297 ve=-40.0000 vn=0.0000 vl=0.000 db=0.55
G1 Z0.500 F420                          ; hopup dz=0.20@7 h=0.5 r=0.85
;00:00:23.579: pe=-2.0008 eb=0.0297 ve=0.0000 vn=0.0000 vl=0.000 db=0.43
G1 X-63.35 Y58.76 F6000                 ; move dl=1.1@100(0<16>0) de=0.000@0.0(0.0<0.0>0.0) l=0.50x0.50x0.00 r=0.00
;00:00:23.677: pe=-2.0008 eb=0.0000 ve=0.0000 vn=0.0000 vl=0.000 db=0.00
G1 Z0.300 F420                          ; hopdn dz=-0.20@7 h=0.3 r=0.00
;00:00:23.705: pe=-2.0008 eb=0.0000 ve=0.0000 vn=0.0000 vl=0.000 db=0.00
G1 E14.6597 F1800                       ; restore de=3.3119@30.0 r=0.89
;00:00:23.816: pe=1.2918 eb=0.0193 ve=30.0000 vn=0.8098 vl=0.000 db=0.44
G1 X-63.35 Y56.48 E14.8019 F600         ; draw dl=2.3@10(0<10>0) de=0.142@0.57(0.0<0.62>0.0) l=0.30x0.50x1.00 r=1.05
;00:00:24.064: pe=1.2846 eb=0.0284 ve=0.0000 vn=0.4169 vl=0.000 db=0.54
G1 E11.5173 F2400                       ; retract de=-3.2846@-40.0 r=1.09
;00:00:24.146: pe=-2.0008 eb=0.0292 ve=-40.0000 vn=0.0000 vl=0.000 db=0.55
G1 Z0.500 F420                          ; hopup dz=0.20@7 h=0.5 r=0.85
;00:00:24.175: pe=-2.0008 eb=0.0292 ve=0.0000 vn=0.0000 vl=0.000 db=0.42
G1 X-63.35 Y57.89 F6000                 ; move dl=1.4@100(0<19>0) de=0.000@0.0(0.0<0.0>0.0) l=0.50x0.50x0.00 r=0.00
;00:00:24.287: pe=-2.0008 eb=0.0000 ve=0.0000 vn=0.0000 vl=0.000 db=0.00
G1 Z0.300 F420                          ; hopdn dz=-0.20@7 h=0.3 r=0.00
;00:00:24.316: pe=-2.0008 eb=0.0000 ve=0.0000 vn=0.0000 vl=0.000 db=0.00
G1 E14.8419 F1800                       ; restore de=3.3246@30.0 r=0.90
;00:00:24.427: pe=1.3042 eb=0.0196 ve=30.0000 vn=0.8175 vl=0.000 db=0.45
G1 X-63.11 Y58.34 E14.8737 F600         ; draw dl=0.5@10(0<10>10) de=0.032@0.52(0.0<0.62>0.62) l=0.30x0.50x1.00 r=1.15
;00:00:24.488: pe=1.2995 eb=0.0242 ve=0.6236 vn=0.6110 vl=10.000 db=0.50
G1 X-62.92 Y58.67 E14.8975              ; draw dl=0.4@10(10<10>10) de=0.024@0.62(0.62<0.62>0.62) l=0.30x0.50x1.00 r=0.99
;00:00:24.526: pe=1.2998 eb=0.0241 ve=0.6236 vn=0.6173 vl=10.000 db=0.50
G1 X-62.70 Y58.86 E14.9156              ; draw dl=0.3@10(10<10>10) de=0.018@0.62(0.62<0.62>0.62) l=0.30x0.50x1.00 r=0.99
;00:00:24.555: pe=1.3000 eb=0.0240 ve=0.6236 vn=0.6180 vl=10.000 db=0.50
G1 X-62.49 Y58.93 E14.9294              ; draw dl=0.2@10(10<10>10) de=0.014@0.62(0.62<0.62>0.62) l=0.30x0.50x1.00 r=0.99
;00:00:24.577: pe=1.3001 eb=0.0241 ve=0.6236 vn=0.6182 vl=10.000 db=0.50
G1 X-62.28 Y58.95 E14.9425              ; draw dl=0.2@10(10<10>10) de=0.013@0.62(0.62<0.62>0.62) l=0.30x0.50x1.00 r=0.99
;00:00:24.598: pe=1.3002 eb=0.0241 ve=0.6236 vn=0.6182 vl=10.000 db=0.50
G1 X-61.95 Y58.88 E14.9636              ; draw dl=0.3@10(10<10>10) de=0.021@0.62(0.62<0.62>0.62) l=0.30x0.50x1.00 r=0.99
;00:00:24.632: pe=1.3004 eb=0.0241 ve=0.6236 vn=0.6183 vl=10.000 db=0.50
G1 X-61.77 Y58.73 E14.9782              ; draw dl=0.2@10(10<10>10) de=0.015@0.62(0.62<0.62>0.62) l=0.30x0.50x1.00 r=0.99
;00:00:24.655: pe=1.3005 eb=0.0241 ve=0.6236 vn=0.6184 vl=10.000 db=0.50
G1 X-61.67 Y58.40 E14.9997              ; draw dl=0.3@10(10<10>10) de=0.022@0.62(0.62<0.62>0.62) l=0.30x0.50x1.00 r=0.99
;00:00:24.690: pe=1.3007 eb=0.0241 ve=0.6236 vn=0.6185 vl=10.000 db=0.50
G1 X-61.61 Y58.08 E15.0200              ; draw dl=0.3@10(10<10>10) de=0.020@0.62(0.62<0.62>0.62) l=0.30x0.50x1.00 r=0.99
;00:00:24.722: pe=1.3008 eb=0.0241 ve=0.6236 vn=0.6185 vl=10.000 db=0.50
G1 X-61.61 Y56.48 E15.1198              ; draw dl=1.6@10(10<10>0) de=0.100@0.59(0.62<0.62>0.0) l=0.30x0.50x1.00 r=1.04
;00:00:24.892: pe=1.2968 eb=0.0289 ve=0.0000 vn=0.4221 vl=0.000 db=0.54
G1 E11.8230 F2400                       ; retract de=-3.2968@-40.0 r=1.10
;00:00:24.975: pe=-2.0008 eb=0.0297 ve=-40.0000 vn=0.0000 vl=0.000 db=0.55
G1 Z0.500 F420                          ; hopup dz=0.20@7 h=0.5 r=0.85
;00:00:25.003: pe=-2.0008 eb=0.0297 ve=0.0000 vn=0.0000 vl=0.000 db=0.43
G1 X-60.55 Y56.48 F6000                 ; move dl=1.1@100(0<16>0) de=0.000@0.0(0.0<0.0>0.0) l=0.50x0.50x0.00 r=0.00
;00:00:25.101: pe=-2.0008 eb=0.0000 ve=0.0000 vn=0.0000 vl=0.000 db=0.00
G1 Z0.300 F420                          ; hopdn dz=-0.20@7 h=0.3 r=0.00
;00:00:25.129: pe=-2.0008 eb=0.0000 ve=0.0000 vn=0.0000 vl=0.000 db=0.00
G1 E15.1363 F1800                       ; restore de=3.3132@30.0 r=0.89
;00:00:25.240: pe=1.2931 eb=0.0193 ve=30.0000 vn=0.8106 vl=0.000 db=0.44
G1 X-60.55 Y58.89 E15.2866 F600         ; draw dl=2.4@10(0<10>0) de=0.150@0.58(0.0<0.62>0.0) l=0.30x0.50x1.00 r=1.05
;00:00:25.501: pe=1.2859 eb=0.0284 ve=0.0000 vn=0.4175 vl=0.000 db=0.54
G1 E12.0006 F2400                       ; retract de=-3.2859@-40.0 r=1.09
;00:00:25.583: pe=-2.0008 eb=0.0292 ve=-40.0000 vn=0.0000 vl=0.000 db=0.55
G1 Z0.500 F420                          ; hopup dz=0.20@7 h=0.5 r=0.85
;00:00:25.612: pe=-2.0008 eb=0.0292 ve=0.0000 vn=0.0000 vl=0.000 db=0.42
G1 X-60.55 Y58.20 F6000                 ; move dl=0.7@100(0<13>0) de=0.000@0.0(0.0<0.0>0.0) l=0.50x0.50x0.00 r=0.00
;00:00:25.690: pe=-2.0008 eb=0.0000 ve=0.0000 vn=0.0000 vl=0.000 db=0.00
G1 Z0.300 F420                          ; hopdn dz=-0.20@7 h=0.3 r=0.00
;00:00:25.719: pe=-2.0008 eb=0.0000 ve=0.0000 vn=0.0000 vl=0.000 db=0.00
G1 E15.3112 F1800                       ; restore de=3.3106@30.0 r=0.89
;00:00:25.829: pe=1.2906 eb=0.0192 ve=30.0000 vn=0.8089 vl=0.000 db=0.44
G1 X-60.30 Y58.55 E15.3380 F600         ; draw dl=0.4@10(0<10>10) de=0.027@0.51(0.0<0.62>0.62) l=0.30x0.50x1.00 r=1.17
;00:00:25.882: pe=1.2861 eb=0.0238 ve=0.6236 vn=0.6009 vl=10.000 db=0.49
G1 X-60.09 Y58.76 E15.3565              ; draw dl=0.3@10(10<10>10) de=0.019@0.62(0.62<0.62>0.62) l=0.30x0.50x1.00 r=0.97
;00:00:25.912: pe=1.2866 eb=0.0236 ve=0.6236 vn=0.6100 vl=10.000 db=0.49
G1 X-59.89 Y58.88 E15.3711              ; draw dl=0.2@10(10<10>10) de=0.015@0.62(0.62<0.62>0.62) l=0.30x0.50x1.00 r=0.98
;00:00:25.935: pe=1.2869 eb=0.0236 ve=0.6237 vn=0.6116 vl=10.000 db=0.49
G1 X-59.70 Y58.94 E15.3835              ; draw dl=0.2@10(10<10>10) de=0.012@0.62(0.62<0.62>0.62) l=0.30x0.50x1.00 r=0.98
;00:00:25.955: pe=1.2871 eb=0.0236 ve=0.6236 vn=0.6120 vl=10.000 db=0.49
G1 X-59.54 Y58.95 E15.3935              ; draw dl=0.2@10(10<10>10) de=0.010@0.62(0.62<0.62>0.62) l=0.30x0.50x1.00 r=0.98
;00:00:25.971: pe=1.2873 eb=0.0236 ve=0.6237 vn=0.6122 vl=10.000 db=0.49
G1 X-59.49 Y58.95 E15.3966              ; draw dl=0.1@10(10<10>7) de=0.003@0.54(0.62<0.62>0.45) l=0.30x0.50x1.00 r=1.13
;00:00:25.977: pe=1.2869 eb=0.0240 ve=0.4453 vn=0.5922 vl=7.141 db=0.50
G1 X-59.44 Y58.94 E15.3998              ; draw dl=0.1@10(7<7>0) de=0.003@0.22(0.45<0.45>0.0) l=0.30x0.50x1.00 r=2.34
;00:00:25.991: pe=1.2826 eb=0.0283 ve=0.0000 vn=0.4161 vl=0.000 db=0.54
G1 E12.1172 F2400                       ; retract de=-3.2826@-40.0 r=1.09
;00:00:26.073: pe=-2.0008 eb=0.0291 ve=-40.0000 vn=0.0000 vl=0.000 db=0.54
G1 Z0.500 F420                          ; hopup dz=0.20@7 h=0.5 r=0.84
;00:00:26.102: pe=-2.0008 eb=0.0291 ve=0.0000 vn=0.0000 vl=0.000 db=0.42
G1 X-58.38 Y57.69 F6000                 ; move dl=1.6@100(0<20>0) de=0.000@0.0(0.0<0.0>0.0) l=0.50x0.50x0.00 r=0.00
;00:00:26.223: pe=-2.0008 eb=0.0000 ve=0.0000 vn=0.0000 vl=0.000 db=0.00
G1 Z0.300 F420                          ; hopdn dz=-0.20@7 h=0.3 r=0.00
;00:00:26.252: pe=-2.0008 eb=0.0000 ve=0.0000 vn=0.0000 vl=0.000 db=0.00
G1 E15.4484 F1800                       ; restore de=3.3312@30.0 r=0.90
;00:00:26.363: pe=1.3106 eb=0.0198 ve=30.0000 vn=0.8214 vl=0.000 db=0.45
G1 X-56.24 Y57.69 E15.5819 F600         ; draw dl=2.1@10(0<10>10) de=0.133@0.6(0.0<0.62>0.6) l=0.30x0.50x1.00 r=1.03
;00:00:26.587: pe=1.3062 eb=0.0243 ve=0.6039 vn=0.6208 vl=9.683 db=0.50
G1 X-56.32 Y58.22 E15.6153              ; draw dl=0.5@10(10<10>10) de=0.033@0.62(0.6<0.62>0.62) l=0.30x0.50x1.00 r=1.00
;00:00:26.641: pe=1.3063 eb=0.0243 ve=0.6237 vn=0.6211 vl=10.000 db=0.50
G1 X-56.53 Y58.61 E15.6429              ; draw dl=0.4@10(10<10>10) de=0.028@0.62(0.62<0.62>0.62) l=0.30x0.50x1.00 r=1.00
;00:00:26.685: pe=1.3065 eb=0.0243 ve=0.6236 vn=0.6211 vl=10.000 db=0.50
G1 X-56.87 Y58.86 E15.6692              ; draw dl=0.4@10(10<10>10) de=0.026@0.62(0.62<0.62>0.62) l=0.30x0.50x1.00 r=1.00
;00:00:26.727: pe=1.3066 eb=0.0243 ve=0.6236 vn=0.6212 vl=10.000 db=0.50
G1 X-57.31 Y58.95 E15.6972              ; draw dl=0.4@10(10<10>10) de=0.028@0.62(0.62<0.62>0.62) l=0.30x0.50x1.00 r=1.00
;00:00:26.772: pe=1.3067 eb=0.0243 ve=0.6237 vn=0.6212 vl=10.000 db=0.50
G1 X-57.74 Y58.86 E15.7246              ; draw dl=0.4@10(10<10>10) de=0.027@0.62(0.62<0.62>0.62) l=0.30x0.50x1.00 r=1.00
;00:00:26.816: pe=1.3068 eb=0.0243 ve=0.6236 vn=0.6213 vl=10.000 db=0.50
G1 X-58.08 Y58.61 E15.7510              ; draw dl=0.4@10(10<10>10) de=0.026@0.62(0.62<0.62>0.62) l=0.30x0.50x1.00 r=1.00
;00:00:26.858: pe=1.3069 eb=0.0243 ve=0.6236 vn=0.6213 vl=10.000 db=0.50
G1 X-58.30 Y58.22 E15.7789              ; draw dl=0.4@10(10<10>10) de=0.028@0.62(0.62<0.62>0.62) l=0.30x0.50x1.00 r=1.00
;00:00:26.903: pe=1.3070 eb=0.0243 ve=0.6236 vn=0.6214 vl=10.000 db=0.50
G1 X-58.38 Y57.69 E15.8123              ; draw dl=0.5@10(10<10>10) de=0.033@0.62(0.62<0.62>0.62) l=0.30x0.50x1.00 r=1.00
;00:00:26.957: pe=1.3071 eb=0.0243 ve=0.6237 vn=0.6214 vl=10.000 db=0.50
G1 X-58.30 Y57.15 E15.8464              ; draw dl=0.5@10(10<10>10) de=0.034@0.62(0.62<0.62>0.62) l=0.30x0.50x1.00 r=1.00
;00:00:27.011: pe=1.3072 eb=0.0243 ve=0.6237 vn=0.6215 vl=10.000 db=0.50
G1 X-58.07 Y56.75 E15.8751              ; draw dl=0.5@10(10<10>10) de=0.029@0.62(0.62<0.62>0.62) l=0.30x0.50x1.00 r=1.00
;00:00:27.057: pe=1.3073 eb=0.0243 ve=0.6237 vn=0.6215 vl=10.000 db=0.50
G1 X-57.72 Y56.51 E15.9016              ; draw dl=0.4@10(10<10>10) de=0.026@0.62(0.62<0.62>0.62) l=0.30x0.50x1.00 r=1.00
;00:00:27.100: pe=1.3074 eb=0.0243 ve=0.6237 vn=0.6216 vl=10.000 db=0.50
G1 X-57.26 Y56.42 E15.9308              ; draw dl=0.5@10(10<10>10) de=0.029@0.62(0.62<0.62>0.62) l=0.30x0.50x1.00 r=1.00
;00:00:27.147: pe=1.3075 eb=0.0243 ve=0.6237 vn=0.6216 vl=10.000 db=0.50
G1 X-56.92 Y56.47 E15.9523              ; draw dl=0.3@10(10<10>10) de=0.021@0.62(0.62<0.62>0.62) l=0.30x0.50x1.00 r=1.00
;00:00:27.181: pe=1.3076 eb=0.0243 ve=0.6236 vn=0.6217 vl=10.000 db=0.50
G1 X-56.63 Y56.61 E15.9724              ; draw dl=0.3@10(10<10>10) de=0.020@0.62(0.62<0.62>0.62) l=0.30x0.50x1.00 r=1.00
;00:00:27.213: pe=1.3076 eb=0.0243 ve=0.6236 vn=0.6217 vl=10.000 db=0.50
G1 X-56.42 Y56.83 E15.9913              ; draw dl=0.3@10(10<10>10) de=0.019@0.62(0.62<0.62>0.62) l=0.30x0.50x1.00 r=1.00
;00:00:27.244: pe=1.3077 eb=0.0243 ve=0.6236 vn=0.6217 vl=10.000 db=0.50
G1 X-56.30 Y57.13 E16.0115              ; draw dl=0.3@10(10<10>0) de=0.020@0.48(0.62<0.62>0.0) l=0.30x0.50x1.00 r=1.24
;00:00:27.286: pe=1.3029 eb=0.0291 ve=0.0000 vn=0.4246 vl=0.000 db=0.55
G1 E12.7086 F2400                       ; retract de=-3.3029@-40.0 r=1.11
;00:00:27.368: pe=-2.0008 eb=0.0300 ve=-40.0000 vn=0.0000 vl=0.000 db=0.55
G1 Z0.500 F420                          ; hopup dz=0.20@7 h=0.5 r=0.86
;00:00:27.397: pe=-2.0008 eb=0.0300 ve=0.0000 vn=0.0000 vl=0.000 db=0.43
G1 X-53.99 Y56.46 F6000                 ; move dl=2.4@100(0<25>0) de=0.000@0.0(0.0<0.0>0.0) l=0.50x0.50x0.00 r=0.00
;00:00:27.544: pe=-2.0008 eb=0.0000 ve=0.0000 vn=0.0000 vl=0.000 db=0.00
G1 Z0.300 F420                          ; hopdn dz=-0.20@7 h=0.3 r=0.00
;00:00:27.573: pe=-2.0008 eb=0.0000 ve=0.0000 vn=0.0000 vl=0.000 db=0.00
G1 E16.0317 F1800                       ; restore de=3.3231@30.0 r=0.89
;00:00:27.684: pe=1.3027 eb=0.0196 ve=30.0000 vn=0.8166 vl=0.000 db=0.45
G1 X-54.14 Y56.45 E16.0411 F600         ; draw dl=0.2@10(0<10>10) de=0.009@0.37(0.0<0.62>0.62) l=0.30x0.50x1.00 r=1.62
;00:00:27.709: pe=1.2969 eb=0.0252 ve=0.6236 vn=0.5638 vl=10.000 db=0.51
G1 X-54.32 Y56.50 E16.0528              ; draw dl=0.2@10(10<10>10) de=0.012@0.62(0.62<0.62>0.62) l=0.30x0.50x1.00 r=0.94
;00:00:27.727: pe=1.2977 eb=0.0244 ve=0.6236 vn=0.5986 vl=10.000 db=0.50
G1 X-54.48 Y56.62 E16.0652              ; draw dl=0.2@10(10<10>10) de=0.012@0.62(0.62<0.62>0.62) l=0.30x0.50x1.00 r=0.97
;00:00:27.747: pe=1.2981 eb=0.0241 ve=0.6236 vn=0.6113 vl=10.000 db=0.50
G1 X-54.60 Y56.81 E16.0793              ; draw dl=0.2@10(10<10>10) de=0.014@0.62(0.62<0.62>0.62) l=0.30x0.50x1.00 r=0.98
;00:00:27.770: pe=1.2983 eb=0.0240 ve=0.6236 vn=0.6157 vl=10.000 db=0.50
G1 X-54.68 Y57.19 E16.1035              ; draw dl=0.4@10(10<10>10) de=0.024@0.62(0.62<0.62>0.62) l=0.30x0.50x1.00 r=0.99
;00:00:27.809: pe=1.2985 eb=0.0240 ve=0.6236 vn=0.6173 vl=10.000 db=0.49
G1 X-54.68 Y59.52 E16.2488              ; draw dl=2.3@10(10<10>0) de=0.145@0.6(0.62<0.62>0.0) l=0.30x0.50x1.00 r=1.02
;00:00:28.052: pe=1.2950 eb=0.0288 ve=0.0000 vn=0.4213 vl=0.000 db=0.54
G1 E12.9537 F2400                       ; retract de=-3.2950@-40.0 r=1.10
;00:00:28.134: pe=-2.0008 eb=0.0296 ve=-40.0000 vn=0.0000 vl=0.000 db=0.55
G1 Z0.500 F420                          ; hopup dz=0.20@7 h=0.5 r=0.85
;00:00:28.162: pe=-2.0008 eb=0.0296 ve=0.0000 vn=0.0000 vl=0.000 db=0.43
G1 X-55.18 Y58.76 F6000                 ; move dl=0.9@100(0<15>0) de=0.000@0.0(0.0<0.0>0.0) l=0.50x0.50x0.00 r=0.00
;00:00:28.253: pe=-2.0008 eb=0.0000 ve=0.0000 vn=0.0000 vl=0.000 db=0.00
G1 Z0.300 F420                          ; hopdn dz=-0.20@7 h=0.3 r=0.00
;00:00:28.282: pe=-2.0008 eb=0.0000 ve=0.0000 vn=0.0000 vl=0.000 db=0.00
G1 E16.2421 F1800                       ; restore de=3.2884@30.0 r=0.87
;00:00:28.391: pe=1.2690 eb=0.0186 ve=30.0000 vn=0.7950 vl=0.000 db=0.44
G1 X-54.10 Y58.76 E16.3095 F600         ; draw dl=1.1@10(0<10>0) de=0.067@0.53(0.0<0.62>0.0) l=0.30x0.50x1.00 r=1.10
;00:00:28.519: pe=1.2619 eb=0.0274 ve=0.0000 vn=0.4072 vl=0.000 db=0.53
G1 E13.0476 F2400                       ; retract de=-3.2619@-40.0 r=1.07
;00:00:28.601: pe=-2.0008 eb=0.0282 ve=-40.0000 vn=0.0000 vl=0.000 db=0.54
G1 Z0.500 F420                          ; hopup dz=0.20@7 h=0.5 r=0.83
;00:00:28.629: pe=-2.0008 eb=0.0282 ve=0.0000 vn=0.0000 vl=0.000 db=0.42
G1 X-52.92 Y58.26 F6000                 ; move dl=1.3@100(0<18>0) de=0.000@0.0(0.0<0.0>0.0) l=0.50x0.50x0.00 r=0.00
;00:00:28.737: pe=-2.0008 eb=0.0000 ve=0.0000 vn=0.0000 vl=0.000 db=0.00
G1 Z0.300 F420                          ; hopdn dz=-0.20@7 h=0.3 r=0.00
;00:00:28.765: pe=-2.0008 eb=0.0000 ve=0.0000 vn=0.0000 vl=0.000 db=0.00
G1 E16.3516 F1800                       ; restore de=3.3041@30.0 r=0.88
;00:00:28.875: pe=1.2842 eb=0.0190 ve=30.0000 vn=0.8046 vl=0.000 db=0.44
G1 X-51.23 Y58.26 E16.4570 F600         ; draw dl=1.7@10(0<10>0) de=0.105@0.56(0.0<0.62>0.0) l=0.30x0.50x1.00 r=1.07
;00:00:29.064: pe=1.2771 eb=0.0281 ve=0.0000 vn=0.4138 vl=0.000 db=0.54
G1 E13.1799 F2400                       ; retract de=-3.2771@-40.0 r=1.09
;00:00:29.146: pe=-2.0008 eb=0.0288 ve=-40.0000 vn=0.0000 vl=0.000 db=0.54
G1 Z0.500 F420                          ; hopup dz=0.20@7 h=0.5 r=0.84
;00:00:29.175: pe=-2.0008 eb=0.0288 ve=0.0000 vn=0.0000 vl=0.000 db=0.42
G1 X-51.23 Y57.55 F6000                 ; move dl=0.7@100(0<13>0) de=0.000@0.0(0.0<0.0>0.0) l=0.50x0.50x0.00 r=0.00
;00:00:29.255: pe=-2.0008 eb=0.0000 ve=0.0000 vn=0.0000 vl=0.000 db=0.00
G1 Z0.300 F420                          ; hopdn dz=-0.20@7 h=0.3 r=0.00
;00:00:29.283: pe=-2.0008 eb=0.0000 ve=0.0000 vn=0.0000 vl=0.000 db=0.00
G1 E16.4840 F1800                       ; restore de=3.3041@30.0 r=0.88
;00:00:29.394: pe=1.2842 eb=0.0190 ve=30.0000 vn=0.8046 vl=0.000 db=0.44
G1 X-52.92 Y57.55 E16.5894 F600         ; draw dl=1.7@10(0<10>0) de=0.105@0.56(0.0<0.62>0.0) l=0.30x0.50x1.00 r=1.07
;00:00:29.583: pe=1.2771 eb=0.0281 ve=0.0000 vn=0.4138 vl=0.000 db=0.54
G1 E13.3122 F2400                       ; retract de=-3.2771@-40.0 r=1.09
;00:00:29.664: pe=-2.0008 eb=0.0288 ve=-40.0000 vn=0.0000 vl=0.000 db=0.54
G1 Z0.500 F420                          ; hopup dz=0.20@7 h=0.5 r=0.84
;00:00:29.693: pe=-2.0008 eb=0.0288 ve=0.0000 vn=0.0000 vl=0.000 db=0.42
G1 X-48.95 Y59.94 F6000                 ; move dl=4.6@100(0<34>0) de=0.000@0.0(0.0<0.0>0.0) l=0.50x0.50x0.00 r=0.00
;00:00:29.897: pe=-2.0008 eb=0.0000 ve=0.0000 vn=0.0000 vl=0.000 db=0.00
G1 Z0.300 F420                          ; hopdn dz=-0.20@7 h=0.3 r=0.00
;00:00:29.926: pe=-2.0008 eb=0.0000 ve=0.0000 vn=0.0000 vl=0.000 db=0.00
G1 E16.6438 F1800                       ; restore de=3.3316@30.0 r=0.90
;00:00:30.037: pe=1.3109 eb=0.0198 ve=30.0000 vn=0.8216 vl=0.000 db=0.45
G1 X-48.44 Y59.80 E16.6768 F600         ; draw dl=0.5@10(0<10>10) de=0.033@0.52(0.0<0.62>0.62) l=0.30x0.50x1.00 r=1.15
;00:00:30.100: pe=1.3060 eb=0.0244 ve=0.6236 vn=0.6147 vl=10.000 db=0.50
G1 X-48.05 Y59.42 E16.7107              ; draw dl=0.5@10(10<10>10) de=0.034@0.62(0.62<0.62>0.62) l=0.30x0.50x1.00 r=0.99
;00:00:30.154: pe=1.3063 eb=0.0243 ve=0.6236 vn=0.6208 vl=10.000 db=0.50
G1 X-47.81 Y58.86 E16.7487              ; draw dl=0.6@10(10<10>10) de=0.038@0.62(0.62<0.62>0.62) l=0.30x0.50x1.00 r=1.00
;00:00:30.215: pe=1.3064 eb=0.0243 ve=0.6236 vn=0.6211 vl=10.000 db=0.50
G1 X-47.73 Y58.18 E16.7914              ; draw dl=0.7@10(10<10>10) de=0.043@0.62(0.62<0.62>0.62) l=0.30x0.50x1.00 r=1.00
;00:00:30.284: pe=1.3066 eb=0.0243 ve=0.6236 vn=0.6212 vl=10.000 db=0.50
G1 X-47.81 Y57.51 E16.8335              ; draw dl=0.7@10(10<10>10) de=0.042@0.62(0.62<0.62>0.62) l=0.30x0.50x1.00 r=1.00
;00:00:30.351: pe=1.3067 eb=0.0243 ve=0.6236 vn=0.6213 vl=10.000 db=0.50
G1 X-48.05 Y56.95 E16.8715              ; draw dl=0.6@10(10<10>10) de=0.038@0.62(0.62<0.62>0.62) l=0.30x0.50x1.00 r=1.00
;00:00:30.412: pe=1.3069 eb=0.0243 ve=0.6236 vn=0.6213 vl=10.000 db=0.50
G1 X-48.44 Y56.56 E16.9059              ; draw dl=0.6@10(10<10>10) de=0.034@0.62(0.62<0.62>0.62) l=0.30x0.50x1.00 r=1.00
;00:00:30.467: pe=1.3070 eb=0.0243 ve=0.6236 vn=0.6214 vl=10.000 db=0.50
G1 X-48.95 Y56.42 E16.9389              ; draw dl=0.5@10(10<10>10) de=0.033@0.62(0.62<0.62>0.62) l=0.30x0.50x1.00 r=1.00
;00:00:30.520: pe=1.3071 eb=0.0243 ve=0.6236 vn=0.6215 vl=10.000 db=0.50
G1 X-49.47 Y56.56 E16.9724              ; draw dl=0.5@10(10<10>10) de=0.034@0.62(0.62<0.62>0.62) l=0.30x0.50x1.00 r=1.00
;00:00:30.574: pe=1.3072 eb=0.0243 ve=0.6236 vn=0.6215 vl=10.000 db=0.50
G1 X-49.85 Y56.95 E17.0064              ; draw dl=0.5@10(10<10>10) de=0.034@0.62(0.62<0.62>0.62) l=0.30x0.50x1.00 r=1.00
;00:00:30.628: pe=1.3074 eb=0.0243 ve=0.6236 vn=0.6216 vl=10.000 db=0.50
G1 X-50.09 Y57.51 E17.0444              ; draw dl=0.6@10(10<10>10) de=0.038@0.62(0.62<0.62>0.62) l=0.30x0.50x1.00 r=1.00
;00:00:30.689: pe=1.3075 eb=0.0243 ve=0.6236 vn=0.6216 vl=10.000 db=0.50
G1 X-50.17 Y58.18 E17.0865              ; draw dl=0.7@10(10<10>10) de=0.042@0.62(0.62<0.62>0.62) l=0.30x0.50x1.00 r=1.00
;00:00:30.757: pe=1.3076 eb=0.0243 ve=0.6236 vn=0.6217 vl=10.000 db=0.50
G1 X-50.09 Y58.85 E17.1286              ; draw dl=0.7@10(10<10>10) de=0.042@0.62(0.62<0.62>0.62) l=0.30x0.50x1.00 r=1.00
;00:00:30.824: pe=1.3077 eb=0.0243 ve=0.6236 vn=0.6217 vl=10.000 db=0.50
G1 X-49.85 Y59.42 E17.1671              ; draw dl=0.6@10(10<10>10) de=0.039@0.62(0.62<0.62>0.62) l=0.30x0.50x1.00 r=1.00
;00:00:30.886: pe=1.3079 eb=0.0243 ve=0.6236 vn=0.6218 vl=10.000 db=0.50
G1 X-49.47 Y59.80 E17.2006              ; draw dl=0.5@10(10<10>10) de=0.034@0.62(0.62<0.62>0.62) l=0.30x0.50x1.00 r=1.00
;00:00:30.940: pe=1.3080 eb=0.0243 ve=0.6236 vn=0.6218 vl=10.000 db=0.50
G1 X-48.95 Y59.94 E17.2342              ; draw dl=0.5@10(10<10>0) de=0.034@0.53(0.62<0.62>0.0) l=0.30x0.50x1.00 r=1.14
;00:00:31.004: pe=1.3032 eb=0.0291 ve=0.0000 vn=0.4248 vl=0.000 db=0.55
G1 E13.9311 F2400                       ; retract de=-3.3032@-40.0 r=1.11
;00:00:31.086: pe=-2.0008 eb=0.0300 ve=-40.0000 vn=0.0000 vl=0.000 db=0.55
G1 Z0.500 F420                          ; hopup dz=0.20@7 h=0.5 r=0.86
;00:00:31.115: pe=-2.0008 eb=0.0300 ve=0.0000 vn=0.0000 vl=0.000 db=0.43
G1 X-69.50 Y54.88 F6000                 ; move dl=21.2@100(0<73>0) de=0.000@0.0(0.0<0.0>0.0) l=0.50x0.50x0.00 r=0.00
;00:00:31.551: pe=-2.0008 eb=0.0000 ve=0.0000 vn=0.0000 vl=0.000 db=0.00
G1 Z0.300 F420                          ; hopdn dz=-0.20@7 h=0.3 r=0.00
;00:00:31.580: pe=-2.0008 eb=0.0000 ve=0.0000 vn=0.0000 vl=0.000 db=0.00
G1 E17.2562 F1800                       ; restore de=3.3251@30.0 r=0.90
;00:00:31.691: pe=1.3046 eb=0.0196 ve=30.0000 vn=0.8178 vl=0.000 db=0.45
G1 X-68.53 Y54.88 E17.3167 F600         ; draw dl=1.0@10(0<10>10) de=0.060@0.57(0.0<0.62>0.62) l=0.30x0.50x1.00 r=1.07
;00:00:31.798: pe=1.3002 eb=0.0241 ve=0.6236 vn=0.6178 vl=10.000 db=0.50
G1 X-68.14 Y54.78 E17.3418              ; draw dl=0.4@10(10<10>10) de=0.025@0.62(0.62<0.62>0.62) l=0.30x0.50x1.00 r=0.99
;00:00:31.838: pe=1.3005 eb=0.0241 ve=0.6236 vn=0.6183 vl=10.000 db=0.50
G1 X-67.83 Y54.58 E17.3648              ; draw dl=0.4@10(10<10>10) de=0.023@0.62(0.62<0.62>0.62) l=0.30x0.50x1.00 r=0.99
;00:00:31.875: pe=1.3006 eb=0.0241 ve=0.6236 vn=0.6185 vl=10.000 db=0.50
G1 X-67.73 Y54.45 E17.3750              ; draw dl=0.2@10(10<10>10) de=0.010@0.62(0.62<0.62>0.62) l=0.30x0.50x1.00 r=0.99
;00:00:31.891: pe=1.3007 eb=0.0241 ve=0.6236 vn=0.6185 vl=10.000 db=0.50
G1 X-67.60 Y54.04 E17.4018              ; draw dl=0.4@10(10<10>10) de=0.027@0.62(0.62<0.62>0.62) l=0.30x0.50x1.00 r=0.99
;00:00:31.934: pe=1.3009 eb=0.0241 ve=0.6236 vn=0.6186 vl=10.000 db=0.50
G1 X-67.65 Y53.80 E17.4171              ; draw dl=0.2@10(10<10>10) de=0.015@0.62(0.62<0.62>0.62) l=0.30x0.50x1.00 r=0.99
;00:00:31.959: pe=1.3011 eb=0.0241 ve=0.6236 vn=0.6187 vl=10.000 db=0.50
G1 X-67.72 Y53.56 E17.4327              ; draw dl=0.2@10(10<10>10) de=0.016@0.62(0.62<0.62>0.62) l=0.30x0.50x1.00 r=0.99
;00:00:31.984: pe=1.3012 eb=0.0241 ve=0.6236 vn=0.6187 vl=10.000 db=0.50
G1 X-67.98 Y53.36 E17.4532              ; draw dl=0.3@10(10<10>10) de=0.020@0.62(0.62<0.62>0.62) l=0.30x0.50x1.00 r=0.99
;00:00:32.017: pe=1.3014 eb=0.0241 ve=0.6236 vn=0.6188 vl=10.000 db=0.50
G1 X-68.49 Y53.18 E17.4869              ; draw dl=0.5@10(10<10>10) de=0.034@0.62(0.62<0.62>0.62) l=0.30x0.50x1.00 r=0.99
;00:00:32.071: pe=1.3016 eb=0.0241 ve=0.6236 vn=0.6189 vl=10.000 db=0.50
G1 X-69.50 Y53.18 E17.5499              ; draw dl=1.0@10(10<10>0) de=0.063@0.57(0.62<0.62>0.0) l=0.30x0.50x1.00 r=1.07
;00:00:32.182: pe=1.2972 eb=0.0289 ve=0.0000 vn=0.4223 vl=0.000 db=0.54
G1 E14.2527 F2400                       ; retract de=-3.2972@-40.0 r=1.10
;00:00:32.264: pe=-2.0008 eb=0.0297 ve=-40.0000 vn=0.0000 vl=0.000 db=0.55
G1 Z0.500 F420                          ; hopup dz=0.20@7 h=0.5 r=0.85
;00:00:32.293: pe=-2.0008 eb=0.0297 ve=0.0000 vn=0.0000 vl=0.000 db=0.43
G1 X-68.49 Y53.18 F6000                 ; move dl=1.0@100(0<16>0) de=0.000@0.0(0.0<0.0>0.0) l=0.50x0.50x0.00 r=0.00
;00:00:32.388: pe=-2.0008 eb=0.0000 ve=0.0000 vn=0.0000 vl=0.000 db=0.00
G1 Z0.300 F420                          ; hopdn dz=-0.20@7 h=0.3 r=0.00
;00:00:32.417: pe=-2.0008 eb=0.0000 ve=0.0000 vn=0.0000 vl=0.000 db=0.00
G1 E17.5821 F1800                       ; restore de=3.3295@30.0 r=0.90
;00:00:32.528: pe=1.3089 eb=0.0198 ve=30.0000 vn=0.8202 vl=0.000 db=0.45
G1 X-67.72 Y53.01 E17.6313 F600         ; draw dl=0.8@10(0<10>10) de=0.049@0.55(0.0<0.62>0.62) l=0.30x0.50x1.00 r=1.10
;00:00:32.616: pe=1.3042 eb=0.0242 ve=0.6236 vn=0.6187 vl=10.000 db=0.50
G1 X-67.50 Y52.81 E17.6499              ; draw dl=0.3@10(10<10>10) de=0.019@0.62(0.62<0.62>0.62) l=0.30x0.50x1.00 r=0.99
;00:00:32.646: pe=1.3043 eb=0.0242 ve=0.6236 vn=0.6199 vl=10.000 db=0.50
G1 X-67.39 Y52.56 E17.6669              ; draw dl=0.3@10(10<10>10) de=0.017@0.62(0.62<0.62>0.62) l=0.30x0.50x1.00 r=0.99
;00:00:32.673: pe=1.3044 eb=0.0242 ve=0.6236 vn=0.6201 vl=10.000 db=0.50
G1 X-67.34 Y52.32 E17.6822              ; draw dl=0.2@10(10<10>10) de=0.015@0.62(0.62<0.62>0.62) l=0.30x0.50x1.00 r=0.99
;00:00:32.698: pe=1.3045 eb=0.0242 ve=0.6236 vn=0.6202 vl=10.000 db=0.50
G1 X-67.47 Y51.91 E17.7090              ; draw dl=0.4@10(10<10>10) de=0.027@0.62(0.62<0.62>0.62) l=0.30x0.50x1.00 r=0.99
;00:00:32.741: pe=1.3046 eb=0.0242 ve=0.6236 vn=0.6203 vl=10.000 db=0.50
G1 X-67.57 Y51.78 E17.7192              ; draw dl=0.2@10(10<10>10) de=0.010@0.62(0.62<0.62>0.62) l=0.30x0.50x1.00 r=0.99
;00:00:32.757: pe=1.3047 eb=0.0242 ve=0.6236 vn=0.6203 vl=10.000 db=0.50
G1 X-67.88 Y51.59 E17.7419              ; draw dl=0.4@10(10<10>10) de=0.023@0.62(0.62<0.62>0.62) l=0.30x0.50x1.00 r=0.99
;00:00:32.794: pe=1.3048 eb=0.0242 ve=0.6236 vn=0.6204 vl=10.000 db=0.50
G1 X-68.27 Y51.48 E17.7672              ; draw dl=0.4@10(10<10>10) de=0.025@0.62(0.62<0.62>0.62) l=0.30x0.50x1.00 r=0.99
;00:00:32.834: pe=1.3049 eb=0.0242 ve=0.6236 vn=0.6204 vl=10.000 db=0.50
G1 X-69.50 Y51.48 E17.8439              ; draw dl=1.2@10(10<10>10) de=0.077@0.62(0.62<0.62>0.62) l=0.30x0.50x1.00 r=1.00
;00:00:32.957: pe=1.3053 eb=0.0242 ve=0.6236 vn=0.6206 vl=10.000 db=0.50
G1 X-69.50 Y54.88 E18.0559              ; draw dl=3.4@10(10<10>0) de=0.212@0.61(0.62<0.62>0.0) l=0.30x0.50x1.00 r=1.02
;00:00:33.307: pe=1.3014 eb=0.0291 ve=0.0000 vn=0.4240 vl=0.000 db=0.54
G1 E14.7545 F2400                       ; retract de=-3.3014@-40.0 r=1.10
;00:00:33.390: pe=-2.0008 eb=0.0299 ve=-40.0000 vn=0.0000 vl=0.000 db=0.55
G1 Z0.500 F420                          ; hopup dz=0.20@7 h=0.5 r=0.86
;00:00:33.418: pe=-2.0008 eb=0.0299 ve=0.0000 vn=0.0000 vl=0.000 db=0.43
G1 X-66.28 Y52.69 F6000                 ; move dl=3.9@100(0<31>0) de=0.000@0.0(0.0<0.0>0.0) l=0.50x0.50x0.00 r=0.00
;00:00:33.606: pe=-2.0008 eb=0.0000 ve=0.0000 vn=0.0000 vl=0.000 db=0.00
G1 Z0.300 F420                          ; hopdn dz=-0.20@7 h=0.3 r=0.00
;00:00:33.634: pe=-2.0008 eb=0.0000 ve=0.0000 vn=0.0000 vl=0.000 db=0.00
G1 E18.0857 F1800                       ; restore de=3.3312@30.0 r=0.90
;00:00:33.745: pe=1.3105 eb=0.0198 ve=30.0000 vn=0.8213 vl=0.000 db=0.45
G1 X-64.14 Y52.69 E18.2191 F600         ; draw dl=2.1@10(0<10>10) de=0.133@0.6(0.0<0.62>0.6) l=0.30x0.50x1.00 r=1.03
;00:00:33.969: pe=1.3061 eb=0.0243 ve=0.6039 vn=0.6207 vl=9.683 db=0.50
G1 X-64.22 Y53.22 E18.2526              ; draw dl=0.5@10(10<10>10) de=0.033@0.62(0.6<0.62>0.62) l=0.30x0.50x1.00 r=1.00
;00:00:34.023: pe=1.3063 eb=0.0243 ve=0.6236 vn=0.6210 vl=10.000 db=0.50
G1 X-64.43 Y53.61 E18.2802              ; draw dl=0.4@10(10<10>10) de=0.028@0.62(0.62<0.62>0.62) l=0.30x0.50x1.00 r=1.00
;00:00:34.067: pe=1.3064 eb=0.0243 ve=0.6236 vn=0.6211 vl=10.000 db=0.50
G1 X-64.77 Y53.86 E18.3065              ; draw dl=0.4@10(10<10>10) de=0.026@0.62(0.62<0.62>0.62) l=0.30x0.50x1.00 r=1.00
;00:00:34.109: pe=1.3065 eb=0.0243 ve=0.6236 vn=0.6212 vl=10.000 db=0.50
G1 X-65.21 Y53.95 E18.3345              ; draw dl=0.4@10(10<10>10) de=0.028@0.62(0.62<0.62>0.62) l=0.30x0.50x1.00 r=1.00
;00:00:34.154: pe=1.3066 eb=0.0243 ve=0.6236 vn=0.6212 vl=10.000 db=0.50
G1 X-65.64 Y53.86 E18.3619              ; draw dl=0.4@10(10<10>10) de=0.027@0.62(0.62<0.62>0.62) l=0.30x0.50x1.00 r=1.00
;00:00:34.198: pe=1.3067 eb=0.0243 ve=0.6236 vn=0.6213 vl=10.000 db=0.50
G1 X-65.98 Y53.61 E18.3882              ; draw dl=0.4@10(10<10>10) de=0.026@0.62(0.62<0.62>0.62) l=0.30x0.50x1.00 r=1.00
;00:00:34.240: pe=1.3068 eb=0.0243 ve=0.6236 vn=0.6213 vl=10.000 db=0.50
G1 X-66.20 Y53.22 E18.4161              ; draw dl=0.4@10(10<10>10) de=0.028@0.62(0.62<0.62>0.62) l=0.30x0.50x1.00 r=1.00
;00:00:34.285: pe=1.3069 eb=0.0243 ve=0.6236 vn=0.6214 vl=10.000 db=0.50
G1 X-66.28 Y52.69 E18.4496              ; draw dl=0.5@10(10<10>10) de=0.033@0.62(0.62<0.62>0.62) l=0.30x0.50x1.00 r=1.00
;00:00:34.339: pe=1.3070 eb=0.0243 ve=0.6236 vn=0.6214 vl=10.000 db=0.50
G1 X-66.20 Y52.15 E18.4836              ; draw dl=0.5@10(10<10>10) de=0.034@0.62(0.62<0.62>0.62) l=0.30x0.50x1.00 r=1.00
;00:00:34.393: pe=1.3071 eb=0.0243 ve=0.6236 vn=0.6215 vl=10.000 db=0.50
G1 X-65.97 Y51.75 E18.5124              ; draw dl=0.5@10(10<10>10) de=0.029@0.62(0.62<0.62>0.62) l=0.30x0.50x1.00 r=1.00
;00:00:34.439: pe=1.3072 eb=0.0243 ve=0.6236 vn=0.6215 vl=10.000 db=0.50
G1 X-65.62 Y51.51 E18.5388              ; draw dl=0.4@10(10<10>10) de=0.026@0.62(0.62<0.62>0.62) l=0.30x0.50x1.00 r=1.00
;00:00:34.482: pe=1.3073 eb=0.0243 ve=0.6236 vn=0.6215 vl=10.000 db=0.50
G1 X-65.16 Y51.42 E18.5681              ; draw dl=0.5@10(10<10>10) de=0.029@0.62(0.62<0.62>0.62) l=0.30x0.50x1.00 r=1.00
;00:00:34.529: pe=1.3074 eb=0.0243 ve=0.6236 vn=0.6216 vl=10.000 db=0.50
G1 X-64.82 Y51.47 E18.5895              ; draw dl=0.3@10(10<10>10) de=0.021@0.62(0.62<0.62>0.62) l=0.30x0.50x1.00 r=1.00
;00:00:34.563: pe=1.3075 eb=0.0243 ve=0.6236 vn=0.6216 vl=10.000 db=0.50
G1 X-64.53 Y51.61 E18.6096              ; draw dl=0.3@10(10<10>10) de=0.020@0.62(0.62<0.62>0.62) l=0.30x0.50x1.00 r=1.00
;00:00:34.595: pe=1.3076 eb=0.0243 ve=0.6236 vn=0.6217 vl=10.000 db=0.50
G1 X-64.32 Y51.83 E18.6286              ; draw dl=0.3@10(10<10>10) de=0.019@0.62(0.62<0.62>0.62) l=0.30x0.50x1.00 r=1.00
;00:00:34.626: pe=1.3076 eb=0.0243 ve=0.6236 vn=0.6217 vl=10.000 db=0.50
G1 X-64.20 Y52.13 E18.6487              ; draw dl=0.3@10(10<10>0) de=0.020@0.48(0.62<0.62>0.0) l=0.30x0.50x1.00 r=1.24
;00:00:34.668: pe=1.3028 eb=0.0291 ve=0.0000 vn=0.4246 vl=0.000 db=0.55
G1 E15.3459 F2400                       ; retract de=-3.3028@-40.0 r=1.11
;00:00:34.751: pe=-2.0008 eb=0.0300 ve=-40.0000 vn=0.0000 vl=0.000 db=0.55
G1 Z0.500 F420                          ; hopup dz=0.20@7 h=0.5 r=0.86
;00:00:34.779: pe=-2.0008 eb=0.0300 ve=0.0000 vn=0.0000 vl=0.000 db=0.43
G1 X-63.08 Y53.26 F6000                 ; move dl=1.6@100(0<20>0) de=0.000@0.0(0.0<0.0>0.0) l=0.50x0.50x0.00 r=0.00
;00:00:34.899: pe=-2.0008 eb=0.0000 ve=0.0000 vn=0.0000 vl=0.000 db=0.00
G1 Z0.300 F420                          ; hopdn dz=-0.20@7 h=0.3 r=0.00
;00:00:34.927: pe=-2.0008 eb=0.0000 ve=0.0000 vn=0.0000 vl=0.000 db=0.00
G1 E18.6501 F1800                       ; restore de=3.3041@30.0 r=0.88
;00:00:35.038: pe=1.2843 eb=0.0190 ve=30.0000 vn=0.8046 vl=0.000 db=0.44
G1 X-61.39 Y53.26 E18.7554 F600         ; draw dl=1.7@10(0<10>0) de=0.105@0.56(0.0<0.62>0.0) l=0.30x0.50x1.00 r=1.07
;00:00:35.227: pe=1.2771 eb=0.0281 ve=0.0000 vn=0.4138 vl=0.000 db=0.54
G1 E15.4783 F2400                       ; retract de=-3.2771@-40.0 r=1.09
;00:00:35.308: pe=-2.0008 eb=0.0288 ve=-40.0000 vn=0.0000 vl=0.000 db=0.54
G1 Z0.500 F420                          ; hopup dz=0.20@7 h=0.5 r=0.84
;00:00:35.337: pe=-2.0008 eb=0.0288 ve=0.0000 vn=0.0000 vl=0.000 db=0.42
G1 X-61.39 Y52.55 F6000                 ; move dl=0.7@100(0<13>0) de=0.000@0.0(0.0<0.0>0.0) l=0.50x0.50x0.00 r=0.00
;00:00:35.417: pe=-2.0008 eb=0.0000 ve=0.0000 vn=0.0000 vl=0.000 db=0.00
G1 Z0.300 F420                          ; hopdn dz=-0.20@7 h=0.3 r=0.00
;00:00:35.446: pe=-2.0008 eb=0.0000 ve=0.0000 vn=0.0000 vl=0.000 db=0.00
G1 E18.7824 F1800                       ; restore de=3.3041@30.0 r=0.88
;00:00:35.556: pe=1.2843 eb=0.0190 ve=30.0000 vn=0.8046 vl=0.000 db=0.44
G1 X-63.08 Y52.55 E18.8878 F600         ; draw dl=1.7@10(0<10>0) de=0.105@0.56(0.0<0.62>0.0) l=0.30x0.50x1.00 r=1.07
;00:00:35.745: pe=1.2771 eb=0.0281 ve=0.0000 vn=0.4138 vl=0.000 db=0.54
G1 E15.6106 F2400                       ; retract de=-3.2771@-40.0 r=1.09
;00:00:35.827: pe=-2.0008 eb=0.0288 ve=-40.0000 vn=0.0000 vl=0.000 db=0.54
G1 Z0.500 F420                          ; hopup dz=0.20@7 h=0.5 r=0.84
;00:00:35.855: pe=-2.0008 eb=0.0288 ve=0.0000 vn=0.0000 vl=0.000 db=0.42
G1 X-59.11 Y54.94 F6000                 ; move dl=4.6@100(0<34>0) de=0.000@0.0(0.0<0.0>0.0) l=0.50x0.50x0.00 r=0.00
;00:00:36.059: pe=-2.0008 eb=0.0000 ve=0.0000 vn=0.0000 vl=0.000 db=0.00
G1 Z0.300 F420                          ; hopdn dz=-0.20@7 h=0.3 r=0.00
;00:00:36.088: pe=-2.0008 eb=0.0000 ve=0.0000 vn=0.0000 vl=0.000 db=0.00
G1 E18.9422 F1800                       ; restore de=3.3316@30.0 r=0.90
;00:00:36.199: pe=1.3109 eb=0.0198 ve=30.0000 vn=0.8217 vl=0.000 db=0.45
G1 X-58.60 Y54.80 E18.9752 F600         ; draw dl=0.5@10(0<10>10) de=0.033@0.52(0.0<0.62>0.62) l=0.30x0.50x1.00 r=1.15
;00:00:36.262: pe=1.3060 eb=0.0244 ve=0.6236 vn=0.6147 vl=10.000 db=0.50
G1 X-58.21 Y54.42 E19.0092              ; draw dl=0.5@10(10<10>10) de=0.034@0.62(0.62<0.62>0.62) l=0.30x0.50x1.00 r=0.99
;00:00:36.316: pe=1.3063 eb=0.0243 ve=0.6236 vn=0.6208 vl=10.000 db=0.50
G1 X-57.97 Y53.86 E19.0472              ; draw dl=0.6@10(10<10>10) de=0.038@0.62(0.62<0.62>0.62) l=0.30x0.50x1.00 r=1.00
;00:00:36.377: pe=1.3064 eb=0.0243 ve=0.6236 vn=0.6211 vl=10.000 db=0.50
G1 X-57.89 Y53.18 E19.0899              ; draw dl=0.7@10(10<10>10) de=0.043@0.62(0.62<0.62>0.62) l=0.30x0.50x1.00 r=1.00
;00:00:36.446: pe=1.3066 eb=0.0243 ve=0.6236 vn=0.6212 vl=10.000 db=0.50
G1 X-57.97 Y52.51 E19.1319              ; draw dl=0.7@10(10<10>10) de=0.042@0.62(0.62<0.62>0.62) l=0.30x0.50x1.00 r=1.00
;00:00:36.513: pe=1.3068 eb=0.0243 ve=0.6236 vn=0.6213 vl=10.000 db=0.50
G1 X-58.21 Y51.95 E19.1699              ; draw dl=0.6@10(10<10>10) de=0.038@0.62(0.62<0.62>0.62) l=0.30x0.50x1.00 r=1.00
;00:00:36.574: pe=1.3069 eb=0.0243 ve=0.6236 vn=0.6214 vl=10.000 db=0.50
G1 X-58.60 Y51.56 E19.2043              ; draw dl=0.6@10(10<10>10) de=0.034@0.62(0.62<0.62>0.62) l=0.30x0.50x1.00 r=1.00
;00:00:36.629: pe=1.3070 eb=0.0243 ve=0.6236 vn=0.6214 vl=10.000 db=0.50
G1 X-59.11 Y51.42 E19.2373              ; draw dl=0.5@10(10<10>10) de=0.033@0.62(0.62<0.62>0.62) l=0.30x0.50x1.00 r=1.00
;00:00:36.682: pe=1.3071 eb=0.0243 ve=0.6236 vn=0.6215 vl=10.000 db=0.50
G1 X-59.63 Y51.56 E19.2709              ; draw dl=0.5@10(10<10>10) de=0.034@0.62(0.62<0.62>0.62) l=0.30x0.50x1.00 r=1.00
;00:00:36.736: pe=1.3073 eb=0.0243 ve=0.6236 vn=0.6215 vl=10.000 db=0.50
G1 X-60.01 Y51.95 E19.3048              ; draw dl=0.5@10(10<10>10) de=0.034@0.62(0.62<0.62>0.62) l=0.30x0.50x1.00 r=1.00
;00:00:36.791: pe=1.3074 eb=0.0243 ve=0.6236 vn=0.6216 vl=10.000 db=0.50
G1 X-60.25 Y52.51 E19.3428              ; draw dl=0.6@10(10<10>10) de=0.038@0.62(0.62<0.62>0.62) l=0.30x0.50x1.00 r=1.00
;00:00:36.851: pe=1.3075 eb=0.0243 ve=0.6236 vn=0.6216 vl=10.000 db=0.50
G1 X-60.33 Y53.18 E19.3849              ; draw dl=0.7@10(10<10>10) de=0.042@0.62(0.62<0.62>0.62) l=0.30x0.50x1.00 r=1.00
;00:00:36.919: pe=1.3076 eb=0.0243 ve=0.6236 vn=0.6217 vl=10.000 db=0.50
G1 X-60.25 Y53.85 E19.4270              ; draw dl=0.7@10(10<10>10) de=0.042@0.62(0.62<0.62>0.62) l=0.30x0.50x1.00 r=1.00
;00:00:36.986: pe=1.3078 eb=0.0243 ve=0.6236 vn=0.6217 vl=10.000 db=0.50
G1 X-60.01 Y54.42 E19.4656              ; draw dl=0.6@10(10<10>10) de=0.039@0.62(0.62<0.62>0.62) l=0.30x0.50x1.00 r=1.00
;00:00:37.048: pe=1.3079 eb=0.0243 ve=0.6236 vn=0.6218 vl=10.000 db=0.50
G1 X-59.63 Y54.80 E19.4991              ; draw dl=0.5@10(10<10>10) de=0.034@0.62(0.62<0.62>0.62) l=0.30x0.50x1.00 r=1.00
;00:00:37.102: pe=1.3080 eb=0.0243 ve=0.6236 vn=0.6218 vl=10.000 db=0.50
G1 X-59.11 Y54.94 E19.5327              ; draw dl=0.5@10(10<10>0) de=0.034@0.53(0.62<0.62>0.0) l=0.30x0.50x1.00 r=1.14
;00:00:37.166: pe=1.3032 eb=0.0291 ve=0.0000 vn=0.4248 vl=0.000 db=0.55
G1 E16.2295 F2400                       ; retract de=-3.3032@-40.0 r=1.11
;00:00:37.248: pe=-2.0008 eb=0.0300 ve=-40.0000 vn=0.0000 vl=0.000 db=0.55
G1 Z0.500 F420                          ; hopup dz=0.20@7 h=0.5 r=0.86
;00:00:37.277: pe=-2.0008 eb=0.0300 ve=0.0000 vn=0.0000 vl=0.000 db=0.43
G1 X-56.82 Y51.71 F6000                 ; move dl=4.0@100(0<31>0) de=0.000@0.0(0.0<0.0>0.0) l=0.50x0.50x0.00 r=0.00
;00:00:37.466: pe=-2.0008 eb=0.0000 ve=0.0000 vn=0.0000 vl=0.000 db=0.00
G1 Z0.300 F420                          ; hopdn dz=-0.20@7 h=0.3 r=0.00
;00:00:37.494: pe=-2.0008 eb=0.0000 ve=0.0000 vn=0.0000 vl=0.000 db=0.00
G1 E19.3354 F1800                       ; restore de=3.1059@30.0 r=0.75
;00:00:37.598: pe=1.0913 eb=0.0138 ve=30.0000 vn=0.6803 vl=0.000 db=0.38
G1 X-56.82 Y51.65 E19.3391 F600         ; draw dl=0.1@10(0<4>0) de=0.004@0.16(0.0<0.24>0.0) l=0.30x0.50x1.00 r=2.85
;00:00:37.621: pe=1.0843 eb=0.0213 ve=0.0000 vn=0.3050 vl=0.000 db=0.47
G1 E16.2548 F2400                       ; retract de=-3.0843@-40.0 r=0.94
;00:00:37.698: pe=-2.0004 eb=0.0217 ve=-40.0000 vn=0.0000 vl=0.000 db=0.47
G1 Z0.500 F420                          ; hopup dz=0.20@7 h=0.5 r=0.73
;00:00:37.727: pe=-2.0004 eb=0.0217 ve=0.0000 vn=0.0000 vl=0.000 db=0.36
G1 X-54.05 Y51.48 F6000                 ; move dl=2.8@100(0<26>0) de=0.000@0.0(0.0<0.0>0.0) l=0.50x0.50x0.00 r=0.00
;00:00:37.885: pe=-2.0004 eb=0.0000 ve=0.0000 vn=0.0000 vl=0.000 db=0.00
G1 Z0.300 F420                          ; hopdn dz=-0.20@7 h=0.3 r=0.00
;00:00:37.913: pe=-2.0004 eb=0.0000 ve=0.0000 vn=0.0000 vl=0.000 db=0.00
G1 E19.5818 F1800                       ; restore de=3.3269@30.0 r=0.90
;00:00:38.024: pe=1.3068 eb=0.0197 ve=30.0000 vn=0.8191 vl=0.000 db=0.45
G1 X-54.05 Y54.88 E19.7938 F600         ; draw dl=3.4@10(0<10>5) de=0.212@0.6(0.0<0.62>0.3) l=0.30x0.50x1.00 r=1.02
;00:00:38.377: pe=1.3019 eb=0.0256 ve=0.3034 vn=0.5597 vl=4.865 db=0.51
G1 X-55.76 Y52.65 E19.9691              ; draw dl=2.8@10(5<10>6) de=0.175@0.61(0.3<0.62>0.39) l=0.30x0.50x1.00 r=0.99
;00:00:38.662: pe=1.3030 eb=0.0250 ve=0.3928 vn=0.5872 vl=6.299 db=0.50
G1 X-53.45 Y52.65 E20.1131              ; draw dl=2.3@10(6<10>0) de=0.144@0.59(0.39<0.62>0.0) l=0.30x0.50x1.00 r=1.03
;00:00:38.904: pe=1.2994 eb=0.0290 ve=0.0000 vn=0.4232 vl=0.000 db=0.54
G1 E16.8137 F2400                       ; retract de=-3.2994@-40.0 r=1.10
;00:00:38.987: pe=-2.0008 eb=0.0298 ve=-40.0000 vn=0.0000 vl=0.000 db=0.55
G1 Z0.500 F420                          ; hopup dz=0.20@7 h=0.5 r=0.85
;00:00:39.015: pe=-2.0008 eb=0.0298 ve=0.0000 vn=0.0000 vl=0.000 db=0.43
;structure:shell-outer
G1 X70.00 Y0.00 F6000                   ; move dl=134.2@100(0<100>0) de=0.000@0.0(0.0<0.0>0.0) l=0.50x0.50x0.00 r=0.00
;00:00:40.557: pe=-2.0008 eb=0.0000 ve=0.0000 vn=0.0000 vl=0.000 db=0.00
G1 Z0.300 F420                          ; hopdn dz=-0.20@7 h=0.3 r=0.00
;00:00:40.586: pe=-2.0008 eb=0.0000 ve=0.0000 vn=0.0000 vl=0.000 db=0.00
G1 E20.1483 F1800                       ; restore de=3.3346@30.0 r=0.90
;00:00:40.697: pe=1.3139 eb=0.0199 ve=30.0000 vn=0.8237 vl=0.000 db=0.45
;00:00:40.697: spiral RC0=(70.0,0.000) dRC=(0.0,1.000) dl=439.8@10 de=27.429@0.6 l=0.30x0.50x1.00
G1 X69.73 Y6.10 E20.5292 F600           ; draw dl=6.1@10(0<10>10) de=0.381@0.61(0.0<0.62>0.62) l=0.30x0.50x1.00 r=1.01
;00:00:41.318: pe=1.3096 eb=0.0244 ve=0.6236 vn=0.6226 vl=10.000 db=0.50
G1 X68.94 Y12.16 E20.9100               ; draw dl=6.1@10(10<10>10) de=0.381@0.62(0.62<0.62>0.62) l=0.30x0.50x1.00 r=1.00
;00:00:41.929: pe=1.3102 eb=0.0244 ve=0.6236 vn=0.6229 vl=10.000 db=0.50
G1 X67.61 Y18.12 E21.2908               ; draw dl=6.1@10(10<10>10) de=0.381@0.62(0.62<0.62>0.62) l=0.30x0.50x1.00 r=1.00
;00:00:42.539: pe=1.3106 eb=0.0244 ve=0.6236 vn=0.6230 vl=10.000 db=0.50
G1 X65.78 Y23.94 E21.6717               ; draw dl=6.1@10(10<10>10) de=0.381@0.62(0.62<0.62>0.62) l=0.30x0.50x1.00 r=1.00
;00:00:43.150: pe=1.3109 eb=0.0245 ve=0.6236 vn=0.6232 vl=10.000 db=0.50
G1 X63.44 Y29.58 E22.0525               ; draw dl=6.1@10(10<10>10) de=0.381@0.62(0.62<0.62>0.62) l=0.30x0.50x1.00 r=1.00
;00:00:43.761: pe=1.3111 eb=0.0245 ve=0.6236 vn=0.6233 vl=10.000 db=0.50
G1 X60.62 Y35.00 E22.4333               ; draw dl=6.1@10(10<10>10) de=0.381@0.62(0.62<0.62>0.62) l=0.30x0.50x1.00 r=1.00
;00:00:44.371: pe=1.3113 eb=0.0245 ve=0.6236 vn=0.6234 vl=10.000 db=0.50
G1 X57.34 Y40.15 E22.8142               ; draw dl=6.1@10(10<10>10) de=0.381@0.62(0.62<0.62>0.62) l=0.30x0.50x1.00 r=1.00
;00:00:44.982: pe=1.3114 eb=0.0245 ve=0.6236 vn=0.6234 vl=10.000 db=0.50
G1 X53.62 Y45.00 E23.1950               ; draw dl=6.1@10(10<10>10) de=0.381@0.62(0.62<0.62>0.62) l=0.30x0.50x1.00 r=1.00
;00:00:45.593: pe=1.3115 eb=0.0245 ve=0.6236 vn=0.6235 vl=10.000 db=0.50
G1 X49.50 Y49.50 E23.5758               ; draw dl=6.1@10(10<10>10) de=0.381@0.62(0.62<0.62>0.62) l=0.30x0.50x1.00 r=1.00
;00:00:46.203: pe=1.3116 eb=0.0245 ve=0.6236 vn=0.6235 vl=10.000 db=0.50
G1 X45.00 Y53.62 E23.9567               ; draw dl=6.1@10(10<10>10) de=0.381@0.62(0.62<0.62>0.62) l=0.30x0.50x1.00 r=1.00
;00:00:46.814: pe=1.3116 eb=0.0245 ve=0.6236 vn=0.6235 vl=10.000 db=0.50
G1 X40.15 Y57.34 E24.3375               ; draw dl=6.1@10(10<10>10) de=0.381@0.62(0.62<0.62>0.62) l=0.30x0.50x1.00 r=1.00
;00:00:47.425: pe=1.3117 eb=0.0245 ve=0.6236 vn=0.6236 vl=10.000 db=0.50
G1 X35.00 Y60.62 E24.7183               ; draw dl=6.1@10(10<10>10) de=0.381@0.62(0.62<0.62>0.62) l=0.30x0.50x1.00 r=1.00
;00:00:48.035: pe=1.3117 eb=0.0245 ve=0.6236 vn=0.6236 vl=10.000 db=0.50
G1 X29.58 Y63.44 E25.0991               ; draw dl=6.1@10(10<10>10) de=0.381@0.62(0.62<0.62>0.62) l=0.30x0.50x1.00 r=1.00
;00:00:48.646: pe=1.3117 eb=0.0245 ve=0.6236 vn=0.6236 vl=10.000 db=0.50
G1 X23.94 Y65.78 E25.4800               ; draw dl=6.1@10(10<10>10) de=0.381@0.62(0.62<0.62>0.62) l=0.30x0.50x1.00 r=1.00
;00:00:49.257: pe=1.3118 eb=0.0245 ve=0.6236 vn=0.6236 vl=10.000 db=0.50
G1 X18.12 Y67.61 E25.8608               ; draw dl=6.1@10(10<10>10) de=0.381@0.62(0.62<0.62>0.62) l=0.30x0.50x1.00 r=1.00
;00:00:49.867: pe=1.3118 eb=0.0245 ve=0.6236 vn=0.6236 vl=10.000 db=0.50
G1 X12.16 Y68.94 E26.2416               ; draw dl=6.1@10(10<10>10) de=0.381@0.62(0.62<0.62>0.62) l=0.30x0.50x1.00 r=1.00
;00:00:50.478: pe=1.3118 eb=0.0245 ve=0.6236 vn=0.6236 vl=10.000 db=0.50
G1 X6.10 Y69.73 E26.6225                ; draw dl=6.1@10(10<10>10) de=0.381@0.62(0.62<0.62>0.62) l=0.30x0.50x1.00 r=1.00
;00:00:51.089: pe=1.3118 eb=0.0245 ve=0.6236 vn=0.6236 vl=10.000 db=0.50
G1 X0.00 Y70.00 E27.0033                ; draw dl=6.1@10(10<10>10) de=0.381@0.62(0.62<0.62>0.62) l=0.30x0.50x1.00 r=1.00
;00:00:51.699: pe=1.3118 eb=0.0245 ve=0.6236 vn=0.6236 vl=10.000 db=0.50
G1 X-6.10 Y69.73 E27.3841               ; draw dl=6.1@10(10<10>10) de=0.381@0.62(0.62<0.62>0.62) l=0.30x0.50x1.00 r=1.00
;00:00:52.310: pe=1.3118 eb=0.0245 ve=0.6236 vn=0.6236 vl=10.000 db=0.50
G1 X-12.16 Y68.94 E27.7650              ; draw dl=6.1@10(10<10>10) de=0.381@0.62(0.62<0.62>0.62) l=0.30x0.50x1.00 r=1.00
;00:00:52.921: pe=1.3118 eb=0.0245 ve=0.6236 vn=0.6236 vl=10.000 db=0.50
G1 X-18.12 Y67.61 E28.1458              ; draw dl=6.1@10(10<10>10) de=0.381@0.62(0.62<0.62>0.62) l=0.30x0.50x1.00 r=1.00
;00:00:53.531: pe=1.3118 eb=0.0245 ve=0.6236 vn=0.6236 vl=10.000 db=0.50
G1 X-23.94 Y65.78 E28.5266              ; draw dl=6.1@10(10<10>10) de=0.381@0.62(0.62<0.62>0.62) l=0.30x0.50x1.00 r=1.00
;00:00:54.142: pe=1.3118 eb=0.0245 ve=0.6236 vn=0.6236 vl=10.000 db=0.50
G1 X-29.58 Y63.44 E28.9075              ; draw dl=6.1@10(10<10>10) de=0.381@0.62(0.62<0.62>0.62) l=0.30x0.50x1.00 r=1.00
;00:00:54.753: pe=1.3118 eb=0.0245 ve=0.6236 vn=0.6236 vl=10.000 db=0.50
G1 X-35.00 Y60.62 E29.2883              ; draw dl=6.1@10(10<10>10) de=0.381@0.62(0.62<0.62>0.62) l=0.30x0.50x1.00 r=1.00
;00:00:55.363: pe=1.3118 eb=0.0245 ve=0.6236 vn=0.6236 vl=10.000 db=0.50
G1 X-40.15 Y57.34 E29.6691              ; draw dl=6.1@10(10<10>10) de=0.381@0.62(0.62<0.62>0.62) l=0.30x0.50x1.00 r=1.00
;00:00:55.974: pe=1.3118 eb=0.0245 ve=0.6236 vn=0.6236 vl=10.000 db=0.50
G1 X-45.00 Y53.62 E30.0500              ; draw dl=6.1@10(10<10>10) de=0.381@0.62(0.62<0.62>0.62) l=0.30x0.50x1.00 r=1.00
;00:00:56.585: pe=1.3118 eb=0.0245 ve=0.6236 vn=0.6236 vl=10.000 db=0.50
G1 X-49.50 Y49.50 E30.4308              ; draw dl=6.1@10(10<10>10) de=0.381@0.62(0.62<0.62>0.62) l=0.30x0.50x1.00 r=1.00
;00:00:57.195: pe=1.3118 eb=0.0245 ve=0.6236 vn=0.6236 vl=10.000 db=0.50
G1 X-53.62 Y45.00 E30.8116              ; draw dl=6.1@10(10<10>10) de=0.381@0.62(0.62<0.62>0.62) l=0.30x0.50x1.00 r=1.00
;00:00:57.806: pe=1.3118 eb=0.0245 ve=0.6236 vn=0.6236 vl=10.000 db=0.50
G1 X-57.34 Y40.15 E31.1925              ; draw dl=6.1@10(10<10>10) de=0.381@0.62(0.62<0.62>0.62) l=0.30x0.50x1.00 r=1.00
;00:00:58.417: pe=1.3118 eb=0.0245 ve=0.6236 vn=0.6236 vl=10.000 db=0.50
G1 X-60.62 Y35.00 E31.5733              ; draw dl=6.1@10(10<10>10) de=0.381@0.62(0.62<0.62>0.62) l=0.30x0.50x1.00 r=1.00
;00:00:59.027: pe=1.3118 eb=0.0245 ve=0.6236 vn=0.6236 vl=10.000 db=0.50
G1 X-63.44 Y29.58 E31.9541              ; draw dl=6.1@10(10<10>10) de=0.381@0.62(0.62<0.62>0.62) l=0.30x0.50x1.00 r=1.00
;00:00:59.638: pe=1.3118 eb=0.0245 ve=0.6236 vn=0.6236 vl=10.000 db=0.50
G1 X-65.78 Y23.94 E32.3349              ; draw dl=6.1@10(10<10>10) de=0.381@0.62(0.62<0.62>0.62) l=0.30x0.50x1.00 r=1.00
;00:01:00.249: pe=1.3118 eb=0.0245 ve=0.6236 vn=0.6236 vl=10.000 db=0.50
G1 X-67.61 Y18.12 E32.7158              ; draw dl=6.1@10(10<10>10) de=0.381@0.62(0.62<0.62>0.62) l=0.30x0.50x1.00 r=1.00
;00:01:00.859: pe=1.3118 eb=0.0245 ve=0.6236 vn=0.6236 vl=10.000 db=0.50
G1 X-68.94 Y12.16 E33.0966              ; draw dl=6.1@10(10<10>10) de=0.381@0.62(0.62<0.62>0.62) l=0.30x0.50x1.00 r=1.00
;00:01:01.470: pe=1.3118 eb=0.0245 ve=0.6236 vn=0.6236 vl=10.000 db=0.50
G1 X-69.73 Y6.10 E33.4774               ; draw dl=6.1@10(10<10>10) de=0.381@0.62(0.62<0.62>0.62) l=0.30x0.50x1.00 r=1.00
;00:01:02.081: pe=1.3118 eb=0.0245 ve=0.6236 vn=0.6236 vl=10.000 db=0.50
G1 X-70.00 Y0.00 E33.8583               ; draw dl=6.1@10(10<10>10) de=0.381@0.62(0.62<0.62>0.62) l=0.30x0.50x1.00 r=1.00
;00:01:02.691: pe=1.3118 eb=0.0245 ve=0.6236 vn=0.6236 vl=10.000 db=0.50
G1 X-69.73 Y-6.10 E34.2391              ; draw dl=6.1@10(10<10>10) de=0.381@0.62(0.62<0.62>0.62) l=0.30x0.50x1.00 r=1.00
;00:01:03.302: pe=1.3118 eb=0.0245 ve=0.6236 vn=0.6236 vl=10.000 db=0.50
G1 X-68.94 Y-12.16 E34.6199             ; draw dl=6.1@10(10<10>10) de=0.381@0.62(0.62<0.62>0.62) l=0.30x0.50x1.00 r=1.00
;00:01:03.913: pe=1.3118 eb=0.0245 ve=0.6236 vn=0.6236 vl=10.000 db=0.50
G1 X-67.61 Y-18.12 E35.0008             ; draw dl=6.1@10(10<10>10) de=0.381@0.62(0.62<0.62>0.62) l=0.30x0.50x1.00 r=1.00
;00:01:04.523: pe=1.3118 eb=0.0245 ve=0.6236 vn=0.6236 vl=10.000 db=0.50
G1 X-65.78 Y-23.94 E35.3816             ; draw dl=6.1@10(10<10>10) de=0.381@0.62(0.62<0.62>0.62) l=0.30x0.50x1.00 r=1.00
;00:01:05.134: pe=1.3118 eb=0.0245 ve=0.6236 vn=0.6236 vl=10.000 db=0.50
G1 X-63.44 Y-29.58 E35.7624             ; draw dl=6.1@10(10<10>10) de=0.381@0.62(0.62<0.62>0.62) l=0.30x0.50x1.00 r=1.00
;00:01:05.745: pe=1.3118 eb=0.0245 ve=0.6236 vn=0.6236 vl=10.000 db=0.50
G1 X-60.62 Y-35.00 E36.1433             ; draw dl=6.1@10(10<10>10) de=0.381@0.62(0.62<0.62>0.62) l=0.30x0.50x1.00 r=1.00
;00:01:06.355: pe=1.3118 eb=0.0245 ve=0.6236 vn=0.6236 vl=10.000 db=0.50
G1 X-57.34 Y-40.15 E36.5241             ; draw dl=6.1@10(10<10>10) de=0.381@0.62(0.62<0.62>0.62) l=0.30x0.50x1.00 r=1.00
;00:01:06.966: pe=1.3118 eb=0.0245 ve=0.6236 vn=0.6236 vl=10.000 db=0.50
G1 X-53.62 Y-45.00 E36.9049             ; draw dl=6.1@10(10<10>10) de=0.381@0.62(0.62<0.62>0.62) l=0.30x0.50x1.00 r=1.00
;00:01:07.577: pe=1.3118 eb=0.0245 ve=0.6236 vn=0.6236 vl=10.000 db=0.50
G1 X-49.50 Y-49.50 E37.2858             ; draw dl=6.1@10(10<10>10) de=0.381@0.62(0.62<0.62>0.62) l=0.30x0.50x1.00 r=1.00
;00:01:08.187: pe=1.3118 eb=0.0245 ve=0.6236 vn=0.6236 vl=10.000 db=0.50
G1 X-45.00 Y-53.62 E37.6666             ; draw dl=6.1@10(10<10>10) de=0.381@0.62(0.62<0.62>0.62) l=0.30x0.50x1.00 r=1.00
;00:01:08.798: pe=1.3118 eb=0.0245 ve=0.6236 vn=0.6236 vl=10.000 db=0.50
G1 X-40.15 Y-57.34 E38.0474             ; draw dl=6.1@10(10<10>10) de=0.381@0.62(0.62<0.62>0.62) l=0.30x0.50x1.00 r=1.00
;00:01:09.409: pe=1.3118 eb=0.0245 ve=0.6236 vn=0.6236 vl=10.000 db=0.50
G1 X-35.00 Y-60.62 E38.4283             ; draw dl=6.1@10(10<10>10) de=0.381@0.62(0.62<0.62>0.62) l=0.30x0.50x1.00 r=1.00
;00:01:10.019: pe=1.3118 eb=0.0245 ve=0.6236 vn=0.6236 vl=10.000 db=0.50
G1 X-29.58 Y-63.44 E38.8091             ; draw dl=6.1@10(10<10>10) de=0.381@0.62(0.62<0.62>0.62) l=0.30x0.50x1.00 r=1.00
;00:01:10.630: pe=1.3118 eb=0.0245 ve=0.6236 vn=0.6236 vl=10.000 db=0.50
G1 X-23.94 Y-65.78 E39.1899             ; draw dl=6.1@10(10<10>10) de=0.381@0.62(0.62<0.62>0.62) l=0.30x0.50x1.00 r=1.00
;00:01:11.241: pe=1.3118 eb=0.0245 ve=0.6236 vn=0.6236 vl=10.000 db=0.50
G1 X-18.12 Y-67.61 E39.5708             ; draw dl=6.1@10(10<10>10) de=0.381@0.62(0.62<0.62>0.62) l=0.30x0.50x1.00 r=1.00
;00:01:11.851: pe=1.3118 eb=0.0245 ve=0.6236 vn=0.6236 vl=10.000 db=0.50
G1 X-12.16 Y-68.94 E39.9516             ; draw dl=6.1@10(10<10>10) de=0.381@0.62(0.62<0.62>0.62) l=0.30x0.50x1.00 r=1.00
;00:01:12.462: pe=1.3118 eb=0.0245 ve=0.6236 vn=0.6236 vl=10.000 db=0.50
G1 X-6.10 Y-69.73 E40.3324              ; draw dl=6.1@10(10<10>10) de=0.381@0.62(0.62<0.62>0.62) l=0.30x0.50x1.00 r=1.00
;00:01:13.073: pe=1.3118 eb=0.0245 ve=0.6236 vn=0.6236 vl=10.000 db=0.50
G1 X0.00 Y-70.00 E40.7132               ; draw dl=6.1@10(10<10>10) de=0.381@0.62(0.62<0.62>0.62) l=0.30x0.50x1.00 r=1.00
;00:01:13.683: pe=1.3118 eb=0.0245 ve=0.6236 vn=0.6236 vl=10.000 db=0.50
G1 X6.10 Y-69.73 E41.0941               ; draw dl=6.1@10(10<10>10) de=0.381@0.62(0.62<0.62>0.62) l=0.30x0.50x1.00 r=1.00
;00:01:14.294: pe=1.3118 eb=0.0245 ve=0.6236 vn=0.6236 vl=10.000 db=0.50
G1 X12.16 Y-68.94 E41.4749              ; draw dl=6.1@10(10<10>10) de=0.381@0.62(0.62<0.62>0.62) l=0.30x0.50x1.00 r=1.00
;00:01:14.905: pe=1.3118 eb=0.0245 ve=0.6236 vn=0.6236 vl=10.000 db=0.50
G1 X18.12 Y-67.61 E41.8557              ; draw dl=6.1@10(10<10>10) de=0.381@0.62(0.62<0.62>0.62) l=0.30x0.50x1.00 r=1.00
;00:01:15.515: pe=1.3118 eb=0.0245 ve=0.6236 vn=0.6236 vl=10.000 db=0.50
G1 X23.94 Y-65.78 E42.2366              ; draw dl=6.1@10(10<10>10) de=0.381@0.62(0.62<0.62>0.62) l=0.30x0.50x1.00 r=1.00
;00:01:16.126: pe=1.3118 eb=0.0245 ve=0.6236 vn=0.6236 vl=10.000 db=0.50
G1 X29.58 Y-63.44 E42.6174              ; draw dl=6.1@10(10<10>10) de=0.381@0.62(0.62<0.62>0.62) l=0.30x0.50x1.00 r=1.00
;00:01:16.737: pe=1.3118 eb=0.0245 ve=0.6236 vn=0.6236 vl=10.000 db=0.50
G1 X35.00 Y-60.62 E42.9982              ; draw dl=6.1@10(10<10>10) de=0.381@0.62(0.62<0.62>0.62) l=0.30x0.50x1.00 r=1.00
;00:01:17.347: pe=1.3118 eb=0.0245 ve=0.6236 vn=0.6236 vl=10.000 db=0.50
G1 X40.15 Y-57.34 E43.3791              ; draw dl=6.1@10(10<10>10) de=0.381@0.62(0.62<0.62>0.62) l=0.30x0.50x1.00 r=1.00
;00:01:17.958: pe=1.3118 eb=0.0245 ve=0.6236 vn=0.6236 vl=10.000 db=0.50
G1 X45.00 Y-53.62 E43.7599              ; draw dl=6.1@10(10<10>10) de=0.381@0.62(0.62<0.62>0.62) l=0.30x0.50x1.00 r=1.00
;00:01:18.569: pe=1.3118 eb=0.0245 ve=0.6236 vn=0.6236 vl=10.000 db=0.50
G1 X49.50 Y-49.50 E44.1407              ; draw dl=6.1@10(10<10>10) de=0.381@0.62(0.62<0.62>0.62) l=0.30x0.50x1.00 r=1.00
;00:01:19.179: pe=1.3118 eb=0.0245 ve=0.6236 vn=0.6236 vl=10.000 db=0.50
G1 X53.62 Y-45.00 E44.5216              ; draw dl=6.1@10(10<10>10) de=0.381@0.62(0.62<0.62>0.62) l=0.30x0.50x1.00 r=1.00
;00:01:19.790: pe=1.3118 eb=0.0245 ve=0.6236 vn=0.6236 vl=10.000 db=0.50
G1 X57.34 Y-40.15 E44.9024              ; draw dl=6.1@10(10<10>10) de=0.381@0.62(0.62<0.62>0.62) l=0.30x0.50x1.00 r=1.00
;00:01:20.401: pe=1.3118 eb=0.0245 ve=0.6236 vn=0.6236 vl=10.000 db=0.50
G1 X60.62 Y-35.00 E45.2832              ; draw dl=6.1@10(10<10>10) de=0.381@0.62(0.62<0.62>0.62) l=0.30x0.50x1.00 r=1.00
;00:01:21.011: pe=1.3118 eb=0.0245 ve=0.6236 vn=0.6236 vl=10.000 db=0.50
G1 X63.44 Y-29.58 E45.6641              ; draw dl=6.1@10(10<10>10) de=0.381@0.62(0.62<0.62>0.62) l=0.30x0.50x1.00 r=1.00
;00:01:21.622: pe=1.3118 eb=0.0245 ve=0.6236 vn=0.6236 vl=10.000 db=0.50
G1 X65.78 Y-23.94 E46.0449              ; draw dl=6.1@10(10<10>10) de=0.381@0.62(0.62<0.62>0.62) l=0.30x0.50x1.00 r=1.00
;00:01:22.233: pe=1.3118 eb=0.0245 ve=0.6236 vn=0.6236 vl=10.000 db=0.50
G1 X67.61 Y-18.12 E46.4257              ; draw dl=6.1@10(10<10>10) de=0.381@0.62(0.62<0.62>0.62) l=0.30x0.50x1.00 r=1.00
;00:01:22.844: pe=1.3118 eb=0.0245 ve=0.6236 vn=0.6236 vl=10.000 db=0.50
G1 X68.94 Y-12.16 E46.8066              ; draw dl=6.1@10(10<10>10) de=0.381@0.62(0.62<0.62>0.62) l=0.30x0.50x1.00 r=1.00
;00:01:23.454: pe=1.3118 eb=0.0245 ve=0.6236 vn=0.6236 vl=10.000 db=0.50
G1 X69.73 Y-6.10 E47.1874               ; draw dl=6.1@10(10<10>10) de=0.381@0.62(0.62<0.62>0.62) l=0.30x0.50x1.00 r=1.00
;00:01:24.065: pe=1.3118 eb=0.0245 ve=0.6236 vn=0.6236 vl=10.000 db=0.50
G1 X70.00 Y0.00 E47.5682                ; draw dl=6.1@10(10<10>0) de=0.381@0.61(0.62<0.62>0.0) l=0.30x0.50x1.00 r=1.01
;00:01:24.686: pe=1.3069 eb=0.0293 ve=0.0000 vn=0.4264 vl=0.000 db=0.55
;00:01:24.686: skipping empty move move dl=0.0@10(0<0>0) de=0.000@0.0(0.0<0.0>0.0) l=0.30x0.50x0.00
G1 E44.2613 F2400                       ; retract de=-3.3069@-40.0 r=1.11
;00:01:24.768: pe=-2.0008 eb=0.0301 ve=-40.0000 vn=0.0000 vl=0.000 db=0.55
G1 Z0.500 F420                          ; hopup dz=0.20@7 h=0.5 r=0.86
;00:01:24.797: pe=-2.0008 eb=0.0301 ve=0.0000 vn=0.0000 vl=0.000 db=0.43
;00:01:24.797: skipping empty move move dl=0.0@7(0<0>0) de=0.000@0.0(0.0<0.0>0.0) l=0.50x0.50x0.00
G1 Z0.300                               ; hopdn dz=-0.20@7 h=0.3 r=1.11
;00:01:24.825: pe=-2.0008 eb=0.0301 ve=0.0000 vn=0.0000 vl=0.000 db=0.55
G1 E47.5790 F1800                       ; restore de=3.3176@30.0 r=1.14
;00:01:24.936: pe=1.3153 eb=0.0317 ve=30.0000 vn=0.3569 vl=0.000 db=0.57
G1 X73.00 Y0.00 E47.7661 F600           ; draw dl=3.0@10(0<10>0) de=0.187@0.58(0.0<0.62>0.0) l=0.30x0.50x1.00 r=1.01
;00:01:25.256: pe=1.3139 eb=0.0296 ve=0.0000 vn=0.4293 vl=0.000 db=0.55
G1 E44.4522 F2400                       ; retract de=-3.3139@-40.0 r=1.11
;00:01:25.339: pe=-2.0008 eb=0.0304 ve=-40.0000 vn=0.0000 vl=0.000 db=0.56
G1 Z0.500 F420                          ; hopup dz=0.20@7 h=0.5 r=0.86
;00:01:25.367: pe=-2.0008 eb=0.0304 ve=0.0000 vn=0.0000 vl=0.000 db=0.43
G1 X69.73 Y6.10 F6000                   ; move dl=6.9@100(0<42>0) de=0.000@0.0(0.0<0.0>0.0) l=0.50x0.50x0.00 r=0.00
;00:01:25.617: pe=-2.0008 eb=0.0000 ve=0.0000 vn=0.0000 vl=0.000 db=0.00
G1 Z0.300 F420                          ; hopdn dz=-0.20@7 h=0.3 r=0.00
;00:01:25.645: pe=-2.0008 eb=0.0000 ve=0.0000 vn=0.0000 vl=0.000 db=0.00
G1 E47.7527 F1800                       ; restore de=3.3005@30.0 r=0.88
;00:01:25.755: pe=1.2807 eb=0.0189 ve=30.0000 vn=0.8021 vl=0.000 db=0.44
G1 X71.23 Y6.23 E47.8462 F600           ; draw dl=1.5@10(0<10>0) de=0.094@0.55(0.0<0.62>0.0) l=0.30x0.50x1.00 r=1.08
;00:01:25.925: pe=1.2736 eb=0.0279 ve=0.0000 vn=0.4123 vl=0.000 db=0.53
G1 E44.5726 F2400                       ; retract de=-3.2736@-40.0 r=1.08
;00:01:26.007: pe=-2.0008 eb=0.0287 ve=-40.0000 vn=0.0000 vl=0.000 db=0.54
G1 Z0.500 F420                          ; hopup dz=0.20@7 h=0.5 r=0.84
;00:01:26.036: pe=-2.0008 eb=0.0287 ve=0.0000 vn=0.0000 vl=0.000 db=0.42
G1 X68.94 Y12.16 F6000                  ; move dl=6.4@100(0<40>0) de=0.000@0.0(0.0<0.0>0.0) l=0.50x0.50x0.00 r=0.00
;00:01:26.275: pe=-2.0008 eb=0.0000 ve=0.0000 vn=0.0000 vl=0.000 db=0.00
G1 Z0.300 F420                          ; hopdn dz=-0.20@7 h=0.3 r=0.00
;00:01:26.304: pe=-2.0008 eb=0.0000 ve=0.0000 vn=0.0000 vl=0.000 db=0.00
G1 E47.8730 F1800                       ; restore de=3.3004@30.0 r=0.88
;00:01:26.414: pe=1.2807 eb=0.0189 ve=30.0000 vn=0.8021 vl=0.000 db=0.44
G1 X70.41 Y12.42 E47.9666 F600          ; draw dl=1.5@10(0<10>0) de=0.094@0.55(0.0<0.62>0.0) l=0.30x0.50x1.00 r=1.08
;00:01:26.584: pe=1.2736 eb=0.0279 ve=0.0000 vn=0.4123 vl=0.000 db=0.53
G1 E44.6930 F2400                       ; retract de=-3.2736@-40.0 r=1.08
;00:01:26.665: pe=-2.0008 eb=0.0287 ve=-40.0000 vn=0.0000 vl=0.000 db=0.54
G1 Z0.500 F420                          ; hopup dz=0.20@7 h=0.5 r=0.84
;00:01:26.694: pe=-2.0008 eb=0.0287 ve=0.0000 vn=0.0000 vl=0.000 db=0.42
G1 X67.61 Y18.12 F6000                  ; move dl=6.4@100(0<40>0) de=0.000@0.0(0.0<0.0>0.0) l=0.50x0.50x0.00 r=0.00
;00:01:26.933: pe=-2.0008 eb=0.0000 ve=0.0000 vn=0.0000 vl=0.000 db=0.00
G1 Z0.300 F420                          ; hopdn dz=-0.20@7 h=0.3 r=0.00
;00:01:26.962: pe=-2.0008 eb=0.0000 ve=0.0000 vn=0.0000 vl=0.000 db=0.00
G1 E47.9934 F1800                       ; restore de=3.3004@30.0 r=0.88
;00:01:27.072: pe=1.2807 eb=0.0189 ve=30.0000 vn=0.8021 vl=0.000 db=0.44
G1 X69.06 Y18.51 E48.0869 F600          ; draw dl=1.5@10(0<10>0) de=0.094@0.55(0.0<0.62>0.0) l=0.30x0.50x1.00 r=1.08
;00:01:27.242: pe=1.2736 eb=0.0279 ve=0.0000 vn=0.4123 vl=0.000 db=0.53
G1 E44.8134 F2400                       ; retract de=-3.2736@-40.0 r=1.08
;00:01:27.323: pe=-2.0008 eb=0.0287 ve=-40.0000 vn=0.0000 vl=0.000 db=0.54
G1 Z0.500 F420                          ; hopup dz=0.20@7 h=0.5 r=0.84
;00:01:27.352: pe=-2.0008 eb=0.0287 ve=0.0000 vn=0.0000 vl=0.000 db=0.42
G1 X65.78 Y23.94 F6000                  ; move dl=6.4@100(0<40>0) de=0.000@0.0(0.0<0.0>0.0) l=0.50x0.50x0.00 r=0.00
;00:01:27.591: pe=-2.0008 eb=0.0000 ve=0.0000 vn=0.0000 vl=0.000 db=0.00
G1 Z0.300 F420                          ; hopdn dz=-0.20@7 h=0.3 r=0.00
;00:01:27.620: pe=-2.0008 eb=0.0000 ve=0.0000 vn=0.0000 vl=0.000 db=0.00
G1 E48.1138 F1800                       ; restore de=3.3004@30.0 r=0.88
;00:01:27.730: pe=1.2807 eb=0.0189 ve=30.0000 vn=0.8021 vl=0.000 db=0.44
G1 X67.19 Y24.45 E48.2073 F600          ; draw dl=1.5@10(0<10>0) de=0.094@0.55(0.0<0.62>0.0) l=0.30x0.50x1.00 r=1.08
;00:01:27.900: pe=1.2736 eb=0.0279 ve=0.0000 vn=0.4123 vl=0.000 db=0.53
G1 E44.9337 F2400                       ; retract de=-3.2736@-40.0 r=1.08
;00:01:27.982: pe=-2.0008 eb=0.0287 ve=-40.0000 vn=0.0000 vl=0.000 db=0.54
G1 Z0.500 F420                          ; hopup dz=0.20@7 h=0.5 r=0.84
;00:01:28.010: pe=-2.0008 eb=0.0287 ve=0.0000 vn=0.0000 vl=0.000 db=0.42
G1 X63.44 Y29.58 F6000                  ; move dl=6.4@100(0<40>0) de=0.000@0.0(0.0<0.0>0.0) l=0.50x0.50x0.00 r=0.00
;00:01:28.249: pe=-2.0008 eb=0.0000 ve=0.0000 vn=0.0000 vl=0.000 db=0.00
G1 Z0.300 F420                          ; hopdn dz=-0.20@7 h=0.3 r=0.00
;00:01:28.278: pe=-2.0008 eb=0.0000 ve=0.0000 vn=0.0000 vl=0.000 db=0.00
G1 E48.2341 F1800                       ; restore de=3.3004@30.0 r=0.88
;00:01:28.388: pe=1.2807 eb=0.0189 ve=30.0000 vn=0.8021 vl=0.000 db=0.44
G1 X64.80 Y30.22 E48.3277 F600          ; draw dl=1.5@10(0<10>0) de=0.094@0.55(0.0<0.62>0.0) l=0.30x0.50x1.00 r=1.08
;00:01:28.558: pe=1.2736 eb=0.0279 ve=0.0000 vn=0.4123 vl=0.000 db=0.53
G1 E45.0541 F2400                       ; retract de=-3.2736@-40.0 r=1.08
;00:01:28.640: pe=-2.0008 eb=0.0287 ve=-40.0000 vn=0.0000 vl=0.000 db=0.54
G1 Z0.500 F420                          ; hopup dz=0.20@7 h=0.5 r=0.84
;00:01:28.668: pe=-2.0008 eb=0.0287 ve=0.0000 vn=0.0000 vl=0.000 db=0.42
G1 X60.62 Y35.00 F6000                  ; move dl=6.4@100(0<40>0) de=0.000@0.0(0.0<0.0>0.0) l=0.50x0.50x0.00 r=0.00
;00:01:28.907: pe=-2.0008 eb=0.0000 ve=0.0000 vn=0.0000 vl=0.000 db=0.00
G1 Z0.300 F420                          ; hopdn dz=-0.20@7 h=0.3 r=0.00
;00:01:28.936: pe=-2.0008 eb=0.0000 ve=0.0000 vn=0.0000 vl=0.000 db=0.00
G1 E48.3717 F1800                       ; restore de=3.3176@30.0 r=0.89
;00:01:29.046: pe=1.2974 eb=0.0194 ve=30.0000 vn=0.8134 vl=0.000 db=0.45
G1 X63.22 Y36.50 E48.5588 F600          ; draw dl=3.0@10(0<10>0) de=0.187@0.58(0.0<0.62>0.0) l=0.30x0.50x1.00 r=1.04
;00:01:29.366: pe=1.2902 eb=0.0286 ve=0.0000 vn=0.4193 vl=0.000 db=0.54
G1 E45.2686 F2400                       ; retract de=-3.2902@-40.0 r=1.10
;00:01:29.449: pe=-2.0008 eb=0.0294 ve=-40.0000 vn=0.0000 vl=0.000 db=0.55
G1 Z0.500 F420                          ; hopup dz=0.20@7 h=0.5 r=0.85
;00:01:29.477: pe=-2.0008 eb=0.0294 ve=0.0000 vn=0.0000 vl=0.000 db=0.42
G1 X57.34 Y40.15 F6000                  ; move dl=6.9@100(0<42>0) de=0.000@0.0(0.0<0.0>0.0) l=0.50x0.50x0.00 r=0.00
;00:01:29.727: pe=-2.0008 eb=0.0000 ve=0.0000 vn=0.0000 vl=0.000 db=0.00
G1 Z0.300 F420                          ; hopdn dz=-0.20@7 h=0.3 r=0.00
;00:01:29.755: pe=-2.0008 eb=0.0000 ve=0.0000 vn=0.0000 vl=0.000 db=0.00
G1 E48.5690 F1800                       ; restore de=3.3004@30.0 r=0.88
