;gcode_flavor: flashforge
;machine_type: Adventurer 3 Series
;filament_diameter0: 1.75
;right_extruder_temperature: 210
;platform_temperature: 50
;extruder_fan: 100%
;case_fan: 100%
;base_print_speed: 60
;travel_speed: 100
;vertical_speed: 7
;retract_speed: 40
;restore_speed: 30
;layer_height: 0.30
;line_width: 0.50
;extrusion_ratio: 1.00
;command_line: ./gcodetest.py -Te=210 -Tp=50 -Fe=1.0 -Fc=1.0 -Kf=0.5 -Kb=2.0 -Re=2.0 -R
;start gcode
M118 X75.00 Y75.00 Z150.00 T0
M140 S50 T0
M104 S210 T0
M104 S0 T1
M107
M900 K0.000 T0
G90
G28
M132 X Y Z A B
G1 Z50.000 F420
G161 X Y F3300
M7 T0
M6 T0
M652 S255
M108 T0
M106
;preExtrude:0.20
G1 X69.29 Y28.70 F6000
G1 Z0.200 F420
G1 E4.0274 F1800
G1 X66.53 Y34.63 E4.8979 F600
G1 X63.25 Y40.30 E5.7683
G1 X59.50 Y45.66 E6.6388
G1 X55.30 Y50.67 E7.5093
G1 X50.67 Y55.30 E8.3797
G1 X45.66 Y59.50 E9.2502
G1 X40.30 Y63.25 E10.1207
G1 X34.63 Y66.53 E10.9912
G1 X28.70 Y69.29 E11.8616
G1 X28.70 Y69.29
G1 E6.0086 F2400
G1 Z0.400 F420
;layer:0.30
;structure:shell-outer
G1 X-69.50 Y68.89 F6000
G1 Z0.300 F420
G1 E9.3372 F1800
G1 X-68.48 Y66.48 E9.5004 F600
G1 X-67.46 Y68.89 E9.6636
G1 E6.3678 F2400
G1 Z0.500 F420
G1 X-66.40 Y67.69 F6000
G1 Z0.300 F420
G1 E9.6990 F1800
G1 X-64.26 Y67.69 E9.8324 F600
G1 X-64.34 Y68.22 E9.8658
G1 X-64.55 Y68.61 E9.8935
G1 X-64.89 Y68.86 E9.9198
G1 X-65.33 Y68.95 E9.9478
G1 X-65.76 Y68.86 E9.9752
G1 X-66.10 Y68.61 E10.0015
G1 X-66.32 Y68.22 E10.0294
G1 X-66.40 Y67.69 E10.0629
G1 X-66.32 Y67.15 E10.0969
G1 X-66.09 Y66.75 E10.1257
G1 X-65.74 Y66.51 E10.1522
G1 X-65.28 Y66.42 E10.1814
G1 X-64.94 Y66.47 E10.2028
G1 X-64.65 Y66.61 E10.2229
G1 X-64.44 Y66.83 E10.2419
G1 X-64.32 Y67.13 E10.2620
G1 E6.9592 F2400
G1 Z0.500 F420
G1 X-63.20 Y68.26 F6000
G1 Z0.300 F420
G1 E10.2633 F1800
G1 X-61.51 Y68.26 E10.3687 F600
G1 E7.0916 F2400
G1 Z0.500 F420
G1 X-61.51 Y67.55 F6000
G1 Z0.300 F420
G1 E10.3956 F1800
G1 X-63.20 Y67.55 E10.5010 F600
G1 E7.2239 F2400
G1 Z0.500 F420
G1 X-60.45 Y69.00 F6000
G1 Z0.300 F420
G1 E10.5461 F1800
G1 X-59.98 Y69.24 E10.5790 F600
G1 X-59.61 Y69.55 E10.6091
G1 X-59.36 Y69.88 E10.6349
G1 X-59.36 Y66.48 E10.8469
G1 E7.5525 F2400
G1 Z0.500 F420
G1 X-58.30 Y66.71 F6000
G1 Z0.300 F420
G1 E10.6583 F1800
G1 X-58.30 Y66.65 E10.6621 F600
G1 E7.5778 F2400
G1 Z0.500 F420
G1 X-56.01 Y69.94 F6000
G1 Z0.300 F420
G1 E10.9090 F1800
G1 X-55.50 Y69.80 E10.9420 F600
G1 X-55.11 Y69.42 E10.9760
G1 X-54.88 Y68.86 E11.0137
G1 X-54.79 Y68.18 E11.0565
G1 X-54.88 Y67.51 E11.0987
G1 X-55.11 Y66.95 E11.1364
G1 X-55.50 Y66.56 E11.1708
G1 X-56.01 Y66.42 E11.2038
G1 X-56.54 Y66.56 E11.2380
G1 X-56.91 Y66.95 E11.2715
G1 X-57.15 Y67.51 E11.3095
G1 X-57.23 Y68.18 E11.3516
G1 X-57.15 Y68.85 E11.3937
G1 X-56.91 Y69.42 E11.4323
G1 X-56.54 Y69.80 E11.4653
G1 X-56.01 Y69.94 E11.4995
G1 E8.1963 F2400
G1 Z0.500 F420
G1 X-69.50 Y64.88 F6000
G1 Z0.300 F420
G1 E11.5162 F1800
G1 X-69.50 Y61.48 E11.7282 F600
G1 E8.4359 F2400
G1 Z0.500 F420
G1 X-69.50 Y63.23 F6000
G1 Z0.300 F420
G1 E11.7603 F1800
G1 X-69.25 Y63.53 E11.7846 F600
G1 X-69.02 Y63.75 E11.8045
G1 X-68.80 Y63.88 E11.8204
G1 X-68.60 Y63.93 E11.8333
G1 X-68.41 Y63.95 E11.8452
G1 X-68.09 Y63.88 E11.8656
G1 X-67.86 Y63.71 E11.8835
G1 X-67.76 Y63.51 E11.8974
G1 X-67.67 Y63.08 E11.9248
G1 X-67.67 Y61.48 E12.0246
G1 E8.7281 F2400
G1 Z0.500 F420
G1 X-66.61 Y63.26 F6000
G1 Z0.300 F420
G1 E12.0323 F1800
G1 X-64.92 Y63.26 E12.1377 F600
G1 E8.8605 F2400
G1 Z0.500 F420
G1 X-64.92 Y62.55 F6000
G1 Z0.300 F420
G1 E12.1646 F1800
G1 X-66.61 Y62.55 E12.2700 F600
G1 E8.9928 F2400
G1 Z0.500 F420
G1 X-62.64 Y64.94 F6000
G1 Z0.300 F420
G1 E12.3244 F1800
G1 X-62.13 Y64.80 E12.3574 F600
G1 X-61.74 Y64.42 E12.3914
G1 X-61.50 Y63.86 E12.4294
G1 X-61.42 Y63.18 E12.4721
G1 X-61.50 Y62.51 E12.5142
G1 X-61.74 Y61.95 E12.5522
G1 X-62.13 Y61.56 E12.5866
G1 X-62.64 Y61.42 E12.6195
G1 X-63.16 Y61.56 E12.6531
G1 X-63.54 Y61.95 E12.6871
G1 X-63.78 Y62.51 E12.7251
G1 X-63.86 Y63.18 E12.7672
G1 X-63.78 Y63.85 E12.8092
G1 X-63.54 Y64.42 E12.8478
G1 X-63.16 Y64.80 E12.8813
G1 X-62.64 Y64.94 E12.9149
G1 E9.6117 F2400
G1 Z0.500 F420
G1 X-60.36 Y61.71 F6000
G1 Z0.300 F420
G1 E12.7176 F1800
G1 X-60.36 Y61.65 E12.7214 F600
G1 E9.6370 F2400
G1 Z0.500 F420
G1 X-59.24 Y64.13 F6000
G1 Z0.300 F420
G1 E12.9663 F1800
G1 X-59.13 Y64.47 E12.9886 F600
G1 X-58.92 Y64.73 E13.0094
G1 X-58.63 Y64.89 E13.0301
G1 X-58.29 Y64.94 E13.0515
G1 X-57.90 Y64.87 E13.0762
G1 X-57.61 Y64.68 E13.0979
G1 X-57.43 Y64.41 E13.1181
G1 X-57.36 Y64.06 E13.1404
G1 X-57.43 Y63.85 E13.1542
G1 X-57.57 Y63.68 E13.1679
G1 X-57.94 Y63.45 E13.1951
G1 X-58.38 Y63.30 E13.2241
G1 X-57.94 Y63.18 E13.2525
G1 X-57.58 Y63.02 E13.2771
G1 X-57.29 Y62.74 E13.3022
G1 X-57.19 Y62.45 E13.3214
G1 X-57.26 Y62.03 E13.3479
G1 X-57.49 Y61.70 E13.3730
G1 X-57.83 Y61.50 E13.3976
G1 X-58.25 Y61.42 E13.4243
G1 X-58.65 Y61.48 E13.4495
G1 X-58.97 Y61.65 E13.4721
G1 X-59.19 Y61.92 E13.4938
G1 X-59.29 Y62.28 E13.5171
G1 E10.2158 F2400
G1 Z0.500 F420
G1 X-67.52 Y59.88 F6000
G1 Z0.300 F420
G1 E13.5357 F1800
G1 X-67.52 Y56.48 E13.7478 F600
G1 E10.4554 F2400
G1 Z0.500 F420
G1 X-67.52 Y56.98 F6000
G1 Z0.300 F420
G1 E13.7845 F1800
G1 X-67.77 Y56.74 E13.8061 F600
G1 X-68.16 Y56.49 E13.8350
G1 X-68.54 Y56.42 E13.8591
G1 X-68.92 Y56.51 E13.8834
G1 X-69.22 Y56.77 E13.9082
G1 X-69.43 Y57.18 E13.9369
G1 X-69.50 Y57.71 E13.9703
G1 X-69.44 Y58.22 E14.0023
G1 X-69.26 Y58.61 E14.0291
G1 X-68.97 Y58.86 E14.0530
G1 X-68.57 Y58.95 E14.0785
G1 X-68.38 Y58.93 E14.0904
G1 X-68.18 Y58.85 E14.1039
G1 X-67.97 Y58.72 E14.1193
G1 X-67.77 Y58.50 E14.1378
G1 X-67.52 Y58.03 E14.1710
G1 E10.8691 F2400
G1 Z0.500 F420
G1 X-66.46 Y58.89 F6000
G1 Z0.300 F420
G1 E14.1848 F1800
G1 X-65.29 Y56.44 E14.3541 F600
G1 E11.0658 F2400
G1 Z0.500 F420
G1 X-66.29 Y55.57 F6000
G1 Z0.300 F420
G1 E14.3915 F1800
G1 X-66.19 Y55.56 E14.3978 F600
G1 X-66.10 Y55.56 E14.4034
G1 X-65.84 Y55.62 E14.4201
G1 X-65.63 Y55.78 E14.4365
G1 X-65.45 Y56.06 E14.4573
G1 X-65.29 Y56.44 E14.4830
G1 X-64.41 Y58.89 E14.6453
G1 E11.3479 F2400
G1 Z0.500 F420
G1 X-63.35 Y58.76 F6000
G1 Z0.300 F420
G1 E14.6597 F1800
G1 X-63.35 Y56.48 E14.8019 F600
G1 E11.5173 F2400
G1 Z0.500 F420
G1 X-63.35 Y57.89 F6000
G1 Z0.300 F420
G1 E14.8419 F1800
G1 X-63.11 Y58.34 E14.8737 F600
G1 X-62.92 Y58.67 E14.8975
G1 X-62.70 Y58.86 E14.9156
G1 X-62.49 Y58.93 E14.9294
G1 X-62.28 Y58.95 E14.9425
G1 X-61.95 Y58.88 E14.9636
G1 X-61.77 Y58.73 E14.9782
G1 X-61.67 Y58.40 E14.9997
G1 X-61.61 Y58.08 E15.0200
G1 X-61.61 Y56.48 E15.1198
G1 E11.8230 F2400
G1 Z0.500 F420
G1 X-60.55 Y56.48 F6000
G1 Z0.300 F420
G1 E15.1363 F1800
G1 X-60.55 Y58.89 E15.2866 F600
G1 E12.0006 F2400
G1 Z0.500 F420
G1 X-60.55 Y58.20 F6000
G1 Z0.300 F420
G1 E15.3112 F1800
G1 X-60.30 Y58.55 E15.3380 F600
G1 X-60.09 Y58.76 E15.3565
G1 X-59.89 Y58.88 E15.3711
G1 X-59.70 Y58.94 E15.3835
G1 X-59.54 Y58.95 E15.3935
G1 X-59.49 Y58.95 E15.3966
G1 X-59.44 Y58.94 E15.3998
G1 E12.1172 F2400
G1 Z0.500 F420
G1 X-58.38 Y57.69 F6000
G1 Z0.300 F420
G1 E15.4484 F1800
G1 X-56.24 Y57.69 E15.5819 F600
G1 X-56.32 Y58.22 E15.6153
G1 X-56.53 Y58.61 E15.6429
G1 X-56.87 Y58.86 E15.6692
G1 X-57.31 Y58.95 E15.6972
G1 X-57.74 Y58.86 E15.7246
G1 X-58.08 Y58.61 E15.7510
G1 X-58.30 Y58.22 E15.7789
G1 X-58.38 Y57.69 E15.8123
G1 X-58.30 Y57.15 E15.8464
G1 X-58.07 Y56.75 E15.8751
G1 X-57.72 Y56.51 E15.9016
G1 X-57.26 Y56.42 E15.9308
G1 X-56.92 Y56.47 E15.9523
G1 X-56.63 Y56.61 E15.9724
G1 X-56.42 Y56.83 E15.9913
G1 X-56.30 Y57.13 E16.0115
G1 E12.7086 F2400
G1 Z0.500 F420
G1 X-53.99 Y56.46 F6000
G1 Z0.300 F420
G1 E16.0317 F1800
G1 X-54.14 Y56.45 E16.0411 F600
G1 X-54.32 Y56.50 E16.0528
G1 X-54.48 Y56.62 E16.0652
G1 X-54.60 Y56.81 E16.0793
G1 X-54.68 Y57.19 E16.1035
G1 X-54.68 Y59.52 E16.2488
G1 E12.9537 F2400
G1 Z0.500 F420
G1 X-55.18 Y58.76 F6000
G1 Z0.300 F420
G1 E16.2421 F1800
G1 X-54.10 Y58.76 E16.3095 F600
G1 E13.0476 F2400
G1 Z0.500 F420
G1 X-52.92 Y58.26 F6000
G1 Z0.300 F420
G1 E16.3516 F1800
G1 X-51.23 Y58.26 E16.4570 F600
G1 E13.1799 F2400
G1 Z0.500 F420
G1 X-51.23 Y57.55 F6000
G1 Z0.300 F420
G1 E16.4840 F1800
G1 X-52.92 Y57.55 E16.5894 F600
G1 E13.3122 F2400
G1 Z0.500 F420
G1 X-48.95 Y59.94 F6000
G1 Z0.300 F420
G1 E16.6438 F1800
G1 X-48.44 Y59.80 E16.6768 F600
G1 X-48.05 Y59.42 E16.7107
G1 X-47.81 Y58.86 E16.7487
G1 X-47.73 Y58.18 E16.7914
G1 X-47.81 Y57.51 E16.8335
G1 X-48.05 Y56.95 E16.8715
G1 X-48.44 Y56.56 E16.9059
G1 X-48.95 Y56.42 E16.9389
G1 X-49.47 Y56.56 E16.9724
G1 X-49.85 Y56.95 E17.0064
G1 X-50.09 Y57.51 E17.0444
G1 X-50.17 Y58.18 E17.0865
G1 X-50.09 Y58.85 E17.1286
G1 X-49.85 Y59.42 E17.1671
G1 X-49.47 Y59.80 E17.2006
G1 X-48.95 Y59.94 E17.2342
G1 E13.9311 F2400
G1 Z0.500 F420
G1 X-69.50 Y54.88 F6000
G1 Z0.300 F420
G1 E17.2562 F1800
G1 X-68.53 Y54.88 E17.3167 F600
G1 X-68.14 Y54.78 E17.3418
G1 X-67.83 Y54.58 E17.3648
G1 X-67.73 Y54.45 E17.3750
G1 X-67.60 Y54.04 E17.4018
G1 X-67.65 Y53.80 E17.4171
G1 X-67.72 Y53.56 E17.4327
G1 X-67.98 Y53.36 E17.4532
G1 X-68.49 Y53.18 E17.4869
G1 X-69.50 Y53.18 E17.5499
G1 E14.2527 F2400
G1 Z0.500 F420
G1 X-68.49 Y53.18 F6000
G1 Z0.300 F420
G1 E17.5821 F1800
G1 X-67.72 Y53.01 E17.6313 F600
G1 X-67.50 Y52.81 E17.6499
G1 X-67.39 Y52.56 E17.6669
G1 X-67.34 Y52.32 E17.6822
G1 X-67.47 Y51.91 E17.7090
G1 X-67.57 Y51.78 E17.7192
G1 X-67.88 Y51.59 E17.7419
G1 X-68.27 Y51.48 E17.7672
G1 X-69.50 Y51.48 E17.8439
G1 X-69.50 Y54.88 E18.0559
G1 E14.7545 F2400
G1 Z0.500 F420
G1 X-66.28 Y52.69 F6000
G1 Z0.300 F420
G1 E18.0857 F1800
G1 X-64.14 Y52.69 E18.2191 F600
G1 X-64.22 Y53.22 E18.2526
G1 X-64.43 Y53.61 E18.2802
G1 X-64.77 Y53.86 E18.3065
G1 X-65.21 Y53.95 E18.3345
G1 X-65.64 Y53.86 E18.3619
G1 X-65.98 Y53.61 E18.3882
G1 X-66.20 Y53.22 E18.4161
G1 X-66.28 Y52.69 E18.4496
G1 X-66.20 Y52.15 E18.4836
G1 X-65.97 Y51.75 E18.5124
G1 X-65.62 Y51.51 E18.5388
G1 X-65.16 Y51.42 E18.5681
G1 X-64.82 Y51.47 E18.5895
G1 X-64.53 Y51.61 E18.6096
G1 X-64.32 Y51.83 E18.6286
G1 X-64.20 Y52.13 E18.6487
G1 E15.3459 F2400
G1 Z0.500 F420
G1 X-63.08 Y53.26 F6000
G1 Z0.300 F420
G1 E18.6501 F1800
G1 X-61.39 Y53.26 E18.7554 F600
G1 E15.4783 F2400
G1 Z0.500 F420
G1 X-61.39 Y52.55 F6000
G1 Z0.300 F420
G1 E18.7824 F1800
G1 X-63.08 Y52.55 E18.8878 F600
G1 E15.6106 F2400
G1 Z0.500 F420
G1 X-59.11 Y54.94 F6000
G1 Z0.300 F420
G1 E18.9422 F1800
G1 X-58.60 Y54.80 E18.9752 F600
G1 X-58.21 Y54.42 E19.0092
G1 X-57.97 Y53.86 E19.0472
G1 X-57.89 Y53.18 E19.0899
G1 X-57.97 Y52.51 E19.1319
G1 X-58.21 Y51.95 E19.1699
G1 X-58.60 Y51.56 E19.2043
G1 X-59.11 Y51.42 E19.2373
G1 X-59.63 Y51.56 E19.2709
G1 X-60.01 Y51.95 E19.3048
G1 X-60.25 Y52.51 E19.3428
G1 X-60.33 Y53.18 E19.3849
G1 X-60.25 Y53.85 E19.4270
G1 X-60.01 Y54.42 E19.4656
G1 X-59.63 Y54.80 E19.4991
G1 X-59.11 Y54.94 E19.5327
G1 E16.2295 F2400
G1 Z0.500 F420
G1 X-56.82 Y51.71 F6000
G1 Z0.300 F420
G1 E19.3354 F1800
G1 X-56.82 Y51.65 E19.3391 F600
G1 E16.2548 F2400
G1 Z0.500 F420
G1 X-54.05 Y51.48 F6000
G1 Z0.300 F420
G1 E19.5818 F1800
G1 X-54.05 Y54.88 E19.7938 F600
G1 X-55.76 Y52.65 E19.9691
G1 X-53.45 Y52.65 E20.1131
G1 E16.8137 F2400
G1 Z0.500 F420
;structure:shell-outer
G1 X70.00 Y0.00 F6000
G1 Z0.300 F420
G1 E20.1483 F1800
G1 X69.73 Y6.10 E20.5292 F600
G1 X68.94 Y12.16 E20.9100
G1 X67.61 Y18.12 E21.2908
G1 X65.78 Y23.94 E21.6717
G1 X63.44 Y29.58 E22.0525
G1 X60.62 Y35.00 E22.4333
G1 X57.34 Y40.15 E22.8142
G1 X53.62 Y45.00 E23.1950
G1 X49.50 Y49.50 E23.5758
G1 X45.00 Y53.62 E23.9567
G1 X40.15 Y57.34 E24.3375
G1 X35.00 Y60.62 E24.7183
G1 X29.58 Y63.44 E25.0991
G1 X23.94 Y65.78 E25.4800
G1 X18.12 Y67.61 E25.8608
G1 X12.16 Y68.94 E26.2416
G1 X6.10 Y69.73 E26.6225
G1 X0.00 Y70.00 E27.0033
G1 X-6.10 Y69.73 E27.3841
G1 X-12.16 Y68.94 E27.7650
G1 X-18.12 Y67.61 E28.1458
G1 X-23.94 Y65.78 E28.5266
G1 X-29.58 Y63.44 E28.9075
G1 X-35.00 Y60.62 E29.2883
G1 X-40.15 Y57.34 E29.6691
G1 X-45.00 Y53.62 E30.0500
G1 X-49.50 Y49.50 E30.4308
G1 X-53.62 Y45.00 E30.8116
G1 X-57.34 Y40.15 E31.1925
G1 X-60.62 Y35.00 E31.5733
G1 X-63.44 Y29.58 E31.9541
G1 X-65.78 Y23.94 E32.3349
G1 X-67.61 Y18.12 E32.7158
G1 X-68.94 Y12.16 E33.0966
G1 X-69.73 Y6.10 E33.4774
G1 X-70.00 Y0.00 E33.8583
G1 X-69.73 Y-6.10 E34.2391
G1 X-68.94 Y-12.16 E34.6199
G1 X-67.61 Y-18.12 E35.0008
G1 X-65.78 Y-23.94 E35.3816
G1 X-63.44 Y-29.58 E35.7624
G1 X-60.62 Y-35.00 E36.1433
G1 X-57.34 Y-40.15 E36.5241
G1 X-53.62 Y-45.00 E36.9049
G1 X-49.50 Y-49.50 E37.2858
G1 X-45.00 Y-53.62 E37.6666
G1 X-40.15 Y-57.34 E38.0474
G1 X-35.00 Y-60.62 E38.4283
G1 X-29.58 Y-63.44 E38.8091
G1 X-23.94 Y-65.78 E39.1899
G1 X-18.12 Y-67.61 E39.5708
G1 X-12.16 Y-68.94 E39.9516
G1 X-6.10 Y-69.73 E40.3324
G1 X0.00 Y-70.00 E40.7132
G1 X6.10 Y-69.73 E41.0941
G1 X12.16 Y-68.94 E41.4749
G1 X18.12 Y-67.61 E41.8557
G1 X23.94 Y-65.78 E42.2366
G1 X29.58 Y-63.44 E42.6174
G1 X35.00 Y-60.62 E42.9982
G1 X40.15 Y-57.34 E43.3791
G1 X45.00 Y-53.62 E43.7599
G1 X49.50 Y-49.50 E44.1407
G1 X53.62 Y-45.00 E44.5216
G1 X57.34 Y-40.15 E44.9024
G1 X60.62 Y-35.00 E45.2832
G1 X63.44 Y-29.58 E45.6641
G1 X65.78 Y-23.94 E46.0449
G1 X67.61 Y-18.12 E46.4257
G1 X68.94 Y-12.16 E46.8066
G1 X69.73 Y-6.10 E47.1874
G1 X70.00 Y0.00 E47.5682
G1 E44.2613 F2400
G1 Z0.500 F420
G1 Z0.300
G1 E47.5790 F1800
G1 X73.00 Y0.00 E47.7661 F600
G1 E44.4522 F2400
G1 Z0.500 F420
G1 X69.73 Y6.10 F6000
G1 Z0.300 F420
G1 E47.7527 F1800
G1 X71.23 Y6.23 E47.8462 F600
G1 E44.5726 F2400
G1 Z0.500 F420
G1 X68.94 Y12.16 F6000
G1 Z0.300 F420
G1 E47.8730 F1800
G1 X70.41 Y12.42 E47.9666 F600
G1 E44.6930 F2400
G1 Z0.500 F420
G1 X67.61 Y18.12 F6000
G1 Z0.300 F420
G1 E47.9934 F1800
G1 X69.06 Y18.51 E48.0869 F600
G1 E44.8134 F2400
G1 Z0.500 F420
G1 X65.78 Y23.94 F6000
G1 Z0.300 F420
G1 E48.1138 F1800
G1 X67.19 Y24.45 E48.2073 F600
G1 E44.9337 F2400
G1 Z0.500 F420
G1 X63.44 Y29.58 F6000
G1 Z0.300 F420
G1 E48.2341 F1800
G1 X64.80 Y30.22 E48.3277 F600
G1 E45.0541 F2400
G1 Z0.500 F420
G1 X60.62 Y35.00 F6000
G1 Z0.300 F420
G1 E48.3717 F1800
G1 X63.22 Y36.50 E48.5588 F600
G1 E45.2686 F2400
G1 Z0.500 F420
G1 X57.34 Y40.15 F6000
G1 Z0.300 F420
G1 E48.5690 F1800
G1 X58.57 Y41.01 E48.6626 F600
G1 E45.3890 F2400
G1 Z0.500 F420
G1 X53.62 Y45.00 F6000
G1 Z0.300 F420
G1 E48.6894 F1800
G1 X54.77 Y45.96 E48.7829 F600
G1 E45.5094 F2400
G1 Z0.500 F420
G1 X49.50 Y49.50 F6000
G1 Z0.300 F420
G1 E48.8098 F1800
G1 X50.56 Y50.56 E48.9033 F600
G1 E45.6297 F2400
G1 Z0.500 F420
G1 X45.00 Y53.62 F6000
G1 Z0.300 F420
G1 E48.9301 F1800
G1 X45.96 Y54.77 E49.0237 F600
G1 E45.7501 F2400
G1 Z0.500 F420
G1 X40.15 Y57.34 F6000
G1 Z0.300 F420
G1 E49.0505 F1800
G1 X41.01 Y58.57 E49.1441 F600
G1 E45.8705 F2400
G1 Z0.500 F420
G1 X35.00 Y60.62 F6000
G1 Z0.300 F420
G1 E49.1881 F1800
G1 X36.50 Y63.22 E49.3752 F600
G1 E46.0850 F2400
G1 Z0.500 F420
G1 X29.58 Y63.44 F6000
G1 Z0.300 F420
G1 E49.3854 F1800
G1 X30.22 Y64.80 E49.4789 F600
G1 E46.2054 F2400
G1 Z0.500 F420
G1 X23.94 Y65.78 F6000
G1 Z0.300 F420
G1 E49.5058 F1800
G1 X24.45 Y67.19 E49.5993 F600
G1 E46.3257 F2400
G1 Z0.500 F420
G1 X18.12 Y67.61 F6000
G1 Z0.300 F420
G1 E49.6261 F1800
G1 X18.51 Y69.06 E49.7197 F600
G1 E46.4461 F2400
G1 Z0.500 F420
G1 X12.16 Y68.94 F6000
G1 Z0.300 F420
G1 E49.7465 F1800
G1 X12.42 Y70.41 E49.8400 F600
G1 E46.5665 F2400
G1 Z0.500 F420
G1 X6.10 Y69.73 F6000
G1 Z0.300 F420
G1 E49.8669 F1800
G1 X6.23 Y71.23 E49.9604 F600
G1 E46.6868 F2400
G1 Z0.500 F420
G1 X0.00 Y70.00 F6000
G1 Z0.300 F420
G1 E50.0044 F1800
G1 X0.00 Y73.00 E50.1915 F600
G1 E46.9013 F2400
G1 Z0.500 F420
G1 X-6.10 Y69.73 F6000
G1 Z0.300 F420
G1 E50.2018 F1800
G1 X-6.23 Y71.23 E50.2953 F600
G1 E47.0217 F2400
G1 Z0.500 F420
G1 X-12.16 Y68.94 F6000
G1 Z0.300 F420
G1 E50.3221 F1800
G1 X-12.42 Y70.41 E50.4157 F600
G1 E47.1421 F2400
G1 Z0.500 F420
G1 X-18.12 Y67.61 F6000
G1 Z0.300 F420
G1 E50.4425 F1800
G1 X-18.51 Y69.06 E50.5360 F600
G1 E47.2625 F2400
G1 Z0.500 F420
G1 X-23.94 Y65.78 F6000
G1 Z0.300 F420
G1 E50.5629 F1800
G1 X-24.45 Y67.19 E50.6564 F600
G1 E47.3828 F2400
G1 Z0.500 F420
G1 X-29.58 Y63.44 F6000
G1 Z0.300 F420
G1 E50.6832 F1800
G1 X-30.22 Y64.80 E50.7768 F600
G1 E47.5032 F2400
G1 Z0.500 F420
G1 X-35.00 Y60.62 F6000
G1 Z0.300 F420
G1 E50.8208 F1800
G1 X-36.50 Y63.22 E51.0079 F600
G1 E47.7177 F2400
G1 Z0.500 F420
G1 X-40.15 Y57.34 F6000
G1 Z0.300 F420
G1 E51.0181 F1800
G1 X-41.01 Y58.57 E51.1117 F600
G1 E47.8381 F2400
G1 Z0.500 F420
G1 X-45.00 Y53.62 F6000
G1 Z0.300 F420
G1 E51.1385 F1800
G1 X-45.96 Y54.77 E51.2320 F600
G1 E47.9585 F2400
G1 Z0.500 F420
G1 X-49.50 Y49.50 F6000
G1 Z0.300 F420
G1 E51.2589 F1800
G1 X-50.56 Y50.56 E51.3524 F600
G1 E48.0788 F2400
G1 Z0.500 F420
G1 X-53.62 Y45.00 F6000
G1 Z0.300 F420
G1 E51.3792 F1800
G1 X-54.77 Y45.96 E51.4728 F600
G1 E48.1992 F2400
G1 Z0.500 F420
G1 X-57.34 Y40.15 F6000
G1 Z0.300 F420
G1 E51.4996 F1800
G1 X-58.57 Y41.01 E51.5931 F600
G1 E48.3196 F2400
G1 Z0.500 F420
G1 X-60.62 Y35.00 F6000
G1 Z0.300 F420
G1 E51.6372 F1800
G1 X-63.22 Y36.50 E51.8243 F600
G1 E48.5341 F2400
G1 Z0.500 F420
G1 X-63.44 Y29.58 F6000
G1 Z0.300 F420
G1 E51.8345 F1800
G1 X-64.80 Y30.22 E51.9280 F600
G1 E48.6545 F2400
G1 Z0.500 F420
G1 X-65.78 Y23.94 F6000
G1 Z0.300 F420
G1 E51.9549 F1800
G1 X-67.19 Y24.45 E52.0484 F600
G1 E48.7748 F2400
G1 Z0.500 F420
G1 X-67.61 Y18.12 F6000
G1 Z0.300 F420
G1 E52.0752 F1800
G1 X-69.06 Y18.51 E52.1688 F600
G1 E48.8952 F2400
G1 Z0.500 F420
G1 X-68.94 Y12.16 F6000
G1 Z0.300 F420
G1 E52.1956 F1800
G1 X-70.41 Y12.42 E52.2891 F600
G1 E49.0156 F2400
G1 Z0.500 F420
G1 X-69.73 Y6.10 F6000
G1 Z0.300 F420
G1 E52.3160 F1800
G1 X-71.23 Y6.23 E52.4095 F600
G1 E49.1359 F2400
G1 Z0.500 F420
G1 X-70.00 Y0.00 F6000
G1 Z0.300 F420
G1 E52.4535 F1800
G1 X-73.00 Y0.00 E52.6406 F600
G1 E49.3504 F2400
G1 Z0.500 F420
G1 X-69.73 Y-6.10 F6000
G1 Z0.300 F420
G1 E52.6509 F1800
G1 X-71.23 Y-6.23 E52.7444 F600
G1 E49.4708 F2400
G1 Z0.500 F420
G1 X-68.94 Y-12.16 F6000
G1 Z0.300 F420
G1 E52.7712 F1800
G1 X-70.41 Y-12.42 E52.8648 F600
G1 E49.5912 F2400
G1 Z0.500 F420
G1 X-67.61 Y-18.12 F6000
G1 Z0.300 F420
G1 E52.8916 F1800
G1 X-69.06 Y-18.51 E52.9851 F600
G1 E49.7116 F2400
G1 Z0.500 F420
G1 X-65.78 Y-23.94 F6000
G1 Z0.300 F420
G1 E53.0120 F1800
G1 X-67.19 Y-24.45 E53.1055 F600
G1 E49.8319 F2400
G1 Z0.500 F420
G1 X-63.44 Y-29.58 F6000
G1 Z0.300 F420
G1 E53.1323 F1800
G1 X-64.80 Y-30.22 E53.2259 F600
G1 E49.9523 F2400
G1 Z0.500 F420
G1 X-60.62 Y-35.00 F6000
G1 Z0.300 F420
G1 E53.2699 F1800
G1 X-63.22 Y-36.50 E53.4570 F600
G1 E50.1668 F2400
G1 Z0.500 F420
G1 X-57.34 Y-40.15 F6000
G1 Z0.300 F420
G1 E53.4672 F1800
G1 X-58.57 Y-41.01 E53.5608 F600
G1 E50.2872 F2400
G1 Z0.500 F420
G1 X-53.62 Y-45.00 F6000
G1 Z0.300 F420
G1 E53.5876 F1800
G1 X-54.77 Y-45.96 E53.6811 F600
G1 E50.4076 F2400
G1 Z0.500 F420
G1 X-49.50 Y-49.50 F6000
G1 Z0.300 F420
G1 E53.7080 F1800
G1 X-50.56 Y-50.56 E53.8015 F600
G1 E50.5279 F2400
G1 Z0.500 F420
G1 X-45.00 Y-53.62 F6000
G1 Z0.300 F420
G1 E53.8283 F1800
G1 X-45.96 Y-54.77 E53.9219 F600
G1 E50.6483 F2400
G1 Z0.500 F420
G1 X-40.15 Y-57.34 F6000
G1 Z0.300 F420
G1 E53.9487 F1800
G1 X-41.01 Y-58.57 E54.0422 F600
G1 E50.7687 F2400
G1 Z0.500 F420
G1 X-35.00 Y-60.62 F6000
G1 Z0.300 F420
G1 E54.0863 F1800
G1 X-36.50 Y-63.22 E54.2734 F600
G1 E50.9832 F2400
G1 Z0.500 F420
G1 X-29.58 Y-63.44 F6000
G1 Z0.300 F420
G1 E54.2836 F1800
G1 X-30.22 Y-64.80 E54.3771 F600
G1 E51.1036 F2400
G1 Z0.500 F420
G1 X-23.94 Y-65.78 F6000
G1 Z0.300 F420
G1 E54.4040 F1800
G1 X-24.45 Y-67.19 E54.4975 F600
G1 E51.2239 F2400
G1 Z0.500 F420
G1 X-18.12 Y-67.61 F6000
G1 Z0.300 F420
G1 E54.5243 F1800
G1 X-18.51 Y-69.06 E54.6179 F600
G1 E51.3443 F2400
G1 Z0.500 F420
G1 X-12.16 Y-68.94 F6000
G1 Z0.300 F420
G1 E54.6447 F1800
G1 X-12.42 Y-70.41 E54.7382 F600
G1 E51.4647 F2400
G1 Z0.500 F420
G1 X-6.10 Y-69.73 F6000
G1 Z0.300 F420
G1 E54.7651 F1800
G1 X-6.23 Y-71.23 E54.8586 F600
G1 E51.5850 F2400
G1 Z0.500 F420
G1 X0.00 Y-70.00 F6000
G1 Z0.300 F420
G1 E54.9026 F1800
G1 X0.00 Y-73.00 E55.0897 F600
G1 E51.7995 F2400
G1 Z0.500 F420
G1 X6.10 Y-69.73 F6000
G1 Z0.300 F420
G1 E55.1000 F1800
G1 X6.23 Y-71.23 E55.1935 F600
G1 E51.9199 F2400
G1 Z0.500 F420
G1 X12.16 Y-68.94 F6000
G1 Z0.300 F420
G1 E55.2203 F1800
G1 X12.42 Y-70.41 E55.3139 F600
G1 E52.0403 F2400
G1 Z0.500 F420
G1 X18.12 Y-67.61 F6000
G1 Z0.300 F420
G1 E55.3407 F1800
G1 X18.51 Y-69.06 E55.4342 F600
G1 E52.1607 F2400
G1 Z0.500 F420
G1 X23.94 Y-65.78 F6000
G1 Z0.300 F420
G1 E55.4611 F1800
G1 X24.45 Y-67.19 E55.5546 F600
G1 E52.2810 F2400
G1 Z0.500 F420
G1 X29.58 Y-63.44 F6000
G1 Z0.300 F420
G1 E55.5814 F1800
G1 X30.22 Y-64.80 E55.6750 F600
G1 E52.4014 F2400
G1 Z0.500 F420
G1 X35.00 Y-60.62 F6000
G1 Z0.300 F420
G1 E55.7190 F1800
G1 X36.50 Y-63.22 E55.9061 F600
G1 E52.6159 F2400
G1 Z0.500 F420
G1 X40.15 Y-57.34 F6000
G1 Z0.300 F420
G1 E55.9163 F1800
G1 X41.01 Y-58.57 E56.0099 F600
G1 E52.7363 F2400
G1 Z0.500 F420
G1 X45.00 Y-53.62 F6000
G1 Z0.300 F420
G1 E56.0367 F1800
G1 X45.96 Y-54.77 E56.1302 F600
G1 E52.8567 F2400
G1 Z0.500 F420
G1 X49.50 Y-49.50 F6000
G1 Z0.300 F420
G1 E56.1571 F1800
G1 X50.56 Y-50.56 E56.2506 F600
G1 E52.9770 F2400
G1 Z0.500 F420
G1 X53.62 Y-45.00 F6000
G1 Z0.300 F420
G1 E56.2774 F1800
G1 X54.77 Y-45.96 E56.3710 F600
G1 E53.0974 F2400
G1 Z0.500 F420
G1 X57.34 Y-40.15 F6000
G1 Z0.300 F420
G1 E56.3978 F1800
G1 X58.57 Y-41.01 E56.4913 F600
G1 E53.2178 F2400
G1 Z0.500 F420
G1 X60.62 Y-35.00 F6000
G1 Z0.300 F420
G1 E56.5354 F1800
G1 X63.22 Y-36.50 E56.7225 F600
G1 E53.4323 F2400
G1 Z0.500 F420
G1 X63.44 Y-29.58 F6000
G1 Z0.300 F420
G1 E56.7327 F1800
G1 X64.80 Y-30.22 E56.8262 F600
G1 E53.5527 F2400
G1 Z0.500 F420
G1 X65.78 Y-23.94 F6000
G1 Z0.300 F420
G1 E56.8531 F1800
G1 X67.19 Y-24.45 E56.9466 F600
G1 E53.6730 F2400
G1 Z0.500 F420
G1 X67.61 Y-18.12 F6000
G1 Z0.300 F420
G1 E56.9734 F1800
G1 X69.06 Y-18.51 E57.0670 F600
G1 E53.7934 F2400
G1 Z0.500 F420
G1 X68.94 Y-12.16 F6000
G1 Z0.300 F420
G1 E57.0938 F1800
G1 X70.41 Y-12.42 E57.1873 F600
G1 E53.9138 F2400
G1 Z0.500 F420
G1 X69.73 Y-6.10 F6000
G1 Z0.300 F420
G1 E57.2142 F1800
G1 X71.23 Y-6.23 E57.3077 F600
G1 E54.0341 F2400
G1 Z0.500 F420
G1 X42.00 Y0.00 F6000
G1 Z0.300 F420
G1 E57.3685 F1800
G1 X41.84 Y3.66 E57.5970 F600
G1 X41.36 Y7.29 E57.8255
G1 X40.57 Y10.87 E58.0540
G1 X39.47 Y14.36 E58.2825
G1 X38.06 Y17.75 E58.5110
G1 X36.37 Y21.00 E58.7395
G1 X34.40 Y24.09 E58.9680
G1 X32.17 Y27.00 E59.1965
G1 X29.70 Y29.70 E59.4250
G1 X27.00 Y32.17 E59.6535
G1 X24.09 Y34.40 E59.8819
G1 X21.00 Y36.37 E60.1104
G1 X17.75 Y38.06 E60.3389
G1 X14.36 Y39.47 E60.5674
G1 X10.87 Y40.57 E60.7959
G1 X7.29 Y41.36 E61.0244
G1 X3.66 Y41.84 E61.2529
G1 X0.00 Y42.00 E61.4814
G1 X-3.66 Y41.84 E61.7099
G1 X-7.29 Y41.36 E61.9384
G1 X-10.87 Y40.57 E62.1669
G1 X-14.36 Y39.47 E62.3954
G1 X-17.75 Y38.06 E62.6239
G1 X-21.00 Y36.37 E62.8524
G1 X-24.09 Y34.40 E63.0809
G1 X-27.00 Y32.17 E63.3094
G1 X-29.70 Y29.70 E63.5379
G1 X-32.17 Y27.00 E63.7664
G1 X-34.40 Y24.09 E63.9949
G1 X-36.37 Y21.00 E64.2234
G1 X-38.06 Y17.75 E64.4519
G1 X-39.47 Y14.36 E64.6804
G1 X-40.57 Y10.87 E64.9089
G1 X-41.36 Y7.29 E65.1374
G1 X-41.84 Y3.66 E65.3659
G1 X-42.00 Y0.00 E65.5944
G1 X-41.84 Y-3.66 E65.8229
G1 X-41.36 Y-7.29 E66.0514
G1 X-40.57 Y-10.87 E66.2799
G1 X-39.47 Y-14.36 E66.5084
G1 X-38.06 Y-17.75 E66.7369
G1 X-36.37 Y-21.00 E66.9654
G1 X-34.40 Y-24.09 E67.1939
G1 X-32.17 Y-27.00 E67.4224
G1 X-29.70 Y-29.70 E67.6509
G1 X-27.00 Y-32.17 E67.8794
G1 X-24.09 Y-34.40 E68.1079
G1 X-21.00 Y-36.37 E68.3364
G1 X-17.75 Y-38.06 E68.5649
G1 X-14.36 Y-39.47 E68.7934
G1 X-10.87 Y-40.57 E69.0219
G1 X-7.29 Y-41.36 E69.2504
G1 X-3.66 Y-41.84 E69.4789
G1 X0.00 Y-42.00 E69.7074
G1 X3.66 Y-41.84 E69.9359
G1 X7.29 Y-41.36 E70.1644
G1 X10.87 Y-40.57 E70.3929
G1 X14.36 Y-39.47 E70.6214
G1 X17.75 Y-38.06 E70.8499
G1 X21.00 Y-36.37 E71.0784
G1 X24.09 Y-34.40 E71.3069
G1 X27.00 Y-32.17 E71.5354
G1 X29.70 Y-29.70 E71.7639
G1 X32.17 Y-27.00 E71.9924
G1 X34.40 Y-24.09 E72.2209
G1 X36.37 Y-21.00 E72.4494
G1 X38.06 Y-17.75 E72.6779
G1 X39.47 Y-14.36 E72.9064
G1 X40.57 Y-10.87 E73.1349
G1 X41.36 Y-7.29 E73.3634
G1 X41.84 Y-3.66 E73.5919
G1 X42.00 Y0.00 E73.8204
G1 E70.5135 F2400
G1 Z0.500 F420
G1 Z0.300
G1 E73.8311 F1800
G1 X39.00 Y0.00 E74.0182 F600
G1 E70.7044 F2400
G1 Z0.500 F420
G1 X41.84 Y3.66 F6000
G1 Z0.300 F420
G1 E74.0048 F1800
G1 X40.35 Y3.53 E74.0984 F600
G1 E70.8248 F2400
G1 Z0.500 F420
G1 X41.36 Y7.29 F6000
G1 Z0.300 F420
G1 E74.1252 F1800
G1 X39.88 Y7.03 E74.2187 F600
G1 E70.9452 F2400
G1 Z0.500 F420
G1 X40.57 Y10.87 F6000
G1 Z0.300 F420
G1 E74.2456 F1800
G1 X39.12 Y10.48 E74.3391 F600
G1 E71.0655 F2400
G1 Z0.500 F420
G1 X39.47 Y14.36 F6000
G1 Z0.300 F420
G1 E74.3659 F1800
G1 X38.06 Y13.85 E74.4595 F600
G1 E71.1859 F2400
G1 Z0.500 F420
G1 X38.06 Y17.75 F6000
G1 Z0.300 F420
G1 E74.4863 F1800
G1 X36.71 Y17.12 E74.5799 F600
G1 E71.3063 F2400
G1 Z0.500 F420
G1 X36.37 Y21.00 F6000
G1 Z0.300 F420
G1 E74.6239 F1800
G1 X33.77 Y19.50 E74.8110 F600
G1 E71.5208 F2400
G1 Z0.500 F420
G1 X34.40 Y24.09 F6000
G1 Z0.300 F420
G1 E74.8212 F1800
G1 X33.18 Y23.23 E74.9147 F600
G1 E71.6412 F2400
G1 Z0.500 F420
G1 X32.17 Y27.00 F6000
G1 Z0.300 F420
G1 E74.9416 F1800
G1 X31.02 Y26.03 E75.0351 F600
G1 E71.7615 F2400
G1 Z0.500 F420
G1 X29.70 Y29.70 F6000
G1 Z0.300 F420
G1 E75.0619 F1800
G1 X28.64 Y28.64 E75.1555 F600
G1 E71.8819 F2400
G1 Z0.500 F420
G1 X27.00 Y32.17 F6000
G1 Z0.300 F420
G1 E75.1823 F1800
G1 X26.03 Y31.02 E75.2758 F600
G1 E72.0023 F2400
G1 Z0.500 F420
G1 X24.09 Y34.40 F6000
G1 Z0.300 F420
G1 E75.3027 F1800
G1 X23.23 Y33.18 E75.3962 F600
G1 E72.1226 F2400
G1 Z0.500 F420
G1 X21.00 Y36.37 F6000
G1 Z0.300 F420
G1 E75.4402 F1800
G1 X19.50 Y33.77 E75.6273 F600
G1 E72.3371 F2400
G1 Z0.500 F420
G1 X17.75 Y38.06 F6000
G1 Z0.300 F420
G1 E75.6376 F1800
G1 X17.12 Y36.71 E75.7311 F600
G1 E72.4575 F2400
G1 Z0.500 F420
G1 X14.36 Y39.47 F6000
G1 Z0.300 F420
G1 E75.7579 F1800
G1 X13.85 Y38.06 E75.8515 F600
G1 E72.5779 F2400
G1 Z0.500 F420
G1 X10.87 Y40.57 F6000
G1 Z0.300 F420
G1 E75.8783 F1800
G1 X10.48 Y39.12 E75.9718 F600
G1 E72.6983 F2400
G1 Z0.500 F420
G1 X7.29 Y41.36 F6000
G1 Z0.300 F420
G1 E75.9987 F1800
G1 X7.03 Y39.88 E76.0922 F600
G1 E72.8186 F2400
G1 Z0.500 F420
G1 X3.66 Y41.84 F6000
G1 Z0.300 F420
G1 E76.1190 F1800
G1 X3.53 Y40.35 E76.2126 F600
G1 E72.9390 F2400
G1 Z0.500 F420
G1 X0.00 Y42.00 F6000
G1 Z0.300 F420
G1 E76.2566 F1800
G1 X0.00 Y39.00 E76.4437 F600
G1 E73.1535 F2400
G1 Z0.500 F420
G1 X-3.66 Y41.84 F6000
G1 Z0.300 F420
G1 E76.4539 F1800
G1 X-3.53 Y40.35 E76.5475 F600
G1 E73.2739 F2400
G1 Z0.500 F420
G1 X-7.29 Y41.36 F6000
G1 Z0.300 F420
G1 E76.5743 F1800
G1 X-7.03 Y39.88 E76.6678 F600
G1 E73.3943 F2400
G1 Z0.500 F420
G1 X-10.87 Y40.57 F6000
G1 Z0.300 F420
G1 E76.6947 F1800
G1 X-10.48 Y39.12 E76.7882 F600
G1 E73.5146 F2400
G1 Z0.500 F420
G1 X-14.36 Y39.47 F6000
G1 Z0.300 F420
G1 E76.8150 F1800
G1 X-13.85 Y38.06 E76.9086 F600
G1 E73.6350 F2400
G1 Z0.500 F420
G1 X-17.75 Y38.06 F6000
G1 Z0.300 F420
G1 E76.9354 F1800
G1 X-17.12 Y36.71 E77.0289 F600
G1 E73.7554 F2400
G1 Z0.500 F420
G1 X-21.00 Y36.37 F6000
G1 Z0.300 F420
G1 E77.0730 F1800
G1 X-19.50 Y33.77 E77.2601 F600
G1 E73.9699 F2400
G1 Z0.500 F420
G1 X-24.09 Y34.40 F6000
G1 Z0.300 F420
G1 E77.2703 F1800
G1 X-23.23 Y33.18 E77.3638 F600
G1 E74.0903 F2400
G1 Z0.500 F420
G1 X-27.00 Y32.17 F6000
G1 Z0.300 F420
G1 E77.3907 F1800
G1 X-26.03 Y31.02 E77.4842 F600
G1 E74.2106 F2400
G1 Z0.500 F420
G1 X-29.70 Y29.70 F6000
G1 Z0.300 F420
G1 E77.5110 F1800
G1 X-28.64 Y28.64 E77.6046 F600
G1 E74.3310 F2400
G1 Z0.500 F420
G1 X-32.17 Y27.00 F6000
G1 Z0.300 F420
G1 E77.6314 F1800
G1 X-31.02 Y26.03 E77.7249 F600
G1 E74.4514 F2400
G1 Z0.500 F420
G1 X-34.40 Y24.09 F6000
G1 Z0.300 F420
G1 E77.7518 F1800
G1 X-33.18 Y23.23 E77.8453 F600
G1 E74.5717 F2400
G1 Z0.500 F420
G1 X-36.37 Y21.00 F6000
G1 Z0.300 F420
G1 E77.8893 F1800
G1 X-33.77 Y19.50 E78.0764 F600
G1 E74.7862 F2400
G1 Z0.500 F420
G1 X-38.06 Y17.75 F6000
G1 Z0.300 F420
G1 E78.0867 F1800
G1 X-36.71 Y17.12 E78.1802 F600
G1 E74.9066 F2400
G1 Z0.500 F420
G1 X-39.47 Y14.36 F6000
G1 Z0.300 F420
G1 E78.2070 F1800
G1 X-38.06 Y13.85 E78.3006 F600
G1 E75.0270 F2400
G1 Z0.500 F420
G1 X-40.57 Y10.87 F6000
G1 Z0.300 F420
G1 E78.3274 F1800
G1 X-39.12 Y10.48 E78.4209 F600
G1 E75.1474 F2400
G1 Z0.500 F420
G1 X-41.36 Y7.29 F6000
G1 Z0.300 F420
G1 E78.4478 F1800
G1 X-39.88 Y7.03 E78.5413 F600
G1 E75.2677 F2400
G1 Z0.500 F420
G1 X-41.84 Y3.66 F6000
G1 Z0.300 F420
G1 E78.5681 F1800
G1 X-40.35 Y3.53 E78.6617 F600
G1 E75.3881 F2400
G1 Z0.500 F420
G1 X-42.00 Y0.00 F6000
G1 Z0.300 F420
G1 E78.7057 F1800
G1 X-39.00 Y0.00 E78.8928 F600
G1 E75.6026 F2400
G1 Z0.500 F420
G1 X-41.84 Y-3.66 F6000
G1 Z0.300 F420
G1 E78.9030 F1800
G1 X-40.35 Y-3.53 E78.9966 F600
G1 E75.7230 F2400
G1 Z0.500 F420
G1 X-41.36 Y-7.29 F6000
G1 Z0.300 F420
G1 E79.0234 F1800
G1 X-39.88 Y-7.03 E79.1169 F600
G1 E75.8434 F2400
G1 Z0.500 F420
G1 X-40.57 Y-10.87 F6000
G1 Z0.300 F420
G1 E79.1438 F1800
G1 X-39.12 Y-10.48 E79.2373 F600
G1 E75.9637 F2400
G1 Z0.500 F420
G1 X-39.47 Y-14.36 F6000
G1 Z0.300 F420
G1 E79.2641 F1800
G1 X-38.06 Y-13.85 E79.3577 F600
G1 E76.0841 F2400
G1 Z0.500 F420
G1 X-38.06 Y-17.75 F6000
G1 Z0.300 F420
G1 E79.3845 F1800
G1 X-36.71 Y-17.12 E79.4780 F600
G1 E76.2045 F2400
G1 Z0.500 F420
G1 X-36.37 Y-21.00 F6000
G1 Z0.300 F420
G1 E79.5221 F1800
G1 X-33.77 Y-19.50 E79.7092 F600
G1 E76.4190 F2400
G1 Z0.500 F420
G1 X-34.40 Y-24.09 F6000
G1 Z0.300 F420
G1 E79.7194 F1800
G1 X-33.18 Y-23.23 E79.8129 F600
G1 E76.5394 F2400
G1 Z0.500 F420
G1 X-32.17 Y-27.00 F6000
G1 Z0.300 F420
G1 E79.8398 F1800
G1 X-31.02 Y-26.03 E79.9333 F600
G1 E76.6597 F2400
G1 Z0.500 F420
G1 X-29.70 Y-29.70 F6000
G1 Z0.300 F420
G1 E79.9601 F1800
G1 X-28.64 Y-28.64 E80.0537 F600
G1 E76.7801 F2400
G1 Z0.500 F420
G1 X-27.00 Y-32.17 F6000
G1 Z0.300 F420
G1 E80.0805 F1800
G1 X-26.03 Y-31.02 E80.1740 F600
G1 E76.9005 F2400
G1 Z0.500 F420
G1 X-24.09 Y-34.40 F6000
G1 Z0.300 F420
G1 E80.2009 F1800
G1 X-23.23 Y-33.18 E80.2944 F600
G1 E77.0208 F2400
G1 Z0.500 F420
G1 X-21.00 Y-36.37 F6000
G1 Z0.300 F420
G1 E80.3384 F1800
G1 X-19.50 Y-33.77 E80.5255 F600
G1 E77.2353 F2400
G1 Z0.500 F420
G1 X-17.75 Y-38.06 F6000
G1 Z0.300 F420
G1 E80.5358 F1800
G1 X-17.12 Y-36.71 E80.6293 F600
G1 E77.3557 F2400
G1 Z0.500 F420
G1 X-14.36 Y-39.47 F6000
G1 Z0.300 F420
G1 E80.6561 F1800
G1 X-13.85 Y-38.06 E80.7497 F600
G1 E77.4761 F2400
G1 Z0.500 F420
G1 X-10.87 Y-40.57 F6000
G1 Z0.300 F420
G1 E80.7765 F1800
G1 X-10.48 Y-39.12 E80.8700 F600
G1 E77.5965 F2400
G1 Z0.500 F420
G1 X-7.29 Y-41.36 F6000
G1 Z0.300 F420
G1 E80.8969 F1800
G1 X-7.03 Y-39.88 E80.9904 F600
G1 E77.7168 F2400
G1 Z0.500 F420
G1 X-3.66 Y-41.84 F6000
G1 Z0.300 F420
G1 E81.0172 F1800
G1 X-3.53 Y-40.35 E81.1108 F600
G1 E77.8372 F2400
G1 Z0.500 F420
G1 X0.00 Y-42.00 F6000
G1 Z0.300 F420
G1 E81.1548 F1800
G1 X0.00 Y-39.00 E81.3419 F600
G1 E78.0517 F2400
G1 Z0.500 F420
G1 X3.66 Y-41.84 F6000
G1 Z0.300 F420
G1 E81.3521 F1800
G1 X3.53 Y-40.35 E81.4457 F600
G1 E78.1721 F2400
G1 Z0.500 F420
G1 X7.29 Y-41.36 F6000
G1 Z0.300 F420
G1 E81.4725 F1800
G1 X7.03 Y-39.88 E81.5660 F600
G1 E78.2925 F2400
G1 Z0.500 F420
G1 X10.87 Y-40.57 F6000
G1 Z0.300 F420
G1 E81.5929 F1800
G1 X10.48 Y-39.12 E81.6864 F600
G1 E78.4128 F2400
G1 Z0.500 F420
G1 X14.36 Y-39.47 F6000
G1 Z0.300 F420
G1 E81.7132 F1800
G1 X13.85 Y-38.06 E81.8068 F600
G1 E78.5332 F2400
G1 Z0.500 F420
G1 X17.75 Y-38.06 F6000
G1 Z0.300 F420
G1 E81.8336 F1800
G1 X17.12 Y-36.71 E81.9271 F600
G1 E78.6536 F2400
G1 Z0.500 F420
G1 X21.00 Y-36.37 F6000
G1 Z0.300 F420
G1 E81.9712 F1800
G1 X19.50 Y-33.77 E82.1583 F600
G1 E78.8681 F2400
G1 Z0.500 F420
G1 X24.09 Y-34.40 F6000
G1 Z0.300 F420
G1 E82.1685 F1800
G1 X23.23 Y-33.18 E82.2620 F600
G1 E78.9885 F2400
G1 Z0.500 F420
G1 X27.00 Y-32.17 F6000
G1 Z0.300 F420
G1 E82.2889 F1800
G1 X26.03 Y-31.02 E82.3824 F600
G1 E79.1088 F2400
G1 Z0.500 F420
G1 X29.70 Y-29.70 F6000
G1 Z0.300 F420
G1 E82.4092 F1800
G1 X28.64 Y-28.64 E82.5028 F600
G1 E79.2292 F2400
G1 Z0.500 F420
G1 X32.17 Y-27.00 F6000
G1 Z0.300 F420
G1 E82.5296 F1800
G1 X31.02 Y-26.03 E82.6231 F600
G1 E79.3496 F2400
G1 Z0.500 F420
G1 X34.40 Y-24.09 F6000
G1 Z0.300 F420
G1 E82.6500 F1800
G1 X33.18 Y-23.23 E82.7435 F600
G1 E79.4699 F2400
G1 Z0.500 F420
G1 X36.37 Y-21.00 F6000
G1 Z0.300 F420
G1 E82.7875 F1800
G1 X33.77 Y-19.50 E82.9746 F600
G1 E79.6844 F2400
G1 Z0.500 F420
G1 X38.06 Y-17.75 F6000
G1 Z0.300 F420
G1 E82.9849 F1800
G1 X36.71 Y-17.12 E83.0784 F600
G1 E79.8048 F2400
G1 Z0.500 F420
G1 X39.47 Y-14.36 F6000
G1 Z0.300 F420
G1 E83.1052 F1800
G1 X38.06 Y-13.85 E83.1988 F600
G1 E79.9252 F2400
G1 Z0.500 F420
G1 X40.57 Y-10.87 F6000
G1 Z0.300 F420
G1 E83.2256 F1800
G1 X39.12 Y-10.48 E83.3191 F600
G1 E80.0456 F2400
G1 Z0.500 F420
G1 X41.36 Y-7.29 F6000
G1 Z0.300 F420
G1 E83.3460 F1800
G1 X39.88 Y-7.03 E83.4395 F600
G1 E80.1659 F2400
G1 Z0.500 F420
G1 X41.84 Y-3.66 F6000
G1 Z0.300 F420
G1 E83.4663 F1800
G1 X40.35 Y-3.53 E83.5599 F600
G1 E80.2863 F2400
G1 Z0.500 F420
;structure:shell-outer
G1 X70.00 Y0.00 F6000
G1 Z0.300 F420
G1 E83.6212 F1800
G1 X42.00 Y0.00 E85.3673 F600
G1 E82.0611 F2400
G1 Z0.500 F420
;structure:shell-outer
G1 X0.50 Y21.48 F6000
G1 Z0.300 F420
G1 E85.3906 F1800
G1 X0.50 Y24.88 E85.6027 F600
G1 X1.73 Y24.88 E85.6794
G1 X2.12 Y24.78 E85.7045
G1 X2.43 Y24.58 E85.7275
G1 X2.53 Y24.45 E85.7377
G1 X2.66 Y24.04 E85.7645
G1 X2.61 Y23.80 E85.7798
G1 X2.50 Y23.56 E85.7963
G1 X2.28 Y23.36 E85.8148
G1 X1.51 Y23.18 E85.8642
G1 E82.5628 F2400
G1 Z0.500 F420
G1 X0.50 Y23.18 F6000
G1 Z0.300 F420
G1 E85.8824 F1800
G1 X1.51 Y23.18 E85.9454 F600
G1 X2.02 Y23.00 E85.9791
G1 X2.41 Y22.38 E86.0248
G1 X2.66 Y21.48 E86.0830
G1 E82.7910 F2400
G1 Z0.500 F420
G1 X3.72 Y22.69 F6000
G1 Z0.300 F420
G1 E86.1223 F1800
G1 X5.86 Y22.69 E86.2557 F600
G1 X5.78 Y23.22 E86.2891
G1 X5.57 Y23.61 E86.3168
G1 X5.23 Y23.86 E86.3431
G1 X4.79 Y23.95 E86.3711
G1 X4.36 Y23.86 E86.3985
G1 X4.02 Y23.61 E86.4248
G1 X3.80 Y23.22 E86.4527
G1 X3.72 Y22.69 E86.4862
G1 X3.80 Y22.15 E86.5202
G1 X4.03 Y21.75 E86.5490
G1 X4.38 Y21.51 E86.5755
G1 X4.84 Y21.42 E86.6047
G1 X5.18 Y21.47 E86.6261
G1 X5.47 Y21.61 E86.6462
G1 X5.68 Y21.83 E86.6652
G1 X5.80 Y22.13 E86.6853
G1 E83.3825 F2400
G1 Z0.500 F420
G1 X6.92 Y23.26 F6000
G1 Z0.300 F420
G1 E86.6866 F1800
G1 X8.61 Y23.26 E86.7920 F600
G1 E83.5148 F2400
G1 Z0.500 F420
G1 X8.61 Y22.55 F6000
G1 Z0.300 F420
G1 E86.8189 F1800
G1 X6.92 Y22.55 E86.9243 F600
G1 E83.6472 F2400
G1 Z0.500 F420
G1 X9.67 Y24.44 F6000
G1 Z0.300 F420
G1 E86.9770 F1800
G1 X9.86 Y24.65 E86.9946 F600
G1 X10.09 Y24.81 E87.0121
G1 X10.35 Y24.90 E87.0292
G1 X10.63 Y24.94 E87.0469
G1 X11.00 Y24.88 E87.0703
G1 X11.30 Y24.68 E87.0927
G1 X11.49 Y24.39 E87.1144
G1 X11.56 Y24.02 E87.1379
G1 X11.46 Y23.63 E87.1630
G1 X11.18 Y23.27 E87.1914
G1 X10.40 Y22.64 E87.2539
G1 X10.10 Y22.23 E87.2856
G1 X9.71 Y21.48 E87.3384
G1 X11.53 Y21.48 E87.4519
G1 E84.1504 F2400
G1 Z0.500 F420
G1 X12.62 Y21.71 F6000
G1 Z0.300 F420
G1 E87.2563 F1800
G1 X12.62 Y21.65 E87.2600 F600
G1 E84.1757 F2400
G1 Z0.500 F420
G1 X15.73 Y24.17 F6000
G1 Z0.300 F420
G1 E87.5099 F1800
G1 X15.42 Y24.74 E87.5503 F600
G1 X14.83 Y24.94 E87.5892
G1 X14.32 Y24.82 E87.6219
G1 X13.97 Y24.47 E87.6527
G1 X13.76 Y23.87 E87.6924
G1 X13.69 Y23.05 E87.7437
G1 X13.76 Y22.36 E87.7870
G1 X13.98 Y21.84 E87.8222
G1 X14.32 Y21.53 E87.8509
G1 X14.79 Y21.42 E87.8810
G1 X15.24 Y21.51 E87.9096
G1 X15.56 Y21.76 E87.9349
G1 X15.74 Y22.13 E87.9606
G1 X15.81 Y22.56 E87.9878
G1 X15.74 Y22.96 E88.0131
G1 X15.55 Y23.31 E88.0379
G1 X15.24 Y23.54 E88.0620
G1 X14.84 Y23.62 E88.0874
G1 X14.38 Y23.53 E88.1167
G1 X13.96 Y23.28 E88.1472
G1 X13.69 Y23.05 E88.1693
G1 E84.8641 F2400
G1 Z0.500 F420
G1 X16.86 Y22.90 F6000
G1 Z0.300 F420
G1 E88.1713 F1800
G1 X18.73 Y22.90 E88.2879 F600
G1 E85.0079 F2400
G1 Z0.500 F420
G1 X19.84 Y24.13 F6000
G1 Z0.300 F420
G1 E88.3375 F1800
G1 X19.95 Y24.47 E88.3598 F600
G1 X20.16 Y24.73 E88.3807
G1 X20.45 Y24.89 E88.4013
G1 X20.79 Y24.94 E88.4228
G1 X21.18 Y24.87 E88.4475
G1 X21.47 Y24.68 E88.4691
G1 X21.65 Y24.41 E88.4893
G1 X21.72 Y24.06 E88.5116
G1 X21.65 Y23.85 E88.5254
G1 X21.51 Y23.68 E88.5391
G1 X21.14 Y23.45 E88.5663
G1 X20.70 Y23.30 E88.5953
G1 X21.14 Y23.18 E88.6237
G1 X21.50 Y23.02 E88.6483
G1 X21.79 Y22.74 E88.6734
G1 X21.89 Y22.45 E88.6926
G1 X21.82 Y22.03 E88.7191
G1 X21.59 Y21.70 E88.7442
G1 X21.25 Y21.50 E88.7688
G1 X20.83 Y21.42 E88.7955
G1 X20.43 Y21.48 E88.8207
G1 X20.11 Y21.65 E88.8433
G1 X19.89 Y21.92 E88.8650
G1 X19.79 Y22.28 E88.8883
G1 E85.5871 F2400
G1 Z0.500 F420
G1 X22.96 Y21.71 F6000
G1 Z0.300 F420
G1 E88.6930 F1800
G1 X22.96 Y21.65 E88.6967 F600
G1 E85.6124 F2400
G1 Z0.500 F420
G1 X26.06 Y24.17 F6000
G1 Z0.300 F420
G1 E88.9465 F1800
G1 X25.75 Y24.74 E88.9870 F600
G1 X25.16 Y24.94 E89.0259
G1 X24.65 Y24.82 E89.0585
G1 X24.30 Y24.47 E89.0894
G1 X24.09 Y23.87 E89.1291
G1 X24.02 Y23.05 E89.1804
G1 X24.09 Y22.36 E89.2236
G1 X24.31 Y21.84 E89.2589
G1 X24.65 Y21.53 E89.2875
G1 X25.12 Y21.42 E89.3177
G1 X25.57 Y21.51 E89.3463
G1 X25.89 Y21.76 E89.3716
G1 X26.07 Y22.13 E89.3973
G1 X26.14 Y22.56 E89.4244
G1 X26.07 Y22.96 E89.4498
G1 X25.88 Y23.31 E89.4746
G1 X25.57 Y23.54 E89.4987
G1 X25.17 Y23.62 E89.5241
G1 X24.71 Y23.53 E89.5533
G1 X24.29 Y23.28 E89.5838
G1 X24.02 Y23.05 E89.6060
G1 E86.3008 F2400
G1 Z0.500 F420
G1 X0.50 Y18.89 F6000
G1 Z0.300 F420
G1 E89.6273 F1800
G1 X1.36 Y16.48 E89.7869 F600
G1 X2.10 Y18.89 E89.9441
G1 X2.87 Y16.48 E90.1019
G1 X3.71 Y18.89 E90.2611
G1 E86.9625 F2400
G1 Z0.500 F420
G1 X4.77 Y18.26 F6000
G1 Z0.300 F420
G1 E90.2667 F1800
G1 X6.46 Y18.26 E90.3721 F600
G1 E87.0949 F2400
G1 Z0.500 F420
G1 X6.46 Y17.55 F6000
G1 Z0.300 F420
G1 E90.3991 F1800
G1 X4.77 Y17.55 E90.5045 F600
G1 E87.2272 F2400
G1 Z0.500 F420
G1 X8.74 Y19.94 F6000
G1 Z0.300 F420
G1 E90.5589 F1800
G1 X9.25 Y19.80 E90.5919 F600
G1 X9.64 Y19.42 E90.6258
G1 X9.88 Y18.86 E90.6638
G1 X9.96 Y18.18 E90.7065
G1 X9.88 Y17.51 E90.7486
G1 X9.64 Y16.95 E90.7866
G1 X9.25 Y16.56 E90.8210
G1 X8.74 Y16.42 E90.8540
G1 X8.22 Y16.56 E90.8876
G1 X7.84 Y16.95 E90.9215
G1 X7.60 Y17.51 E90.9595
G1 X7.52 Y18.18 E91.0016
G1 X7.60 Y18.85 E91.0437
G1 X7.84 Y19.42 E91.0823
G1 X8.22 Y19.80 E91.1158
G1 X8.74 Y19.94 E91.1494
G1 E87.8461 F2400
G1 Z0.500 F420
G1 X11.02 Y16.71 F6000
G1 Z0.300 F420
G1 E90.9520 F1800
G1 X11.02 Y16.65 E90.9558 F600
G1 E87.8715 F2400
G1 Z0.500 F420
G1 X12.14 Y19.13 F6000
G1 Z0.300 F420
G1 E91.2007 F1800
G1 X12.25 Y19.47 E91.2230 F600
G1 X12.46 Y19.73 E91.2439
G1 X12.75 Y19.89 E91.2645
G1 X13.09 Y19.94 E91.2860
G1 X13.48 Y19.87 E91.3107
G1 X13.77 Y19.68 E91.3323
G1 X13.95 Y19.41 E91.3525
G1 X14.02 Y19.06 E91.3748
G1 X13.95 Y18.85 E91.3886
G1 X13.81 Y18.68 E91.4023
G1 X13.44 Y18.45 E91.4295
G1 X13.00 Y18.30 E91.4585
G1 X13.44 Y18.18 E91.4869
G1 X13.80 Y18.02 E91.5115
G1 X14.09 Y17.74 E91.5367
G1 X14.19 Y17.45 E91.5558
G1 X14.12 Y17.03 E91.5823
G1 X13.89 Y16.70 E91.6074
G1 X13.55 Y16.50 E91.6320
G1 X13.12 Y16.42 E91.6593
G1 X12.73 Y16.48 E91.6839
G1 X12.41 Y16.65 E91.7065
G1 X12.19 Y16.92 E91.7282
G1 X12.09 Y17.28 E91.7515
G1 E88.4503 F2400
G1 Z0.500 F420
;structure:shell-inner
G1 X68.00 Y0.00 F6000
G1 Z0.300 F420
G1 E91.4503 F1800
G1 X67.71 Y5.92 E91.8202 F60
G1 X66.91 Y11.80
G1 X65.60 Y17.58
G1 X63.79 Y23.22 F300
G1 E94.4202 F1800
G1 X61.50 Y28.68 E94.6417 F1604
G1 X58.75 Y33.92 E94.8632
G1 X55.54 Y38.89 E95.0846
G1 X51.92 Y43.57 E95.3059
G1 X47.91 Y47.91 E95.5271
G1 X43.53 Y51.88 E95.7482
G1 X38.83 Y55.45 E95.9692
G1 X33.83 Y58.60 E96.1901
G1 X28.59 Y61.30 E96.4110
G1 X23.12 Y63.53 E96.6317
G1 X17.49 Y65.28 E96.8524
G1 X11.73 Y66.53 E97.0729
G1 X5.89 Y67.27 E97.2934
G1 X2.53 Y67.46 E97.4193
G1 E94.4193 F2400
G1 X-3.36 Y67.40 F300
G1 X-9.22 Y66.82
G1 X-15.00 Y65.74
G1 X-17.27 Y65.17
G1 E97.4193 F1800
G1 X-22.87 Y63.39 E97.7860 F60
G1 E95.2035 F2400
G1 Z0.500 F420
G1 X66.00 Y0.00 F6000
G1 Z0.300 F420
G1 E97.7035 F1800
G1 X65.72 Y5.75 E98.0625 F60
G1 X64.94 Y11.45
G1 X63.67 Y17.06
G1 X61.92 Y22.54 F300
G1 E100.8625 F1800
G1 X59.69 Y27.83 E101.0776 F1604
G1 X57.01 Y32.92 E101.2925
G1 X53.90 Y37.74 E101.5074
G1 X50.39 Y42.28 E101.7221
G1 X46.49 Y46.49 E101.9368
G1 X42.25 Y50.35 E102.1514
G1 X37.68 Y53.81 E102.3659
G1 X32.83 Y56.87 E102.5803
G1 X27.74 Y59.49 E102.7946
G1 X22.44 Y61.65 E103.0088
G1 X16.97 Y63.35 E103.2229
G1 X11.38 Y64.56 E103.4370
G1 X5.71 Y65.28 E103.6509
G1 X0.08 Y65.50 E103.8616
G1 E100.6616 F2400
G1 X-5.62 Y65.23 F300
G1 X-11.28 Y64.47
G1 X-16.85 Y63.21
G1 X-19.59 Y62.40
G1 E103.8616 F1800
G1 X-24.95 Y60.43 E104.2174 F60
G1 E101.6248 F2400
G1 Z0.500 F420
G1 X64.00 Y0.00 F6000
G1 Z0.300 F420
G1 E104.1248 F1800
G1 X63.73 Y5.58 E104.4729 F60
G1 X62.97 Y11.10
G1 X61.74 Y16.54
G1 X60.04 Y21.85 F300
G1 E107.4729 F1800
G1 X57.88 Y26.99 E107.6814 F1604
G1 X55.28 Y31.92 E107.8898
G1 X52.27 Y36.60 E108.0981
G1 X48.86 Y41.00 E108.3064
G1 X45.08 Y45.08 E108.5145
G1 X40.96 Y48.81 E108.7226
G1 X36.53 Y52.18 E108.9305
G1 X31.83 Y55.14 E109.1384
G1 X26.89 Y57.68 E109.3462
G1 X21.76 Y59.77 E109.5539
G1 X16.46 Y61.42 E109.7615
G1 X11.04 Y62.59 E109.9690
G1 X5.54 Y63.29 E110.1764
G1 X0.00 Y63.50 E110.3837
G1 X-2.36 Y63.44 E110.4720
G1 E107.0720 F2400
G1 X-7.87 Y62.97 F300
G1 X-13.33 Y62.02
G1 X-18.67 Y60.59
G1 X-21.88 Y59.49
G1 E110.4720 F1800
G1 X-26.97 Y57.33 E110.8168 F60
G1 E108.2235 F2400
G1 Z0.500 F420
G1 X62.00 Y0.00 F6000
G1 Z0.300 F420
G1 E110.7235 F1800
G1 X61.74 Y5.40 E111.0607 F60
G1 X61.00 Y10.76
G1 X59.81 Y16.03
G1 X58.16 Y21.17 F300
G1 E114.2607 F1800
G1 X56.07 Y26.14 E114.4627 F1604
G1 X53.55 Y30.92 E114.6646
G1 X50.63 Y35.45 E114.8664
G1 X47.32 Y39.71 E115.0681
G1 X43.66 Y43.66 E115.2697
G1 X39.67 Y47.28 E115.4713
G1 X35.39 Y50.54 E115.6727
G1 X30.83 Y53.40 E115.8740
G1 X26.05 Y55.86 E116.0753
G1 X21.07 Y57.90 E116.2764
G1 X15.94 Y59.48 E116.4775
G1 X10.69 Y60.62 E116.6785
G1 X5.36 Y61.29 E116.8794
G1 X0.00 Y61.50 E117.0802
G1 X-4.80 Y61.29 E117.2598
G1 E113.6598 F2400
G1 X-10.11 Y60.61 F300
G1 X-15.35 Y59.47
G1 X-20.47 Y57.88
G1 X-24.11 Y56.44
G1 E117.2598 F1800
G1 X-28.92 Y54.10 E117.5937 F60
G1 E114.9886 F2400
G1 Z0.500 F420
G1 X60.00 Y0.00 F6000
G1 Z0.300 F420
G1 E117.4886 F1800
G1 X59.74 Y5.23 E117.8149 F60
G1 X59.03 Y10.41
G1 X57.88 Y15.51
G1 X56.28 Y20.48 F300
G1 E121.2149 F1800
G1 X54.25 Y25.30 E121.4104 F1604
G1 X51.82 Y29.92 E121.6057
G1 X48.99 Y34.30 E121.8010
G1 X45.79 Y38.42 E121.9962
G1 X42.25 Y42.25 E122.1913
G1 X38.39 Y45.75 E122.3863
G1 X34.24 Y48.90 E122.5812
G1 X29.83 Y51.67 E122.7760
G1 X25.20 Y54.05 E122.9707
G1 X20.39 Y56.02 E123.1654
G1 X15.42 Y57.55 E123.3599
G1 X10.34 Y58.65 E123.5544
G1 X5.19 Y59.30 E123.7487
G1 X-0.00 Y59.50 E123.9430
G1 X-5.18 Y59.25 E124.1372
G1 X-7.23 Y59.02 E124.2140
G1 E120.4140 F2400
G1 X-12.34 Y58.14 F300
G1 X-17.35 Y56.82
G1 X-22.22 Y55.06
G1 X-26.27 Y53.22
G1 E124.2140 F1800
G1 X-30.79 Y50.71 E124.5369 F60
G1 E121.9314 F2400
G1 Z0.500 F420
G1 X58.00 Y0.00 F6000
G1 Z0.300 F420
G1 E124.4314 F1800
G1 X57.75 Y5.05 E124.7469 F60
G1 X57.06 Y10.06
G1 X55.94 Y14.99
G1 X54.40 Y19.80 F300
G1 E128.3469 F1800
G1 X52.44 Y24.45 E128.5358 F1604
G1 X50.09 Y28.92 E128.7247
G1 X47.35 Y33.16 E128.9134
G1 X44.26 Y37.14 E129.1020
G1 X40.84 Y40.84 E129.2906
G1 X37.10 Y44.22 E129.4791
G1 X33.09 Y47.26 E129.6675
G1 X28.83 Y49.94 E129.8557
G1 X24.36 Y52.24 E130.0439
G1 X19.70 Y54.14 E130.2320
G1 X14.90 Y55.62 E130.4201
G1 X9.99 Y56.68 E130.6080
G1 X5.01 Y57.31 E130.7958
G1 X0.00 Y57.50 E130.9836
G1 X-5.01 Y57.25 E131.1712
G1 X-9.64 Y56.63 E131.3460
G1 E127.3460 F2400
G1 X-14.53 Y55.55 F300
G1 X-19.31 Y54.05
G1 X-23.93 Y52.13
G1 X-28.34 Y49.84
G1 E131.3460 F1800
G1 X-32.56 Y47.16 E131.6579 F60
G1 E129.0396 F2400
G1 Z0.500 F420
;structure:shell-outer
G1 X-29.50 Y21.48 F6000
G1 Z0.300 F420
G1 E131.8004 F1800
G1 X-29.50 Y24.88 E132.0125 F600
G1 X-28.27 Y24.88 E132.0892
G1 X-27.88 Y24.78 E132.1143
G1 X-27.57 Y24.58 E132.1373
G1 X-27.47 Y24.45 E132.1475
G1 X-27.34 Y24.04 E132.1743
G1 X-27.39 Y23.80 E132.1896
G1 X-27.50 Y23.56 E132.2061
G1 X-27.72 Y23.36 E132.2246
G1 X-28.49 Y23.18 E132.2739
G1 E128.9725 F2400
G1 Z0.500 F420
G1 X-29.50 Y23.18 F6000
G1 Z0.300 F420
G1 E132.2921 F1800
G1 X-28.49 Y23.18 E132.3551 F600
G1 X-27.98 Y23.00 E132.3889
G1 X-27.59 Y22.38 E132.4345
G1 X-27.34 Y21.48 E132.4928
G1 E129.2008 F2400
G1 Z0.500 F420
G1 X-26.28 Y22.69 F6000
G1 Z0.300 F420
G1 E132.5320 F1800
G1 X-24.14 Y22.69 E132.6655 F600
G1 X-24.22 Y23.22 E132.6989
G1 X-24.43 Y23.61 E132.7265
G1 X-24.77 Y23.86 E132.7529
G1 X-25.21 Y23.95 E132.7809
G1 X-25.64 Y23.86 E132.8083
G1 X-25.98 Y23.61 E132.8346
G1 X-26.20 Y23.22 E132.8625
G1 X-26.28 Y22.69 E132.8959
G1 X-26.20 Y22.15 E132.9300
G1 X-25.97 Y21.75 E132.9588
G1 X-25.62 Y21.51 E132.9852
G1 X-25.16 Y21.42 E133.0145
G1 X-24.82 Y21.47 E133.0359
G1 X-24.53 Y21.61 E133.0560
G1 X-24.32 Y21.83 E133.0749
G1 X-24.20 Y22.13 E133.0951
G1 E129.7922 F2400
G1 Z0.500 F420
G1 X-23.08 Y23.26 F6000
G1 Z0.300 F420
G1 E133.0964 F1800
G1 X-21.39 Y23.26 E133.2018 F600
G1 E129.9246 F2400
G1 Z0.500 F420
G1 X-21.39 Y22.55 F6000
G1 Z0.300 F420
G1 E133.2287 F1800
G1 X-23.08 Y22.55 E133.3341 F600
G1 E130.0570 F2400
G1 Z0.500 F420
G1 X-20.33 Y24.44 F6000
G1 Z0.300 F420
G1 E133.3867 F1800
G1 X-20.14 Y24.65 E133.4044 F600
G1 X-19.91 Y24.81 E133.4219
G1 X-19.65 Y24.90 E133.4390
G1 X-19.37 Y24.94 E133.4567
G1 X-19.00 Y24.88 E133.4800
G1 X-18.70 Y24.68 E133.5025
G1 X-18.51 Y24.39 E133.5241
G1 X-18.44 Y24.02 E133.5476
G1 X-18.54 Y23.63 E133.5727
G1 X-18.82 Y23.27 E133.6012
G1 X-19.60 Y22.64 E133.6637
G1 X-19.90 Y22.23 E133.6954
G1 X-20.29 Y21.48 E133.7481
G1 X-18.47 Y21.48 E133.8616
G1 E130.5602 F2400
G1 Z0.500 F420
G1 X-17.38 Y21.71 F6000
G1 Z0.300 F420
G1 E133.6661 F1800
G1 X-17.38 Y21.65 E133.6698 F600
G1 E130.5855 F2400
G1 Z0.500 F420
G1 X-15.29 Y24.92 F6000
G1 Z0.300 F420
G1 E133.9199 F1800
G1 X-14.93 Y24.86 E133.9426 F600
G1 X-14.65 Y24.71 E133.9625
G1 X-14.46 Y24.46 E133.9820
G1 X-14.39 Y24.11 E134.0043
G1 X-14.53 Y23.66 E134.0337
G1 X-14.82 Y23.40 E134.0580
G1 X-15.75 Y23.12 E134.1186
G1 X-16.14 Y22.84 E134.1485
G1 X-16.31 Y22.35 E134.1808
G1 X-16.23 Y21.95 E134.2063
G1 X-16.02 Y21.66 E134.2286
G1 X-15.69 Y21.48 E134.2521
G1 X-15.29 Y21.42 E134.2773
G1 X-14.88 Y21.48 E134.3031
G1 X-14.55 Y21.66 E134.3266
G1 X-14.34 Y21.95 E134.3489
G1 X-14.26 Y22.35 E134.3743
G1 X-14.43 Y22.84 E134.4067
G1 X-14.82 Y23.12 E134.4366
G1 X-15.75 Y23.40 E134.4972
G1 X-16.04 Y23.66 E134.5215
G1 X-16.18 Y24.11 E134.5509
G1 X-16.11 Y24.46 E134.5732
G1 X-15.92 Y24.71 E134.5927
G1 X-15.64 Y24.86 E134.6125
G1 X-15.29 Y24.92 E134.6347
G1 E131.3293 F2400
G1 Z0.500 F420
G1 X-13.20 Y22.90 F6000
G1 Z0.300 F420
G1 E134.6365 F1800
G1 X-11.33 Y22.90 E134.7531 F600
G1 E131.4731 F2400
G1 Z0.500 F420
G1 X-10.22 Y24.13 F6000
G1 Z0.300 F420
G1 E134.8027 F1800
G1 X-10.11 Y24.47 E134.8250 F600
G1 X-9.90 Y24.73 E134.8459
G1 X-9.61 Y24.89 E134.8665
G1 X-9.27 Y24.94 E134.8880
G1 X-8.88 Y24.87 E134.9127
G1 X-8.59 Y24.68 E134.9343
G1 X-8.41 Y24.41 E134.9545
G1 X-8.34 Y24.06 E134.9768
G1 X-8.41 Y23.85 E134.9906
G1 X-8.55 Y23.68 E135.0043
G1 X-8.92 Y23.45 E135.0315
G1 X-9.36 Y23.30 E135.0605
G1 X-8.92 Y23.18 E135.0889
G1 X-8.56 Y23.02 E135.1135
G1 X-8.27 Y22.74 E135.1386
G1 X-8.17 Y22.45 E135.1578
G1 X-8.24 Y22.03 E135.1843
G1 X-8.47 Y21.70 E135.2094
G1 X-8.81 Y21.50 E135.2340
G1 X-9.23 Y21.42 E135.2607
G1 X-9.63 Y21.48 E135.2859
G1 X-9.95 Y21.65 E135.3085
G1 X-10.17 Y21.92 E135.3302
G1 X-10.27 Y22.28 E135.3535
G1 E132.0523 F2400
G1 Z0.500 F420
G1 X-7.11 Y21.71 F6000
G1 Z0.300 F420
G1 E135.1582 F1800
G1 X-7.11 Y21.65 E135.1619 F600
G1 E132.0776 F2400
G1 Z0.500 F420
G1 X-5.02 Y24.92 F6000
G1 Z0.300 F420
G1 E135.4120 F1800
G1 X-4.66 Y24.86 E135.4347 F600
G1 X-4.38 Y24.71 E135.4546
G1 X-4.19 Y24.46 E135.4741
G1 X-4.12 Y24.11 E135.4964
G1 X-4.26 Y23.66 E135.5258
G1 X-4.55 Y23.40 E135.5501
G1 X-5.48 Y23.12 E135.6107
G1 X-5.87 Y22.84 E135.6406
G1 X-6.04 Y22.35 E135.6729
G1 X-5.96 Y21.95 E135.6984
G1 X-5.75 Y21.66 E135.7207
G1 X-5.42 Y21.48 E135.7442
G1 X-5.02 Y21.42 E135.7694
G1 X-4.61 Y21.48 E135.7952
G1 X-4.28 Y21.66 E135.8187
G1 X-4.07 Y21.95 E135.8410
G1 X-3.99 Y22.35 E135.8664
G1 X-4.16 Y22.84 E135.8988
G1 X-4.55 Y23.12 E135.9287
G1 X-5.48 Y23.40 E135.9893
G1 X-5.77 Y23.66 E136.0136
G1 X-5.91 Y24.11 E136.0430
G1 X-5.84 Y24.46 E136.0653
G1 X-5.65 Y24.71 E136.0848
G1 X-5.37 Y24.86 E136.1046
G1 X-5.02 Y24.92 E136.1268
G1 E132.8214 F2400
G1 Z0.500 F420
G1 X-29.50 Y18.89 F6000
G1 Z0.300 F420
G1 E136.1479 F1800
G1 X-28.64 Y16.48 E136.3075 F600
G1 X-27.90 Y18.89 E136.4647
G1 X-27.13 Y16.48 E136.6225
G1 X-26.29 Y18.89 E136.7817
G1 E133.4831 F2400
G1 Z0.500 F420
G1 X-25.23 Y18.26 F6000
G1 Z0.300 F420
G1 E136.7874 F1800
G1 X-23.54 Y18.26 E136.8928 F600
G1 E133.6155 F2400
G1 Z0.500 F420
G1 X-23.54 Y17.55 F6000
G1 Z0.300 F420
G1 E136.9197 F1800
G1 X-25.23 Y17.55 E137.0251 F600
G1 E133.7479 F2400
G1 Z0.500 F420
G1 X-21.26 Y19.94 F6000
G1 Z0.300 F420
G1 E137.0795 F1800
G1 X-20.75 Y19.80 E137.1125 F600
G1 X-20.36 Y19.42 E137.1465
G1 X-20.12 Y18.86 E137.1845
G1 X-20.04 Y18.18 E137.2272
G1 X-20.12 Y17.51 E137.2692
G1 X-20.36 Y16.95 E137.3072
G1 X-20.75 Y16.56 E137.3416
G1 X-21.26 Y16.42 E137.3746
G1 X-21.78 Y16.56 E137.4082
G1 X-22.16 Y16.95 E137.4422
G1 X-22.40 Y17.51 E137.4802
G1 X-22.48 Y18.18 E137.5222
G1 X-22.40 Y18.85 E137.5643
G1 X-22.16 Y19.42 E137.6029
G1 X-21.78 Y19.80 E137.6364
G1 X-21.26 Y19.94 E137.6700
G1 E134.3668 F2400
G1 Z0.500 F420
G1 X-18.98 Y16.71 F6000
G1 Z0.300 F420
G1 E137.4727 F1800
G1 X-18.98 Y16.65 E137.4764 F600
G1 E134.3921 F2400
G1 Z0.500 F420
G1 X-16.20 Y16.48 F6000
G1 Z0.300 F420
G1 E137.7190 F1800
G1 X-16.20 Y19.88 E137.9311 F600
G1 X-17.91 Y17.65 E138.1063
G1 X-15.60 Y17.65 E138.2504
G1 E134.9510 F2400
G1 Z0.500 F420
;structure:shell-inner
G1 X56.00 Y0.00 F6000
G1 Z0.300 F420
G1 E137.9510 F1800
G1 X55.76 Y4.88 E138.2556 F60
G1 X55.09 Y9.71
G1 X54.01 Y14.47
G1 X52.52 Y19.12 F300
G1 E141.0556 F1800
G1 X50.63 Y23.61 E141.2988 F1203
G1 X48.35 Y27.92 E141.5418
G1 X45.71 Y32.01 E141.7848
G1 X42.73 Y35.85 E142.0276
G1 X39.42 Y39.42 E142.2703
G1 X35.82 Y42.69 E142.5129
G1 X31.95 Y45.62 E142.7554
G1 X27.83 Y48.21 E142.9977
G1 X23.51 Y50.43 E143.2400
G1 X19.02 Y52.26 E143.4821
G1 X14.39 Y53.69 E143.7240
G1 X9.65 Y54.71 E143.9659
G1 X7.89 Y54.98 E144.0547
G1 E140.8547 F2400
G1 X3.06 Y55.43 F300
G1 X-1.78 Y55.46
G1 X-6.60 Y55.07
G1 X-11.37 Y54.26
G1 X-11.99 Y54.12
G1 E144.0547 F1800
G1 X-16.65 Y52.84 E144.3562 F60
G1 E141.5656 F2400
G1 Z0.500 F420
G1 X54.00 Y0.00 F6000
G1 Z0.300 F420
G1 E144.0656 F1800
G1 X53.77 Y4.70 E144.3593 F60
G1 X53.12 Y9.37
G1 X52.08 Y13.95
G1 X50.64 Y18.43 F300
G1 E147.3593 F1800
G1 X48.81 Y22.76 E147.5938 F1203
G1 X46.62 Y26.92 E147.8281
G1 X44.07 Y30.86 E148.0624
G1 X41.20 Y34.57 E148.2965
G1 X38.01 Y38.01 E148.5305
G1 X34.53 Y41.15 E148.7644
G1 X30.80 Y43.98 E148.9981
G1 X26.83 Y46.48 E149.2318
G1 X22.67 Y48.61 E149.4653
G1 X18.34 Y50.38 E149.6987
G1 X13.87 Y51.76 E149.9320
G1 X9.30 Y52.74 E150.1651
G1 X5.46 Y53.25 E150.3584
G1 E146.9584 F2400
G1 X0.80 Y53.50 F300
G1 X-3.87 Y53.34
G1 X-8.50 Y52.77
G1 X-13.06 Y51.80
G1 X-14.34 Y51.45
G1 E150.3584 F1800
G1 X-18.76 Y49.98 E150.6489 F60
G1 E147.8403 F2400
G1 Z0.500 F420
G1 X52.00 Y0.00 F6000
G1 Z0.300 F420
G1 E150.3403 F1800
G1 X51.77 Y4.53 E150.6232 F60
G1 X51.16 Y9.02
G1 X50.15 Y13.44
G1 X48.76 Y17.75 F300
G1 E153.8232 F1800
G1 X47.00 Y21.92 E154.0490 F1203
G1 X44.89 Y25.92 E154.2746
G1 X42.44 Y29.71 E154.5002
G1 X39.66 Y33.28 E154.7256
G1 X36.59 Y36.59 E154.9509
G1 X33.25 Y39.62 E155.1761
G1 X29.65 Y42.35 E155.4011
G1 X25.83 Y44.74 E155.6261
G1 X21.82 Y46.80 E155.8509
G1 X17.65 Y48.50 E156.0756
G1 X13.35 Y49.83 E156.3001
G1 X8.95 Y50.77 E156.5246
G1 X4.49 Y51.33 E156.7489
G1 X3.02 Y51.43 E156.8223
G1 E153.2223 F2400
G1 X-1.47 Y51.47 F300
G1 X-5.95 Y51.12
G1 X-10.37 Y50.38
G1 X-14.72 Y49.26
G1 X-16.65 Y48.62
G1 E156.8223 F1800
G1 X-20.82 Y46.96 E157.1018 F60
G1 E154.2823 F2400
G1 Z0.500 F420
G1 X50.00 Y0.00 F6000
G1 Z0.300 F420
G1 E156.7823 F1800
G1 X49.78 Y4.36 E157.0543 F60
G1 X49.19 Y8.67
G1 X48.22 Y12.92
G1 X46.88 Y17.06 F300
G1 E160.4543 F1800
G1 X45.19 Y21.07 E160.6714 F1203
G1 X43.16 Y24.92 E160.8883
G1 X40.80 Y28.57 E161.1052
G1 X38.13 Y32.00 E161.3219
G1 X35.18 Y35.18 E161.5385
G1 X31.96 Y38.09 E161.7550
G1 X28.50 Y40.71 E161.9713
G1 X24.83 Y43.01 E162.1875
G1 X20.98 Y44.99 E162.4037
G1 X16.97 Y46.62 E162.6196
G1 X12.83 Y47.89 E162.8355
G1 X8.61 Y48.80 E163.0513
G1 X4.32 Y49.34 E163.2669
G1 X0.58 Y49.50 E163.4534
G1 E159.6534 F2400
G1 X-3.73 Y49.33 F300
G1 X-8.01 Y48.79
G1 X-12.23 Y47.88
G1 X-16.35 Y46.61
G1 X-18.90 Y45.61
G1 E163.4534 F1800
G1 X-22.79 Y43.77 E163.7220 F60
G1 E160.8834 F2400
G1 Z0.500 F420
G1 X48.00 Y0.00 F6000
G1 Z0.300 F420
G1 E163.3834 F1800
G1 X47.79 Y4.18 E163.6444 F60
G1 X47.22 Y8.33
G1 X46.28 Y12.40
G1 X45.00 Y16.38 F300
G1 E167.2444 F1800
G1 X43.38 Y20.23 E167.4528 F1203
G1 X41.42 Y23.92 E167.6611
G1 X39.16 Y27.42 E167.8692
G1 X36.60 Y30.71 E168.0772
G1 X33.76 Y33.76 E168.2851
G1 X30.68 Y36.56 E168.4929
G1 X27.36 Y39.07 E168.7005
G1 X23.83 Y41.28 E168.9080
G1 X20.13 Y43.18 E169.1155
G1 X16.28 Y44.74 E169.3227
G1 X12.32 Y45.96 E169.5299
G1 X8.26 Y46.83 E169.7369
G1 X4.14 Y47.35 E169.9439
G1 X-0.00 Y47.50 E170.1507
G1 X-1.86 Y47.45 E170.2436
G1 E166.2436 F2400
G1 X-5.99 Y47.08 F300
G1 X-10.06 Y46.35
G1 X-14.05 Y45.27
G1 X-17.94 Y43.85
G1 X-21.06 Y42.41
G1 E170.2436 F1800
G1 X-24.67 Y40.39 E170.5011 F60
G1 E167.6507 F2400
G1 Z0.500 F420
G1 X46.00 Y0.00 F6000
G1 Z0.300 F420
G1 E170.1507 F1800
G1 X45.80 Y4.01 E170.4009 F60
G1 X45.25 Y7.98
G1 X44.35 Y11.88
G1 X43.12 Y15.69 F300
G1 E174.2009 F1800
G1 X41.56 Y19.38 E174.4006 F1203
G1 X39.69 Y22.92 E174.6001
G1 X37.52 Y26.27 E174.7995
G1 X35.07 Y29.43 E174.9988
G1 X32.35 Y32.35 E175.1980
G1 X29.39 Y35.03 E175.3971
G1 X26.21 Y37.43 E175.5960
G1 X22.83 Y39.55 E175.7949
G1 X19.29 Y41.36 E175.9936
G1 X15.60 Y42.86 E176.1921
G1 X11.80 Y44.03 E176.3906
G1 X7.91 Y44.86 E176.5889
G1 X3.97 Y45.35 E176.7872
G1 X-0.00 Y45.50 E176.9853
G1 X-3.96 Y45.30 E177.1832
G1 X-4.30 Y45.27 E177.2000
G1 E173.0000 F2400
G1 X-8.22 Y44.69 F300
G1 X-12.08 Y43.78
G1 X-15.84 Y42.53
G1 X-19.47 Y40.97
G1 X-22.96 Y39.09
G1 X-23.12 Y38.99
G1 E177.2000 F1800
G1 X-26.41 Y36.81 E177.4466 F60
G1 E174.5836 F2400
G1 Z0.500 F420
;structure:shell-outer
G1 X-70.00 Y0.00 F6000
G1 Z0.300 F420
G1 E177.3509 F1800
G1 X-42.00 Y0.00 E179.0971 F600
G1 E175.7909 F2400
G1 Z0.500 F420
;structure:shell-outer
G1 X-29.50 Y-3.52 F6000
G1 Z0.300 F420
G1 E179.1204 F1800
G1 X-29.50 Y-0.12 E179.3324 F600
G1 X-28.27 Y-0.12 E179.4091
G1 X-27.88 Y-0.22 E179.4342
G1 X-27.57 Y-0.42 E179.4572
G1 X-27.47 Y-0.55 E179.4675
G1 X-27.34 Y-0.96 E179.4943
G1 X-27.39 Y-1.20 E179.5096
G1 X-27.50 Y-1.44 E179.5260
G1 X-27.72 Y-1.64 E179.5446
G1 X-28.49 Y-1.82 E179.5939
G1 E176.2925 F2400
G1 Z0.500 F420
G1 X-29.50 Y-1.82 F6000
G1 Z0.300 F420
G1 E179.6121 F1800
G1 X-28.49 Y-1.82 E179.6751 F600
G1 X-27.98 Y-2.00 E179.7088
G1 X-27.59 Y-2.62 E179.7545
G1 X-27.34 Y-3.52 E179.8128
G1 E176.5208 F2400
G1 Z0.500 F420
G1 X-26.28 Y-2.31 F6000
G1 Z0.300 F420
G1 E179.8520 F1800
G1 X-24.14 Y-2.31 E179.9855 F600
G1 X-24.22 Y-1.78 E180.0189
G1 X-24.43 Y-1.39 E180.0465
G1 X-24.77 Y-1.14 E180.0728
G1 X-25.21 Y-1.05 E180.1008
G1 X-25.64 Y-1.14 E180.1282
G1 X-25.98 Y-1.39 E180.1545
G1 X-26.20 Y-1.78 E180.1825
G1 X-26.28 Y-2.31 E180.2159
G1 X-26.20 Y-2.85 E180.2499
G1 X-25.97 Y-3.25 E180.2787
G1 X-25.62 Y-3.49 E180.3052
G1 X-25.16 Y-3.58 E180.3344
G1 X-24.82 Y-3.53 E180.3559
G1 X-24.53 Y-3.39 E180.3759
G1 X-24.32 Y-3.17 E180.3949
G1 X-24.20 Y-2.87 E180.4151
G1 E177.1122 F2400
G1 Z0.500 F420
G1 X-23.08 Y-1.74 F6000
G1 Z0.300 F420
G1 E180.4163 F1800
G1 X-21.39 Y-1.74 E180.5217 F600
G1 E177.2446 F2400
G1 Z0.500 F420
G1 X-21.39 Y-2.45 F6000
G1 Z0.300 F420
G1 E180.5487 F1800
G1 X-23.08 Y-2.45 E180.6541 F600
G1 E177.3769 F2400
G1 Z0.500 F420
G1 X-20.28 Y-0.87 F6000
G1 Z0.300 F420
G1 E180.7065 F1800
G1 X-20.17 Y-0.53 E180.7288 F600
G1 X-19.96 Y-0.27 E180.7496
G1 X-19.67 Y-0.11 E180.7703
G1 X-19.33 Y-0.06 E180.7917
G1 X-18.94 Y-0.13 E180.8164
G1 X-18.65 Y-0.32 E180.8380
G1 X-18.47 Y-0.59 E180.8582
G1 X-18.40 Y-0.94 E180.8805
G1 X-18.47 Y-1.15 E180.8943
G1 X-18.61 Y-1.32 E180.9080
G1 X-18.98 Y-1.55 E180.9352
G1 X-19.42 Y-1.70 E180.9642
G1 X-18.98 Y-1.82 E180.9926
G1 X-18.62 Y-1.98 E181.0172
G1 X-18.33 Y-2.26 E181.0424
G1 X-18.23 Y-2.55 E181.0615
G1 X-18.30 Y-2.97 E181.0880
G1 X-18.53 Y-3.30 E181.1131
G1 X-18.87 Y-3.50 E181.1377
G1 X-19.29 Y-3.58 E181.1644
G1 X-19.69 Y-3.52 E181.1896
G1 X-20.01 Y-3.35 E181.2122
G1 X-20.23 Y-3.08 E181.2339
G1 X-20.33 Y-2.72 E181.2572
G1 E177.9561 F2400
G1 Z0.500 F420
G1 X-17.16 Y-3.29 F6000
G1 Z0.300 F420
G1 E181.0617 F1800
G1 X-17.16 Y-3.35 E181.0654 F600
G1 E177.9814 F2400
G1 Z0.500 F420
G1 X-16.10 Y-0.56 F6000
G1 Z0.300 F420
G1 E181.3104 F1800
G1 X-15.91 Y-0.35 E181.3280 F600
G1 X-15.68 Y-0.19 E181.3455
G1 X-15.42 Y-0.10 E181.3626
G1 X-15.14 Y-0.06 E181.3803
G1 X-14.77 Y-0.12 E181.4036
G1 X-14.47 Y-0.32 E181.4261
G1 X-14.28 Y-0.61 E181.4477
G1 X-14.21 Y-0.98 E181.4712
G1 X-14.31 Y-1.37 E181.4963
G1 X-14.59 Y-1.73 E181.5248
G1 X-15.37 Y-2.36 E181.5873
G1 X-15.67 Y-2.77 E181.6189
G1 X-16.06 Y-3.52 E181.6717
G1 X-14.24 Y-3.52 E181.7851
G1 E178.4840 F2400
G1 Z0.500 F420
G1 X-13.15 Y-2.10 F6000
G1 Z0.300 F420
G1 E181.7908 F1800
G1 X-11.28 Y-2.10 E181.9074 F600
G1 E178.6277 F2400
G1 Z0.500 F420
G1 X-8.51 Y-3.52 F6000
G1 Z0.300 F420
G1 E181.9547 F1800
G1 X-8.51 Y-0.12 E182.1666 F600
G1 X-10.22 Y-2.35 E182.3419
G1 X-7.91 Y-2.35 E182.4859
G1 E179.1868 F2400
G1 Z0.500 F420
G1 X-6.84 Y-3.29 F6000
G1 Z0.300 F420
G1 E182.2924 F1800
G1 X-6.84 Y-3.35 E182.2962 F600
G1 E179.2121 F2400
G1 Z0.500 F420
G1 X-5.78 Y-0.56 F6000
G1 Z0.300 F420
G1 E182.5411 F1800
G1 X-5.59 Y-0.35 E182.5588 F600
G1 X-5.36 Y-0.19 E182.5762
G1 X-5.10 Y-0.10 E182.5934
G1 X-4.82 Y-0.06 E182.6110
G1 X-4.45 Y-0.12 E182.6344
G1 X-4.15 Y-0.32 E182.6569
G1 X-3.96 Y-0.61 E182.6785
G1 X-3.89 Y-0.98 E182.7020
G1 X-3.99 Y-1.37 E182.7271
G1 X-4.27 Y-1.73 E182.7555
G1 X-5.05 Y-2.36 E182.8180
G1 X-5.35 Y-2.77 E182.8497
G1 X-5.74 Y-3.52 E182.9024
G1 X-3.92 Y-3.52 E183.0159
G1 E179.7148 F2400
G1 Z0.500 F420
G1 X-29.50 Y-6.11 F6000
G1 Z0.300 F420
G1 E183.0409 F1800
G1 X-28.64 Y-8.52 E183.2004 F600
G1 X-27.90 Y-6.11 E183.3576
G1 X-27.13 Y-8.52 E183.5153
G1 X-26.29 Y-6.11 E183.6745
G1 E180.3763 F2400
G1 Z0.500 F420
G1 X-25.23 Y-6.74 F6000
G1 Z0.300 F420
G1 E183.6801 F1800
G1 X-23.54 Y-6.74 E183.7855 F600
G1 E180.5086 F2400
G1 Z0.500 F420
G1 X-23.54 Y-7.45 F6000
G1 Z0.300 F420
G1 E183.8124 F1800
G1 X-25.23 Y-7.45 E183.9178 F600
G1 E180.6409 F2400
G1 Z0.500 F420
G1 X-21.26 Y-5.06 F6000
G1 Z0.300 F420
G1 E183.9722 F1800
G1 X-20.75 Y-5.20 E184.0052 F600
G1 X-20.36 Y-5.58 E184.0392
G1 X-20.12 Y-6.14 E184.0771
G1 X-20.04 Y-6.82 E184.1198
G1 X-20.12 Y-7.49 E184.1619
G1 X-20.36 Y-8.05 E184.1999
G1 X-20.75 Y-8.44 E184.2343
G1 X-21.26 Y-8.58 E184.2673
G1 X-21.78 Y-8.44 E184.3008
G1 X-22.16 Y-8.05 E184.3348
G1 X-22.40 Y-7.49 E184.3728
G1 X-22.48 Y-6.82 E184.4148
G1 X-22.40 Y-6.15 E184.4569
G1 X-22.16 Y-5.58 E184.4955
G1 X-21.78 Y-5.20 E184.5290
G1 X-21.26 Y-5.06 E184.5626
G1 E181.2597 F2400
G1 Z0.500 F420
G1 X-18.98 Y-8.29 F6000
G1 Z0.300 F420
G1 E184.3653 F1800
G1 X-18.98 Y-8.35 E184.3690 F600
G1 E181.2850 F2400
G1 Z0.500 F420
G1 X-16.89 Y-5.08 F6000
G1 Z0.300 F420
G1 E184.6190 F1800
G1 X-16.54 Y-5.14 E184.6411 F600
G1 X-16.25 Y-5.29 E184.6615
G1 X-16.06 Y-5.54 E184.6810
G1 X-15.99 Y-5.89 E184.7033
G1 X-16.13 Y-6.34 E184.7327
G1 X-16.42 Y-6.60 E184.7570
G1 X-17.35 Y-6.88 E184.8175
G1 X-17.74 Y-7.16 E184.8474
G1 X-17.91 Y-7.65 E184.8798
G1 X-17.83 Y-8.05 E184.9052
G1 X-17.62 Y-8.34 E184.9275
G1 X-17.29 Y-8.52 E184.9510
G1 X-16.89 Y-8.58 E184.9762
G1 X-16.48 Y-8.52 E185.0020
G1 X-16.15 Y-8.34 E185.0255
G1 X-15.94 Y-8.05 E185.0478
G1 X-15.86 Y-7.65 E185.0732
G1 X-16.04 Y-7.16 E185.1058
G1 X-16.42 Y-6.88 E185.1352
G1 X-17.35 Y-6.60 E185.1958
G1 X-17.64 Y-6.34 E185.2200
G1 X-17.78 Y-5.89 E185.2494
G1 X-17.71 Y-5.54 E185.2717
G1 X-17.52 Y-5.29 E185.2912
G1 X-17.24 Y-5.14 E185.3111
G1 X-16.89 Y-5.08 E185.3332
G1 E182.0282 F2400
G1 Z0.500 F420
;structure:shell-inner
G1 X-68.00 Y0.00 F6000
G1 Z0.300 F420
G1 E185.0283 F1800
G1 X-67.71 Y-5.92 E185.3982 F60
G1 X-66.91 Y-11.80
G1 X-65.60 Y-17.58
G1 X-63.79 Y-23.22 F300
G1 E188.5982 F1800
G1 X-61.50 Y-28.68 E189.1890 F601
G1 X-58.75 Y-33.92 E189.7796
G1 X-55.54 Y-38.89 E190.3700
G1 X-51.92 Y-43.57 E190.9601
G1 X-47.91 Y-47.91 E191.5499
G1 X-47.57 Y-48.24 E191.5973
G1 E187.9973 F2400
G1 X-43.17 Y-52.18 F300
G1 X-38.44 Y-55.72
G1 X-33.42 Y-58.83
G1 X-31.42 Y-59.92
G1 E191.5973 F1800
G1 X-26.07 Y-62.40 E191.9653 F60
G1 E188.5255 F2400
G1 Z0.500 F420
G1 X-66.00 Y0.00 F6000
G1 Z0.300 F420
G1 E191.0255 F1800
G1 X-65.72 Y-5.75 E191.3845 F60
G1 X-64.94 Y-11.45
G1 X-63.67 Y-17.06
G1 X-61.92 Y-22.54 F300
G1 E194.7845 F1800
G1 X-59.69 Y-27.83 E195.3580 F601
G1 X-57.01 Y-32.92 E195.9312
G1 X-53.90 Y-37.74 E196.5041
G1 X-50.39 Y-42.28 E197.0768
G1 X-46.49 Y-46.49 E197.6493
G1 X-45.53 Y-47.43 E197.7837
G1 E193.9837 F2400
G1 X-41.20 Y-51.20 F300
G1 X-36.57 Y-54.57
G1 X-31.66 Y-57.52
G1 X-29.17 Y-58.81
G1 E197.7837 F1800
G1 X-23.92 Y-61.10 E198.1407 F60
G1 E194.6570 F2400
G1 Z0.500 F420
G1 X-64.00 Y0.00 F6000
G1 Z0.300 F420
G1 E197.1570 F1800
G1 X-63.73 Y-5.58 E197.5052 F60
G1 X-62.97 Y-11.10
G1 X-61.74 Y-16.54
G1 X-60.04 Y-21.85 F300
G1 E201.1052 F1800
G1 X-57.88 Y-26.99 E201.6612 F601
G1 X-55.28 Y-31.92 E202.2170
G1 X-52.27 Y-36.60 E202.7725
G1 X-48.86 Y-41.00 E203.3278
G1 X-45.08 Y-45.08 E203.8829
G1 X-43.47 Y-46.61 E204.1043
G1 E200.1043 F2400
G1 X-39.23 Y-50.20 F300
G1 X-34.69 Y-53.41
G1 X-29.89 Y-56.20
G1 X-26.91 Y-57.67
G1 E204.1043 F1800
G1 X-21.77 Y-59.77 E204.4505 F60
G1 E200.9231 F2400
G1 Z0.500 F420
G1 X-62.00 Y0.00 F6000
G1 Z0.300 F420
G1 E203.4231 F1800
G1 X-61.74 Y-5.40 E203.7603 F60
G1 X-61.00 Y-10.76
G1 X-59.81 Y-16.03
G1 X-58.16 Y-21.17 F300
G1 E207.5603 F1800
G1 X-56.07 Y-26.14 E208.0989 F601
G1 X-53.55 Y-30.92 E208.6373
G1 X-50.63 Y-35.45 E209.1754
G1 X-47.32 Y-39.71 E209.7133
G1 X-43.66 Y-43.66 E210.2510
G1 X-41.41 Y-45.78 E210.5595
G1 E206.3595 F2400
G1 X-37.25 Y-49.20 F300
G1 X-32.80 Y-52.23
G1 X-28.11 Y-54.87
G1 X-24.63 Y-56.50
G1 E210.5595 F1800
G1 X-19.60 Y-58.40 E210.8947 F60
G1 E207.3229 F2400
G1 Z0.500 F420
G1 X-60.00 Y0.00 F6000
G1 Z0.300 F420
G1 E209.8230 F1800
G1 X-59.74 Y-5.23 E210.1493 F60
G1 X-59.03 Y-10.41
G1 X-57.88 Y-15.51
G1 X-56.28 Y-20.48 F300
G1 E214.1493 F1800
G1 X-54.25 Y-25.30 E214.6705 F601
G1 X-51.82 Y-29.92 E215.1915
G1 X-48.99 Y-34.30 E215.7122
G1 X-45.79 Y-38.42 E216.2327
G1 X-42.25 Y-42.25 E216.7529
G1 X-39.34 Y-44.94 E217.1485
G1 E212.7485 F2400
G1 X-35.26 Y-48.18 F300
G1 X-30.91 Y-51.04
G1 X-26.33 Y-53.52
G1 X-22.33 Y-55.28
G1 E217.1485 F1800
G1 X-17.42 Y-56.99 E217.4728 F60
G1 E213.8558 F2400
G1 Z0.500 F420
G1 X-58.00 Y0.00 F6000
G1 Z0.300 F420
G1 E216.3559 F1800
G1 X-57.75 Y-5.05 E216.6713 F60
G1 X-57.06 Y-10.06
G1 X-55.94 Y-14.99
G1 X-54.40 Y-19.80 F300
G1 E220.8713 F1800
G1 X-52.44 Y-24.45 E221.3751 F601
G1 X-50.09 Y-28.92 E221.8787
G1 X-47.35 Y-33.16 E222.3820
G1 X-44.26 Y-37.14 E222.8851
G1 X-40.84 Y-40.84 E223.3879
G1 X-37.26 Y-44.09 E223.8705
G1 E219.2705 F2400
G1 X-33.26 Y-47.15 F300
G1 X-29.01 Y-49.84
G1 X-24.54 Y-52.15
G1 X-20.01 Y-54.02
G1 E223.8705 F1800
G1 X-15.22 Y-55.54 E224.1838 F60
G1 E220.5209 F2400
G1 Z0.500 F420
;structure:shell-outer
G1 X0.50 Y-3.52 F6000
G1 Z0.300 F420
G1 E223.3393 F1800
G1 X0.50 Y-0.12 E223.5513 F600
G1 X1.73 Y-0.12 E223.6280
G1 X2.12 Y-0.22 E223.6531
G1 X2.43 Y-0.42 E223.6761
G1 X2.53 Y-0.55 E223.6864
G1 X2.66 Y-0.96 E223.7132
G1 X2.61 Y-1.20 E223.7285
G1 X2.50 Y-1.44 E223.7449
G1 X2.28 Y-1.64 E223.7635
G1 X1.51 Y-1.82 E223.8128
G1 E220.5114 F2400
G1 Z0.500 F420
G1 X0.50 Y-1.82 F6000
G1 Z0.300 F420
G1 E223.8310 F1800
G1 X1.51 Y-1.82 E223.8940 F600
G1 X2.02 Y-2.00 E223.9277
G1 X2.41 Y-2.62 E223.9734
G1 X2.66 Y-3.52 E224.0317
G1 E220.7397 F2400
G1 Z0.500 F420
G1 X3.72 Y-2.31 F6000
G1 Z0.300 F420
G1 E224.0709 F1800
G1 X5.86 Y-2.31 E224.2044 F600
G1 X5.78 Y-1.78 E224.2378
G1 X5.57 Y-1.39 E224.2654
G1 X5.23 Y-1.14 E224.2917
G1 X4.79 Y-1.05 E224.3197
G1 X4.36 Y-1.14 E224.3471
G1 X4.02 Y-1.39 E224.3735
G1 X3.80 Y-1.78 E224.4014
G1 X3.72 Y-2.31 E224.4348
G1 X3.80 Y-2.85 E224.4689
G1 X4.03 Y-3.25 E224.4976
G1 X4.38 Y-3.49 E224.5241
G1 X4.84 Y-3.58 E224.5533
G1 X5.18 Y-3.53 E224.5748
G1 X5.47 Y-3.39 E224.5948
G1 X5.68 Y-3.17 E224.6138
G1 X5.80 Y-2.87 E224.6340
G1 E221.3311 F2400
G1 Z0.500 F420
G1 X6.92 Y-1.74 F6000
G1 Z0.300 F420
G1 E224.6352 F1800
G1 X8.61 Y-1.74 E224.7406 F600
G1 E221.4635 F2400
G1 Z0.500 F420
G1 X8.61 Y-2.45 F6000
G1 Z0.300 F420
G1 E224.7676 F1800
G1 X6.92 Y-2.45 E224.8730 F600
G1 E221.5958 F2400
G1 Z0.500 F420
G1 X9.72 Y-0.87 F6000
G1 Z0.300 F420
G1 E224.9254 F1800
G1 X9.83 Y-0.53 E224.9477 F600
G1 X10.04 Y-0.27 E224.9685
G1 X10.33 Y-0.11 E224.9892
G1 X10.67 Y-0.06 E225.0106
G1 X11.06 Y-0.13 E225.0353
G1 X11.35 Y-0.32 E225.0569
G1 X11.53 Y-0.59 E225.0772
G1 X11.60 Y-0.94 E225.0994
G1 X11.53 Y-1.15 E225.1132
G1 X11.39 Y-1.32 E225.1270
G1 X11.02 Y-1.55 E225.1541
G1 X10.58 Y-1.70 E225.1831
G1 X11.02 Y-1.82 E225.2116
G1 X11.38 Y-1.98 E225.2361
G1 X11.67 Y-2.26 E225.2613
G1 X11.77 Y-2.55 E225.2804
G1 X11.70 Y-2.97 E225.3070
G1 X11.47 Y-3.30 E225.3320
G1 X11.13 Y-3.50 E225.3566
G1 X10.71 Y-3.58 E225.3833
G1 X10.31 Y-3.52 E225.4085
G1 X9.99 Y-3.35 E225.4311
G1 X9.77 Y-3.08 E225.4528
G1 X9.67 Y-2.72 E225.4761
G1 E222.1750 F2400
G1 Z0.500 F420
G1 X12.84 Y-3.29 F6000
G1 Z0.300 F420
G1 E225.2806 F1800
G1 X12.84 Y-3.35 E225.2843 F600
G1 E222.2003 F2400
G1 Z0.500 F420
G1 X15.94 Y-0.83 F6000
G1 Z0.300 F420
G1 E225.5341 F1800
G1 X15.63 Y-0.26 E225.5745 F600
G1 X15.04 Y-0.06 E225.6134
G1 X14.53 Y-0.18 E225.6460
G1 X14.18 Y-0.53 E225.6769
G1 X13.97 Y-1.13 E225.7165
G1 X13.90 Y-1.95 E225.7678
G1 X13.97 Y-2.64 E225.8111
G1 X14.19 Y-3.16 E225.8463
G1 X14.53 Y-3.47 E225.8750
G1 X15.00 Y-3.58 E225.9051
G1 X15.45 Y-3.49 E225.9337
G1 X15.77 Y-3.24 E225.9590
G1 X15.95 Y-2.87 E225.9847
G1 X16.02 Y-2.44 E226.0118
G1 X15.95 Y-2.04 E226.0371
G1 X15.76 Y-1.69 E226.0620
G1 X15.45 Y-1.46 E226.0860
G1 X15.05 Y-1.38 E226.1115
G1 X14.59 Y-1.47 E226.1407
G1 X14.17 Y-1.72 E226.1712
G1 X13.90 Y-1.95 E226.1933
G1 E222.8885 F2400
G1 Z0.500 F420
G1 X17.08 Y-2.10 F6000
G1 Z0.300 F420
G1 E226.1953 F1800
G1 X18.95 Y-2.10 E226.3119 F600
G1 E223.0322 F2400
G1 Z0.500 F420
G1 X21.72 Y-3.52 F6000
G1 Z0.300 F420
G1 E226.3592 F1800
G1 X21.72 Y-0.12 E226.5712 F600
G1 X20.01 Y-2.35 E226.7465
G1 X22.32 Y-2.35 E226.8905
G1 E223.5914 F2400
G1 Z0.500 F420
G1 X23.38 Y-3.29 F6000
G1 Z0.300 F420
G1 E226.6969 F1800
G1 X23.38 Y-3.35 E226.7007 F600
G1 E223.6167 F2400
G1 Z0.500 F420
G1 X26.49 Y-0.83 F6000
G1 Z0.300 F420
G1 E226.9504 F1800
G1 X26.18 Y-0.26 E226.9909 F600
G1 X25.59 Y-0.06 E227.0297
G1 X25.08 Y-0.18 E227.0624
G1 X24.73 Y-0.53 E227.0933
G1 X24.52 Y-1.13 E227.1329
G1 X24.45 Y-1.95 E227.1842
G1 X24.52 Y-2.64 E227.2275
G1 X24.74 Y-3.16 E227.2627
G1 X25.08 Y-3.47 E227.2913
G1 X25.55 Y-3.58 E227.3214
G1 X26.00 Y-3.49 E227.3501
G1 X26.32 Y-3.24 E227.3754
G1 X26.50 Y-2.87 E227.4010
G1 X26.57 Y-2.44 E227.4282
G1 X26.50 Y-2.04 E227.4535
G1 X26.31 Y-1.69 E227.4783
G1 X26.00 Y-1.46 E227.5024
G1 X25.60 Y-1.38 E227.5279
G1 X25.14 Y-1.47 E227.5571
G1 X24.72 Y-1.72 E227.5876
G1 X24.45 Y-1.95 E227.6097
G1 E224.3049 F2400
G1 Z0.500 F420
G1 X0.50 Y-6.11 F6000
G1 Z0.300 F420
G1 E227.6311 F1800
G1 X1.36 Y-8.52 E227.7906 F600
G1 X2.10 Y-6.11 E227.9478
G1 X2.87 Y-8.52 E228.1056
G1 X3.71 Y-6.11 E228.2647
G1 E224.9664 F2400
G1 Z0.500 F420
G1 X4.77 Y-6.74 F6000
G1 Z0.300 F420
G1 E228.2704 F1800
G1 X6.46 Y-6.74 E228.3758 F600
G1 E225.0988 F2400
G1 Z0.500 F420
G1 X6.46 Y-7.45 F6000
G1 Z0.300 F420
G1 E228.4027 F1800
G1 X4.77 Y-7.45 E228.5081 F600
G1 E225.2311 F2400
G1 Z0.500 F420
G1 X7.52 Y-6.00 F6000
G1 Z0.300 F420
G1 E228.5531 F1800
G1 X7.99 Y-5.76 E228.5860 F600
G1 X8.36 Y-5.45 E228.6161
G1 X8.61 Y-5.12 E228.6419
G1 X8.61 Y-8.52 E228.8539
G1 E225.5596 F2400
G1 Z0.500 F420
G1 X9.67 Y-8.29 F6000
G1 Z0.300 F420
G1 E228.6652 F1800
G1 X9.67 Y-8.35 E228.6689 F600
G1 E225.5849 F2400
G1 Z0.500 F420
G1 X12.77 Y-5.83 F6000
G1 Z0.300 F420
G1 E228.9187 F1800
G1 X12.46 Y-5.26 E228.9591 F600
G1 X11.87 Y-5.06 E228.9980
G1 X11.36 Y-5.18 E229.0307
G1 X11.01 Y-5.53 E229.0615
G1 X10.80 Y-6.13 E229.1011
G1 X10.73 Y-6.95 E229.1525
G1 X10.80 Y-7.64 E229.1957
G1 X11.02 Y-8.16 E229.2309
G1 X11.36 Y-8.47 E229.2596
G1 X11.83 Y-8.58 E229.2897
G1 X12.28 Y-8.49 E229.3183
G1 X12.60 Y-8.24 E229.3436
G1 X12.78 Y-7.87 E229.3693
G1 X12.85 Y-7.44 E229.3964
G1 X12.78 Y-7.04 E229.4218
G1 X12.59 Y-6.69 E229.4466
G1 X12.28 Y-6.46 E229.4707
G1 X11.88 Y-6.38 E229.4961
G1 X11.42 Y-6.47 E229.5253
G1 X11.00 Y-6.72 E229.5558
G1 X10.73 Y-6.95 E229.5779
G1 E226.2731 F2400
G1 Z0.500 F420
;structure:shell-inner
G1 X-56.00 Y0.00 F6000
G1 Z0.300 F420
G1 E229.2732 F1800
G1 X-55.76 Y-4.88 E229.5778 F60
G1 X-55.09 Y-9.71
G1 X-54.01 Y-14.47
G1 X-52.52 Y-19.12 F300
G1 E233.1778 F1800
G1 X-50.63 Y-23.61 E234.1505 F301
G1 X-48.35 Y-27.92 E235.1228
G1 X-45.71 Y-32.01 E236.0946
G1 X-45.47 Y-32.34 E236.1769
G1 E232.1769 F2400
G1 X-42.46 Y-36.17 F300
G1 X-39.13 Y-39.71
G1 X-35.50 Y-42.95
G1 X-31.61 Y-45.86
G1 X-31.16 Y-46.16
G1 E236.1769 F1800
G1 X-27.00 Y-48.67 E236.4798 F60
G1 E232.0751 F2400
G1 Z0.500 F420
G1 X-54.00 Y0.00 F6000
G1 Z0.300 F420
G1 E234.5751 F1800
G1 X-53.77 Y-4.70 E234.8689 F60
G1 X-53.12 Y-9.37
G1 X-52.08 Y-13.95
G1 X-50.64 Y-18.43 F300
G1 E238.6689 F1800
G1 X-48.81 Y-22.76 E239.6068 F301
G1 X-46.62 Y-26.92 E240.5443
G1 X-44.07 Y-30.86 E241.4813
G1 X-43.53 Y-31.62 E241.6680
G1 E237.4680 F2400
G1 X-40.58 Y-35.28 F300
G1 X-37.34 Y-38.66
G1 X-33.81 Y-41.74
G1 X-30.03 Y-44.51
G1 X-28.99 Y-45.18
G1 E241.6680 F1800
G1 X-24.92 Y-47.51 E241.9600 F60
G1 E237.4743 F2400
G1 Z0.500 F420
G1 X-52.00 Y0.00 F6000
G1 Z0.300 F420
G1 E239.9744 F1800
G1 X-51.77 Y-4.53 E240.2572 F60
G1 X-51.16 Y-9.02
G1 X-50.15 Y-13.44
G1 X-48.76 Y-17.75 F300
G1 E244.2572 F1800
G1 X-47.00 Y-21.92 E245.1603 F301
G1 X-44.89 Y-25.92 E246.0630
G1 X-42.44 Y-29.71 E246.9651
G1 X-41.58 Y-30.89 E247.2564
G1 E242.8564 F2400
G1 X-38.70 Y-34.38 F300
G1 X-35.54 Y-37.60
G1 X-32.11 Y-40.54
G1 X-28.44 Y-43.16
G1 X-26.80 Y-44.18
G1 E247.2564 F1800
G1 X-22.83 Y-46.33 E247.5374 F60
G1 E242.9703 F2400
G1 Z0.500 F420
G1 X-50.00 Y0.00 F6000
G1 Z0.300 F420
G1 E245.4703 F1800
G1 X-49.78 Y-4.36 E245.7423 F60
G1 X-49.19 Y-8.67
G1 X-48.22 Y-12.92
G1 X-46.88 Y-17.06 F300
G1 E249.9423 F1800
G1 X-45.19 Y-21.07 E250.8106 F301
G1 X-43.16 Y-24.92 E251.6784
G1 X-40.80 Y-28.57 E252.5458
G1 X-39.62 Y-30.16 E252.9415
G1 E248.3415 F2400
G1 X-36.82 Y-33.48 F300
G1 X-33.74 Y-36.54
G1 X-30.41 Y-39.32
G1 X-26.85 Y-41.80
G1 X-24.59 Y-43.15
G1 E252.9415 F1800
G1 X-20.72 Y-45.10 E253.2116 F60
G1 E248.5619 F2400
G1 Z0.500 F420
G1 X-48.00 Y0.00 F6000
G1 Z0.300 F420
G1 E251.0620 F1800
G1 X-47.79 Y-4.18 E251.3231 F60
G1 X-47.22 Y-8.33
G1 X-46.28 Y-12.40
G1 X-45.00 Y-16.38 F300
G1 E255.7231 F1800
G1 X-43.38 Y-20.23 E256.5566 F301
G1 X-41.42 Y-23.92 E257.3896
G1 X-39.16 Y-27.42 E258.2221
G1 X-37.66 Y-29.42 E258.7223
G1 E253.9223 F2400
G1 X-34.93 Y-32.58 F300
G1 X-31.94 Y-35.48
G1 X-28.71 Y-38.10
G1 X-25.26 Y-40.44
G1 X-22.36 Y-42.08
G1 E258.7223 F1800
G1 X-18.60 Y-43.85 E258.9815 F60
G1 E254.2481 F2400
G1 Z0.500 F420
G1 X-46.00 Y0.00 F6000
G1 Z0.300 F420
G1 E256.7482 F1800
G1 X-45.80 Y-4.01 E256.9984 F60
G1 X-45.25 Y-7.98
G1 X-44.35 Y-11.88
G1 X-43.12 Y-15.69 F300
G1 E261.5984 F1800
G1 X-41.56 Y-19.38 E262.3971 F301
G1 X-39.69 Y-22.92 E263.1953
G1 X-37.52 Y-26.27 E263.9930
G1 X-35.69 Y-28.68 E264.5976
G1 E259.5976 F2400
G1 X-33.03 Y-31.67 F300
G1 X-30.13 Y-34.40
G1 X-27.00 Y-36.87
G1 X-23.67 Y-39.06
G1 X-20.16 Y-40.95
G1 X-20.11 Y-40.98
G1 E264.5976 F1800
G1 X-16.45 Y-42.55 E264.8459 F60
G1 E260.0275 F2400
G1 Z0.500 F420
;structure:shell-outer
G1 X0.00 Y-70.00 F6000
G1 Z0.300 F420
G1 E262.8598 F1800
G1 X0.00 Y-42.00 E264.6059 F600
G1 E261.2997 F2400
G1 Z0.500 F420
G1 E261.3006 F2400
;end gcode
M107
M104 S0 T0
M140 S0 T0
G162 Z F1800
G28 X Y
M132 X Y A B
M652
G91
M18
