;gcode_flavor: flashforge
;machine_type: Adventurer 3 Series
;filament_diameter0: 1.75
;right_extruder_temperature: 210
;platform_temperature: 50
;extruder_fan: 100%
;case_fan: 100%
;base_print_speed: 60
;travel_speed: 100
;vertical_speed: 7
;retract_speed: 40
;restore_speed: 30
;layer_height: 0.30
;line_width: 0.50
;extrusion_ratio: 1.00
;command_line: ./gcodetest.py -Te=210 -Tp=50 -Fe=1.0 -Fc=1.0 -Kf=1.6 -Kb=3.2 -Re=1.5 -R -v
;start gcode
M118 X75.00 Y75.00 Z150.00 T0
M140 S50 T0
M104 S210 T0
M104 S0 T1
M107
M900 K0.000 T0
G90
G28
M132 X Y Z A B
G1 Z50.000 F420
G161 X Y F3300
M7 T0
M6 T0
M652 S255
M108 T0
M106
;preExtrude:0.20
;00:00:00.000: layer=0 h=0.20 w=0.50 r=1.00
G1 X69.29 Y28.70 F6000                  ; move dl=75.0@100(0<100>0) de=0.000@0.0(0.0<0.0>0.0) l=0.00x0.50x0.00 r=0.00
;00:00:00.950: pe=0.0000 eb=0.0000 ve=0.0000 vn=0.0000 vl=0.000 db=0.00
G1 Z0.200 F420                          ; hopup dz=0.20@7 h=0.2 r=0.00
;00:00:00.979: pe=0.0000 eb=0.0000 ve=0.0000 vn=0.0000 vl=0.000 db=0.00
G1 E4.8398 F1800                        ; restore de=4.8398@30.0 r=2.24
;00:00:01.140: pe=4.7576 eb=0.0823 ve=30.0000 vn=1.3735 vl=0.000 db=1.12
;00:00:01.140: spiral RC0=(75.0,0.062) dRC=(0.0,0.125) dl=58.9@10 de=7.837@1.3 l=0.20x0.40x4.00
G1 X66.53 Y34.63 E5.7103 F600           ; draw dl=6.5@10(0<10>10) de=0.870@1.31(0.0<1.33>1.33) l=0.20x0.40x4.00 r=4.15
;00:00:01.804: pe=4.7253 eb=0.1684 ve=1.3304 vn=1.3533 vl=10.000 db=1.61
G1 X63.25 Y40.30 E6.5808                ; draw dl=6.5@10(10<10>10) de=0.870@1.33(1.33<1.33>1.33) l=0.20x0.40x4.00 r=4.06
;00:00:02.458: pe=4.7130 eb=0.1713 ve=1.3304 vn=1.3456 vl=10.000 db=1.62
G1 X59.50 Y45.66 E7.4512                ; draw dl=6.5@10(10<10>10) de=0.870@1.33(1.33<1.33>1.33) l=0.20x0.40x4.00 r=4.04
;00:00:03.113: pe=4.7048 eb=0.1702 ve=1.3304 vn=1.3405 vl=10.000 db=1.61
G1 X55.30 Y50.67 E8.3217                ; draw dl=6.5@10(10<10>10) de=0.870@1.33(1.33<1.33>1.33) l=0.20x0.40x4.00 r=4.02
;00:00:03.767: pe=4.6994 eb=0.1692 ve=1.3304 vn=1.3371 vl=10.000 db=1.61
G1 X50.67 Y55.30 E9.1922                ; draw dl=6.5@10(10<10>10) de=0.870@1.33(1.33<1.33>1.33) l=0.20x0.40x4.00 r=4.02
;00:00:04.421: pe=4.6958 eb=0.1685 ve=1.3304 vn=1.3349 vl=10.000 db=1.61
G1 X45.66 Y59.50 E10.0626               ; draw dl=6.5@10(10<10>10) de=0.870@1.33(1.33<1.33>1.33) l=0.20x0.40x4.00 r=4.01
;00:00:05.076: pe=4.6934 eb=0.1681 ve=1.3304 vn=1.3334 vl=10.000 db=1.60
G1 X40.30 Y63.25 E10.9331               ; draw dl=6.5@10(10<10>10) de=0.870@1.33(1.33<1.33>1.33) l=0.20x0.40x4.00 r=4.01
;00:00:05.730: pe=4.6918 eb=0.1678 ve=1.3304 vn=1.3324 vl=10.000 db=1.60
G1 X34.63 Y66.53 E11.8036               ; draw dl=6.5@10(10<10>10) de=0.870@1.33(1.33<1.33>1.33) l=0.20x0.40x4.00 r=4.00
;00:00:06.384: pe=4.6907 eb=0.1676 ve=1.3304 vn=1.3317 vl=10.000 db=1.60
G1 X28.70 Y69.29 E12.6741               ; draw dl=6.5@10(10<10>0) de=0.870@1.31(1.33<1.33>0.0) l=0.20x0.40x4.00 r=4.06
;00:00:07.048: pe=4.6769 eb=0.1805 ve=0.0042 vn=1.3230 vl=0.032 db=1.66
G1 X28.70 Y69.29                        ; move dl=0.0@10(0<0>0) de=0.000@0.0(0.0<0.0>0.0) l=0.20x0.40x0.00 r=2515.73
;00:00:07.049: pe=4.6768 eb=0.1806 ve=0.0000 vn=1.3230 vl=0.000 db=1.66
G1 E6.4973 F2400                        ; retract de=-6.1768@-40.0 r=4.53
;00:00:07.203: pe=-1.5336 eb=0.2142 ve=-40.0000 vn=0.0000 vl=0.000 db=1.81
G1 Z0.400 F420                          ; hopup dz=0.20@7 h=0.4 r=3.20
;00:00:07.232: pe=-1.5336 eb=0.2142 ve=0.0000 vn=0.0000 vl=0.000 db=1.28
;layer:0.30
;00:00:07.232: layer=1 h=0.30 w=0.50 r=1.00
;structure:shell-outer
;00:00:07.232: text [(-70, 70), (None, None)] fsize=5 angle=0 've=1.0\nh=0.3\ndynret=0'
G1 X-69.50 Y68.89 F6000                 ; move dl=98.2@100(0<100>0) de=0.000@0.0(0.0<0.0>0.0) l=0.40x0.50x0.00 r=0.00
;00:00:08.414: pe=-1.5336 eb=0.0000 ve=0.0000 vn=0.0000 vl=0.000 db=0.00
G1 Z0.300 F420                          ; hopdn dz=-0.10@7 h=0.3 r=0.00
;00:00:08.428: pe=-1.5336 eb=0.0000 ve=0.0000 vn=0.0000 vl=0.000 db=0.00
G1 E10.6098 F1800                       ; restore de=4.1125@30.0 r=1.02
;00:00:08.565: pe=2.5533 eb=0.0256 ve=30.0000 vn=0.5726 vl=0.000 db=0.51
G1 X-68.48 Y66.48 E10.7730 F600         ; draw dl=2.6@10(0<10>6) de=0.163@0.6(0.0<0.62>0.35) l=0.30x0.50x1.00 r=0.99
;00:00:08.838: pe=2.5542 eb=0.0248 ve=0.3524 vn=0.5907 vl=5.651 db=0.50
G1 X-67.46 Y68.89 E10.9362              ; draw dl=2.6@10(6<10>0) de=0.163@0.6(0.35<0.62>0.0) l=0.30x0.50x1.00 r=1.02
;00:00:09.112: pe=2.5516 eb=0.0290 ve=0.0000 vn=0.5057 vl=0.000 db=0.54
G1 E6.8846 F2400                        ; retract de=-4.0516@-40.0 r=1.16
;00:00:09.213: pe=-1.5039 eb=0.0330 ve=-40.0000 vn=0.0000 vl=0.000 db=0.58
G1 Z0.500 F420                          ; hopup dz=0.20@7 h=0.5 r=0.90
;00:00:09.242: pe=-1.5039 eb=0.0330 ve=0.0000 vn=0.0000 vl=0.000 db=0.45
G1 X-66.40 Y67.69 F6000                 ; move dl=1.6@100(0<20>0) de=0.000@0.0(0.0<0.0>0.0) l=0.50x0.50x0.00 r=0.00
;00:00:09.362: pe=-1.5039 eb=0.0000 ve=0.0000 vn=0.0000 vl=0.000 db=0.00
G1 Z0.300 F420                          ; hopdn dz=-0.20@7 h=0.3 r=0.00
;00:00:09.391: pe=-1.5039 eb=0.0000 ve=0.0000 vn=0.0000 vl=0.000 db=0.00
G1 E10.9919 F1800                       ; restore de=4.1073@30.0 r=1.03
;00:00:09.527: pe=2.5772 eb=0.0261 ve=30.0000 vn=0.5780 vl=0.000 db=0.52
G1 X-64.26 Y67.69 E11.1253 F600         ; draw dl=2.1@10(0<10>10) de=0.133@0.6(0.0<0.62>0.6) l=0.30x0.50x1.00 r=1.00
;00:00:09.751: pe=2.5775 eb=0.0241 ve=0.6039 vn=0.6186 vl=9.683 db=0.50
G1 X-64.34 Y68.22 E11.1588              ; draw dl=0.5@10(10<10>10) de=0.033@0.62(0.6<0.62>0.62) l=0.30x0.50x1.00 r=0.99
;00:00:09.805: pe=2.5778 eb=0.0241 ve=0.6236 vn=0.6188 vl=10.000 db=0.50
G1 X-64.55 Y68.61 E11.1864              ; draw dl=0.4@10(10<10>10) de=0.028@0.62(0.62<0.62>0.62) l=0.30x0.50x1.00 r=0.99
;00:00:09.849: pe=2.5780 eb=0.0241 ve=0.6236 vn=0.6189 vl=10.000 db=0.50
G1 X-64.89 Y68.86 E11.2127              ; draw dl=0.4@10(10<10>10) de=0.026@0.62(0.62<0.62>0.62) l=0.30x0.50x1.00 r=0.99
;00:00:09.892: pe=2.5782 eb=0.0241 ve=0.6236 vn=0.6190 vl=10.000 db=0.50
G1 X-65.33 Y68.95 E11.2407              ; draw dl=0.4@10(10<10>10) de=0.028@0.62(0.62<0.62>0.62) l=0.30x0.50x1.00 r=0.99
;00:00:09.936: pe=2.5784 eb=0.0241 ve=0.6237 vn=0.6190 vl=10.000 db=0.50
G1 X-65.76 Y68.86 E11.2681              ; draw dl=0.4@10(10<10>10) de=0.027@0.62(0.62<0.62>0.62) l=0.30x0.50x1.00 r=0.99
;00:00:09.980: pe=2.5786 eb=0.0241 ve=0.6236 vn=0.6191 vl=10.000 db=0.50
G1 X-66.10 Y68.61 E11.2944              ; draw dl=0.4@10(10<10>10) de=0.026@0.62(0.62<0.62>0.62) l=0.30x0.50x1.00 r=0.99
;00:00:10.023: pe=2.5788 eb=0.0241 ve=0.6236 vn=0.6191 vl=10.000 db=0.50
G1 X-66.32 Y68.22 E11.3224              ; draw dl=0.4@10(10<10>10) de=0.028@0.62(0.62<0.62>0.62) l=0.30x0.50x1.00 r=0.99
;00:00:10.067: pe=2.5790 eb=0.0241 ve=0.6236 vn=0.6192 vl=10.000 db=0.50
G1 X-66.40 Y67.69 E11.3558              ; draw dl=0.5@10(10<10>10) de=0.033@0.62(0.62<0.62>0.62) l=0.30x0.50x1.00 r=0.99
;00:00:10.121: pe=2.5792 eb=0.0241 ve=0.6237 vn=0.6192 vl=10.000 db=0.50
G1 X-66.32 Y67.15 E11.3898              ; draw dl=0.5@10(10<10>10) de=0.034@0.62(0.62<0.62>0.62) l=0.30x0.50x1.00 r=0.99
;00:00:10.176: pe=2.5795 eb=0.0241 ve=0.6237 vn=0.6193 vl=10.000 db=0.50
G1 X-66.09 Y66.75 E11.4186              ; draw dl=0.5@10(10<10>10) de=0.029@0.62(0.62<0.62>0.62) l=0.30x0.50x1.00 r=0.99
;00:00:10.222: pe=2.5797 eb=0.0241 ve=0.6237 vn=0.6193 vl=10.000 db=0.50
G1 X-65.74 Y66.51 E11.4451              ; draw dl=0.4@10(10<10>10) de=0.026@0.62(0.62<0.62>0.62) l=0.30x0.50x1.00 r=0.99
;00:00:10.264: pe=2.5798 eb=0.0242 ve=0.6237 vn=0.6194 vl=10.000 db=0.50
G1 X-65.28 Y66.42 E11.4743              ; draw dl=0.5@10(10<10>10) de=0.029@0.62(0.62<0.62>0.62) l=0.30x0.50x1.00 r=0.99
;00:00:10.311: pe=2.5800 eb=0.0242 ve=0.6237 vn=0.6194 vl=10.000 db=0.50
G1 X-64.94 Y66.47 E11.4957              ; draw dl=0.3@10(10<10>10) de=0.021@0.62(0.62<0.62>0.62) l=0.30x0.50x1.00 r=0.99
;00:00:10.345: pe=2.5802 eb=0.0242 ve=0.6236 vn=0.6194 vl=10.000 db=0.50
G1 X-64.65 Y66.61 E11.5158              ; draw dl=0.3@10(10<10>10) de=0.020@0.62(0.62<0.62>0.62) l=0.30x0.50x1.00 r=0.99
;00:00:10.378: pe=2.5803 eb=0.0242 ve=0.6236 vn=0.6195 vl=10.000 db=0.50
G1 X-64.44 Y66.83 E11.5348              ; draw dl=0.3@10(10<10>10) de=0.019@0.62(0.62<0.62>0.62) l=0.30x0.50x1.00 r=0.99
;00:00:10.408: pe=2.5804 eb=0.0242 ve=0.6236 vn=0.6195 vl=10.000 db=0.50
G1 X-64.32 Y67.13 E11.5549              ; draw dl=0.3@10(10<10>0) de=0.020@0.48(0.62<0.62>0.0) l=0.30x0.50x1.00 r=1.27
;00:00:10.450: pe=2.5751 eb=0.0295 ve=0.0000 vn=0.5111 vl=0.000 db=0.55
G1 E7.4798 F2400                        ; retract de=-4.0751@-40.0 r=1.17
;00:00:10.552: pe=-1.5040 eb=0.0336 ve=-40.0000 vn=0.0000 vl=0.000 db=0.59
G1 Z0.500 F420                          ; hopup dz=0.20@7 h=0.5 r=0.91
;00:00:10.581: pe=-1.5040 eb=0.0336 ve=0.0000 vn=0.0000 vl=0.000 db=0.45
G1 X-63.20 Y68.26 F6000                 ; move dl=1.6@100(0<20>0) de=0.000@0.0(0.0<0.0>0.0) l=0.50x0.50x0.00 r=0.00
;00:00:10.700: pe=-1.5040 eb=0.0000 ve=0.0000 vn=0.0000 vl=0.000 db=0.00
G1 Z0.300 F420                          ; hopdn dz=-0.20@7 h=0.3 r=0.00
;00:00:10.729: pe=-1.5040 eb=0.0000 ve=0.0000 vn=0.0000 vl=0.000 db=0.00
G1 E11.5006 F1800                       ; restore de=4.0207@30.0 r=1.00
;00:00:10.863: pe=2.4923 eb=0.0244 ve=30.0000 vn=0.5587 vl=0.000 db=0.50
G1 X-61.51 Y68.26 E11.6060 F600         ; draw dl=1.7@10(0<10>0) de=0.105@0.56(0.0<0.62>0.0) l=0.30x0.50x1.00 r=1.02
;00:00:11.052: pe=2.4904 eb=0.0278 ve=0.0000 vn=0.4913 vl=0.000 db=0.53
G1 E7.6156 F2400                        ; retract de=-3.9904@-40.0 r=1.13
;00:00:11.152: pe=-1.5037 eb=0.0315 ve=-40.0000 vn=0.0000 vl=0.000 db=0.57
G1 Z0.500 F420                          ; hopup dz=0.20@7 h=0.5 r=0.88
;00:00:11.180: pe=-1.5037 eb=0.0315 ve=0.0000 vn=0.0000 vl=0.000 db=0.44
G1 X-61.51 Y67.55 F6000                 ; move dl=0.7@100(0<13>0) de=0.000@0.0(0.0<0.0>0.0) l=0.50x0.50x0.00 r=0.00
;00:00:11.260: pe=-1.5037 eb=0.0000 ve=0.0000 vn=0.0000 vl=0.000 db=0.00
G1 Z0.300 F420                          ; hopdn dz=-0.20@7 h=0.3 r=0.00
;00:00:11.289: pe=-1.5037 eb=0.0000 ve=0.0000 vn=0.0000 vl=0.000 db=0.00
G1 E11.6360 F1800                       ; restore de=4.0204@30.0 r=1.00
;00:00:11.423: pe=2.4923 eb=0.0244 ve=30.0000 vn=0.5587 vl=0.000 db=0.50
G1 X-63.20 Y67.55 E11.7414 F600         ; draw dl=1.7@10(0<10>0) de=0.105@0.56(0.0<0.62>0.0) l=0.30x0.50x1.00 r=1.02
;00:00:11.612: pe=2.4904 eb=0.0278 ve=0.0000 vn=0.4913 vl=0.000 db=0.53
G1 E7.7510 F2400                        ; retract de=-3.9904@-40.0 r=1.13
;00:00:11.712: pe=-1.5037 eb=0.0315 ve=-40.0000 vn=0.0000 vl=0.000 db=0.57
G1 Z0.500 F420                          ; hopup dz=0.20@7 h=0.5 r=0.88
;00:00:11.740: pe=-1.5037 eb=0.0315 ve=0.0000 vn=0.0000 vl=0.000 db=0.44
G1 X-60.45 Y69.00 F6000                 ; move dl=3.1@100(0<28>0) de=0.000@0.0(0.0<0.0>0.0) l=0.50x0.50x0.00 r=0.00
;00:00:11.907: pe=-1.5037 eb=0.0000 ve=0.0000 vn=0.0000 vl=0.000 db=0.00
G1 Z0.300 F420                          ; hopdn dz=-0.20@7 h=0.3 r=0.00
;00:00:11.936: pe=-1.5037 eb=0.0000 ve=0.0000 vn=0.0000 vl=0.000 db=0.00
G1 E11.8292 F1800                       ; restore de=4.0782@30.0 r=1.02
;00:00:12.072: pe=2.5490 eb=0.0256 ve=30.0000 vn=0.5716 vl=0.000 db=0.51
G1 X-59.98 Y69.24 E11.8622 F600         ; draw dl=0.5@10(0<10>10) de=0.033@0.52(0.0<0.62>0.62) l=0.30x0.50x1.00 r=1.03
;00:00:12.135: pe=2.5480 eb=0.0249 ve=0.6236 vn=0.5850 vl=10.000 db=0.50
G1 X-59.61 Y69.55 E11.8923              ; draw dl=0.5@10(10<10>10) de=0.030@0.62(0.62<0.62>0.62) l=0.30x0.50x1.00 r=0.96
;00:00:12.183: pe=2.5492 eb=0.0238 ve=0.6236 vn=0.6070 vl=10.000 db=0.49
G1 X-59.36 Y69.88 E11.9181              ; draw dl=0.4@10(10<10>5) de=0.026@0.59(0.62<0.62>0.3) l=0.30x0.50x1.00 r=1.04
;00:00:12.227: pe=2.5483 eb=0.0251 ve=0.3015 vn=0.5794 vl=4.834 db=0.51
G1 X-59.36 Y66.48 E12.1301              ; draw dl=3.4@10(5<10>0) de=0.212@0.6(0.3<0.62>0.0) l=0.30x0.50x1.00 r=1.01
;00:00:12.580: pe=2.5471 eb=0.0290 ve=0.0000 vn=0.5046 vl=0.000 db=0.54
G1 E8.0830 F2400                        ; retract de=-4.0471@-40.0 r=1.16
;00:00:12.681: pe=-1.5039 eb=0.0329 ve=-40.0000 vn=0.0000 vl=0.000 db=0.58
G1 Z0.500 F420                          ; hopup dz=0.20@7 h=0.5 r=0.90
;00:00:12.710: pe=-1.5039 eb=0.0329 ve=0.0000 vn=0.0000 vl=0.000 db=0.45
G1 X-58.30 Y66.71 F6000                 ; move dl=1.1@100(0<16>0) de=0.000@0.0(0.0<0.0>0.0) l=0.50x0.50x0.00 r=0.00
;00:00:12.808: pe=-1.5039 eb=0.0000 ve=0.0000 vn=0.0000 vl=0.000 db=0.00
G1 Z0.300 F420                          ; hopdn dz=-0.20@7 h=0.3 r=0.00
;00:00:12.837: pe=-1.5039 eb=0.0000 ve=0.0000 vn=0.0000 vl=0.000 db=0.00
G1 E11.4692 F1800                       ; restore de=3.3862@30.0 r=0.75
;00:00:12.950: pe=1.8684 eb=0.0138 ve=30.0000 vn=0.4173 vl=0.000 db=0.38
G1 X-58.30 Y66.65 E11.4730 F600         ; draw dl=0.1@10(0<4>0) de=0.004@0.16(0.0<0.24>0.0) l=0.30x0.50x1.00 r=2.16
;00:00:12.973: pe=1.8641 eb=0.0188 ve=0.0000 vn=0.2887 vl=0.000 db=0.44
G1 E8.1089 F2400                        ; retract de=-3.3641@-40.0 r=0.91
;00:00:13.057: pe=-1.5013 eb=0.0201 ve=-40.0000 vn=0.0000 vl=0.000 db=0.45
G1 Z0.500 F420                          ; hopup dz=0.20@7 h=0.5 r=0.70
;00:00:13.086: pe=-1.5013 eb=0.0201 ve=0.0000 vn=0.0000 vl=0.000 db=0.35
G1 X-56.01 Y69.94 F6000                 ; move dl=4.0@100(0<32>0) de=0.000@0.0(0.0<0.0>0.0) l=0.50x0.50x0.00 r=0.00
;00:00:13.276: pe=-1.5013 eb=0.0000 ve=0.0000 vn=0.0000 vl=0.000 db=0.00
G1 Z0.300 F420                          ; hopdn dz=-0.20@7 h=0.3 r=0.00
;00:00:13.304: pe=-1.5013 eb=0.0000 ve=0.0000 vn=0.0000 vl=0.000 db=0.00
G1 E12.2149 F1800                       ; restore de=4.1060@30.0 r=1.03
;00:00:13.441: pe=2.5786 eb=0.0261 ve=30.0000 vn=0.5783 vl=0.000 db=0.52
G1 X-55.50 Y69.80 E12.2479 F600         ; draw dl=0.5@10(0<10>10) de=0.033@0.52(0.0<0.62>0.62) l=0.30x0.50x1.00 r=1.04
;00:00:13.504: pe=2.5772 eb=0.0254 ve=0.6237 vn=0.5914 vl=10.000 db=0.51
G1 X-55.11 Y69.42 E12.2818              ; draw dl=0.5@10(10<10>10) de=0.034@0.62(0.62<0.62>0.62) l=0.30x0.50x1.00 r=0.97
;00:00:13.558: pe=2.5782 eb=0.0243 ve=0.6237 vn=0.6147 vl=10.000 db=0.50
G1 X-54.88 Y68.86 E12.3196              ; draw dl=0.6@10(10<10>10) de=0.038@0.62(0.62<0.62>0.62) l=0.30x0.50x1.00 r=0.99
;00:00:13.619: pe=2.5786 eb=0.0242 ve=0.6237 vn=0.6185 vl=10.000 db=0.50
G1 X-54.79 Y68.18 E12.3624              ; draw dl=0.7@10(10<10>10) de=0.043@0.62(0.62<0.62>0.62) l=0.30x0.50x1.00 r=0.99
;00:00:13.688: pe=2.5789 eb=0.0241 ve=0.6237 vn=0.6191 vl=10.000 db=0.50
G1 X-54.88 Y67.51 E12.4045              ; draw dl=0.7@10(10<10>10) de=0.042@0.62(0.62<0.62>0.62) l=0.30x0.50x1.00 r=0.99
;00:00:13.755: pe=2.5792 eb=0.0241 ve=0.6237 vn=0.6192 vl=10.000 db=0.50
G1 X-55.11 Y66.95 E12.4423              ; draw dl=0.6@10(10<10>10) de=0.038@0.62(0.62<0.62>0.62) l=0.30x0.50x1.00 r=0.99
;00:00:13.816: pe=2.5795 eb=0.0241 ve=0.6237 vn=0.6193 vl=10.000 db=0.50
G1 X-55.50 Y66.56 E12.4767              ; draw dl=0.6@10(10<10>10) de=0.034@0.62(0.62<0.62>0.62) l=0.30x0.50x1.00 r=0.99
;00:00:13.871: pe=2.5797 eb=0.0241 ve=0.6237 vn=0.6193 vl=10.000 db=0.50
G1 X-56.01 Y66.42 E12.5097              ; draw dl=0.5@10(10<10>10) de=0.033@0.62(0.62<0.62>0.62) l=0.30x0.50x1.00 r=0.99
;00:00:13.924: pe=2.5800 eb=0.0242 ve=0.6237 vn=0.6194 vl=10.000 db=0.50
G1 X-56.54 Y66.56 E12.5439              ; draw dl=0.5@10(10<10>10) de=0.034@0.62(0.62<0.62>0.62) l=0.30x0.50x1.00 r=0.99
;00:00:13.979: pe=2.5802 eb=0.0242 ve=0.6237 vn=0.6194 vl=10.000 db=0.50
G1 X-56.91 Y66.95 E12.5774              ; draw dl=0.5@10(10<10>10) de=0.034@0.62(0.62<0.62>0.62) l=0.30x0.50x1.00 r=0.99
;00:00:14.032: pe=2.5804 eb=0.0242 ve=0.6237 vn=0.6195 vl=10.000 db=0.50
G1 X-57.15 Y67.51 E12.6154              ; draw dl=0.6@10(10<10>10) de=0.038@0.62(0.62<0.62>0.62) l=0.30x0.50x1.00 r=0.99
;00:00:14.093: pe=2.5807 eb=0.0242 ve=0.6237 vn=0.6196 vl=10.000 db=0.50
G1 X-57.23 Y68.18 E12.6575              ; draw dl=0.7@10(10<10>10) de=0.042@0.62(0.62<0.62>0.62) l=0.30x0.50x1.00 r=0.99
;00:00:14.161: pe=2.5809 eb=0.0242 ve=0.6237 vn=0.6196 vl=10.000 db=0.50
G1 X-57.15 Y68.85 E12.6996              ; draw dl=0.7@10(10<10>10) de=0.042@0.62(0.62<0.62>0.62) l=0.30x0.50x1.00 r=0.99
;00:00:14.228: pe=2.5812 eb=0.0242 ve=0.6237 vn=0.6197 vl=10.000 db=0.50
G1 X-56.91 Y69.42 E12.7381              ; draw dl=0.6@10(10<10>10) de=0.039@0.62(0.62<0.62>0.62) l=0.30x0.50x1.00 r=0.99
;00:00:14.290: pe=2.5815 eb=0.0242 ve=0.6237 vn=0.6197 vl=10.000 db=0.50
G1 X-56.54 Y69.80 E12.7712              ; draw dl=0.5@10(10<10>10) de=0.033@0.62(0.62<0.62>0.62) l=0.30x0.50x1.00 r=0.99
;00:00:14.343: pe=2.5817 eb=0.0242 ve=0.6237 vn=0.6198 vl=10.000 db=0.50
G1 X-56.01 Y69.94 E12.8054              ; draw dl=0.5@10(10<10>0) de=0.034@0.53(0.62<0.62>0.0) l=0.30x0.50x1.00 r=1.15
;00:00:14.408: pe=2.5764 eb=0.0296 ve=0.0000 vn=0.5114 vl=0.000 db=0.55
G1 E8.7290 F2400                        ; retract de=-4.0764@-40.0 r=1.17
;00:00:14.510: pe=-1.5040 eb=0.0336 ve=-40.0000 vn=0.0000 vl=0.000 db=0.59
G1 Z0.500 F420                          ; hopup dz=0.20@7 h=0.5 r=0.91
;00:00:14.538: pe=-1.5040 eb=0.0336 ve=0.0000 vn=0.0000 vl=0.000 db=0.45
G1 X-69.50 Y64.88 F6000                 ; move dl=14.4@100(0<60>0) de=0.000@0.0(0.0<0.0>0.0) l=0.50x0.50x0.00 r=0.00
;00:00:14.898: pe=-1.5040 eb=0.0000 ve=0.0000 vn=0.0000 vl=0.000 db=0.00
G1 Z0.300 F420                          ; hopdn dz=-0.20@7 h=0.3 r=0.00
;00:00:14.927: pe=-1.5040 eb=0.0000 ve=0.0000 vn=0.0000 vl=0.000 db=0.00
G1 E12.8001 F1800                       ; restore de=4.0710@30.0 r=1.02
;00:00:15.063: pe=2.5416 eb=0.0254 ve=30.0000 vn=0.5700 vl=0.000 db=0.51
G1 X-69.50 Y61.48 E13.0121 F600         ; draw dl=3.4@10(0<10>0) de=0.212@0.59(0.0<0.62>0.0) l=0.30x0.50x1.00 r=1.01
;00:00:15.423: pe=2.5399 eb=0.0288 ve=0.0000 vn=0.5030 vl=0.000 db=0.54
G1 E8.9722 F2400                        ; retract de=-4.0399@-40.0 r=1.16
;00:00:15.524: pe=-1.5039 eb=0.0327 ve=-40.0000 vn=0.0000 vl=0.000 db=0.58
G1 Z0.500 F420                          ; hopup dz=0.20@7 h=0.5 r=0.90
;00:00:15.552: pe=-1.5039 eb=0.0327 ve=0.0000 vn=0.0000 vl=0.000 db=0.45
G1 X-69.50 Y63.23 F6000                 ; move dl=1.8@100(0<21>0) de=0.000@0.0(0.0<0.0>0.0) l=0.50x0.50x0.00 r=0.00
;00:00:15.678: pe=-1.5039 eb=0.0000 ve=0.0000 vn=0.0000 vl=0.000 db=0.00
G1 Z0.300 F420                          ; hopdn dz=-0.20@7 h=0.3 r=0.00
;00:00:15.706: pe=-1.5039 eb=0.0000 ve=0.0000 vn=0.0000 vl=0.000 db=0.00
G1 E13.0576 F1800                       ; restore de=4.0854@30.0 r=1.02
;00:00:15.843: pe=2.5558 eb=0.0257 ve=30.0000 vn=0.5732 vl=0.000 db=0.51
G1 X-69.25 Y63.53 E13.0820 F600         ; draw dl=0.4@10(0<10>10) de=0.024@0.5(0.0<0.62>0.62) l=0.30x0.50x1.00 r=1.07
;00:00:15.892: pe=2.5542 eb=0.0258 ve=0.6237 vn=0.5706 vl=10.000 db=0.51
G1 X-69.02 Y63.75 E13.1018              ; draw dl=0.3@10(10<10>10) de=0.020@0.62(0.62<0.62>0.62) l=0.30x0.50x1.00 r=0.94
;00:00:15.923: pe=2.5553 eb=0.0244 ve=0.6237 vn=0.5990 vl=10.000 db=0.50
G1 X-68.80 Y63.88 E13.1178              ; draw dl=0.3@10(10<10>10) de=0.016@0.62(0.62<0.62>0.62) l=0.30x0.50x1.00 r=0.97
;00:00:15.949: pe=2.5559 eb=0.0240 ve=0.6237 vn=0.6076 vl=10.000 db=0.49
G1 X-68.60 Y63.93 E13.1306              ; draw dl=0.2@10(10<10>10) de=0.013@0.62(0.62<0.62>0.62) l=0.30x0.50x1.00 r=0.98
;00:00:15.970: pe=2.5561 eb=0.0238 ve=0.6237 vn=0.6108 vl=10.000 db=0.49
G1 X-68.41 Y63.95 E13.1425              ; draw dl=0.2@10(10<10>10) de=0.012@0.62(0.62<0.62>0.62) l=0.30x0.50x1.00 r=0.98
;00:00:15.989: pe=2.5564 eb=0.0238 ve=0.6237 vn=0.6123 vl=10.000 db=0.49
G1 X-68.09 Y63.88 E13.1630              ; draw dl=0.3@10(10<10>10) de=0.020@0.62(0.62<0.62>0.62) l=0.30x0.50x1.00 r=0.98
;00:00:16.021: pe=2.5567 eb=0.0237 ve=0.6237 vn=0.6134 vl=10.000 db=0.49
G1 X-67.86 Y63.71 E13.1808              ; draw dl=0.3@10(10<10>10) de=0.018@0.62(0.62<0.62>0.62) l=0.30x0.50x1.00 r=0.98
;00:00:16.050: pe=2.5570 eb=0.0237 ve=0.6237 vn=0.6138 vl=10.000 db=0.49
G1 X-67.76 Y63.51 E13.1948              ; draw dl=0.2@10(10<10>10) de=0.014@0.62(0.62<0.62>0.62) l=0.30x0.50x1.00 r=0.98
;00:00:16.072: pe=2.5572 eb=0.0237 ve=0.6236 vn=0.6139 vl=10.000 db=0.49
G1 X-67.67 Y63.08 E13.2222              ; draw dl=0.4@10(10<10>10) de=0.027@0.62(0.62<0.62>0.62) l=0.30x0.50x1.00 r=0.98
;00:00:16.116: pe=2.5577 eb=0.0237 ve=0.6236 vn=0.6141 vl=10.000 db=0.49
G1 X-67.67 Y61.48 E13.3219              ; draw dl=1.6@10(10<10>0) de=0.100@0.59(0.62<0.62>0.0) l=0.30x0.50x1.00 r=1.04
;00:00:16.286: pe=2.5537 eb=0.0291 ve=0.0000 vn=0.5062 vl=0.000 db=0.54
G1 E9.2682 F2400                        ; retract de=-4.0537@-40.0 r=1.16
;00:00:16.388: pe=-1.5040 eb=0.0330 ve=-40.0000 vn=0.0000 vl=0.000 db=0.58
G1 Z0.500 F420                          ; hopup dz=0.20@7 h=0.5 r=0.90
;00:00:16.416: pe=-1.5040 eb=0.0330 ve=0.0000 vn=0.0000 vl=0.000 db=0.45
G1 X-66.61 Y63.26 F6000                 ; move dl=2.1@100(0<23>0) de=0.000@0.0(0.0<0.0>0.0) l=0.50x0.50x0.00 r=0.00
;00:00:16.553: pe=-1.5040 eb=0.0000 ve=0.0000 vn=0.0000 vl=0.000 db=0.00
G1 Z0.300 F420                          ; hopdn dz=-0.20@7 h=0.3 r=0.00
;00:00:16.581: pe=-1.5040 eb=0.0000 ve=0.0000 vn=0.0000 vl=0.000 db=0.00
G1 E13.2890 F1800                       ; restore de=4.0208@30.0 r=1.00
;00:00:16.715: pe=2.4924 eb=0.0244 ve=30.0000 vn=0.5588 vl=0.000 db=0.50
G1 X-64.92 Y63.26 E13.3944 F600         ; draw dl=1.7@10(0<10>0) de=0.105@0.56(0.0<0.62>0.0) l=0.30x0.50x1.00 r=1.02
;00:00:16.904: pe=2.4905 eb=0.0278 ve=0.0000 vn=0.4913 vl=0.000 db=0.53
G1 E9.4039 F2400                        ; retract de=-3.9905@-40.0 r=1.13
;00:00:17.004: pe=-1.5037 eb=0.0315 ve=-40.0000 vn=0.0000 vl=0.000 db=0.57
G1 Z0.500 F420                          ; hopup dz=0.20@7 h=0.5 r=0.88
;00:00:17.033: pe=-1.5037 eb=0.0315 ve=0.0000 vn=0.0000 vl=0.000 db=0.44
G1 X-64.92 Y62.55 F6000                 ; move dl=0.7@100(0<13>0) de=0.000@0.0(0.0<0.0>0.0) l=0.50x0.50x0.00 r=0.00
;00:00:17.113: pe=-1.5037 eb=0.0000 ve=0.0000 vn=0.0000 vl=0.000 db=0.00
G1 Z0.300 F420                          ; hopdn dz=-0.20@7 h=0.3 r=0.00
;00:00:17.141: pe=-1.5037 eb=0.0000 ve=0.0000 vn=0.0000 vl=0.000 db=0.00
G1 E13.4244 F1800                       ; restore de=4.0205@30.0 r=1.00
;00:00:17.275: pe=2.4924 eb=0.0244 ve=30.0000 vn=0.5588 vl=0.000 db=0.50
G1 X-66.61 Y62.55 E13.5298 F600         ; draw dl=1.7@10(0<10>0) de=0.105@0.56(0.0<0.62>0.0) l=0.30x0.50x1.00 r=1.02
;00:00:17.464: pe=2.4905 eb=0.0278 ve=0.0000 vn=0.4913 vl=0.000 db=0.53
G1 E9.5393 F2400                        ; retract de=-3.9905@-40.0 r=1.13
;00:00:17.564: pe=-1.5037 eb=0.0315 ve=-40.0000 vn=0.0000 vl=0.000 db=0.57
G1 Z0.500 F420                          ; hopup dz=0.20@7 h=0.5 r=0.88
;00:00:17.593: pe=-1.5037 eb=0.0315 ve=0.0000 vn=0.0000 vl=0.000 db=0.44
G1 X-62.64 Y64.94 F6000                 ; move dl=4.6@100(0<34>0) de=0.000@0.0(0.0<0.0>0.0) l=0.50x0.50x0.00 r=0.00
;00:00:17.797: pe=-1.5037 eb=0.0000 ve=0.0000 vn=0.0000 vl=0.000 db=0.00
G1 Z0.300 F420                          ; hopdn dz=-0.20@7 h=0.3 r=0.00
;00:00:17.825: pe=-1.5037 eb=0.0000 ve=0.0000 vn=0.0000 vl=0.000 db=0.00
G1 E13.6477 F1800                       ; restore de=4.1084@30.0 r=1.03
;00:00:17.962: pe=2.5785 eb=0.0261 ve=30.0000 vn=0.5783 vl=0.000 db=0.52
G1 X-62.13 Y64.80 E13.6807 F600         ; draw dl=0.5@10(0<10>10) de=0.033@0.52(0.0<0.62>0.62) l=0.30x0.50x1.00 r=1.04
;00:00:18.025: pe=2.5772 eb=0.0254 ve=0.6237 vn=0.5914 vl=10.000 db=0.51
G1 X-61.74 Y64.42 E13.7146              ; draw dl=0.5@10(10<10>10) de=0.034@0.62(0.62<0.62>0.62) l=0.30x0.50x1.00 r=0.97
;00:00:18.080: pe=2.5781 eb=0.0243 ve=0.6237 vn=0.6147 vl=10.000 db=0.50
G1 X-61.50 Y63.86 E13.7526              ; draw dl=0.6@10(10<10>10) de=0.038@0.62(0.62<0.62>0.62) l=0.30x0.50x1.00 r=0.99
;00:00:18.141: pe=2.5785 eb=0.0242 ve=0.6237 vn=0.6185 vl=10.000 db=0.50
G1 X-61.42 Y63.18 E13.7953              ; draw dl=0.7@10(10<10>10) de=0.043@0.62(0.62<0.62>0.62) l=0.30x0.50x1.00 r=0.99
;00:00:18.209: pe=2.5789 eb=0.0241 ve=0.6237 vn=0.6191 vl=10.000 db=0.50
G1 X-61.50 Y62.51 E13.8374              ; draw dl=0.7@10(10<10>10) de=0.042@0.62(0.62<0.62>0.62) l=0.30x0.50x1.00 r=0.99
;00:00:18.277: pe=2.5792 eb=0.0241 ve=0.6237 vn=0.6192 vl=10.000 db=0.50
G1 X-61.74 Y61.95 E13.8754              ; draw dl=0.6@10(10<10>10) de=0.038@0.62(0.62<0.62>0.62) l=0.30x0.50x1.00 r=0.99
;00:00:18.337: pe=2.5794 eb=0.0241 ve=0.6237 vn=0.6193 vl=10.000 db=0.50
G1 X-62.13 Y61.56 E13.9098              ; draw dl=0.6@10(10<10>10) de=0.034@0.62(0.62<0.62>0.62) l=0.30x0.50x1.00 r=0.99
;00:00:18.393: pe=2.5797 eb=0.0241 ve=0.6237 vn=0.6193 vl=10.000 db=0.50
G1 X-62.64 Y61.42 E13.9428              ; draw dl=0.5@10(10<10>10) de=0.033@0.62(0.62<0.62>0.62) l=0.30x0.50x1.00 r=0.99
;00:00:18.446: pe=2.5799 eb=0.0242 ve=0.6237 vn=0.6194 vl=10.000 db=0.50
G1 X-63.16 Y61.56 E13.9764              ; draw dl=0.5@10(10<10>10) de=0.034@0.62(0.62<0.62>0.62) l=0.30x0.50x1.00 r=0.99
;00:00:18.499: pe=2.5801 eb=0.0242 ve=0.6237 vn=0.6194 vl=10.000 db=0.50
G1 X-63.54 Y61.95 E14.0103              ; draw dl=0.5@10(10<10>10) de=0.034@0.62(0.62<0.62>0.62) l=0.30x0.50x1.00 r=0.99
;00:00:18.554: pe=2.5804 eb=0.0242 ve=0.6237 vn=0.6195 vl=10.000 db=0.50
G1 X-63.78 Y62.51 E14.0483              ; draw dl=0.6@10(10<10>10) de=0.038@0.62(0.62<0.62>0.62) l=0.30x0.50x1.00 r=0.99
;00:00:18.615: pe=2.5806 eb=0.0242 ve=0.6237 vn=0.6195 vl=10.000 db=0.50
G1 X-63.86 Y63.18 E14.0904              ; draw dl=0.7@10(10<10>10) de=0.042@0.62(0.62<0.62>0.62) l=0.30x0.50x1.00 r=0.99
;00:00:18.682: pe=2.5809 eb=0.0242 ve=0.6237 vn=0.6196 vl=10.000 db=0.50
G1 X-63.78 Y63.85 E14.1325              ; draw dl=0.7@10(10<10>10) de=0.042@0.62(0.62<0.62>0.62) l=0.30x0.50x1.00 r=0.99
;00:00:18.750: pe=2.5812 eb=0.0242 ve=0.6237 vn=0.6197 vl=10.000 db=0.50
G1 X-63.54 Y64.42 E14.1711              ; draw dl=0.6@10(10<10>10) de=0.039@0.62(0.62<0.62>0.62) l=0.30x0.50x1.00 r=0.99
;00:00:18.812: pe=2.5814 eb=0.0242 ve=0.6237 vn=0.6197 vl=10.000 db=0.50
G1 X-63.16 Y64.80 E14.2046              ; draw dl=0.5@10(10<10>10) de=0.034@0.62(0.62<0.62>0.62) l=0.30x0.50x1.00 r=0.99
;00:00:18.865: pe=2.5816 eb=0.0242 ve=0.6236 vn=0.6198 vl=10.000 db=0.50
G1 X-62.64 Y64.94 E14.2382              ; draw dl=0.5@10(10<10>0) de=0.034@0.53(0.62<0.62>0.0) l=0.30x0.50x1.00 r=1.16
;00:00:18.929: pe=2.5763 eb=0.0296 ve=0.0000 vn=0.5114 vl=0.000 db=0.55
G1 E10.1619 F2400                       ; retract de=-4.0763@-40.0 r=1.17
;00:00:19.031: pe=-1.5040 eb=0.0336 ve=-40.0000 vn=0.0000 vl=0.000 db=0.59
G1 Z0.500 F420                          ; hopup dz=0.20@7 h=0.5 r=0.91
;00:00:19.060: pe=-1.5040 eb=0.0336 ve=0.0000 vn=0.0000 vl=0.000 db=0.45
G1 X-60.36 Y61.71 F6000                 ; move dl=4.0@100(0<31>0) de=0.000@0.0(0.0<0.0>0.0) l=0.50x0.50x0.00 r=0.00
;00:00:19.248: pe=-1.5040 eb=0.0000 ve=0.0000 vn=0.0000 vl=0.000 db=0.00
G1 Z0.300 F420                          ; hopdn dz=-0.20@7 h=0.3 r=0.00
;00:00:19.277: pe=-1.5040 eb=0.0000 ve=0.0000 vn=0.0000 vl=0.000 db=0.00
G1 E13.5481 F1800                       ; restore de=3.3863@30.0 r=0.75
;00:00:19.390: pe=1.8684 eb=0.0138 ve=30.0000 vn=0.4173 vl=0.000 db=0.38
G1 X-60.36 Y61.65 E13.5519 F600         ; draw dl=0.1@10(0<4>0) de=0.004@0.16(0.0<0.24>0.0) l=0.30x0.50x1.00 r=2.16
;00:00:19.413: pe=1.8641 eb=0.0188 ve=0.0000 vn=0.2887 vl=0.000 db=0.44
G1 E10.1878 F2400                       ; retract de=-3.3641@-40.0 r=0.91
;00:00:19.497: pe=-1.5013 eb=0.0201 ve=-40.0000 vn=0.0000 vl=0.000 db=0.45
G1 Z0.500 F420                          ; hopup dz=0.20@7 h=0.5 r=0.70
;00:00:19.526: pe=-1.5013 eb=0.0201 ve=0.0000 vn=0.0000 vl=0.000 db=0.35
G1 X-59.24 Y64.13 F6000                 ; move dl=2.7@100(0<26>0) de=0.000@0.0(0.0<0.0>0.0) l=0.50x0.50x0.00 r=0.00
;00:00:19.682: pe=-1.5013 eb=0.0000 ve=0.0000 vn=0.0000 vl=0.000 db=0.00
G1 Z0.300 F420                          ; hopdn dz=-0.20@7 h=0.3 r=0.00
;00:00:19.711: pe=-1.5013 eb=0.0000 ve=0.0000 vn=0.0000 vl=0.000 db=0.00
G1 E14.2875 F1800                       ; restore de=4.0997@30.0 r=1.03
;00:00:19.847: pe=2.5724 eb=0.0260 ve=30.0000 vn=0.5769 vl=0.000 db=0.52
G1 X-59.13 Y64.47 E14.3098 F600         ; draw dl=0.4@10(0<10>10) de=0.022@0.49(0.0<0.62>0.62) l=0.30x0.50x1.00 r=1.09
;00:00:19.893: pe=2.5704 eb=0.0264 ve=0.6237 vn=0.5691 vl=10.000 db=0.52
G1 X-58.92 Y64.73 E14.3306              ; draw dl=0.3@10(10<10>10) de=0.021@0.62(0.62<0.62>0.62) l=0.30x0.50x1.00 r=0.94
;00:00:19.926: pe=2.5716 eb=0.0248 ve=0.6237 vn=0.6017 vl=10.000 db=0.50
G1 X-58.63 Y64.89 E14.3513              ; draw dl=0.3@10(10<10>10) de=0.021@0.62(0.62<0.62>0.62) l=0.30x0.50x1.00 r=0.97
;00:00:19.960: pe=2.5721 eb=0.0243 ve=0.6237 vn=0.6125 vl=10.000 db=0.50
G1 X-58.29 Y64.94 E14.3727              ; draw dl=0.3@10(10<10>10) de=0.021@0.62(0.62<0.62>0.62) l=0.30x0.50x1.00 r=0.99
;00:00:19.994: pe=2.5724 eb=0.0241 ve=0.6237 vn=0.6160 vl=10.000 db=0.50
G1 X-57.90 Y64.87 E14.3974              ; draw dl=0.4@10(10<10>10) de=0.025@0.62(0.62<0.62>0.62) l=0.30x0.50x1.00 r=0.99
;00:00:20.034: pe=2.5727 eb=0.0240 ve=0.6237 vn=0.6173 vl=10.000 db=0.50
G1 X-57.61 Y64.68 E14.4191              ; draw dl=0.3@10(10<10>10) de=0.022@0.62(0.62<0.62>0.62) l=0.30x0.50x1.00 r=0.99
;00:00:20.068: pe=2.5729 eb=0.0240 ve=0.6237 vn=0.6176 vl=10.000 db=0.50
G1 X-57.43 Y64.41 E14.4393              ; draw dl=0.3@10(10<10>10) de=0.020@0.62(0.62<0.62>0.62) l=0.30x0.50x1.00 r=0.99
;00:00:20.101: pe=2.5731 eb=0.0240 ve=0.6237 vn=0.6177 vl=10.000 db=0.50
G1 X-57.36 Y64.06 E14.4616              ; draw dl=0.4@10(10<10>10) de=0.022@0.62(0.62<0.62>0.62) l=0.30x0.50x1.00 r=0.99
;00:00:20.136: pe=2.5733 eb=0.0240 ve=0.6237 vn=0.6178 vl=10.000 db=0.50
G1 X-57.43 Y63.85 E14.4754              ; draw dl=0.2@10(10<10>10) de=0.014@0.62(0.62<0.62>0.62) l=0.30x0.50x1.00 r=0.99
;00:00:20.159: pe=2.5735 eb=0.0240 ve=0.6237 vn=0.6178 vl=10.000 db=0.50
G1 X-57.57 Y63.68 E14.4891              ; draw dl=0.2@10(10<10>10) de=0.014@0.62(0.62<0.62>0.62) l=0.30x0.50x1.00 r=0.99
;00:00:20.181: pe=2.5736 eb=0.0240 ve=0.6237 vn=0.6179 vl=10.000 db=0.50
G1 X-57.94 Y63.45 E14.5163              ; draw dl=0.4@10(10<10>10) de=0.027@0.62(0.62<0.62>0.62) l=0.30x0.50x1.00 r=0.99
;00:00:20.224: pe=2.5738 eb=0.0240 ve=0.6237 vn=0.6179 vl=10.000 db=0.50
G1 X-58.38 Y63.30 E14.5453              ; draw dl=0.5@10(10<10>5) de=0.029@0.59(0.62<0.62>0.28) l=0.30x0.50x1.00 r=1.05
;00:00:20.274: pe=2.5724 eb=0.0257 ve=0.2839 vn=0.5829 vl=4.552 db=0.51
G1 X-57.94 Y63.18 E14.5737              ; draw dl=0.5@10(5<10>10) de=0.028@0.59(0.28<0.62>0.62) l=0.30x0.50x1.00 r=0.99
;00:00:20.322: pe=2.5726 eb=0.0248 ve=0.6237 vn=0.6019 vl=10.000 db=0.50
G1 X-57.58 Y63.02 E14.5983              ; draw dl=0.4@10(10<10>10) de=0.025@0.62(0.62<0.62>0.62) l=0.30x0.50x1.00 r=0.98
;00:00:20.362: pe=2.5732 eb=0.0242 ve=0.6237 vn=0.6137 vl=10.000 db=0.50
G1 X-57.29 Y62.74 E14.6234              ; draw dl=0.4@10(10<10>10) de=0.025@0.62(0.62<0.62>0.62) l=0.30x0.50x1.00 r=0.99
;00:00:20.402: pe=2.5735 eb=0.0241 ve=0.6236 vn=0.6168 vl=10.000 db=0.50
G1 X-57.19 Y62.45 E14.6425              ; draw dl=0.3@10(10<10>10) de=0.019@0.62(0.62<0.62>0.62) l=0.30x0.50x1.00 r=0.99
;00:00:20.433: pe=2.5737 eb=0.0241 ve=0.6237 vn=0.6175 vl=10.000 db=0.50
G1 X-57.26 Y62.03 E14.6691              ; draw dl=0.4@10(10<10>10) de=0.027@0.62(0.62<0.62>0.62) l=0.30x0.50x1.00 r=0.99
;00:00:20.475: pe=2.5739 eb=0.0240 ve=0.6237 vn=0.6179 vl=10.000 db=0.50
G1 X-57.49 Y61.70 E14.6942              ; draw dl=0.4@10(10<10>10) de=0.025@0.62(0.62<0.62>0.62) l=0.30x0.50x1.00 r=0.99
;00:00:20.515: pe=2.5742 eb=0.0240 ve=0.6237 vn=0.6180 vl=10.000 db=0.50
G1 X-57.83 Y61.50 E14.7188              ; draw dl=0.4@10(10<10>10) de=0.025@0.62(0.62<0.62>0.62) l=0.30x0.50x1.00 r=0.99
;00:00:20.555: pe=2.5744 eb=0.0240 ve=0.6237 vn=0.6181 vl=10.000 db=0.50
G1 X-58.25 Y61.42 E14.7454              ; draw dl=0.4@10(10<10>10) de=0.027@0.62(0.62<0.62>0.62) l=0.30x0.50x1.00 r=0.99
;00:00:20.598: pe=2.5746 eb=0.0241 ve=0.6237 vn=0.6181 vl=10.000 db=0.50
G1 X-58.65 Y61.48 E14.7707              ; draw dl=0.4@10(10<10>10) de=0.025@0.62(0.62<0.62>0.62) l=0.30x0.50x1.00 r=0.99
;00:00:20.638: pe=2.5749 eb=0.0241 ve=0.6237 vn=0.6182 vl=10.000 db=0.50
G1 X-58.97 Y61.65 E14.7933              ; draw dl=0.4@10(10<10>10) de=0.023@0.62(0.62<0.62>0.62) l=0.30x0.50x1.00 r=0.99
;00:00:20.674: pe=2.5751 eb=0.0241 ve=0.6237 vn=0.6182 vl=10.000 db=0.50
G1 X-59.19 Y61.92 E14.8150              ; draw dl=0.3@10(10<10>10) de=0.022@0.62(0.62<0.62>0.62) l=0.30x0.50x1.00 r=0.99
;00:00:20.709: pe=2.5752 eb=0.0241 ve=0.6237 vn=0.6183 vl=10.000 db=0.50
G1 X-59.29 Y62.28 E14.8383              ; draw dl=0.4@10(10<10>0) de=0.023@0.49(0.62<0.62>0.0) l=0.30x0.50x1.00 r=1.23
;00:00:20.756: pe=2.5700 eb=0.0294 ve=0.0000 vn=0.5099 vl=0.000 db=0.55
G1 E10.7683 F2400                       ; retract de=-4.0700@-40.0 r=1.17
;00:00:20.858: pe=-1.5040 eb=0.0334 ve=-40.0000 vn=0.0000 vl=0.000 db=0.58
G1 Z0.500 F420                          ; hopup dz=0.20@7 h=0.5 r=0.91
;00:00:20.887: pe=-1.5040 eb=0.0334 ve=0.0000 vn=0.0000 vl=0.000 db=0.45
G1 X-67.52 Y59.88 F6000                 ; move dl=8.6@100(0<46>0) de=0.000@0.0(0.0<0.0>0.0) l=0.50x0.50x0.00 r=0.00
;00:00:21.165: pe=-1.5040 eb=0.0000 ve=0.0000 vn=0.0000 vl=0.000 db=0.00
G1 Z0.300 F420                          ; hopdn dz=-0.20@7 h=0.3 r=0.00
;00:00:21.193: pe=-1.5040 eb=0.0000 ve=0.0000 vn=0.0000 vl=0.000 db=0.00
G1 E14.8394 F1800                       ; restore de=4.0710@30.0 r=1.02
;00:00:21.329: pe=2.5416 eb=0.0254 ve=30.0000 vn=0.5700 vl=0.000 db=0.51
G1 X-67.52 Y56.48 E15.0514 F600         ; draw dl=3.4@10(0<10>0) de=0.212@0.59(0.0<0.62>0.0) l=0.30x0.50x1.00 r=1.01
;00:00:21.689: pe=2.5399 eb=0.0288 ve=0.0000 vn=0.5030 vl=0.000 db=0.54
G1 E11.0115 F2400                       ; retract de=-4.0399@-40.0 r=1.16
;00:00:21.790: pe=-1.5039 eb=0.0327 ve=-40.0000 vn=0.0000 vl=0.000 db=0.58
G1 Z0.500 F420                          ; hopup dz=0.20@7 h=0.5 r=0.90
;00:00:21.818: pe=-1.5039 eb=0.0327 ve=0.0000 vn=0.0000 vl=0.000 db=0.45
G1 X-67.52 Y56.98 F6000                 ; move dl=0.5@100(0<11>0) de=0.000@0.0(0.0<0.0>0.0) l=0.50x0.50x0.00 r=0.00
;00:00:21.885: pe=-1.5039 eb=0.0026 ve=0.0000 vn=0.0000 vl=0.000 db=0.13
G1 Z0.300 F420                          ; hopdn dz=-0.20@7 h=0.3 r=0.32
;00:00:21.914: pe=-1.5039 eb=0.0026 ve=0.0000 vn=0.0000 vl=0.000 db=0.16
G1 E15.1118 F1800                       ; restore de=4.1003@30.0 r=1.03
;00:00:22.051: pe=2.5728 eb=0.0261 ve=30.0000 vn=0.5751 vl=0.000 db=0.52
G1 X-67.77 Y56.74 E15.1334 F600         ; draw dl=0.3@10(0<10>10) de=0.022@0.48(0.0<0.62>0.62) l=0.30x0.50x1.00 r=1.09
;00:00:22.095: pe=2.5708 eb=0.0265 ve=0.6237 vn=0.5669 vl=10.000 db=0.52
G1 X-68.16 Y56.49 E15.1623              ; draw dl=0.5@10(10<10>10) de=0.029@0.62(0.62<0.62>0.62) l=0.30x0.50x1.00 r=0.95
;00:00:22.142: pe=2.5723 eb=0.0245 ve=0.6237 vn=0.6070 vl=10.000 db=0.50
G1 X-68.54 Y56.42 E15.1864              ; draw dl=0.4@10(10<10>10) de=0.024@0.62(0.62<0.62>0.62) l=0.30x0.50x1.00 r=0.98
;00:00:22.180: pe=2.5728 eb=0.0242 ve=0.6237 vn=0.6149 vl=10.000 db=0.50
G1 X-68.92 Y56.51 E15.2107              ; draw dl=0.4@10(10<10>10) de=0.024@0.62(0.62<0.62>0.62) l=0.30x0.50x1.00 r=0.99
;00:00:22.219: pe=2.5731 eb=0.0241 ve=0.6237 vn=0.6170 vl=10.000 db=0.50
G1 X-69.22 Y56.77 E15.2355              ; draw dl=0.4@10(10<10>10) de=0.025@0.62(0.62<0.62>0.62) l=0.30x0.50x1.00 r=0.99
;00:00:22.259: pe=2.5733 eb=0.0240 ve=0.6237 vn=0.6176 vl=10.000 db=0.50
G1 X-69.43 Y57.18 E15.2642              ; draw dl=0.5@10(10<10>10) de=0.029@0.62(0.62<0.62>0.62) l=0.30x0.50x1.00 r=0.99
;00:00:22.305: pe=2.5736 eb=0.0240 ve=0.6237 vn=0.6178 vl=10.000 db=0.50
G1 X-69.50 Y57.71 E15.2976              ; draw dl=0.5@10(10<10>10) de=0.033@0.62(0.62<0.62>0.62) l=0.30x0.50x1.00 r=0.99
;00:00:22.359: pe=2.5739 eb=0.0240 ve=0.6237 vn=0.6179 vl=10.000 db=0.50
G1 X-69.44 Y58.22 E15.3296              ; draw dl=0.5@10(10<10>10) de=0.032@0.62(0.62<0.62>0.62) l=0.30x0.50x1.00 r=0.99
;00:00:22.410: pe=2.5742 eb=0.0240 ve=0.6237 vn=0.6180 vl=10.000 db=0.50
G1 X-69.26 Y58.61 E15.3564              ; draw dl=0.4@10(10<10>10) de=0.027@0.62(0.62<0.62>0.62) l=0.30x0.50x1.00 r=0.99
;00:00:22.453: pe=2.5744 eb=0.0240 ve=0.6237 vn=0.6181 vl=10.000 db=0.50
G1 X-68.97 Y58.86 E15.3803              ; draw dl=0.4@10(10<10>10) de=0.024@0.62(0.62<0.62>0.62) l=0.30x0.50x1.00 r=0.99
;00:00:22.491: pe=2.5746 eb=0.0241 ve=0.6237 vn=0.6181 vl=10.000 db=0.50
G1 X-68.57 Y58.95 E15.4058              ; draw dl=0.4@10(10<10>10) de=0.026@0.62(0.62<0.62>0.62) l=0.30x0.50x1.00 r=0.99
;00:00:22.532: pe=2.5749 eb=0.0241 ve=0.6237 vn=0.6182 vl=10.000 db=0.50
G1 X-68.38 Y58.93 E15.4178              ; draw dl=0.2@10(10<10>10) de=0.012@0.62(0.62<0.62>0.62) l=0.30x0.50x1.00 r=0.99
;00:00:22.551: pe=2.5750 eb=0.0241 ve=0.6237 vn=0.6182 vl=10.000 db=0.50
G1 X-68.18 Y58.85 E15.4312              ; draw dl=0.2@10(10<10>10) de=0.013@0.62(0.62<0.62>0.62) l=0.30x0.50x1.00 r=0.99
;00:00:22.573: pe=2.5751 eb=0.0241 ve=0.6237 vn=0.6182 vl=10.000 db=0.50
G1 X-67.97 Y58.72 E15.4466              ; draw dl=0.2@10(10<10>10) de=0.015@0.62(0.62<0.62>0.62) l=0.30x0.50x1.00 r=0.99
;00:00:22.598: pe=2.5752 eb=0.0241 ve=0.6236 vn=0.6183 vl=10.000 db=0.50
G1 X-67.77 Y58.50 E15.4651              ; draw dl=0.3@10(10<10>10) de=0.019@0.62(0.62<0.62>0.62) l=0.30x0.50x1.00 r=0.99
;00:00:22.627: pe=2.5754 eb=0.0241 ve=0.6236 vn=0.6183 vl=10.000 db=0.50
G1 X-67.52 Y58.03 E15.4983              ; draw dl=0.5@10(10<10>0) de=0.033@0.53(0.62<0.62>0.0) l=0.30x0.50x1.00 r=1.16
;00:00:22.690: pe=2.5702 eb=0.0294 ve=0.0000 vn=0.5099 vl=0.000 db=0.55
G1 E11.4282 F2400                       ; retract de=-4.0702@-40.0 r=1.17
;00:00:22.792: pe=-1.5040 eb=0.0335 ve=-40.0000 vn=0.0000 vl=0.000 db=0.58
G1 Z0.500 F420                          ; hopup dz=0.20@7 h=0.5 r=0.91
;00:00:22.821: pe=-1.5040 eb=0.0335 ve=0.0000 vn=0.0000 vl=0.000 db=0.45
G1 X-66.46 Y58.89 F6000                 ; move dl=1.4@100(0<18>0) de=0.000@0.0(0.0<0.0>0.0) l=0.50x0.50x0.00 r=0.00
;00:00:22.932: pe=-1.5040 eb=0.0000 ve=0.0000 vn=0.0000 vl=0.000 db=0.00
G1 Z0.300 F420                          ; hopdn dz=-0.20@7 h=0.3 r=0.00
;00:00:22.960: pe=-1.5040 eb=0.0000 ve=0.0000 vn=0.0000 vl=0.000 db=0.00
G1 E15.4860 F1800                       ; restore de=4.0579@30.0 r=1.01
;00:00:23.095: pe=2.5287 eb=0.0252 ve=30.0000 vn=0.5670 vl=0.000 db=0.51
G1 X-65.29 Y56.44 E15.6553 F600         ; draw dl=2.7@10(0<10>0) de=0.169@0.58(0.0<0.62>0.0) l=0.30x0.50x1.00 r=1.01
;00:00:23.387: pe=2.5269 eb=0.0285 ve=0.0000 vn=0.5000 vl=0.000 db=0.54
G1 E11.6284 F2400                       ; retract de=-4.0269@-40.0 r=1.15
;00:00:23.488: pe=-1.5039 eb=0.0324 ve=-40.0000 vn=0.0000 vl=0.000 db=0.57
G1 Z0.500 F420                          ; hopup dz=0.20@7 h=0.5 r=0.89
;00:00:23.516: pe=-1.5039 eb=0.0324 ve=0.0000 vn=0.0000 vl=0.000 db=0.45
G1 X-66.29 Y55.57 F6000                 ; move dl=1.3@100(0<18>0) de=0.000@0.0(0.0<0.0>0.0) l=0.50x0.50x0.00 r=0.00
;00:00:23.625: pe=-1.5039 eb=0.0000 ve=0.0000 vn=0.0000 vl=0.000 db=0.00
G1 Z0.300 F420                          ; hopdn dz=-0.20@7 h=0.3 r=0.00
;00:00:23.654: pe=-1.5039 eb=0.0000 ve=0.0000 vn=0.0000 vl=0.000 db=0.00
G1 E15.7185 F1800                       ; restore de=4.0901@30.0 r=1.03
;00:00:23.790: pe=2.5604 eb=0.0258 ve=30.0000 vn=0.5742 vl=0.000 db=0.51
G1 X-66.19 Y55.56 E15.7247 F600         ; draw dl=0.1@10(0<10>10) de=0.006@0.31(0.0<0.62>0.62) l=0.30x0.50x1.00 r=1.65
;00:00:23.810: pe=2.5563 eb=0.0293 ve=0.6236 vn=0.5046 vl=10.000 db=0.55
G1 X-66.10 Y55.56 E15.7303              ; draw dl=0.1@10(10<10>10) de=0.006@0.62(0.62<0.62>0.62) l=0.30x0.50x1.00 r=0.83
;00:00:23.819: pe=2.5573 eb=0.0279 ve=0.6236 vn=0.5319 vl=10.000 db=0.53
G1 X-65.84 Y55.62 E15.7470              ; draw dl=0.3@10(10<10>10) de=0.017@0.62(0.62<0.62>0.62) l=0.30x0.50x1.00 r=0.90
;00:00:23.846: pe=2.5590 eb=0.0254 ve=0.6236 vn=0.5802 vl=10.000 db=0.51
G1 X-65.63 Y55.78 E15.7634              ; draw dl=0.3@10(10<10>10) de=0.016@0.62(0.62<0.62>0.62) l=0.30x0.50x1.00 r=0.95
;00:00:23.872: pe=2.5599 eb=0.0245 ve=0.6236 vn=0.6006 vl=10.000 db=0.50
G1 X-65.45 Y56.06 E15.7842              ; draw dl=0.3@10(10<10>10) de=0.021@0.62(0.62<0.62>0.62) l=0.30x0.50x1.00 r=0.97
;00:00:23.906: pe=2.5605 eb=0.0240 ve=0.6236 vn=0.6103 vl=10.000 db=0.50
G1 X-65.29 Y56.44 E15.8099              ; draw dl=0.4@10(10<10>10) de=0.026@0.62(0.62<0.62>0.62) l=0.30x0.50x1.00 r=0.98
;00:00:23.947: pe=2.5609 eb=0.0238 ve=0.6236 vn=0.6138 vl=10.000 db=0.49
G1 X-64.41 Y58.89 E15.9722              ; draw dl=2.6@10(10<10>0) de=0.162@0.6(0.62<0.62>0.0) l=0.30x0.50x1.00 r=1.02
;00:00:24.217: pe=2.5577 eb=0.0292 ve=0.0000 vn=0.5071 vl=0.000 db=0.55
G1 E11.9145 F2400                       ; retract de=-4.0577@-40.0 r=1.16
;00:00:24.319: pe=-1.5040 eb=0.0331 ve=-40.0000 vn=0.0000 vl=0.000 db=0.58
G1 Z0.500 F420                          ; hopup dz=0.20@7 h=0.5 r=0.90
;00:00:24.347: pe=-1.5040 eb=0.0331 ve=0.0000 vn=0.0000 vl=0.000 db=0.45
G1 X-63.35 Y58.76 F6000                 ; move dl=1.1@100(0<16>0) de=0.000@0.0(0.0<0.0>0.0) l=0.50x0.50x0.00 r=0.00
;00:00:24.445: pe=-1.5040 eb=0.0000 ve=0.0000 vn=0.0000 vl=0.000 db=0.00
G1 Z0.300 F420                          ; hopdn dz=-0.20@7 h=0.3 r=0.00
;00:00:24.474: pe=-1.5040 eb=0.0000 ve=0.0000 vn=0.0000 vl=0.000 db=0.00
G1 E15.9602 F1800                       ; restore de=4.0456@30.0 r=1.01
;00:00:24.609: pe=2.5167 eb=0.0249 ve=30.0000 vn=0.5643 vl=0.000 db=0.50
G1 X-63.35 Y56.48 E16.1023 F600         ; draw dl=2.3@10(0<10>0) de=0.142@0.57(0.0<0.62>0.0) l=0.30x0.50x1.00 r=1.01
;00:00:24.857: pe=2.5149 eb=0.0283 ve=0.0000 vn=0.4972 vl=0.000 db=0.54
G1 E12.0874 F2400                       ; retract de=-4.0149@-40.0 r=1.14
;00:00:24.957: pe=-1.5038 eb=0.0321 ve=-40.0000 vn=0.0000 vl=0.000 db=0.57
G1 Z0.500 F420                          ; hopup dz=0.20@7 h=0.5 r=0.89
;00:00:24.986: pe=-1.5038 eb=0.0321 ve=0.0000 vn=0.0000 vl=0.000 db=0.44
G1 X-63.35 Y57.89 F6000                 ; move dl=1.4@100(0<19>0) de=0.000@0.0(0.0<0.0>0.0) l=0.50x0.50x0.00 r=0.00
;00:00:25.098: pe=-1.5038 eb=0.0000 ve=0.0000 vn=0.0000 vl=0.000 db=0.00
G1 Z0.300 F420                          ; hopdn dz=-0.20@7 h=0.3 r=0.00
;00:00:25.127: pe=-1.5038 eb=0.0000 ve=0.0000 vn=0.0000 vl=0.000 db=0.00
G1 E16.1737 F1800                       ; restore de=4.0863@30.0 r=1.02
;00:00:25.263: pe=2.5567 eb=0.0257 ve=30.0000 vn=0.5734 vl=0.000 db=0.51
G1 X-63.11 Y58.34 E16.2055 F600         ; draw dl=0.5@10(0<10>10) de=0.032@0.52(0.0<0.62>0.62) l=0.30x0.50x1.00 r=1.03
;00:00:25.324: pe=2.5556 eb=0.0251 ve=0.6236 vn=0.5850 vl=10.000 db=0.51
G1 X-62.92 Y58.67 E16.2292              ; draw dl=0.4@10(10<10>10) de=0.024@0.62(0.62<0.62>0.62) l=0.30x0.50x1.00 r=0.96
;00:00:25.362: pe=2.5566 eb=0.0241 ve=0.6236 vn=0.6060 vl=10.000 db=0.50
G1 X-62.70 Y58.86 E16.2473              ; draw dl=0.3@10(10<10>10) de=0.018@0.62(0.62<0.62>0.62) l=0.30x0.50x1.00 r=0.98
;00:00:25.391: pe=2.5570 eb=0.0239 ve=0.6236 vn=0.6111 vl=10.000 db=0.49
G1 X-62.49 Y58.93 E16.2611              ; draw dl=0.2@10(10<10>10) de=0.014@0.62(0.62<0.62>0.62) l=0.30x0.50x1.00 r=0.98
;00:00:25.413: pe=2.5573 eb=0.0238 ve=0.6236 vn=0.6127 vl=10.000 db=0.49
G1 X-62.28 Y58.95 E16.2743              ; draw dl=0.2@10(10<10>10) de=0.013@0.62(0.62<0.62>0.62) l=0.30x0.50x1.00 r=0.98
;00:00:25.435: pe=2.5575 eb=0.0238 ve=0.6236 vn=0.6134 vl=10.000 db=0.49
G1 X-61.95 Y58.88 E16.2953              ; draw dl=0.3@10(10<10>10) de=0.021@0.62(0.62<0.62>0.62) l=0.30x0.50x1.00 r=0.98
;00:00:25.468: pe=2.5579 eb=0.0237 ve=0.6236 vn=0.6139 vl=10.000 db=0.49
G1 X-61.77 Y58.73 E16.3099              ; draw dl=0.2@10(10<10>10) de=0.015@0.62(0.62<0.62>0.62) l=0.30x0.50x1.00 r=0.98
;00:00:25.492: pe=2.5581 eb=0.0237 ve=0.6236 vn=0.6141 vl=10.000 db=0.49
G1 X-61.67 Y58.40 E16.3315              ; draw dl=0.3@10(10<10>10) de=0.022@0.62(0.62<0.62>0.62) l=0.30x0.50x1.00 r=0.98
;00:00:25.526: pe=2.5584 eb=0.0237 ve=0.6236 vn=0.6142 vl=10.000 db=0.49
G1 X-61.61 Y58.08 E16.3518              ; draw dl=0.3@10(10<10>10) de=0.020@0.62(0.62<0.62>0.62) l=0.30x0.50x1.00 r=0.99
;00:00:25.559: pe=2.5587 eb=0.0238 ve=0.6236 vn=0.6143 vl=10.000 db=0.49
G1 X-61.61 Y56.48 E16.4515              ; draw dl=1.6@10(10<10>0) de=0.100@0.59(0.62<0.62>0.0) l=0.30x0.50x1.00 r=1.04
;00:00:25.729: pe=2.5547 eb=0.0291 ve=0.0000 vn=0.5064 vl=0.000 db=0.55
G1 E12.3968 F2400                       ; retract de=-4.0547@-40.0 r=1.16
;00:00:25.830: pe=-1.5040 eb=0.0331 ve=-40.0000 vn=0.0000 vl=0.000 db=0.58
G1 Z0.500 F420                          ; hopup dz=0.20@7 h=0.5 r=0.90
;00:00:25.859: pe=-1.5040 eb=0.0331 ve=0.0000 vn=0.0000 vl=0.000 db=0.45
G1 X-60.55 Y56.48 F6000                 ; move dl=1.1@100(0<16>0) de=0.000@0.0(0.0<0.0>0.0) l=0.50x0.50x0.00 r=0.00
;00:00:25.956: pe=-1.5040 eb=0.0000 ve=0.0000 vn=0.0000 vl=0.000 db=0.00
G1 Z0.300 F420                          ; hopdn dz=-0.20@7 h=0.3 r=0.00
;00:00:25.985: pe=-1.5040 eb=0.0000 ve=0.0000 vn=0.0000 vl=0.000 db=0.00
G1 E16.4466 F1800                       ; restore de=4.0498@30.0 r=1.01
;00:00:26.120: pe=2.5208 eb=0.0250 ve=30.0000 vn=0.5652 vl=0.000 db=0.51
G1 X-60.55 Y58.89 E16.5969 F600         ; draw dl=2.4@10(0<10>0) de=0.150@0.58(0.0<0.62>0.0) l=0.30x0.50x1.00 r=1.01
;00:00:26.381: pe=2.5191 eb=0.0284 ve=0.0000 vn=0.4982 vl=0.000 db=0.54
G1 E12.5778 F2400                       ; retract de=-4.0191@-40.0 r=1.15
;00:00:26.481: pe=-1.5038 eb=0.0322 ve=-40.0000 vn=0.0000 vl=0.000 db=0.57
G1 Z0.500 F420                          ; hopup dz=0.20@7 h=0.5 r=0.89
;00:00:26.510: pe=-1.5038 eb=0.0322 ve=0.0000 vn=0.0000 vl=0.000 db=0.44
G1 X-60.55 Y58.20 F6000                 ; move dl=0.7@100(0<13>0) de=0.000@0.0(0.0<0.0>0.0) l=0.50x0.50x0.00 r=0.00
;00:00:26.589: pe=-1.5038 eb=0.0000 ve=0.0000 vn=0.0000 vl=0.000 db=0.00
G1 Z0.300 F420                          ; hopdn dz=-0.20@7 h=0.3 r=0.00
;00:00:26.617: pe=-1.5038 eb=0.0000 ve=0.0000 vn=0.0000 vl=0.000 db=0.00
G1 E16.6191 F1800                       ; restore de=4.0412@30.0 r=1.01
;00:00:26.752: pe=2.5126 eb=0.0248 ve=30.0000 vn=0.5634 vl=0.000 db=0.50
G1 X-60.30 Y58.55 E16.6459 F600         ; draw dl=0.4@10(0<10>10) de=0.027@0.51(0.0<0.62>0.62) l=0.30x0.50x1.00 r=1.04
;00:00:26.805: pe=2.5116 eb=0.0246 ve=0.6236 vn=0.5668 vl=10.000 db=0.50
G1 X-60.09 Y58.76 E16.6644              ; draw dl=0.3@10(10<10>10) de=0.019@0.62(0.62<0.62>0.62) l=0.30x0.50x1.00 r=0.93
;00:00:26.835: pe=2.5129 eb=0.0235 ve=0.6236 vn=0.5904 vl=10.000 db=0.49
G1 X-59.89 Y58.88 E16.6790              ; draw dl=0.2@10(10<10>10) de=0.015@0.62(0.62<0.62>0.62) l=0.30x0.50x1.00 r=0.95
;00:00:26.858: pe=2.5136 eb=0.0232 ve=0.6237 vn=0.5978 vl=10.000 db=0.49
G1 X-59.70 Y58.94 E16.6914              ; draw dl=0.2@10(10<10>10) de=0.012@0.62(0.62<0.62>0.62) l=0.30x0.50x1.00 r=0.96
;00:00:26.878: pe=2.5141 eb=0.0231 ve=0.6236 vn=0.6009 vl=10.000 db=0.49
G1 X-59.54 Y58.95 E16.7014              ; draw dl=0.2@10(10<10>10) de=0.010@0.62(0.62<0.62>0.62) l=0.30x0.50x1.00 r=0.96
;00:00:26.894: pe=2.5144 eb=0.0230 ve=0.6237 vn=0.6022 vl=10.000 db=0.48
G1 X-59.49 Y58.95 E16.7045              ; draw dl=0.1@10(10<10>7) de=0.003@0.54(0.62<0.62>0.45) l=0.30x0.50x1.00 r=1.12
;00:00:26.900: pe=2.5140 eb=0.0235 ve=0.4453 vn=0.5923 vl=7.141 db=0.49
G1 X-59.44 Y58.94 E16.7077              ; draw dl=0.1@10(7<7>0) de=0.003@0.22(0.45<0.45>0.0) l=0.30x0.50x1.00 r=2.49
;00:00:26.914: pe=2.5093 eb=0.0282 ve=0.0000 vn=0.4951 vl=0.000 db=0.54
G1 E12.6984 F2400                       ; retract de=-4.0093@-40.0 r=1.14
;00:00:27.014: pe=-1.5038 eb=0.0320 ve=-40.0000 vn=0.0000 vl=0.000 db=0.57
G1 Z0.500 F420                          ; hopup dz=0.20@7 h=0.5 r=0.89
;00:00:27.043: pe=-1.5038 eb=0.0320 ve=0.0000 vn=0.0000 vl=0.000 db=0.44
G1 X-58.38 Y57.69 F6000                 ; move dl=1.6@100(0<20>0) de=0.000@0.0(0.0<0.0>0.0) l=0.50x0.50x0.00 r=0.00
;00:00:27.164: pe=-1.5038 eb=0.0000 ve=0.0000 vn=0.0000 vl=0.000 db=0.00
G1 Z0.300 F420                          ; hopdn dz=-0.20@7 h=0.3 r=0.00
;00:00:27.193: pe=-1.5038 eb=0.0000 ve=0.0000 vn=0.0000 vl=0.000 db=0.00
G1 E16.8055 F1800                       ; restore de=4.1071@30.0 r=1.03
;00:00:27.330: pe=2.5772 eb=0.0261 ve=30.0000 vn=0.5780 vl=0.000 db=0.52
G1 X-56.24 Y57.69 E16.9390 F600         ; draw dl=2.1@10(0<10>10) de=0.133@0.6(0.0<0.62>0.6) l=0.30x0.50x1.00 r=1.00
;00:00:27.554: pe=2.5775 eb=0.0241 ve=0.6039 vn=0.6186 vl=9.683 db=0.50
G1 X-56.32 Y58.22 E16.9724              ; draw dl=0.5@10(10<10>10) de=0.033@0.62(0.6<0.62>0.62) l=0.30x0.50x1.00 r=0.99
;00:00:27.608: pe=2.5778 eb=0.0241 ve=0.6237 vn=0.6188 vl=10.000 db=0.50
G1 X-56.53 Y58.61 E17.0000              ; draw dl=0.4@10(10<10>10) de=0.028@0.62(0.62<0.62>0.62) l=0.30x0.50x1.00 r=0.99
;00:00:27.652: pe=2.5780 eb=0.0241 ve=0.6236 vn=0.6189 vl=10.000 db=0.50
G1 X-56.87 Y58.86 E17.0264              ; draw dl=0.4@10(10<10>10) de=0.026@0.62(0.62<0.62>0.62) l=0.30x0.50x1.00 r=0.99
;00:00:27.694: pe=2.5782 eb=0.0241 ve=0.6236 vn=0.6190 vl=10.000 db=0.50
G1 X-57.31 Y58.95 E17.0544              ; draw dl=0.4@10(10<10>10) de=0.028@0.62(0.62<0.62>0.62) l=0.30x0.50x1.00 r=0.99
;00:00:27.739: pe=2.5784 eb=0.0241 ve=0.6237 vn=0.6190 vl=10.000 db=0.50
G1 X-57.74 Y58.86 E17.0818              ; draw dl=0.4@10(10<10>10) de=0.027@0.62(0.62<0.62>0.62) l=0.30x0.50x1.00 r=0.99
;00:00:27.783: pe=2.5786 eb=0.0241 ve=0.6236 vn=0.6191 vl=10.000 db=0.50
G1 X-58.08 Y58.61 E17.1081              ; draw dl=0.4@10(10<10>10) de=0.026@0.62(0.62<0.62>0.62) l=0.30x0.50x1.00 r=0.99
;00:00:27.825: pe=2.5788 eb=0.0241 ve=0.6236 vn=0.6191 vl=10.000 db=0.50
G1 X-58.30 Y58.22 E17.1360              ; draw dl=0.4@10(10<10>10) de=0.028@0.62(0.62<0.62>0.62) l=0.30x0.50x1.00 r=0.99
;00:00:27.870: pe=2.5790 eb=0.0241 ve=0.6236 vn=0.6192 vl=10.000 db=0.50
G1 X-58.38 Y57.69 E17.1694              ; draw dl=0.5@10(10<10>10) de=0.033@0.62(0.62<0.62>0.62) l=0.30x0.50x1.00 r=0.99
;00:00:27.923: pe=2.5792 eb=0.0241 ve=0.6237 vn=0.6192 vl=10.000 db=0.50
G1 X-58.30 Y57.15 E17.2035              ; draw dl=0.5@10(10<10>10) de=0.034@0.62(0.62<0.62>0.62) l=0.30x0.50x1.00 r=0.99
;00:00:27.978: pe=2.5795 eb=0.0241 ve=0.6237 vn=0.6193 vl=10.000 db=0.50
G1 X-58.07 Y56.75 E17.2323              ; draw dl=0.5@10(10<10>10) de=0.029@0.62(0.62<0.62>0.62) l=0.30x0.50x1.00 r=0.99
;00:00:28.024: pe=2.5797 eb=0.0241 ve=0.6237 vn=0.6193 vl=10.000 db=0.50
G1 X-57.72 Y56.51 E17.2587              ; draw dl=0.4@10(10<10>10) de=0.026@0.62(0.62<0.62>0.62) l=0.30x0.50x1.00 r=0.99
;00:00:28.067: pe=2.5799 eb=0.0242 ve=0.6237 vn=0.6194 vl=10.000 db=0.50
G1 X-57.26 Y56.42 E17.2879              ; draw dl=0.5@10(10<10>10) de=0.029@0.62(0.62<0.62>0.62) l=0.30x0.50x1.00 r=0.99
;00:00:28.113: pe=2.5801 eb=0.0242 ve=0.6237 vn=0.6194 vl=10.000 db=0.50
G1 X-56.92 Y56.47 E17.3094              ; draw dl=0.3@10(10<10>10) de=0.021@0.62(0.62<0.62>0.62) l=0.30x0.50x1.00 r=0.99
;00:00:28.148: pe=2.5802 eb=0.0242 ve=0.6236 vn=0.6195 vl=10.000 db=0.50
G1 X-56.63 Y56.61 E17.3295              ; draw dl=0.3@10(10<10>10) de=0.020@0.62(0.62<0.62>0.62) l=0.30x0.50x1.00 r=0.99
;00:00:28.180: pe=2.5804 eb=0.0242 ve=0.6236 vn=0.6195 vl=10.000 db=0.50
G1 X-56.42 Y56.83 E17.3484              ; draw dl=0.3@10(10<10>10) de=0.019@0.62(0.62<0.62>0.62) l=0.30x0.50x1.00 r=0.99
;00:00:28.210: pe=2.5805 eb=0.0242 ve=0.6236 vn=0.6195 vl=10.000 db=0.50
G1 X-56.30 Y57.13 E17.3686              ; draw dl=0.3@10(10<10>0) de=0.020@0.48(0.62<0.62>0.0) l=0.30x0.50x1.00 r=1.27
;00:00:28.253: pe=2.5751 eb=0.0295 ve=0.0000 vn=0.5111 vl=0.000 db=0.55
G1 E13.2935 F2400                       ; retract de=-4.0751@-40.0 r=1.17
;00:00:28.355: pe=-1.5040 eb=0.0336 ve=-40.0000 vn=0.0000 vl=0.000 db=0.59
G1 Z0.500 F420                          ; hopup dz=0.20@7 h=0.5 r=0.91
;00:00:28.383: pe=-1.5040 eb=0.0336 ve=0.0000 vn=0.0000 vl=0.000 db=0.45
G1 X-53.99 Y56.46 F6000                 ; move dl=2.4@100(0<25>0) de=0.000@0.0(0.0<0.0>0.0) l=0.50x0.50x0.00 r=0.00
;00:00:28.530: pe=-1.5040 eb=0.0000 ve=0.0000 vn=0.0000 vl=0.000 db=0.00
G1 Z0.300 F420                          ; hopdn dz=-0.20@7 h=0.3 r=0.00
;00:00:28.559: pe=-1.5040 eb=0.0000 ve=0.0000 vn=0.0000 vl=0.000 db=0.00
G1 E17.3750 F1800                       ; restore de=4.0816@30.0 r=1.02
;00:00:28.695: pe=2.5519 eb=0.0256 ve=30.0000 vn=0.5723 vl=0.000 db=0.51
G1 X-54.14 Y56.45 E17.3844 F600         ; draw dl=0.2@10(0<10>10) de=0.009@0.37(0.0<0.62>0.62) l=0.30x0.50x1.00 r=1.37
;00:00:28.720: pe=2.5485 eb=0.0282 ve=0.6236 vn=0.5188 vl=10.000 db=0.54
G1 X-54.32 Y56.50 E17.3961              ; draw dl=0.2@10(10<10>10) de=0.012@0.62(0.62<0.62>0.62) l=0.30x0.50x1.00 r=0.87
;00:00:28.739: pe=2.5500 eb=0.0261 ve=0.6236 vn=0.5615 vl=10.000 db=0.52
G1 X-54.48 Y56.62 E17.4085              ; draw dl=0.2@10(10<10>10) de=0.012@0.62(0.62<0.62>0.62) l=0.30x0.50x1.00 r=0.92
;00:00:28.759: pe=2.5510 eb=0.0249 ve=0.6236 vn=0.5865 vl=10.000 db=0.50
G1 X-54.60 Y56.81 E17.4225              ; draw dl=0.2@10(10<10>10) de=0.014@0.62(0.62<0.62>0.62) l=0.30x0.50x1.00 r=0.95
;00:00:28.781: pe=2.5516 eb=0.0242 ve=0.6236 vn=0.6006 vl=10.000 db=0.50
G1 X-54.68 Y57.19 E17.4468              ; draw dl=0.4@10(10<10>10) de=0.024@0.62(0.62<0.62>0.62) l=0.30x0.50x1.00 r=0.97
;00:00:28.820: pe=2.5523 eb=0.0238 ve=0.6236 vn=0.6097 vl=10.000 db=0.49
G1 X-54.68 Y59.52 E17.5921              ; draw dl=2.3@10(10<10>0) de=0.145@0.6(0.62<0.62>0.0) l=0.30x0.50x1.00 r=1.02
;00:00:29.063: pe=2.5494 eb=0.0290 ve=0.0000 vn=0.5052 vl=0.000 db=0.54
G1 E13.5426 F2400                       ; retract de=-4.0494@-40.0 r=1.16
;00:00:29.164: pe=-1.5039 eb=0.0329 ve=-40.0000 vn=0.0000 vl=0.000 db=0.58
G1 Z0.500 F420                          ; hopup dz=0.20@7 h=0.5 r=0.90
;00:00:29.193: pe=-1.5039 eb=0.0329 ve=0.0000 vn=0.0000 vl=0.000 db=0.45
G1 X-55.18 Y58.76 F6000                 ; move dl=0.9@100(0<15>0) de=0.000@0.0(0.0<0.0>0.0) l=0.50x0.50x0.00 r=0.00
;00:00:29.283: pe=-1.5039 eb=0.0000 ve=0.0000 vn=0.0000 vl=0.000 db=0.00
G1 Z0.300 F420                          ; hopdn dz=-0.20@7 h=0.3 r=0.00
;00:00:29.312: pe=-1.5039 eb=0.0000 ve=0.0000 vn=0.0000 vl=0.000 db=0.00
G1 E17.5129 F1800                       ; restore de=3.9703@30.0 r=0.98
;00:00:29.444: pe=2.4429 eb=0.0235 ve=30.0000 vn=0.5476 vl=0.000 db=0.49
G1 X-54.10 Y58.76 E17.5803 F600         ; draw dl=1.1@10(0<10>0) de=0.067@0.53(0.0<0.62>0.0) l=0.30x0.50x1.00 r=1.03
;00:00:29.572: pe=2.4408 eb=0.0269 ve=0.0000 vn=0.4777 vl=0.000 db=0.52
G1 E13.6394 F2400                       ; retract de=-3.9408@-40.0 r=1.11
;00:00:29.671: pe=-1.5035 eb=0.0304 ve=-40.0000 vn=0.0000 vl=0.000 db=0.56
G1 Z0.500 F420                          ; hopup dz=0.20@7 h=0.5 r=0.86
;00:00:29.699: pe=-1.5035 eb=0.0304 ve=0.0000 vn=0.0000 vl=0.000 db=0.43
G1 X-52.92 Y58.26 F6000                 ; move dl=1.3@100(0<18>0) de=0.000@0.0(0.0<0.0>0.0) l=0.50x0.50x0.00 r=0.00
;00:00:29.807: pe=-1.5035 eb=0.0000 ve=0.0000 vn=0.0000 vl=0.000 db=0.00
G1 Z0.300 F420                          ; hopdn dz=-0.20@7 h=0.3 r=0.00
;00:00:29.835: pe=-1.5035 eb=0.0000 ve=0.0000 vn=0.0000 vl=0.000 db=0.00
G1 E17.6597 F1800                       ; restore de=4.0202@30.0 r=1.00
;00:00:29.969: pe=2.4922 eb=0.0244 ve=30.0000 vn=0.5587 vl=0.000 db=0.50
G1 X-51.23 Y58.26 E17.7650 F600         ; draw dl=1.7@10(0<10>0) de=0.105@0.56(0.0<0.62>0.0) l=0.30x0.50x1.00 r=1.02
;00:00:30.158: pe=2.4904 eb=0.0278 ve=0.0000 vn=0.4913 vl=0.000 db=0.53
G1 E13.7747 F2400                       ; retract de=-3.9904@-40.0 r=1.13
;00:00:30.258: pe=-1.5037 eb=0.0315 ve=-40.0000 vn=0.0000 vl=0.000 db=0.57
G1 Z0.500 F420                          ; hopup dz=0.20@7 h=0.5 r=0.88
;00:00:30.287: pe=-1.5037 eb=0.0315 ve=0.0000 vn=0.0000 vl=0.000 db=0.44
G1 X-51.23 Y57.55 F6000                 ; move dl=0.7@100(0<13>0) de=0.000@0.0(0.0<0.0>0.0) l=0.50x0.50x0.00 r=0.00
;00:00:30.367: pe=-1.5037 eb=0.0000 ve=0.0000 vn=0.0000 vl=0.000 db=0.00
G1 Z0.300 F420                          ; hopdn dz=-0.20@7 h=0.3 r=0.00
;00:00:30.395: pe=-1.5037 eb=0.0000 ve=0.0000 vn=0.0000 vl=0.000 db=0.00
G1 E17.7951 F1800                       ; restore de=4.0204@30.0 r=1.00
;00:00:30.529: pe=2.4922 eb=0.0244 ve=30.0000 vn=0.5587 vl=0.000 db=0.50
G1 X-52.92 Y57.55 E17.9005 F600         ; draw dl=1.7@10(0<10>0) de=0.105@0.56(0.0<0.62>0.0) l=0.30x0.50x1.00 r=1.02
;00:00:30.718: pe=2.4904 eb=0.0278 ve=0.0000 vn=0.4913 vl=0.000 db=0.53
G1 E13.9101 F2400                       ; retract de=-3.9904@-40.0 r=1.13
;00:00:30.818: pe=-1.5037 eb=0.0315 ve=-40.0000 vn=0.0000 vl=0.000 db=0.57
G1 Z0.500 F420                          ; hopup dz=0.20@7 h=0.5 r=0.88
;00:00:30.846: pe=-1.5037 eb=0.0315 ve=0.0000 vn=0.0000 vl=0.000 db=0.44
G1 X-48.95 Y59.94 F6000                 ; move dl=4.6@100(0<34>0) de=0.000@0.0(0.0<0.0>0.0) l=0.50x0.50x0.00 r=0.00
;00:00:31.051: pe=-1.5037 eb=0.0000 ve=0.0000 vn=0.0000 vl=0.000 db=0.00
G1 Z0.300 F420                          ; hopdn dz=-0.20@7 h=0.3 r=0.00
;00:00:31.079: pe=-1.5037 eb=0.0000 ve=0.0000 vn=0.0000 vl=0.000 db=0.00
G1 E18.0184 F1800                       ; restore de=4.1083@30.0 r=1.03
;00:00:31.216: pe=2.5784 eb=0.0261 ve=30.0000 vn=0.5783 vl=0.000 db=0.52
G1 X-48.44 Y59.80 E18.0514 F600         ; draw dl=0.5@10(0<10>10) de=0.033@0.52(0.0<0.62>0.62) l=0.30x0.50x1.00 r=1.04
;00:00:31.279: pe=2.5771 eb=0.0254 ve=0.6236 vn=0.5914 vl=10.000 db=0.51
G1 X-48.05 Y59.42 E18.0853              ; draw dl=0.5@10(10<10>10) de=0.034@0.62(0.62<0.62>0.62) l=0.30x0.50x1.00 r=0.97
;00:00:31.334: pe=2.5780 eb=0.0243 ve=0.6236 vn=0.6146 vl=10.000 db=0.50
G1 X-47.81 Y58.86 E18.1233              ; draw dl=0.6@10(10<10>10) de=0.038@0.62(0.62<0.62>0.62) l=0.30x0.50x1.00 r=0.99
;00:00:31.394: pe=2.5784 eb=0.0241 ve=0.6236 vn=0.6185 vl=10.000 db=0.50
G1 X-47.73 Y58.18 E18.1660              ; draw dl=0.7@10(10<10>10) de=0.043@0.62(0.62<0.62>0.62) l=0.30x0.50x1.00 r=0.99
;00:00:31.463: pe=2.5788 eb=0.0241 ve=0.6236 vn=0.6191 vl=10.000 db=0.50
G1 X-47.81 Y57.51 E18.2081              ; draw dl=0.7@10(10<10>10) de=0.042@0.62(0.62<0.62>0.62) l=0.30x0.50x1.00 r=0.99
;00:00:31.530: pe=2.5791 eb=0.0241 ve=0.6236 vn=0.6192 vl=10.000 db=0.50
G1 X-48.05 Y56.95 E18.2461              ; draw dl=0.6@10(10<10>10) de=0.038@0.62(0.62<0.62>0.62) l=0.30x0.50x1.00 r=0.99
;00:00:31.591: pe=2.5793 eb=0.0241 ve=0.6236 vn=0.6192 vl=10.000 db=0.50
G1 X-48.44 Y56.56 E18.2805              ; draw dl=0.6@10(10<10>10) de=0.034@0.62(0.62<0.62>0.62) l=0.30x0.50x1.00 r=0.99
;00:00:31.646: pe=2.5796 eb=0.0241 ve=0.6236 vn=0.6193 vl=10.000 db=0.50
G1 X-48.95 Y56.42 E18.3135              ; draw dl=0.5@10(10<10>10) de=0.033@0.62(0.62<0.62>0.62) l=0.30x0.50x1.00 r=0.99
;00:00:31.699: pe=2.5798 eb=0.0241 ve=0.6236 vn=0.6194 vl=10.000 db=0.50
G1 X-49.47 Y56.56 E18.3471              ; draw dl=0.5@10(10<10>10) de=0.034@0.62(0.62<0.62>0.62) l=0.30x0.50x1.00 r=0.99
;00:00:31.753: pe=2.5800 eb=0.0242 ve=0.6236 vn=0.6194 vl=10.000 db=0.50
G1 X-49.85 Y56.95 E18.3810              ; draw dl=0.5@10(10<10>10) de=0.034@0.62(0.62<0.62>0.62) l=0.30x0.50x1.00 r=0.99
;00:00:31.808: pe=2.5803 eb=0.0242 ve=0.6236 vn=0.6195 vl=10.000 db=0.50
G1 X-50.09 Y57.51 E18.4190              ; draw dl=0.6@10(10<10>10) de=0.038@0.62(0.62<0.62>0.62) l=0.30x0.50x1.00 r=0.99
;00:00:31.869: pe=2.5805 eb=0.0242 ve=0.6236 vn=0.6195 vl=10.000 db=0.50
G1 X-50.17 Y58.18 E18.4611              ; draw dl=0.7@10(10<10>10) de=0.042@0.62(0.62<0.62>0.62) l=0.30x0.50x1.00 r=0.99
;00:00:31.936: pe=2.5808 eb=0.0242 ve=0.6236 vn=0.6196 vl=10.000 db=0.50
G1 X-50.09 Y58.85 E18.5032              ; draw dl=0.7@10(10<10>10) de=0.042@0.62(0.62<0.62>0.62) l=0.30x0.50x1.00 r=0.99
;00:00:32.004: pe=2.5811 eb=0.0242 ve=0.6236 vn=0.6197 vl=10.000 db=0.50
G1 X-49.85 Y59.42 E18.5417              ; draw dl=0.6@10(10<10>10) de=0.039@0.62(0.62<0.62>0.62) l=0.30x0.50x1.00 r=0.99
;00:00:32.065: pe=2.5813 eb=0.0242 ve=0.6236 vn=0.6197 vl=10.000 db=0.50
G1 X-49.47 Y59.80 E18.5753              ; draw dl=0.5@10(10<10>10) de=0.034@0.62(0.62<0.62>0.62) l=0.30x0.50x1.00 r=0.99
;00:00:32.119: pe=2.5815 eb=0.0242 ve=0.6236 vn=0.6198 vl=10.000 db=0.50
G1 X-48.95 Y59.94 E18.6088              ; draw dl=0.5@10(10<10>0) de=0.034@0.53(0.62<0.62>0.0) l=0.30x0.50x1.00 r=1.16
;00:00:32.183: pe=2.5762 eb=0.0296 ve=0.0000 vn=0.5113 vl=0.000 db=0.55
G1 E14.5326 F2400                       ; retract de=-4.0762@-40.0 r=1.17
;00:00:32.285: pe=-1.5040 eb=0.0336 ve=-40.0000 vn=0.0000 vl=0.000 db=0.59
G1 Z0.500 F420                          ; hopup dz=0.20@7 h=0.5 r=0.91
;00:00:32.313: pe=-1.5040 eb=0.0336 ve=0.0000 vn=0.0000 vl=0.000 db=0.45
;structure:shell-outer
G1 X70.00 Y0.00 F6000                   ; move dl=133.2@100(0<100>0) de=0.000@0.0(0.0<0.0>0.0) l=0.50x0.50x0.00 r=0.00
;00:00:33.845: pe=-1.5040 eb=0.0000 ve=0.0000 vn=0.0000 vl=0.000 db=0.00
G1 Z0.300 F420                          ; hopdn dz=-0.20@7 h=0.3 r=0.00
;00:00:33.874: pe=-1.5040 eb=0.0000 ve=0.0000 vn=0.0000 vl=0.000 db=0.00
G1 E18.6509 F1800                       ; restore de=4.1183@30.0 r=1.04
;00:00:34.011: pe=2.5879 eb=0.0263 ve=30.0000 vn=0.5804 vl=0.000 db=0.52
;00:00:34.011: spiral RC0=(70.0,0.000) dRC=(0.0,1.000) dl=439.8@10 de=27.429@0.6 l=0.30x0.50x1.00
G1 X69.73 Y6.10 E19.0317 F600           ; draw dl=6.1@10(0<10>10) de=0.381@0.61(0.0<0.62>0.62) l=0.30x0.50x1.00 r=1.00
;00:00:34.632: pe=2.5886 eb=0.0243 ve=0.6236 vn=0.6214 vl=10.000 db=0.50
G1 X68.94 Y12.16 E19.4126               ; draw dl=6.1@10(10<10>10) de=0.381@0.62(0.62<0.62>0.62) l=0.30x0.50x1.00 r=1.00
;00:00:35.243: pe=2.5898 eb=0.0243 ve=0.6236 vn=0.6217 vl=10.000 db=0.50
G1 X67.61 Y18.12 E19.7934               ; draw dl=6.1@10(10<10>10) de=0.381@0.62(0.62<0.62>0.62) l=0.30x0.50x1.00 r=1.00
;00:00:35.853: pe=2.5909 eb=0.0244 ve=0.6236 vn=0.6220 vl=10.000 db=0.50
G1 X65.78 Y23.94 E20.1742               ; draw dl=6.1@10(10<10>10) de=0.381@0.62(0.62<0.62>0.62) l=0.30x0.50x1.00 r=1.00
;00:00:36.464: pe=2.5918 eb=0.0244 ve=0.6236 vn=0.6222 vl=10.000 db=0.50
G1 X63.44 Y29.58 E20.5551               ; draw dl=6.1@10(10<10>10) de=0.381@0.62(0.62<0.62>0.62) l=0.30x0.50x1.00 r=1.00
;00:00:37.075: pe=2.5927 eb=0.0244 ve=0.6236 vn=0.6224 vl=10.000 db=0.50
G1 X60.62 Y35.00 E20.9359               ; draw dl=6.1@10(10<10>10) de=0.381@0.62(0.62<0.62>0.62) l=0.30x0.50x1.00 r=1.00
;00:00:37.685: pe=2.5933 eb=0.0244 ve=0.6236 vn=0.6226 vl=10.000 db=0.50
G1 X57.34 Y40.15 E21.3167               ; draw dl=6.1@10(10<10>10) de=0.381@0.62(0.62<0.62>0.62) l=0.30x0.50x1.00 r=1.00
;00:00:38.296: pe=2.5939 eb=0.0244 ve=0.6236 vn=0.6227 vl=10.000 db=0.50
G1 X53.62 Y45.00 E21.6976               ; draw dl=6.1@10(10<10>10) de=0.381@0.62(0.62<0.62>0.62) l=0.30x0.50x1.00 r=1.00
;00:00:38.907: pe=2.5945 eb=0.0244 ve=0.6236 vn=0.6228 vl=10.000 db=0.50
G1 X49.50 Y49.50 E22.0784               ; draw dl=6.1@10(10<10>10) de=0.381@0.62(0.62<0.62>0.62) l=0.30x0.50x1.00 r=1.00
;00:00:39.517: pe=2.5949 eb=0.0244 ve=0.6236 vn=0.6229 vl=10.000 db=0.50
G1 X45.00 Y53.62 E22.4592               ; draw dl=6.1@10(10<10>10) de=0.381@0.62(0.62<0.62>0.62) l=0.30x0.50x1.00 r=1.00
;00:00:40.128: pe=2.5953 eb=0.0244 ve=0.6236 vn=0.6230 vl=10.000 db=0.50
G1 X40.15 Y57.34 E22.8401               ; draw dl=6.1@10(10<10>10) de=0.381@0.62(0.62<0.62>0.62) l=0.30x0.50x1.00 r=1.00
;00:00:40.739: pe=2.5956 eb=0.0244 ve=0.6236 vn=0.6231 vl=10.000 db=0.50
G1 X35.00 Y60.62 E23.2209               ; draw dl=6.1@10(10<10>10) de=0.381@0.62(0.62<0.62>0.62) l=0.30x0.50x1.00 r=1.00
;00:00:41.349: pe=2.5959 eb=0.0245 ve=0.6236 vn=0.6232 vl=10.000 db=0.50
G1 X29.58 Y63.44 E23.6017               ; draw dl=6.1@10(10<10>10) de=0.381@0.62(0.62<0.62>0.62) l=0.30x0.50x1.00 r=1.00
;00:00:41.960: pe=2.5962 eb=0.0245 ve=0.6236 vn=0.6232 vl=10.000 db=0.50
G1 X23.94 Y65.78 E23.9826               ; draw dl=6.1@10(10<10>10) de=0.381@0.62(0.62<0.62>0.62) l=0.30x0.50x1.00 r=1.00
;00:00:42.571: pe=2.5964 eb=0.0245 ve=0.6236 vn=0.6233 vl=10.000 db=0.50
G1 X18.12 Y67.61 E24.3634               ; draw dl=6.1@10(10<10>10) de=0.381@0.62(0.62<0.62>0.62) l=0.30x0.50x1.00 r=1.00
;00:00:43.181: pe=2.5966 eb=0.0245 ve=0.6236 vn=0.6233 vl=10.000 db=0.50
G1 X12.16 Y68.94 E24.7442               ; draw dl=6.1@10(10<10>10) de=0.381@0.62(0.62<0.62>0.62) l=0.30x0.50x1.00 r=1.00
;00:00:43.792: pe=2.5968 eb=0.0245 ve=0.6236 vn=0.6234 vl=10.000 db=0.50
G1 X6.10 Y69.73 E25.1250                ; draw dl=6.1@10(10<10>10) de=0.381@0.62(0.62<0.62>0.62) l=0.30x0.50x1.00 r=1.00
;00:00:44.403: pe=2.5969 eb=0.0245 ve=0.6236 vn=0.6234 vl=10.000 db=0.50
G1 X0.00 Y70.00 E25.5059                ; draw dl=6.1@10(10<10>10) de=0.381@0.62(0.62<0.62>0.62) l=0.30x0.50x1.00 r=1.00
;00:00:45.013: pe=2.5970 eb=0.0245 ve=0.6236 vn=0.6234 vl=10.000 db=0.50
G1 X-6.10 Y69.73 E25.8867               ; draw dl=6.1@10(10<10>10) de=0.381@0.62(0.62<0.62>0.62) l=0.30x0.50x1.00 r=1.00
;00:00:45.624: pe=2.5971 eb=0.0245 ve=0.6236 vn=0.6235 vl=10.000 db=0.50
G1 X-12.16 Y68.94 E26.2675              ; draw dl=6.1@10(10<10>10) de=0.381@0.62(0.62<0.62>0.62) l=0.30x0.50x1.00 r=1.00
;00:00:46.235: pe=2.5972 eb=0.0245 ve=0.6236 vn=0.6235 vl=10.000 db=0.50
G1 X-18.12 Y67.61 E26.6484              ; draw dl=6.1@10(10<10>10) de=0.381@0.62(0.62<0.62>0.62) l=0.30x0.50x1.00 r=1.00
;00:00:46.845: pe=2.5973 eb=0.0245 ve=0.6236 vn=0.6235 vl=10.000 db=0.50
G1 X-23.94 Y65.78 E27.0292              ; draw dl=6.1@10(10<10>10) de=0.381@0.62(0.62<0.62>0.62) l=0.30x0.50x1.00 r=1.00
;00:00:47.456: pe=2.5974 eb=0.0245 ve=0.6236 vn=0.6235 vl=10.000 db=0.50
G1 X-29.58 Y63.44 E27.4100              ; draw dl=6.1@10(10<10>10) de=0.381@0.62(0.62<0.62>0.62) l=0.30x0.50x1.00 r=1.00
;00:00:48.067: pe=2.5974 eb=0.0245 ve=0.6236 vn=0.6235 vl=10.000 db=0.50
G1 X-35.00 Y60.62 E27.7909              ; draw dl=6.1@10(10<10>10) de=0.381@0.62(0.62<0.62>0.62) l=0.30x0.50x1.00 r=1.00
;00:00:48.677: pe=2.5975 eb=0.0245 ve=0.6236 vn=0.6236 vl=10.000 db=0.50
G1 X-40.15 Y57.34 E28.1717              ; draw dl=6.1@10(10<10>10) de=0.381@0.62(0.62<0.62>0.62) l=0.30x0.50x1.00 r=1.00
;00:00:49.288: pe=2.5975 eb=0.0245 ve=0.6236 vn=0.6236 vl=10.000 db=0.50
G1 X-45.00 Y53.62 E28.5525              ; draw dl=6.1@10(10<10>10) de=0.381@0.62(0.62<0.62>0.62) l=0.30x0.50x1.00 r=1.00
;00:00:49.899: pe=2.5976 eb=0.0245 ve=0.6236 vn=0.6236 vl=10.000 db=0.50
G1 X-49.50 Y49.50 E28.9334              ; draw dl=6.1@10(10<10>10) de=0.381@0.62(0.62<0.62>0.62) l=0.30x0.50x1.00 r=1.00
;00:00:50.509: pe=2.5976 eb=0.0245 ve=0.6236 vn=0.6236 vl=10.000 db=0.50
G1 X-53.62 Y45.00 E29.3142              ; draw dl=6.1@10(10<10>10) de=0.381@0.62(0.62<0.62>0.62) l=0.30x0.50x1.00 r=1.00
;00:00:51.120: pe=2.5976 eb=0.0245 ve=0.6236 vn=0.6236 vl=10.000 db=0.50
G1 X-57.34 Y40.15 E29.6950              ; draw dl=6.1@10(10<10>10) de=0.381@0.62(0.62<0.62>0.62) l=0.30x0.50x1.00 r=1.00
;00:00:51.731: pe=2.5976 eb=0.0245 ve=0.6236 vn=0.6236 vl=10.000 db=0.50
G1 X-60.62 Y35.00 E30.0759              ; draw dl=6.1@10(10<10>10) de=0.381@0.62(0.62<0.62>0.62) l=0.30x0.50x1.00 r=1.00
;00:00:52.341: pe=2.5977 eb=0.0245 ve=0.6236 vn=0.6236 vl=10.000 db=0.50
G1 X-63.44 Y29.58 E30.4567              ; draw dl=6.1@10(10<10>10) de=0.381@0.62(0.62<0.62>0.62) l=0.30x0.50x1.00 r=1.00
;00:00:52.952: pe=2.5977 eb=0.0245 ve=0.6236 vn=0.6236 vl=10.000 db=0.50
G1 X-65.78 Y23.94 E30.8375              ; draw dl=6.1@10(10<10>10) de=0.381@0.62(0.62<0.62>0.62) l=0.30x0.50x1.00 r=1.00
;00:00:53.563: pe=2.5977 eb=0.0245 ve=0.6236 vn=0.6236 vl=10.000 db=0.50
G1 X-67.61 Y18.12 E31.2184              ; draw dl=6.1@10(10<10>10) de=0.381@0.62(0.62<0.62>0.62) l=0.30x0.50x1.00 r=1.00
;00:00:54.173: pe=2.5977 eb=0.0245 ve=0.6236 vn=0.6236 vl=10.000 db=0.50
G1 X-68.94 Y12.16 E31.5992              ; draw dl=6.1@10(10<10>10) de=0.381@0.62(0.62<0.62>0.62) l=0.30x0.50x1.00 r=1.00
;00:00:54.784: pe=2.5977 eb=0.0245 ve=0.6236 vn=0.6236 vl=10.000 db=0.50
G1 X-69.73 Y6.10 E31.9800               ; draw dl=6.1@10(10<10>10) de=0.381@0.62(0.62<0.62>0.62) l=0.30x0.50x1.00 r=1.00
;00:00:55.395: pe=2.5977 eb=0.0245 ve=0.6236 vn=0.6236 vl=10.000 db=0.50
G1 X-70.00 Y0.00 E32.3609               ; draw dl=6.1@10(10<10>10) de=0.381@0.62(0.62<0.62>0.62) l=0.30x0.50x1.00 r=1.00
;00:00:56.005: pe=2.5977 eb=0.0245 ve=0.6236 vn=0.6236 vl=10.000 db=0.50
G1 X-69.73 Y-6.10 E32.7417              ; draw dl=6.1@10(10<10>10) de=0.381@0.62(0.62<0.62>0.62) l=0.30x0.50x1.00 r=1.00
;00:00:56.616: pe=2.5978 eb=0.0245 ve=0.6236 vn=0.6236 vl=10.000 db=0.50
G1 X-68.94 Y-12.16 E33.1225             ; draw dl=6.1@10(10<10>10) de=0.381@0.62(0.62<0.62>0.62) l=0.30x0.50x1.00 r=1.00
;00:00:57.227: pe=2.5978 eb=0.0245 ve=0.6236 vn=0.6236 vl=10.000 db=0.50
G1 X-67.61 Y-18.12 E33.5033             ; draw dl=6.1@10(10<10>10) de=0.381@0.62(0.62<0.62>0.62) l=0.30x0.50x1.00 r=1.00
;00:00:57.837: pe=2.5978 eb=0.0245 ve=0.6236 vn=0.6236 vl=10.000 db=0.50
G1 X-65.78 Y-23.94 E33.8842             ; draw dl=6.1@10(10<10>10) de=0.381@0.62(0.62<0.62>0.62) l=0.30x0.50x1.00 r=1.00
;00:00:58.448: pe=2.5978 eb=0.0245 ve=0.6236 vn=0.6236 vl=10.000 db=0.50
G1 X-63.44 Y-29.58 E34.2650             ; draw dl=6.1@10(10<10>10) de=0.381@0.62(0.62<0.62>0.62) l=0.30x0.50x1.00 r=1.00
;00:00:59.059: pe=2.5978 eb=0.0245 ve=0.6236 vn=0.6236 vl=10.000 db=0.50
G1 X-60.62 Y-35.00 E34.6458             ; draw dl=6.1@10(10<10>10) de=0.381@0.62(0.62<0.62>0.62) l=0.30x0.50x1.00 r=1.00
;00:00:59.669: pe=2.5978 eb=0.0245 ve=0.6236 vn=0.6236 vl=10.000 db=0.50
G1 X-57.34 Y-40.15 E35.0267             ; draw dl=6.1@10(10<10>10) de=0.381@0.62(0.62<0.62>0.62) l=0.30x0.50x1.00 r=1.00
;00:01:00.280: pe=2.5978 eb=0.0245 ve=0.6236 vn=0.6236 vl=10.000 db=0.50
G1 X-53.62 Y-45.00 E35.4075             ; draw dl=6.1@10(10<10>10) de=0.381@0.62(0.62<0.62>0.62) l=0.30x0.50x1.00 r=1.00
;00:01:00.891: pe=2.5978 eb=0.0245 ve=0.6236 vn=0.6236 vl=10.000 db=0.50
G1 X-49.50 Y-49.50 E35.7883             ; draw dl=6.1@10(10<10>10) de=0.381@0.62(0.62<0.62>0.62) l=0.30x0.50x1.00 r=1.00
;00:01:01.502: pe=2.5978 eb=0.0245 ve=0.6236 vn=0.6236 vl=10.000 db=0.50
G1 X-45.00 Y-53.62 E36.1692             ; draw dl=6.1@10(10<10>10) de=0.381@0.62(0.62<0.62>0.62) l=0.30x0.50x1.00 r=1.00
;00:01:02.112: pe=2.5978 eb=0.0245 ve=0.6236 vn=0.6236 vl=10.000 db=0.50
G1 X-40.15 Y-57.34 E36.5500             ; draw dl=6.1@10(10<10>10) de=0.381@0.62(0.62<0.62>0.62) l=0.30x0.50x1.00 r=1.00
;00:01:02.723: pe=2.5978 eb=0.0245 ve=0.6236 vn=0.6236 vl=10.000 db=0.50
G1 X-35.00 Y-60.62 E36.9308             ; draw dl=6.1@10(10<10>10) de=0.381@0.62(0.62<0.62>0.62) l=0.30x0.50x1.00 r=1.00
;00:01:03.334: pe=2.5978 eb=0.0245 ve=0.6236 vn=0.6236 vl=10.000 db=0.50
G1 X-29.58 Y-63.44 E37.3117             ; draw dl=6.1@10(10<10>10) de=0.381@0.62(0.62<0.62>0.62) l=0.30x0.50x1.00 r=1.00
;00:01:03.944: pe=2.5978 eb=0.0245 ve=0.6236 vn=0.6236 vl=10.000 db=0.50
G1 X-23.94 Y-65.78 E37.6925             ; draw dl=6.1@10(10<10>10) de=0.381@0.62(0.62<0.62>0.62) l=0.30x0.50x1.00 r=1.00
;00:01:04.555: pe=2.5978 eb=0.0245 ve=0.6236 vn=0.6236 vl=10.000 db=0.50
G1 X-18.12 Y-67.61 E38.0733             ; draw dl=6.1@10(10<10>10) de=0.381@0.62(0.62<0.62>0.62) l=0.30x0.50x1.00 r=1.00
;00:01:05.166: pe=2.5978 eb=0.0245 ve=0.6236 vn=0.6236 vl=10.000 db=0.50
G1 X-12.16 Y-68.94 E38.4542             ; draw dl=6.1@10(10<10>10) de=0.381@0.62(0.62<0.62>0.62) l=0.30x0.50x1.00 r=1.00
;00:01:05.776: pe=2.5978 eb=0.0245 ve=0.6236 vn=0.6236 vl=10.000 db=0.50
G1 X-6.10 Y-69.73 E38.8350              ; draw dl=6.1@10(10<10>10) de=0.381@0.62(0.62<0.62>0.62) l=0.30x0.50x1.00 r=1.00
;00:01:06.387: pe=2.5978 eb=0.0245 ve=0.6236 vn=0.6236 vl=10.000 db=0.50
G1 X0.00 Y-70.00 E39.2158               ; draw dl=6.1@10(10<10>10) de=0.381@0.62(0.62<0.62>0.62) l=0.30x0.50x1.00 r=1.00
;00:01:06.998: pe=2.5978 eb=0.0245 ve=0.6236 vn=0.6236 vl=10.000 db=0.50
G1 X6.10 Y-69.73 E39.5967               ; draw dl=6.1@10(10<10>10) de=0.381@0.62(0.62<0.62>0.62) l=0.30x0.50x1.00 r=1.00
;00:01:07.608: pe=2.5978 eb=0.0245 ve=0.6236 vn=0.6236 vl=10.000 db=0.50
G1 X12.16 Y-68.94 E39.9775              ; draw dl=6.1@10(10<10>10) de=0.381@0.62(0.62<0.62>0.62) l=0.30x0.50x1.00 r=1.00
;00:01:08.219: pe=2.5978 eb=0.0245 ve=0.6236 vn=0.6236 vl=10.000 db=0.50
G1 X18.12 Y-67.61 E40.3583              ; draw dl=6.1@10(10<10>10) de=0.381@0.62(0.62<0.62>0.62) l=0.30x0.50x1.00 r=1.00
;00:01:08.830: pe=2.5978 eb=0.0245 ve=0.6236 vn=0.6236 vl=10.000 db=0.50
G1 X23.94 Y-65.78 E40.7392              ; draw dl=6.1@10(10<10>10) de=0.381@0.62(0.62<0.62>0.62) l=0.30x0.50x1.00 r=1.00
;00:01:09.440: pe=2.5978 eb=0.0245 ve=0.6236 vn=0.6236 vl=10.000 db=0.50
G1 X29.58 Y-63.44 E41.1200              ; draw dl=6.1@10(10<10>10) de=0.381@0.62(0.62<0.62>0.62) l=0.30x0.50x1.00 r=1.00
;00:01:10.051: pe=2.5978 eb=0.0245 ve=0.6236 vn=0.6236 vl=10.000 db=0.50
G1 X35.00 Y-60.62 E41.5008              ; draw dl=6.1@10(10<10>10) de=0.381@0.62(0.62<0.62>0.62) l=0.30x0.50x1.00 r=1.00
;00:01:10.662: pe=2.5978 eb=0.0245 ve=0.6236 vn=0.6236 vl=10.000 db=0.50
G1 X40.15 Y-57.34 E41.8816              ; draw dl=6.1@10(10<10>10) de=0.381@0.62(0.62<0.62>0.62) l=0.30x0.50x1.00 r=1.00
;00:01:11.272: pe=2.5978 eb=0.0245 ve=0.6236 vn=0.6236 vl=10.000 db=0.50
G1 X45.00 Y-53.62 E42.2625              ; draw dl=6.1@10(10<10>10) de=0.381@0.62(0.62<0.62>0.62) l=0.30x0.50x1.00 r=1.00
;00:01:11.883: pe=2.5978 eb=0.0245 ve=0.6236 vn=0.6236 vl=10.000 db=0.50
G1 X49.50 Y-49.50 E42.6433              ; draw dl=6.1@10(10<10>10) de=0.381@0.62(0.62<0.62>0.62) l=0.30x0.50x1.00 r=1.00
;00:01:12.494: pe=2.5978 eb=0.0245 ve=0.6236 vn=0.6236 vl=10.000 db=0.50
G1 X53.62 Y-45.00 E43.0241              ; draw dl=6.1@10(10<10>10) de=0.381@0.62(0.62<0.62>0.62) l=0.30x0.50x1.00 r=1.00
;00:01:13.104: pe=2.5978 eb=0.0245 ve=0.6236 vn=0.6236 vl=10.000 db=0.50
G1 X57.34 Y-40.15 E43.4050              ; draw dl=6.1@10(10<10>10) de=0.381@0.62(0.62<0.62>0.62) l=0.30x0.50x1.00 r=1.00
;00:01:13.715: pe=2.5978 eb=0.0245 ve=0.6236 vn=0.6236 vl=10.000 db=0.50
G1 X60.62 Y-35.00 E43.7858              ; draw dl=6.1@10(10<10>10) de=0.381@0.62(0.62<0.62>0.62) l=0.30x0.50x1.00 r=1.00
;00:01:14.326: pe=2.5978 eb=0.0245 ve=0.6236 vn=0.6236 vl=10.000 db=0.50
G1 X63.44 Y-29.58 E44.1666              ; draw dl=6.1@10(10<10>10) de=0.381@0.62(0.62<0.62>0.62) l=0.30x0.50x1.00 r=1.00
;00:01:14.936: pe=2.5978 eb=0.0245 ve=0.6236 vn=0.6236 vl=10.000 db=0.50
G1 X65.78 Y-23.94 E44.5475              ; draw dl=6.1@10(10<10>10) de=0.381@0.62(0.62<0.62>0.62) l=0.30x0.50x1.00 r=1.00
;00:01:15.547: pe=2.5978 eb=0.0245 ve=0.6236 vn=0.6236 vl=10.000 db=0.50
G1 X67.61 Y-18.12 E44.9283              ; draw dl=6.1@10(10<10>10) de=0.381@0.62(0.62<0.62>0.62) l=0.30x0.50x1.00 r=1.00
;00:01:16.158: pe=2.5978 eb=0.0245 ve=0.6236 vn=0.6236 vl=10.000 db=0.50
G1 X68.94 Y-12.16 E45.3091              ; draw dl=6.1@10(10<10>10) de=0.381@0.62(0.62<0.62>0.62) l=0.30x0.50x1.00 r=1.00
;00:01:16.768: pe=2.5978 eb=0.0245 ve=0.6236 vn=0.6236 vl=10.000 db=0.50
G1 X69.73 Y-6.10 E45.6900               ; draw dl=6.1@10(10<10>10) de=0.381@0.62(0.62<0.62>0.62) l=0.30x0.50x1.00 r=1.00
;00:01:17.379: pe=2.5978 eb=0.0245 ve=0.6236 vn=0.6236 vl=10.000 db=0.50
G1 X70.00 Y0.00 E46.0708                ; draw dl=6.1@10(10<10>0) de=0.381@0.61(0.62<0.62>0.0) l=0.30x0.50x1.00 r=1.01
;00:01:18.000: pe=2.5923 eb=0.0299 ve=0.0000 vn=0.5150 vl=0.000 db=0.55
;00:01:18.000: skipping empty move move dl=0.0@10(0<0>0) de=0.000@0.0(0.0<0.0>0.0) l=0.30x0.50x0.00
G1 E41.9785 F2400                       ; retract de=-4.0923@-40.0 r=1.18
;00:01:18.102: pe=-1.5041 eb=0.0340 ve=-40.0000 vn=0.0000 vl=0.000 db=0.59
G1 Z0.500 F420                          ; hopup dz=0.20@7 h=0.5 r=0.91
;00:01:18.131: pe=-1.5041 eb=0.0340 ve=0.0000 vn=0.0000 vl=0.000 db=0.46
;00:01:18.131: skipping empty move move dl=0.0@7(0<0>0) de=0.000@0.0(0.0<0.0>0.0) l=0.50x0.50x0.00
G1 Z0.300                               ; hopdn dz=-0.20@7 h=0.3 r=1.18
;00:01:18.159: pe=-1.5041 eb=0.0340 ve=0.0000 vn=0.0000 vl=0.000 db=0.59
G1 E46.0425 F1800                       ; restore de=4.0640@30.0 r=1.25
;00:01:18.295: pe=2.5556 eb=0.0384 ve=30.0000 vn=0.3454 vl=0.000 db=0.63
G1 X73.00 Y0.00 E46.2296 F600           ; draw dl=3.0@10(0<10>0) de=0.187@0.58(0.0<0.62>0.0) l=0.30x0.50x1.00 r=0.97
;00:01:18.615: pe=2.5602 eb=0.0292 ve=0.0000 vn=0.5077 vl=0.000 db=0.55
G1 E42.1694 F2400                       ; retract de=-4.0602@-40.0 r=1.16
;00:01:18.716: pe=-1.5040 eb=0.0332 ve=-40.0000 vn=0.0000 vl=0.000 db=0.58
G1 Z0.500 F420                          ; hopup dz=0.20@7 h=0.5 r=0.90
;00:01:18.745: pe=-1.5040 eb=0.0332 ve=0.0000 vn=0.0000 vl=0.000 db=0.45
G1 X69.73 Y6.10 F6000                   ; move dl=6.9@100(0<42>0) de=0.000@0.0(0.0<0.0>0.0) l=0.50x0.50x0.00 r=0.00
;00:01:18.994: pe=-1.5040 eb=0.0000 ve=0.0000 vn=0.0000 vl=0.000 db=0.00
G1 Z0.300 F420                          ; hopdn dz=-0.20@7 h=0.3 r=0.00
;00:01:19.023: pe=-1.5040 eb=0.0000 ve=0.0000 vn=0.0000 vl=0.000 db=0.00
G1 E46.1783 F1800                       ; restore de=4.0089@30.0 r=0.99
;00:01:19.156: pe=2.4807 eb=0.0242 ve=30.0000 vn=0.5562 vl=0.000 db=0.50
G1 X71.23 Y6.23 E46.2718 F600           ; draw dl=1.5@10(0<10>0) de=0.094@0.55(0.0<0.62>0.0) l=0.30x0.50x1.00 r=1.02
;00:01:19.326: pe=2.4788 eb=0.0276 ve=0.0000 vn=0.4883 vl=0.000 db=0.53
G1 E42.2930 F2400                       ; retract de=-3.9788@-40.0 r=1.13
;00:01:19.426: pe=-1.5037 eb=0.0312 ve=-40.0000 vn=0.0000 vl=0.000 db=0.56
G1 Z0.500 F420                          ; hopup dz=0.20@7 h=0.5 r=0.87
;00:01:19.454: pe=-1.5037 eb=0.0312 ve=0.0000 vn=0.0000 vl=0.000 db=0.44
G1 X68.94 Y12.16 F6000                  ; move dl=6.4@100(0<40>0) de=0.000@0.0(0.0<0.0>0.0) l=0.50x0.50x0.00 r=0.00
;00:01:19.694: pe=-1.5037 eb=0.0000 ve=0.0000 vn=0.0000 vl=0.000 db=0.00
G1 Z0.300 F420                          ; hopdn dz=-0.20@7 h=0.3 r=0.00
;00:01:19.722: pe=-1.5037 eb=0.0000 ve=0.0000 vn=0.0000 vl=0.000 db=0.00
G1 E46.3016 F1800                       ; restore de=4.0086@30.0 r=0.99
;00:01:19.856: pe=2.4807 eb=0.0242 ve=30.0000 vn=0.5562 vl=0.000 db=0.50
G1 X70.41 Y12.42 E46.3952 F600          ; draw dl=1.5@10(0<10>0) de=0.094@0.55(0.0<0.62>0.0) l=0.30x0.50x1.00 r=1.02
;00:01:20.026: pe=2.4788 eb=0.0276 ve=0.0000 vn=0.4883 vl=0.000 db=0.53
G1 E42.4164 F2400                       ; retract de=-3.9788@-40.0 r=1.13
;00:01:20.125: pe=-1.5037 eb=0.0312 ve=-40.0000 vn=0.0000 vl=0.000 db=0.56
G1 Z0.500 F420                          ; hopup dz=0.20@7 h=0.5 r=0.87
;00:01:20.154: pe=-1.5037 eb=0.0312 ve=0.0000 vn=0.0000 vl=0.000 db=0.44
G1 X67.61 Y18.12 F6000                  ; move dl=6.4@100(0<40>0) de=0.000@0.0(0.0<0.0>0.0) l=0.50x0.50x0.00 r=0.00
;00:01:20.393: pe=-1.5037 eb=0.0000 ve=0.0000 vn=0.0000 vl=0.000 db=0.00
G1 Z0.300 F420                          ; hopdn dz=-0.20@7 h=0.3 r=0.00
;00:01:20.421: pe=-1.5037 eb=0.0000 ve=0.0000 vn=0.0000 vl=0.000 db=0.00
G1 E46.4250 F1800                       ; restore de=4.0086@30.0 r=0.99
;00:01:20.555: pe=2.4807 eb=0.0242 ve=30.0000 vn=0.5562 vl=0.000 db=0.50
G1 X69.06 Y18.51 E46.5185 F600          ; draw dl=1.5@10(0<10>0) de=0.094@0.55(0.0<0.62>0.0) l=0.30x0.50x1.00 r=1.02
;00:01:20.725: pe=2.4788 eb=0.0276 ve=0.0000 vn=0.4883 vl=0.000 db=0.53
G1 E42.5397 F2400                       ; retract de=-3.9788@-40.0 r=1.13
;00:01:20.825: pe=-1.5037 eb=0.0312 ve=-40.0000 vn=0.0000 vl=0.000 db=0.56
G1 Z0.500 F420                          ; hopup dz=0.20@7 h=0.5 r=0.87
;00:01:20.853: pe=-1.5037 eb=0.0312 ve=0.0000 vn=0.0000 vl=0.000 db=0.44
G1 X65.78 Y23.94 F6000                  ; move dl=6.4@100(0<40>0) de=0.000@0.0(0.0<0.0>0.0) l=0.50x0.50x0.00 r=0.00
;00:01:21.092: pe=-1.5037 eb=0.0000 ve=0.0000 vn=0.0000 vl=0.000 db=0.00
G1 Z0.300 F420                          ; hopdn dz=-0.20@7 h=0.3 r=0.00
;00:01:21.121: pe=-1.5037 eb=0.0000 ve=0.0000 vn=0.0000 vl=0.000 db=0.00
G1 E46.5483 F1800                       ; restore de=4.0086@30.0 r=0.99
;00:01:21.254: pe=2.4807 eb=0.0242 ve=30.0000 vn=0.5562 vl=0.000 db=0.50
G1 X67.19 Y24.45 E46.6418 F600          ; draw dl=1.5@10(0<10>0) de=0.094@0.55(0.0<0.62>0.0) l=0.30x0.50x1.00 r=1.02
;00:01:21.424: pe=2.4788 eb=0.0276 ve=0.0000 vn=0.4883 vl=0.000 db=0.53
G1 E42.6631 F2400                       ; retract de=-3.9788@-40.0 r=1.13
;00:01:21.524: pe=-1.5037 eb=0.0312 ve=-40.0000 vn=0.0000 vl=0.000 db=0.56
G1 Z0.500 F420                          ; hopup dz=0.20@7 h=0.5 r=0.87
;00:01:21.552: pe=-1.5037 eb=0.0312 ve=0.0000 vn=0.0000 vl=0.000 db=0.44
G1 X63.44 Y29.58 F6000                  ; move dl=6.4@100(0<40>0) de=0.000@0.0(0.0<0.0>0.0) l=0.50x0.50x0.00 r=0.00
;00:01:21.791: pe=-1.5037 eb=0.0000 ve=0.0000 vn=0.0000 vl=0.000 db=0.00
G1 Z0.300 F420                          ; hopdn dz=-0.20@7 h=0.3 r=0.00
;00:01:21.820: pe=-1.5037 eb=0.0000 ve=0.0000 vn=0.0000 vl=0.000 db=0.00
G1 E46.6717 F1800                       ; restore de=4.0086@30.0 r=0.99
;00:01:21.954: pe=2.4807 eb=0.0242 ve=30.0000 vn=0.5562 vl=0.000 db=0.50
G1 X64.80 Y30.22 E46.7652 F600          ; draw dl=1.5@10(0<10>0) de=0.094@0.55(0.0<0.62>0.0) l=0.30x0.50x1.00 r=1.02
;00:01:22.124: pe=2.4788 eb=0.0276 ve=0.0000 vn=0.4883 vl=0.000 db=0.53
G1 E42.7864 F2400                       ; retract de=-3.9788@-40.0 r=1.13
;00:01:22.223: pe=-1.5037 eb=0.0312 ve=-40.0000 vn=0.0000 vl=0.000 db=0.56
G1 Z0.500 F420                          ; hopup dz=0.20@7 h=0.5 r=0.87
;00:01:22.252: pe=-1.5037 eb=0.0312 ve=0.0000 vn=0.0000 vl=0.000 db=0.44
G1 X60.62 Y35.00 F6000                  ; move dl=6.4@100(0<40>0) de=0.000@0.0(0.0<0.0>0.0) l=0.50x0.50x0.00 r=0.00
;00:01:22.491: pe=-1.5037 eb=0.0000 ve=0.0000 vn=0.0000 vl=0.000 db=0.00
G1 Z0.300 F420                          ; hopdn dz=-0.20@7 h=0.3 r=0.00
;00:01:22.519: pe=-1.5037 eb=0.0000 ve=0.0000 vn=0.0000 vl=0.000 db=0.00
G1 E46.8500 F1800                       ; restore de=4.0636@30.0 r=1.02
;00:01:22.655: pe=2.5347 eb=0.0253 ve=30.0000 vn=0.5684 vl=0.000 db=0.51
G1 X63.22 Y36.50 E47.0371 F600          ; draw dl=3.0@10(0<10>0) de=0.187@0.58(0.0<0.62>0.0) l=0.30x0.50x1.00 r=1.01
;00:01:22.975: pe=2.5329 eb=0.0287 ve=0.0000 vn=0.5014 vl=0.000 db=0.54
G1 E43.0042 F2400                       ; retract de=-4.0329@-40.0 r=1.15
;00:01:23.076: pe=-1.5039 eb=0.0325 ve=-40.0000 vn=0.0000 vl=0.000 db=0.58
G1 Z0.500 F420                          ; hopup dz=0.20@7 h=0.5 r=0.89
;00:01:23.104: pe=-1.5039 eb=0.0325 ve=0.0000 vn=0.0000 vl=0.000 db=0.45
G1 X57.34 Y40.15 F6000                  ; move dl=6.9@100(0<42>0) de=0.000@0.0(0.0<0.0>0.0) l=0.50x0.50x0.00 r=0.00
;00:01:23.354: pe=-1.5039 eb=0.0000 ve=0.0000 vn=0.0000 vl=0.000 db=0.00
G1 Z0.300 F420                          ; hopdn dz=-0.20@7 h=0.3 r=0.00
;00:01:23.382: pe=-1.5039 eb=0.0000 ve=0.0000 vn=0.0000 vl=0.000 db=0.00
G1 E47.0130 F1800                       ; restore de=4.0088@30.0 r=0.99
;00:01:23.516: pe=2.4807 eb=0.0242 ve=30.0000 vn=0.5562 vl=0.000 db=0.50
G1 X58.57 Y41.01 E47.1065 F600          ; draw dl=1.5@10(0<10>0) de=0.094@0.55(0.0<0.62>0.0) l=0.30x0.50x1.00 r=1.02
;00:01:23.686: pe=2.4788 eb=0.0276 ve=0.0000 vn=0.4883 vl=0.000 db=0.53
G1 E43.1277 F2400                       ; retract de=-3.9788@-40.0 r=1.13
;00:01:23.785: pe=-1.5037 eb=0.0312 ve=-40.0000 vn=0.0000 vl=0.000 db=0.56
G1 Z0.500 F420                          ; hopup dz=0.20@7 h=0.5 r=0.87
;00:01:23.814: pe=-1.5037 eb=0.0312 ve=0.0000 vn=0.0000 vl=0.000 db=0.44
G1 X53.62 Y45.00 F6000                  ; move dl=6.4@100(0<40>0) de=0.000@0.0(0.0<0.0>0.0) l=0.50x0.50x0.00 r=0.00
;00:01:24.053: pe=-1.5037 eb=0.0000 ve=0.0000 vn=0.0000 vl=0.000 db=0.00
G1 Z0.300 F420                          ; hopdn dz=-0.20@7 h=0.3 r=0.00
;00:01:24.082: pe=-1.5037 eb=0.0000 ve=0.0000 vn=0.0000 vl=0.000 db=0.00
G1 E47.1363 F1800                       ; restore de=4.0086@30.0 r=0.99
;00:01:24.215: pe=2.4807 eb=0.0242 ve=30.0000 vn=0.5562 vl=0.000 db=0.50
G1 X54.77 Y45.96 E47.2299 F600          ; draw dl=1.5@10(0<10>0) de=0.094@0.55(0.0<0.62>0.0) l=0.30x0.50x1.00 r=1.02
;00:01:24.385: pe=2.4788 eb=0.0276 ve=0.0000 vn=0.4883 vl=0.000 db=0.53
G1 E43.2511 F2400                       ; retract de=-3.9788@-40.0 r=1.13
;00:01:24.485: pe=-1.5037 eb=0.0312 ve=-40.0000 vn=0.0000 vl=0.000 db=0.56
G1 Z0.500 F420                          ; hopup dz=0.20@7 h=0.5 r=0.87
;00:01:24.513: pe=-1.5037 eb=0.0312 ve=0.0000 vn=0.0000 vl=0.000 db=0.44
G1 X49.50 Y49.50 F6000                  ; move dl=6.4@100(0<40>0) de=0.000@0.0(0.0<0.0>0.0) l=0.50x0.50x0.00 r=0.00
;00:01:24.752: pe=-1.5037 eb=0.0000 ve=0.0000 vn=0.0000 vl=0.000 db=0.00
G1 Z0.300 F420                          ; hopdn dz=-0.20@7 h=0.3 r=0.00
;00:01:24.781: pe=-1.5037 eb=0.0000 ve=0.0000 vn=0.0000 vl=0.000 db=0.00
G1 E47.2597 F1800                       ; restore de=4.0086@30.0 r=0.99
;00:01:24.915: pe=2.4807 eb=0.0242 ve=30.0000 vn=0.5562 vl=0.000 db=0.50
G1 X50.56 Y50.56 E47.3532 F600          ; draw dl=1.5@10(0<10>0) de=0.094@0.55(0.0<0.62>0.0) l=0.30x0.50x1.00 r=1.02
;00:01:25.085: pe=2.4788 eb=0.0276 ve=0.0000 vn=0.4883 vl=0.000 db=0.53
G1 E43.3744 F2400                       ; retract de=-3.9788@-40.0 r=1.13
;00:01:25.184: pe=-1.5037 eb=0.0312 ve=-40.0000 vn=0.0000 vl=0.000 db=0.56
G1 Z0.500 F420                          ; hopup dz=0.20@7 h=0.5 r=0.87
;00:01:25.213: pe=-1.5037 eb=0.0312 ve=0.0000 vn=0.0000 vl=0.000 db=0.44
G1 X45.00 Y53.62 F6000                  ; move dl=6.4@100(0<40>0) de=0.000@0.0(0.0<0.0>0.0) l=0.50x0.50x0.00 r=0.00
;00:01:25.452: pe=-1.5037 eb=0.0000 ve=0.0000 vn=0.0000 vl=0.000 db=0.00
G1 Z0.300 F420                          ; hopdn dz=-0.20@7 h=0.3 r=0.00
;00:01:25.480: pe=-1.5037 eb=0.0000 ve=0.0000 vn=0.0000 vl=0.000 db=0.00
G1 E47.3830 F1800                       ; restore de=4.0086@30.0 r=0.99
;00:01:25.614: pe=2.4807 eb=0.0242 ve=30.0000 vn=0.5562 vl=0.000 db=0.50
G1 X45.96 Y54.77 E47.4766 F600          ; draw dl=1.5@10(0<10>0) de=0.094@0.55(0.0<0.62>0.0) l=0.30x0.50x1.00 r=1.02
;00:01:25.784: pe=2.4788 eb=0.0276 ve=0.0000 vn=0.4883 vl=0.000 db=0.53
G1 E43.4978 F2400                       ; retract de=-3.9788@-40.0 r=1.13
;00:01:25.883: pe=-1.5037 eb=0.0312 ve=-40.0000 vn=0.0000 vl=0.000 db=0.56
G1 Z0.500 F420                          ; hopup dz=0.20@7 h=0.5 r=0.87
;00:01:25.912: pe=-1.5037 eb=0.0312 ve=0.0000 vn=0.0000 vl=0.000 db=0.44
G1 X40.15 Y57.34 F6000                  ; move dl=6.4@100(0<40>0) de=0.000@0.0(0.0<0.0>0.0) l=0.50x0.50x0.00 r=0.00
;00:01:26.151: pe=-1.5037 eb=0.0000 ve=0.0000 vn=0.0000 vl=0.000 db=0.00
G1 Z0.300 F420                          ; hopdn dz=-0.20@7 h=0.3 r=0.00
;00:01:26.180: pe=-1.5037 eb=0.0000 ve=0.0000 vn=0.0000 vl=0.000 db=0.00
G1 E47.5064 F1800                       ; restore de=4.0086@30.0 r=0.99
;00:01:26.313: pe=2.4807 eb=0.0242 ve=30.0000 vn=0.5562 vl=0.000 db=0.50
G1 X41.01 Y58.57 E47.5999 F600          ; draw dl=1.5@10(0<10>0) de=0.094@0.55(0.0<0.62>0.0) l=0.30x0.50x1.00 r=1.02
;00:01:26.483: pe=2.4788 eb=0.0276 ve=0.0000 vn=0.4883 vl=0.000 db=0.53
G1 E43.6211 F2400                       ; retract de=-3.9788@-40.0 r=1.13
;00:01:26.583: pe=-1.5037 eb=0.0312 ve=-40.0000 vn=0.0000 vl=0.000 db=0.56
G1 Z0.500 F420                          ; hopup dz=0.20@7 h=0.5 r=0.87
;00:01:26.611: pe=-1.5037 eb=0.0312 ve=0.0000 vn=0.0000 vl=0.000 db=0.44
G1 X35.00 Y60.62 F6000                  ; move dl=6.4@100(0<40>0) de=0.000@0.0(0.0<0.0>0.0) l=0.50x0.50x0.00 r=0.00
;00:01:26.850: pe=-1.5037 eb=0.0000 ve=0.0000 vn=0.0000 vl=0.000 db=0.00
G1 Z0.300 F420                          ; hopdn dz=-0.20@7 h=0.3 r=0.00
;00:01:26.879: pe=-1.5037 eb=0.0000 ve=0.0000 vn=0.0000 vl=0.000 db=0.00
G1 E47.6847 F1800                       ; restore de=4.0636@30.0 r=1.02
;00:01:27.014: pe=2.5347 eb=0.0253 ve=30.0000 vn=0.5684 vl=0.000 db=0.51
G1 X36.50 Y63.22 E47.8718 F600          ; draw dl=3.0@10(0<10>0) de=0.187@0.58(0.0<0.62>0.0) l=0.30x0.50x1.00 r=1.01
;00:01:27.334: pe=2.5329 eb=0.0287 ve=0.0000 vn=0.5014 vl=0.000 db=0.54
G1 E43.8389 F2400                       ; retract de=-4.0329@-40.0 r=1.15
;00:01:27.435: pe=-1.5039 eb=0.0325 ve=-40.0000 vn=0.0000 vl=0.000 db=0.58
G1 Z0.500 F420                          ; hopup dz=0.20@7 h=0.5 r=0.89
;00:01:27.464: pe=-1.5039 eb=0.0325 ve=0.0000 vn=0.0000 vl=0.000 db=0.45
G1 X29.58 Y63.44 F6000                  ; move dl=6.9@100(0<42>0) de=0.000@0.0(0.0<0.0>0.0) l=0.50x0.50x0.00 r=0.00
;00:01:27.713: pe=-1.5039 eb=0.0000 ve=0.0000 vn=0.0000 vl=0.000 db=0.00
G1 Z0.300 F420                          ; hopdn dz=-0.20@7 h=0.3 r=0.00
;00:01:27.742: pe=-1.5039 eb=0.0000 ve=0.0000 vn=0.0000 vl=0.000 db=0.00
G1 E47.8477 F1800                       ; restore de=4.0088@30.0 r=0.99
;00:01:27.876: pe=2.4807 eb=0.0242 ve=30.0000 vn=0.5562 vl=0.000 db=0.50
G1 X30.22 Y64.80 E47.9412 F600          ; draw dl=1.5@10(0<10>0) de=0.094@0.55(0.0<0.62>0.0) l=0.30x0.50x1.00 r=1.02
;00:01:28.046: pe=2.4788 eb=0.0276 ve=0.0000 vn=0.4883 vl=0.000 db=0.53
G1 E43.9625 F2400                       ; retract de=-3.9788@-40.0 r=1.13
;00:01:28.145: pe=-1.5037 eb=0.0312 ve=-40.0000 vn=0.0000 vl=0.000 db=0.56
G1 Z0.500 F420                          ; hopup dz=0.20@7 h=0.5 r=0.87
;00:01:28.174: pe=-1.5037 eb=0.0312 ve=0.0000 vn=0.0000 vl=0.000 db=0.44
G1 X23.94 Y65.78 F6000                  ; move dl=6.4@100(0<40>0) de=0.000@0.0(0.0<0.0>0.0) l=0.50x0.50x0.00 r=0.00
;00:01:28.413: pe=-1.5037 eb=0.0000 ve=0.0000 vn=0.0000 vl=0.000 db=0.00
G1 Z0.300 F420                          ; hopdn dz=-0.20@7 h=0.3 r=0.00
;00:01:28.441: pe=-1.5037 eb=0.0000 ve=0.0000 vn=0.0000 vl=0.000 db=0.00
G1 E47.9710 F1800                       ; restore de=4.0086@30.0 r=0.99
;00:01:28.575: pe=2.4807 eb=0.0242 ve=30.0000 vn=0.5562 vl=0.000 db=0.50
G1 X24.45 Y67.19 E48.0646 F600          ; draw dl=1.5@10(0<10>0) de=0.094@0.55(0.0<0.62>0.0) l=0.30x0.50x1.00 r=1.02
;00:01:28.745: pe=2.4788 eb=0.0276 ve=0.0000 vn=0.4883 vl=0.000 db=0.53
G1 E44.0858 F2400                       ; retract de=-3.9788@-40.0 r=1.13
;00:01:28.844: pe=-1.5037 eb=0.0312 ve=-40.0000 vn=0.0000 vl=0.000 db=0.56
G1 Z0.500 F420                          ; hopup dz=0.20@7 h=0.5 r=0.87
;00:01:28.873: pe=-1.5037 eb=0.0312 ve=0.0000 vn=0.0000 vl=0.000 db=0.44
G1 X18.12 Y67.61 F6000                  ; move dl=6.4@100(0<40>0) de=0.000@0.0(0.0<0.0>0.0) l=0.50x0.50x0.00 r=0.00
;00:01:29.112: pe=-1.5037 eb=0.0000 ve=0.0000 vn=0.0000 vl=0.000 db=0.00
G1 Z0.300 F420                          ; hopdn dz=-0.20@7 h=0.3 r=0.00
;00:01:29.141: pe=-1.5037 eb=0.0000 ve=0.0000 vn=0.0000 vl=0.000 db=0.00
G1 E48.0944 F1800                       ; restore de=4.0086@30.0 r=0.99
;00:01:29.274: pe=2.4807 eb=0.0242 ve=30.0000 vn=0.5562 vl=0.000 db=0.50
G1 X18.51 Y69.06 E48.1879 F600          ; draw dl=1.5@10(0<10>0) de=0.094@0.55(0.0<0.62>0.0) l=0.30x0.50x1.00 r=1.02
;00:01:29.444: pe=2.4788 eb=0.0276 ve=0.0000 vn=0.4883 vl=0.000 db=0.53
G1 E44.2092 F2400                       ; retract de=-3.9788@-40.0 r=1.13
;00:01:29.544: pe=-1.5037 eb=0.0312 ve=-40.0000 vn=0.0000 vl=0.000 db=0.56
G1 Z0.500 F420                          ; hopup dz=0.20@7 h=0.5 r=0.87
;00:01:29.572: pe=-1.5037 eb=0.0312 ve=0.0000 vn=0.0000 vl=0.000 db=0.44
G1 X12.16 Y68.94 F6000                  ; move dl=6.4@100(0<40>0) de=0.000@0.0(0.0<0.0>0.0) l=0.50x0.50x0.00 r=0.00
;00:01:29.811: pe=-1.5037 eb=0.0000 ve=0.0000 vn=0.0000 vl=0.000 db=0.00
G1 Z0.300 F420                          ; hopdn dz=-0.20@7 h=0.3 r=0.00
;00:01:29.840: pe=-1.5037 eb=0.0000 ve=0.0000 vn=0.0000 vl=0.000 db=0.00
G1 E48.2177 F1800                       ; restore de=4.0086@30.0 r=0.99
;00:01:29.974: pe=2.4807 eb=0.0242 ve=30.0000 vn=0.5562 vl=0.000 db=0.50
G1 X12.42 Y70.41 E48.3113 F600          ; draw dl=1.5@10(0<10>0) de=0.094@0.55(0.0<0.62>0.0) l=0.30x0.50x1.00 r=1.02
;00:01:30.144: pe=2.4788 eb=0.0276 ve=0.0000 vn=0.4883 vl=0.000 db=0.53
G1 E44.3325 F2400                       ; retract de=-3.9788@-40.0 r=1.13
;00:01:30.243: pe=-1.5037 eb=0.0312 ve=-40.0000 vn=0.0000 vl=0.000 db=0.56
G1 Z0.500 F420                          ; hopup dz=0.20@7 h=0.5 r=0.87
;00:01:30.272: pe=-1.5037 eb=0.0312 ve=0.0000 vn=0.0000 vl=0.000 db=0.44
G1 X6.10 Y69.73 F6000                   ; move dl=6.4@100(0<40>0) de=0.000@0.0(0.0<0.0>0.0) l=0.50x0.50x0.00 r=0.00
;00:01:30.511: pe=-1.5037 eb=0.0000 ve=0.0000 vn=0.0000 vl=0.000 db=0.00
G1 Z0.300 F420                          ; hopdn dz=-0.20@7 h=0.3 r=0.00
;00:01:30.539: pe=-1.5037 eb=0.0000 ve=0.0000 vn=0.0000 vl=0.000 db=0.00
G1 E48.3411 F1800                       ; restore de=4.0086@30.0 r=0.99
;00:01:30.673: pe=2.4807 eb=0.0242 ve=30.0000 vn=0.5562 vl=0.000 db=0.50
G1 X6.23 Y71.23 E48.4346 F600           ; draw dl=1.5@10(0<10>0) de=0.094@0.55(0.0<0.62>0.0) l=0.30x0.50x1.00 r=1.02
;00:01:30.843: pe=2.4788 eb=0.0276 ve=0.0000 vn=0.4883 vl=0.000 db=0.53
G1 E44.4558 F2400                       ; retract de=-3.9788@-40.0 r=1.13
;00:01:30.942: pe=-1.5037 eb=0.0312 ve=-40.0000 vn=0.0000 vl=0.000 db=0.56
G1 Z0.500 F420                          ; hopup dz=0.20@7 h=0.5 r=0.87
;00:01:30.971: pe=-1.5037 eb=0.0312 ve=0.0000 vn=0.0000 vl=0.000 db=0.44
G1 X0.00 Y70.00 F6000                   ; move dl=6.4@100(0<40>0) de=0.000@0.0(0.0<0.0>0.0) l=0.50x0.50x0.00 r=0.00
;00:01:31.210: pe=-1.5037 eb=0.0000 ve=0.0000 vn=0.0000 vl=0.000 db=0.00
G1 Z0.300 F420                          ; hopdn dz=-0.20@7 h=0.3 r=0.00
;00:01:31.239: pe=-1.5037 eb=0.0000 ve=0.0000 vn=0.0000 vl=0.000 db=0.00
G1 E48.5195 F1800                       ; restore de=4.0636@30.0 r=1.02
;00:01:31.374: pe=2.5347 eb=0.0253 ve=30.0000 vn=0.5684 vl=0.000 db=0.51
G1 X0.00 Y73.00 E48.7065 F600           ; draw dl=3.0@10(0<10>0) de=0.187@0.58(0.0<0.62>0.0) l=0.30x0.50x1.00 r=1.01
;00:01:31.694: pe=2.5329 eb=0.0287 ve=0.0000 vn=0.5014 vl=0.000 db=0.54
G1 E44.6736 F2400                       ; retract de=-4.0329@-40.0 r=1.15
;00:01:31.795: pe=-1.5039 eb=0.0325 ve=-40.0000 vn=0.0000 vl=0.000 db=0.58
G1 Z0.500 F420                          ; hopup dz=0.20@7 h=0.5 r=0.89
;00:01:31.823: pe=-1.5039 eb=0.0325 ve=0.0000 vn=0.0000 vl=0.000 db=0.45
G1 X-6.10 Y69.73 F6000                  ; move dl=6.9@100(0<42>0) de=0.000@0.0(0.0<0.0>0.0) l=0.50x0.50x0.00 r=0.00
;00:01:32.073: pe=-1.5039 eb=0.0000 ve=0.0000 vn=0.0000 vl=0.000 db=0.00
G1 Z0.300 F420                          ; hopdn dz=-0.20@7 h=0.3 r=0.00
;00:01:32.102: pe=-1.5039 eb=0.0000 ve=0.0000 vn=0.0000 vl=0.000 db=0.00
G1 E48.6824 F1800                       ; restore de=4.0088@30.0 r=0.99
;00:01:32.235: pe=2.4807 eb=0.0242 ve=30.0000 vn=0.5562 vl=0.000 db=0.50
G1 X-6.23 Y71.23 E48.7760 F600          ; draw dl=1.5@10(0<10>0) de=0.094@0.55(0.0<0.62>0.0) l=0.30x0.50x1.00 r=1.02
;00:01:32.405: pe=2.4788 eb=0.0276 ve=0.0000 vn=0.4883 vl=0.000 db=0.53
G1 E44.7972 F2400                       ; retract de=-3.9788@-40.0 r=1.13
;00:01:32.505: pe=-1.5037 eb=0.0312 ve=-40.0000 vn=0.0000 vl=0.000 db=0.56
G1 Z0.500 F420                          ; hopup dz=0.20@7 h=0.5 r=0.87
;00:01:32.533: pe=-1.5037 eb=0.0312 ve=0.0000 vn=0.0000 vl=0.000 db=0.44
G1 X-12.16 Y68.94 F6000                 ; move dl=6.4@100(0<40>0) de=0.000@0.0(0.0<0.0>0.0) l=0.50x0.50x0.00 r=0.00
;00:01:32.772: pe=-1.5037 eb=0.0000 ve=0.0000 vn=0.0000 vl=0.000 db=0.00
G1 Z0.300 F420                          ; hopdn dz=-0.20@7 h=0.3 r=0.00
;00:01:32.801: pe=-1.5037 eb=0.0000 ve=0.0000 vn=0.0000 vl=0.000 db=0.00
G1 E48.8058 F1800                       ; restore de=4.0086@30.0 r=0.99
;00:01:32.934: pe=2.4807 eb=0.0242 ve=30.0000 vn=0.5562 vl=0.000 db=0.50
G1 X-12.42 Y70.41 E48.8993 F600         ; draw dl=1.5@10(0<10>0) de=0.094@0.55(0.0<0.62>0.0) l=0.30x0.50x1.00 r=1.02
;00:01:33.104: pe=2.4788 eb=0.0276 ve=0.0000 vn=0.4883 vl=0.000 db=0.53
G1 E44.9205 F2400                       ; retract de=-3.9788@-40.0 r=1.13
;00:01:33.204: pe=-1.5037 eb=0.0312 ve=-40.0000 vn=0.0000 vl=0.000 db=0.56
G1 Z0.500 F420                          ; hopup dz=0.20@7 h=0.5 r=0.87
;00:01:33.233: pe=-1.5037 eb=0.0312 ve=0.0000 vn=0.0000 vl=0.000 db=0.44
G1 X-18.12 Y67.61 F6000                 ; move dl=6.4@100(0<40>0) de=0.000@0.0(0.0<0.0>0.0) l=0.50x0.50x0.00 r=0.00
;00:01:33.472: pe=-1.5037 eb=0.0000 ve=0.0000 vn=0.0000 vl=0.000 db=0.00
G1 Z0.300 F420                          ; hopdn dz=-0.20@7 h=0.3 r=0.00
;00:01:33.500: pe=-1.5037 eb=0.0000 ve=0.0000 vn=0.0000 vl=0.000 db=0.00
G1 E48.9291 F1800                       ; restore de=4.0086@30.0 r=0.99
;00:01:33.634: pe=2.4807 eb=0.0242 ve=30.0000 vn=0.5562 vl=0.000 db=0.50
G1 X-18.51 Y69.06 E49.0226 F600         ; draw dl=1.5@10(0<10>0) de=0.094@0.55(0.0<0.62>0.0) l=0.30x0.50x1.00 r=1.02
;00:01:33.804: pe=2.4788 eb=0.0276 ve=0.0000 vn=0.4883 vl=0.000 db=0.53
G1 E45.0439 F2400                       ; retract de=-3.9788@-40.0 r=1.13
;00:01:33.903: pe=-1.5037 eb=0.0312 ve=-40.0000 vn=0.0000 vl=0.000 db=0.56
G1 Z0.500 F420                          ; hopup dz=0.20@7 h=0.5 r=0.87
;00:01:33.932: pe=-1.5037 eb=0.0312 ve=0.0000 vn=0.0000 vl=0.000 db=0.44
G1 X-23.94 Y65.78 F6000                 ; move dl=6.4@100(0<40>0) de=0.000@0.0(0.0<0.0>0.0) l=0.50x0.50x0.00 r=0.00
;00:01:34.171: pe=-1.5037 eb=0.0000 ve=0.0000 vn=0.0000 vl=0.000 db=0.00
G1 Z0.300 F420                          ; hopdn dz=-0.20@7 h=0.3 r=0.00
;00:01:34.200: pe=-1.5037 eb=0.0000 ve=0.0000 vn=0.0000 vl=0.000 db=0.00
G1 E49.0524 F1800                       ; restore de=4.0086@30.0 r=0.99
;00:01:34.333: pe=2.4807 eb=0.0242 ve=30.0000 vn=0.5562 vl=0.000 db=0.50
G1 X-24.45 Y67.19 E49.1460 F600         ; draw dl=1.5@10(0<10>0) de=0.094@0.55(0.0<0.62>0.0) l=0.30x0.50x1.00 r=1.02
;00:01:34.503: pe=2.4788 eb=0.0276 ve=0.0000 vn=0.4883 vl=0.000 db=0.53
G1 E45.1672 F2400                       ; retract de=-3.9788@-40.0 r=1.13
;00:01:34.603: pe=-1.5037 eb=0.0312 ve=-40.0000 vn=0.0000 vl=0.000 db=0.56
G1 Z0.500 F420                          ; hopup dz=0.20@7 h=0.5 r=0.87
;00:01:34.631: pe=-1.5037 eb=0.0312 ve=0.0000 vn=0.0000 vl=0.000 db=0.44
G1 X-29.58 Y63.44 F6000                 ; move dl=6.4@100(0<40>0) de=0.000@0.0(0.0<0.0>0.0) l=0.50x0.50x0.00 r=0.00
;00:01:34.870: pe=-1.5037 eb=0.0000 ve=0.0000 vn=0.0000 vl=0.000 db=0.00
G1 Z0.300 F420                          ; hopdn dz=-0.20@7 h=0.3 r=0.00
;00:01:34.899: pe=-1.5037 eb=0.0000 ve=0.0000 vn=0.0000 vl=0.000 db=0.00
G1 E49.1758 F1800                       ; restore de=4.0086@30.0 r=0.99
;00:01:35.032: pe=2.4807 eb=0.0242 ve=30.0000 vn=0.5562 vl=0.000 db=0.50
G1 X-30.22 Y64.80 E49.2693 F600         ; draw dl=1.5@10(0<10>0) de=0.094@0.55(0.0<0.62>0.0) l=0.30x0.50x1.00 r=1.02
;00:01:35.202: pe=2.4788 eb=0.0276 ve=0.0000 vn=0.4883 vl=0.000 db=0.53
G1 E45.2906 F2400                       ; retract de=-3.9788@-40.0 r=1.13
;00:01:35.302: pe=-1.5037 eb=0.0312 ve=-40.0000 vn=0.0000 vl=0.000 db=0.56
G1 Z0.500 F420                          ; hopup dz=0.20@7 h=0.5 r=0.87
;00:01:35.330: pe=-1.5037 eb=0.0312 ve=0.0000 vn=0.0000 vl=0.000 db=0.44
G1 X-35.00 Y60.62 F6000                 ; move dl=6.4@100(0<40>0) de=0.000@0.0(0.0<0.0>0.0) l=0.50x0.50x0.00 r=0.00
;00:01:35.570: pe=-1.5037 eb=0.0000 ve=0.0000 vn=0.0000 vl=0.000 db=0.00
G1 Z0.300 F420                          ; hopdn dz=-0.20@7 h=0.3 r=0.00
;00:01:35.598: pe=-1.5037 eb=0.0000 ve=0.0000 vn=0.0000 vl=0.000 db=0.00
G1 E49.3542 F1800                       ; restore de=4.0636@30.0 r=1.02
;00:01:35.734: pe=2.5347 eb=0.0253 ve=30.0000 vn=0.5684 vl=0.000 db=0.51
G1 X-36.50 Y63.22 E49.5413 F600         ; draw dl=3.0@10(0<10>0) de=0.187@0.58(0.0<0.62>0.0) l=0.30x0.50x1.00 r=1.01
;00:01:36.054: pe=2.5329 eb=0.0287 ve=0.0000 vn=0.5014 vl=0.000 db=0.54
G1 E45.5083 F2400                       ; retract de=-4.0329@-40.0 r=1.15
;00:01:36.154: pe=-1.5039 eb=0.0325 ve=-40.0000 vn=0.0000 vl=0.000 db=0.58
G1 Z0.500 F420                          ; hopup dz=0.20@7 h=0.5 r=0.89
;00:01:36.183: pe=-1.5039 eb=0.0325 ve=0.0000 vn=0.0000 vl=0.000 db=0.45
G1 X-40.15 Y57.34 F6000                 ; move dl=6.9@100(0<42>0) de=0.000@0.0(0.0<0.0>0.0) l=0.50x0.50x0.00 r=0.00
;00:01:36.433: pe=-1.5039 eb=0.0000 ve=0.0000 vn=0.0000 vl=0.000 db=0.00
G1 Z0.300 F420                          ; hopdn dz=-0.20@7 h=0.3 r=0.00
;00:01:36.461: pe=-1.5039 eb=0.0000 ve=0.0000 vn=0.0000 vl=0.000 db=0.00
G1 E49.5171 F1800                       ; restore de=4.0088@30.0 r=0.99
;00:01:36.595: pe=2.4807 eb=0.0242 ve=30.0000 vn=0.5562 vl=0.000 db=0.50
G1 X-41.01 Y58.57 E49.6107 F600         ; draw dl=1.5@10(0<10>0) de=0.094@0.55(0.0<0.62>0.0) l=0.30x0.50x1.00 r=1.02
;00:01:36.765: pe=2.4788 eb=0.0276 ve=0.0000 vn=0.4883 vl=0.000 db=0.53
