;gcode_flavor: flashforge
;machine_type: Adventurer 3 Series
;filament_diameter0: 1.75
;right_extruder_temperature: 210
;platform_temperature: 50
;extruder_fan: 100%
;case_fan: 100%
;base_print_speed: 60
;travel_speed: 100
;vertical_speed: 7
;retract_speed: 40
;restore_speed: 30
;layer_height: 0.30
;line_width: 0.50
;extrusion_ratio: 1.00
;command_line: ./gcodetest.py -Te=210 -Tp=50 -Fe=1.0 -Fc=1.0 -Kf=1.0 -Kb=1.0 -Re=1.0 -R
;start gcode
M118 X75.00 Y75.00 Z150.00 T0
M140 S50 T0
M104 S210 T0
M104 S0 T1
M107
M900 K0.000 T0
G90
G28
M132 X Y Z A B
G1 Z50.000 F420
G161 X Y F3300
M7 T0
M6 T0
M652 S255
M108 T0
M106
;preExtrude:0.20
G1 X69.29 Y28.70 F6000
G1 Z0.200 F420
G1 E2.5035 F1800
G1 X66.53 Y34.63 E3.3740 F600
G1 X63.25 Y40.30 E4.2444
G1 X59.50 Y45.66 E5.1149
G1 X55.30 Y50.67 E5.9854
G1 X50.67 Y55.30 E6.8559
G1 X45.66 Y59.50 E7.7263
G1 X40.30 Y63.25 E8.5968
G1 X34.63 Y66.53 E9.4673
G1 X28.70 Y69.29 E10.3377
G1 X28.70 Y69.29
G1 E6.4621 F2400
G1 Z0.400 F420
;layer:0.30
;structure:shell-outer
G1 X-69.50 Y68.89 F6000
G1 Z0.300 F420
G1 E8.3805 F1800
G1 X-68.48 Y66.48 E8.5437 F600
G1 X-67.46 Y68.89 E8.7069
G1 E6.7670 F2400
G1 Z0.500 F420
G1 X-66.40 Y67.69 F6000
G1 Z0.300 F420
G1 E8.6832 F1800
G1 X-64.26 Y67.69 E8.8167 F600
G1 X-64.34 Y68.22 E8.8501
G1 X-64.55 Y68.61 E8.8777
G1 X-64.89 Y68.86 E8.9040
G1 X-65.33 Y68.95 E8.9320
G1 X-65.76 Y68.86 E8.9594
G1 X-66.10 Y68.61 E8.9858
G1 X-66.32 Y68.22 E9.0137
G1 X-66.40 Y67.69 E9.0471
G1 X-66.32 Y67.15 E9.0812
G1 X-66.09 Y66.75 E9.1099
G1 X-65.74 Y66.51 E9.1364
G1 X-65.28 Y66.42 E9.1656
G1 X-64.94 Y66.47 E9.1871
G1 X-64.65 Y66.61 E9.2071
G1 X-64.44 Y66.83 E9.2261
G1 X-64.32 Y67.13 E9.2463
G1 E7.2652 F2400
G1 Z0.500 F420
G1 X-63.20 Y68.26 F6000
G1 Z0.300 F420
G1 E9.1383 F1800
G1 X-61.51 Y68.26 E9.2437 F600
G1 E7.3680 F2400
G1 Z0.500 F420
G1 X-61.51 Y67.55 F6000
G1 Z0.300 F420
G1 E9.2406 F1800
G1 X-63.20 Y67.55 E9.3460 F600
G1 E7.4703 F2400
G1 Z0.500 F420
G1 X-60.45 Y69.00 F6000
G1 Z0.300 F420
G1 E9.3718 F1800
G1 X-59.98 Y69.24 E9.4047 F600
G1 X-59.61 Y69.55 E9.4348
G1 X-59.36 Y69.88 E9.4606
G1 X-59.36 Y66.48 E9.6727
G1 E7.7386 F2400
G1 Z0.500 F420
G1 X-58.30 Y66.71 F6000
G1 Z0.300 F420
G1 E9.2943 F1800
G1 X-58.30 Y66.65 E9.2980 F600
G1 E7.7514 F2400
G1 Z0.500 F420
G1 X-56.01 Y69.94 F6000
G1 Z0.300 F420
G1 E9.6666 F1800
G1 X-55.50 Y69.80 E9.6996 F600
G1 X-55.11 Y69.42 E9.7336
G1 X-54.88 Y68.86 E9.7713
G1 X-54.79 Y68.18 E9.8141
G1 X-54.88 Y67.51 E9.8563
G1 X-55.11 Y66.95 E9.8940
G1 X-55.50 Y66.56 E9.9284
G1 X-56.01 Y66.42 E9.9614
G1 X-56.54 Y66.56 E9.9956
G1 X-56.91 Y66.95 E10.0291
G1 X-57.15 Y67.51 E10.0671
G1 X-57.23 Y68.18 E10.1092
G1 X-57.15 Y68.85 E10.1513
G1 X-56.91 Y69.42 E10.1899
G1 X-56.54 Y69.80 E10.2229
G1 X-56.01 Y69.94 E10.2571
G1 E8.2724 F2400
G1 Z0.500 F420
G1 X-69.50 Y64.88 F6000
G1 Z0.300 F420
G1 E10.1707 F1800
G1 X-69.50 Y61.48 E10.3827 F600
G1 E8.4653 F2400
G1 Z0.500 F420
G1 X-69.50 Y63.23 F6000
G1 Z0.300 F420
G1 E10.3705 F1800
G1 X-69.25 Y63.53 E10.3948 F600
G1 X-69.02 Y63.75 E10.4147
G1 X-68.80 Y63.88 E10.4306
G1 X-68.60 Y63.93 E10.4435
G1 X-68.41 Y63.95 E10.4554
G1 X-68.09 Y63.88 E10.4758
G1 X-67.86 Y63.71 E10.4937
G1 X-67.76 Y63.51 E10.5076
G1 X-67.67 Y63.08 E10.5350
G1 X-67.67 Y61.48 E10.6348
G1 E8.7029 F2400
G1 Z0.500 F420
G1 X-66.61 Y63.26 F6000
G1 Z0.300 F420
G1 E10.5758 F1800
G1 X-64.92 Y63.26 E10.6812 F600
G1 E8.8055 F2400
G1 Z0.500 F420
G1 X-64.92 Y62.55 F6000
G1 Z0.300 F420
G1 E10.6781 F1800
G1 X-66.61 Y62.55 E10.7835 F600
G1 E8.9078 F2400
G1 Z0.500 F420
G1 X-62.64 Y64.94 F6000
G1 Z0.300 F420
G1 E10.8243 F1800
G1 X-62.13 Y64.80 E10.8573 F600
G1 X-61.74 Y64.42 E10.8913
G1 X-61.50 Y63.86 E10.9292
G1 X-61.42 Y63.18 E10.9719
G1 X-61.50 Y62.51 E11.0140
G1 X-61.74 Y61.95 E11.0520
G1 X-62.13 Y61.56 E11.0864
G1 X-62.64 Y61.42 E11.1194
G1 X-63.16 Y61.56 E11.1530
G1 X-63.54 Y61.95 E11.1870
G1 X-63.78 Y62.51 E11.2249
G1 X-63.86 Y63.18 E11.2670
G1 X-63.78 Y63.85 E11.3091
G1 X-63.54 Y64.42 E11.3477
G1 X-63.16 Y64.80 E11.3812
G1 X-62.64 Y64.94 E11.4148
G1 E9.4301 F2400
G1 Z0.500 F420
G1 X-60.36 Y61.71 F6000
G1 Z0.300 F420
G1 E10.9860 F1800
G1 X-60.36 Y61.65 E10.9897 F600
G1 E9.4431 F2400
G1 Z0.500 F420
G1 X-59.24 Y64.13 F6000
G1 Z0.300 F420
G1 E11.3552 F1800
G1 X-59.13 Y64.47 E11.3775 F600
G1 X-58.92 Y64.73 E11.3983
G1 X-58.63 Y64.89 E11.4190
G1 X-58.29 Y64.94 E11.4404
G1 X-57.90 Y64.87 E11.4651
G1 X-57.61 Y64.68 E11.4867
G1 X-57.43 Y64.41 E11.5070
G1 X-57.36 Y64.06 E11.5292
G1 X-57.43 Y63.85 E11.5431
G1 X-57.57 Y63.68 E11.5568
G1 X-57.94 Y63.45 E11.5840
G1 X-58.38 Y63.30 E11.6129
G1 X-57.94 Y63.18 E11.6414
G1 X-57.58 Y63.02 E11.6660
G1 X-57.29 Y62.74 E11.6911
G1 X-57.19 Y62.45 E11.7102
G1 X-57.26 Y62.03 E11.7368
G1 X-57.49 Y61.70 E11.7619
G1 X-57.83 Y61.50 E11.7865
G1 X-58.25 Y61.42 E11.8131
G1 X-58.65 Y61.48 E11.8384
G1 X-58.97 Y61.65 E11.8610
G1 X-59.19 Y61.92 E11.8827
G1 X-59.29 Y62.28 E11.9060
G1 E9.9291 F2400
G1 Z0.500 F420
G1 X-67.52 Y59.88 F6000
G1 Z0.300 F420
G1 E11.8273 F1800
G1 X-67.52 Y56.48 E12.0394 F600
G1 E10.1219 F2400
G1 Z0.500 F420
G1 X-67.52 Y56.98 F6000
G1 Z0.300 F420
G1 E12.0345 F1800
G1 X-67.77 Y56.74 E12.0562 F600
G1 X-68.16 Y56.49 E12.0850
G1 X-68.54 Y56.42 E12.1091
G1 X-68.92 Y56.51 E12.1335
G1 X-69.22 Y56.77 E12.1583
G1 X-69.43 Y57.18 E12.1870
G1 X-69.50 Y57.71 E12.2203
G1 X-69.44 Y58.22 E12.2524
G1 X-69.26 Y58.61 E12.2791
G1 X-68.97 Y58.86 E12.3030
G1 X-68.57 Y58.95 E12.3286
G1 X-68.38 Y58.93 E12.3405
G1 X-68.18 Y58.85 E12.3539
G1 X-67.97 Y58.72 E12.3693
G1 X-67.77 Y58.50 E12.3879
G1 X-67.52 Y58.03 E12.4211
G1 E10.4649 F2400
G1 Z0.500 F420
G1 X-66.46 Y58.89 F6000
G1 Z0.300 F420
G1 E12.3565 F1800
G1 X-65.29 Y56.44 E12.5258 F600
G1 E10.6215 F2400
G1 Z0.500 F420
G1 X-66.29 Y55.57 F6000
G1 Z0.300 F420
G1 E12.5290 F1800
G1 X-66.19 Y55.56 E12.5353 F600
G1 X-66.10 Y55.56 E12.5409
G1 X-65.84 Y55.62 E12.5575
G1 X-65.63 Y55.78 E12.5740
G1 X-65.45 Y56.06 E12.5947
G1 X-65.29 Y56.44 E12.6205
G1 X-64.41 Y58.89 E12.7828
G1 E10.8508 F2400
G1 Z0.500 F420
G1 X-63.35 Y58.76 F6000
G1 Z0.300 F420
G1 E12.7361 F1800
G1 X-63.35 Y56.48 E12.8783 F600
G1 E10.9843 F2400
G1 Z0.500 F420
G1 X-63.35 Y57.89 F6000
G1 Z0.300 F420
G1 E12.8899 F1800
G1 X-63.11 Y58.34 E12.9217 F600
G1 X-62.92 Y58.67 E12.9454
G1 X-62.70 Y58.86 E12.9635
G1 X-62.49 Y58.93 E12.9773
G1 X-62.28 Y58.95 E12.9905
G1 X-61.95 Y58.88 E13.0115
G1 X-61.77 Y58.73 E13.0261
G1 X-61.67 Y58.40 E13.0477
G1 X-61.61 Y58.08 E13.0680
G1 X-61.61 Y56.48 E13.1677
G1 E11.2333 F2400
G1 Z0.500 F420
G1 X-60.55 Y56.48 F6000
G1 Z0.300 F420
G1 E13.1207 F1800
G1 X-60.55 Y58.89 E13.2710 F600
G1 E11.3737 F2400
G1 Z0.500 F420
G1 X-60.55 Y58.20 F6000
G1 Z0.300 F420
G1 E13.2567 F1800
G1 X-60.30 Y58.55 E13.2835 F600
G1 X-60.09 Y58.76 E13.3020
G1 X-59.89 Y58.88 E13.3166
G1 X-59.70 Y58.94 E13.3290
G1 X-59.54 Y58.95 E13.3390
G1 X-59.49 Y58.95 E13.3421
G1 X-59.44 Y58.94 E13.3453
G1 E11.4640 F2400
G1 Z0.500 F420
G1 X-58.38 Y57.69 F6000
G1 Z0.300 F420
G1 E13.3799 F1800
G1 X-56.24 Y57.69 E13.5134 F600
G1 X-56.32 Y58.22 E13.5468
G1 X-56.53 Y58.61 E13.5744
G1 X-56.87 Y58.86 E13.6007
G1 X-57.31 Y58.95 E13.6288
G1 X-57.74 Y58.86 E13.6562
G1 X-58.08 Y58.61 E13.6825
G1 X-58.30 Y58.22 E13.7104
G1 X-58.38 Y57.69 E13.7438
G1 X-58.30 Y57.15 E13.7779
G1 X-58.07 Y56.75 E13.8066
G1 X-57.72 Y56.51 E13.8331
G1 X-57.26 Y56.42 E13.8623
G1 X-56.92 Y56.47 E13.8838
G1 X-56.63 Y56.61 E13.9039
G1 X-56.42 Y56.83 E13.9228
G1 X-56.30 Y57.13 E13.9430
G1 E11.9619 F2400
G1 Z0.500 F420
G1 X-53.99 Y56.46 F6000
G1 Z0.300 F420
G1 E13.8654 F1800
G1 X-54.14 Y56.45 E13.8748 F600
G1 X-54.32 Y56.50 E13.8865
G1 X-54.48 Y56.62 E13.8989
G1 X-54.60 Y56.81 E13.9129
G1 X-54.68 Y57.19 E13.9372
G1 X-54.68 Y59.52 E14.0825
G1 E12.1600 F2400
G1 Z0.500 F420
G1 X-55.18 Y58.76 F6000
G1 Z0.300 F420
G1 E14.0076 F1800
G1 X-54.10 Y58.76 E14.0750 F600
G1 E12.2304 F2400
G1 Z0.500 F420
G1 X-52.92 Y58.26 F6000
G1 Z0.300 F420
G1 E14.1028 F1800
G1 X-51.23 Y58.26 E14.2082 F600
G1 E12.3326 F2400
G1 Z0.500 F420
G1 X-51.23 Y57.55 F6000
G1 Z0.300 F420
G1 E14.2051 F1800
G1 X-52.92 Y57.55 E14.3105 F600
G1 E12.4349 F2400
G1 Z0.500 F420
G1 X-48.95 Y59.94 F6000
G1 Z0.300 F420
G1 E14.3514 F1800
G1 X-48.44 Y59.80 E14.3844 F600
G1 X-48.05 Y59.42 E14.4183
G1 X-47.81 Y58.86 E14.4563
G1 X-47.73 Y58.18 E14.4990
G1 X-47.81 Y57.51 E14.5411
G1 X-48.05 Y56.95 E14.5791
G1 X-48.44 Y56.56 E14.6135
G1 X-48.95 Y56.42 E14.6465
G1 X-49.47 Y56.56 E14.6800
G1 X-49.85 Y56.95 E14.7140
G1 X-50.09 Y57.51 E14.7520
G1 X-50.17 Y58.18 E14.7941
G1 X-50.09 Y58.85 E14.8362
G1 X-49.85 Y59.42 E14.8747
G1 X-49.47 Y59.80 E14.9082
G1 X-48.95 Y59.94 E14.9418
G1 E12.9571 F2400
G1 Z0.500 F420
;structure:shell-outer
G1 X70.00 Y0.00 F6000
G1 Z0.300 F420
G1 E14.8791 F1800
G1 X69.73 Y6.10 E15.2599 F600
G1 X68.94 Y12.16 E15.6407
G1 X67.61 Y18.12 E16.0216
G1 X65.78 Y23.94 E16.4024
G1 X63.44 Y29.58 E16.7832
G1 X60.62 Y35.00 E17.1641
G1 X57.34 Y40.15 E17.5449
G1 X53.62 Y45.00 E17.9257
G1 X49.50 Y49.50 E18.3066
G1 X45.00 Y53.62 E18.6874
G1 X40.15 Y57.34 E19.0682
G1 X35.00 Y60.62 E19.4491
G1 X29.58 Y63.44 E19.8299
G1 X23.94 Y65.78 E20.2107
G1 X18.12 Y67.61 E20.5916
G1 X12.16 Y68.94 E20.9724
G1 X6.10 Y69.73 E21.3532
G1 X0.00 Y70.00 E21.7340
G1 X-6.10 Y69.73 E22.1149
G1 X-12.16 Y68.94 E22.4957
G1 X-18.12 Y67.61 E22.8765
G1 X-23.94 Y65.78 E23.2574
G1 X-29.58 Y63.44 E23.6382
G1 X-35.00 Y60.62 E24.0190
G1 X-40.15 Y57.34 E24.3999
G1 X-45.00 Y53.62 E24.7807
G1 X-49.50 Y49.50 E25.1615
G1 X-53.62 Y45.00 E25.5424
G1 X-57.34 Y40.15 E25.9232
G1 X-60.62 Y35.00 E26.3040
G1 X-63.44 Y29.58 E26.6849
G1 X-65.78 Y23.94 E27.0657
G1 X-67.61 Y18.12 E27.4465
G1 X-68.94 Y12.16 E27.8274
G1 X-69.73 Y6.10 E28.2082
G1 X-70.00 Y0.00 E28.5890
G1 X-69.73 Y-6.10 E28.9699
G1 X-68.94 Y-12.16 E29.3507
G1 X-67.61 Y-18.12 E29.7315
G1 X-65.78 Y-23.94 E30.1123
G1 X-63.44 Y-29.58 E30.4932
G1 X-60.62 Y-35.00 E30.8740
G1 X-57.34 Y-40.15 E31.2548
G1 X-53.62 Y-45.00 E31.6357
G1 X-49.50 Y-49.50 E32.0165
G1 X-45.00 Y-53.62 E32.3973
G1 X-40.15 Y-57.34 E32.7782
G1 X-35.00 Y-60.62 E33.1590
G1 X-29.58 Y-63.44 E33.5398
G1 X-23.94 Y-65.78 E33.9207
G1 X-18.12 Y-67.61 E34.3015
G1 X-12.16 Y-68.94 E34.6823
G1 X-6.10 Y-69.73 E35.0632
G1 X0.00 Y-70.00 E35.4440
G1 X6.10 Y-69.73 E35.8248
G1 X12.16 Y-68.94 E36.2057
G1 X18.12 Y-67.61 E36.5865
G1 X23.94 Y-65.78 E36.9673
G1 X29.58 Y-63.44 E37.3482
G1 X35.00 Y-60.62 E37.7290
G1 X40.15 Y-57.34 E38.1098
G1 X45.00 Y-53.62 E38.4906
G1 X49.50 Y-49.50 E38.8715
G1 X53.62 Y-45.00 E39.2523
G1 X57.34 Y-40.15 E39.6331
G1 X60.62 Y-35.00 E40.0140
G1 X63.44 Y-29.58 E40.3948
G1 X65.78 Y-23.94 E40.7756
G1 X67.61 Y-18.12 E41.1565
G1 X68.94 Y-12.16 E41.5373
G1 X69.73 Y-6.10 E41.9181
G1 X70.00 Y0.00 E42.2990
G1 E40.1812 F2400
G1 Z0.500 F420
G1 Z0.300
G1 E42.0768 F1800
G1 X73.00 Y0.00 E42.2639 F600
G1 E40.3366 F2400
G1 Z0.500 F420
G1 X69.73 Y6.10 F6000
G1 Z0.300 F420
G1 E42.2035 F1800
G1 X71.23 Y6.23 E42.2971 F600
G1 E40.4292 F2400
G1 Z0.500 F420
G1 X68.94 Y12.16 F6000
G1 Z0.300 F420
G1 E42.2958 F1800
G1 X70.41 Y12.42 E42.3893 F600
G1 E40.5215 F2400
G1 Z0.500 F420
G1 X67.61 Y18.12 F6000
G1 Z0.300 F420
G1 E42.3881 F1800
G1 X69.06 Y18.51 E42.4816 F600
G1 E40.6138 F2400
G1 Z0.500 F420
G1 X65.78 Y23.94 F6000
G1 Z0.300 F420
G1 E42.4804 F1800
G1 X67.19 Y24.45 E42.5739 F600
G1 E40.7060 F2400
G1 Z0.500 F420
G1 X63.44 Y29.58 F6000
G1 Z0.300 F420
G1 E42.5727 F1800
G1 X64.80 Y30.22 E42.6662 F600
G1 E40.7983 F2400
G1 Z0.500 F420
G1 X60.62 Y35.00 F6000
G1 Z0.300 F420
G1 E42.6925 F1800
G1 X63.22 Y36.50 E42.8795 F600
G1 E40.9695 F2400
G1 Z0.500 F420
G1 X57.34 Y40.15 F6000
G1 Z0.300 F420
G1 E42.8363 F1800
G1 X58.57 Y41.01 E42.9299 F600
G1 E41.0620 F2400
G1 Z0.500 F420
G1 X53.62 Y45.00 F6000
G1 Z0.300 F420
G1 E42.9286 F1800
G1 X54.77 Y45.96 E43.0221 F600
G1 E41.1543 F2400
G1 Z0.500 F420
G1 X49.50 Y49.50 F6000
G1 Z0.300 F420
G1 E43.0209 F1800
G1 X50.56 Y50.56 E43.1144 F600
G1 E41.2465 F2400
G1 Z0.500 F420
G1 X45.00 Y53.62 F6000
G1 Z0.300 F420
G1 E43.1132 F1800
G1 X45.96 Y54.77 E43.2067 F600
G1 E41.3388 F2400
G1 Z0.500 F420
G1 X40.15 Y57.34 F6000
G1 Z0.300 F420
G1 E43.2055 F1800
G1 X41.01 Y58.57 E43.2990 F600
G1 E41.4311 F2400
G1 Z0.500 F420
G1 X35.00 Y60.62 F6000
G1 Z0.300 F420
G1 E43.3253 F1800
G1 X36.50 Y63.22 E43.5123 F600
G1 E41.6023 F2400
G1 Z0.500 F420
G1 X29.58 Y63.44 F6000
G1 Z0.300 F420
G1 E43.4691 F1800
G1 X30.22 Y64.80 E43.5627 F600
G1 E41.6948 F2400
G1 Z0.500 F420
G1 X23.94 Y65.78 F6000
G1 Z0.300 F420
G1 E43.5614 F1800
G1 X24.45 Y67.19 E43.6549 F600
G1 E41.7871 F2400
G1 Z0.500 F420
G1 X18.12 Y67.61 F6000
G1 Z0.300 F420
G1 E43.6537 F1800
G1 X18.51 Y69.06 E43.7472 F600
G1 E41.8793 F2400
G1 Z0.500 F420
G1 X12.16 Y68.94 F6000
G1 Z0.300 F420
G1 E43.7460 F1800
G1 X12.42 Y70.41 E43.8395 F600
G1 E41.9716 F2400
G1 Z0.500 F420
G1 X6.10 Y69.73 F6000
G1 Z0.300 F420
G1 E43.8383 F1800
G1 X6.23 Y71.23 E43.9318 F600
G1 E42.0639 F2400
G1 Z0.500 F420
G1 X0.00 Y70.00 F6000
G1 Z0.300 F420
G1 E43.9581 F1800
G1 X0.00 Y73.00 E44.1451 F600
G1 E42.2351 F2400
G1 Z0.500 F420
G1 X-6.10 Y69.73 F6000
G1 Z0.300 F420
G1 E44.1019 F1800
G1 X-6.23 Y71.23 E44.1954 F600
G1 E42.3276 F2400
G1 Z0.500 F420
G1 X-12.16 Y68.94 F6000
G1 Z0.300 F420
G1 E44.1942 F1800
G1 X-12.42 Y70.41 E44.2877 F600
G1 E42.4199 F2400
G1 Z0.500 F420
G1 X-18.12 Y67.61 F6000
G1 Z0.300 F420
G1 E44.2865 F1800
G1 X-18.51 Y69.06 E44.3800 F600
G1 E42.5121 F2400
G1 Z0.500 F420
G1 X-23.94 Y65.78 F6000
G1 Z0.300 F420
G1 E44.3788 F1800
G1 X-24.45 Y67.19 E44.4723 F600
G1 E42.6044 F2400
G1 Z0.500 F420
G1 X-29.58 Y63.44 F6000
G1 Z0.300 F420
G1 E44.4711 F1800
G1 X-30.22 Y64.80 E44.5646 F600
G1 E42.6967 F2400
G1 Z0.500 F420
G1 X-35.00 Y60.62 F6000
G1 Z0.300 F420
G1 E44.5909 F1800
G1 X-36.50 Y63.22 E44.7779 F600
G1 E42.8679 F2400
G1 Z0.500 F420
G1 X-40.15 Y57.34 F6000
G1 Z0.300 F420
G1 E44.7347 F1800
G1 X-41.01 Y58.57 E44.8282 F600
G1 E42.9604 F2400
G1 Z0.500 F420
G1 X-45.00 Y53.62 F6000
G1 Z0.300 F420
G1 E44.8270 F1800
G1 X-45.96 Y54.77 E44.9205 F600
G1 E43.0527 F2400
G1 Z0.500 F420
G1 X-49.50 Y49.50 F6000
G1 Z0.300 F420
G1 E44.9193 F1800
G1 X-50.56 Y50.56 E45.0128 F600
G1 E43.1449 F2400
G1 Z0.500 F420
G1 X-53.62 Y45.00 F6000
G1 Z0.300 F420
G1 E45.0116 F1800
G1 X-54.77 Y45.96 E45.1051 F600
G1 E43.2372 F2400
G1 Z0.500 F420
G1 X-57.34 Y40.15 F6000
G1 Z0.300 F420
G1 E45.1039 F1800
G1 X-58.57 Y41.01 E45.1974 F600
G1 E43.3295 F2400
G1 Z0.500 F420
G1 X-60.62 Y35.00 F6000
G1 Z0.300 F420
G1 E45.2236 F1800
G1 X-63.22 Y36.50 E45.4107 F600
G1 E43.5007 F2400
G1 Z0.500 F420
G1 X-63.44 Y29.58 F6000
G1 Z0.300 F420
G1 E45.3675 F1800
G1 X-64.80 Y30.22 E45.4610 F600
G1 E43.5932 F2400
G1 Z0.500 F420
G1 X-65.78 Y23.94 F6000
G1 Z0.300 F420
G1 E45.4598 F1800
G1 X-67.19 Y24.45 E45.5533 F600
G1 E43.6855 F2400
G1 Z0.500 F420
G1 X-67.61 Y18.12 F6000
G1 Z0.300 F420
G1 E45.5521 F1800
G1 X-69.06 Y18.51 E45.6456 F600
G1 E43.7777 F2400
G1 Z0.500 F420
G1 X-68.94 Y12.16 F6000
G1 Z0.300 F420
G1 E45.6444 F1800
G1 X-70.41 Y12.42 E45.7379 F600
G1 E43.8700 F2400
G1 Z0.500 F420
G1 X-69.73 Y6.10 F6000
G1 Z0.300 F420
G1 E45.7366 F1800
G1 X-71.23 Y6.23 E45.8302 F600
G1 E43.9623 F2400
G1 Z0.500 F420
G1 X-70.00 Y0.00 F6000
G1 Z0.300 F420
G1 E45.8564 F1800
G1 X-73.00 Y0.00 E46.0435 F600
G1 E44.1335 F2400
G1 Z0.500 F420
G1 X-69.73 Y-6.10 F6000
G1 Z0.300 F420
G1 E46.0003 F1800
G1 X-71.23 Y-6.23 E46.0938 F600
G1 E44.2260 F2400
G1 Z0.500 F420
G1 X-68.94 Y-12.16 F6000
G1 Z0.300 F420
G1 E46.0926 F1800
G1 X-70.41 Y-12.42 E46.1861 F600
G1 E44.3182 F2400
G1 Z0.500 F420
G1 X-67.61 Y-18.12 F6000
G1 Z0.300 F420
G1 E46.1849 F1800
G1 X-69.06 Y-18.51 E46.2784 F600
G1 E44.4105 F2400
G1 Z0.500 F420
G1 X-65.78 Y-23.94 F6000
G1 Z0.300 F420
G1 E46.2772 F1800
G1 X-67.19 Y-24.45 E46.3707 F600
G1 E44.5028 F2400
G1 Z0.500 F420
G1 X-63.44 Y-29.58 F6000
G1 Z0.300 F420
G1 E46.3694 F1800
G1 X-64.80 Y-30.22 E46.4630 F600
G1 E44.5951 F2400
G1 Z0.500 F420
G1 X-60.62 Y-35.00 F6000
G1 Z0.300 F420
G1 E46.4892 F1800
G1 X-63.22 Y-36.50 E46.6763 F600
G1 E44.7663 F2400
G1 Z0.500 F420
G1 X-57.34 Y-40.15 F6000
G1 Z0.300 F420
G1 E46.6331 F1800
G1 X-58.57 Y-41.01 E46.7266 F600
G1 E44.8588 F2400
G1 Z0.500 F420
G1 X-53.62 Y-45.00 F6000
G1 Z0.300 F420
G1 E46.7254 F1800
G1 X-54.77 Y-45.96 E46.8189 F600
G1 E44.9510 F2400
G1 Z0.500 F420
G1 X-49.50 Y-49.50 F6000
G1 Z0.300 F420
G1 E46.8177 F1800
G1 X-50.56 Y-50.56 E46.9112 F600
G1 E45.0433 F2400
G1 Z0.500 F420
G1 X-45.00 Y-53.62 F6000
G1 Z0.300 F420
G1 E46.9100 F1800
G1 X-45.96 Y-54.77 E47.0035 F600
G1 E45.1356 F2400
G1 Z0.500 F420
G1 X-40.15 Y-57.34 F6000
G1 Z0.300 F420
G1 E47.0022 F1800
G1 X-41.01 Y-58.57 E47.0958 F600
G1 E45.2279 F2400
G1 Z0.500 F420
G1 X-35.00 Y-60.62 F6000
G1 Z0.300 F420
G1 E47.1220 F1800
G1 X-36.50 Y-63.22 E47.3091 F600
G1 E45.3990 F2400
G1 Z0.500 F420
G1 X-29.58 Y-63.44 F6000
G1 Z0.300 F420
G1 E47.2659 F1800
G1 X-30.22 Y-64.80 E47.3594 F600
G1 E45.4916 F2400
G1 Z0.500 F420
G1 X-23.94 Y-65.78 F6000
G1 Z0.300 F420
G1 E47.3582 F1800
G1 X-24.45 Y-67.19 E47.4517 F600
G1 E45.5838 F2400
G1 Z0.500 F420
G1 X-18.12 Y-67.61 F6000
G1 Z0.300 F420
G1 E47.4505 F1800
G1 X-18.51 Y-69.06 E47.5440 F600
G1 E45.6761 F2400
G1 Z0.500 F420
G1 X-12.16 Y-68.94 F6000
G1 Z0.300 F420
G1 E47.5428 F1800
G1 X-12.42 Y-70.41 E47.6363 F600
G1 E45.7684 F2400
G1 Z0.500 F420
G1 X-6.10 Y-69.73 F6000
G1 Z0.300 F420
G1 E47.6350 F1800
G1 X-6.23 Y-71.23 E47.7286 F600
G1 E45.8607 F2400
G1 Z0.500 F420
G1 X0.00 Y-70.00 F6000
G1 Z0.300 F420
G1 E47.7548 F1800
G1 X0.00 Y-73.00 E47.9419 F600
G1 E46.0318 F2400
G1 Z0.500 F420
G1 X6.10 Y-69.73 F6000
G1 Z0.300 F420
G1 E47.8987 F1800
G1 X6.23 Y-71.23 E47.9922 F600
G1 E46.1244 F2400
G1 Z0.500 F420
G1 X12.16 Y-68.94 F6000
G1 Z0.300 F420
G1 E47.9910 F1800
G1 X12.42 Y-70.41 E48.0845 F600
G1 E46.2166 F2400
G1 Z0.500 F420
G1 X18.12 Y-67.61 F6000
G1 Z0.300 F420
G1 E48.0833 F1800
G1 X18.51 Y-69.06 E48.1768 F600
G1 E46.3089 F2400
G1 Z0.500 F420
G1 X23.94 Y-65.78 F6000
G1 Z0.300 F420
G1 E48.1755 F1800
G1 X24.45 Y-67.19 E48.2691 F600
G1 E46.4012 F2400
G1 Z0.500 F420
G1 X29.58 Y-63.44 F6000
G1 Z0.300 F420
G1 E48.2678 F1800
G1 X30.22 Y-64.80 E48.3614 F600
G1 E46.4935 F2400
G1 Z0.500 F420
G1 X35.00 Y-60.62 F6000
G1 Z0.300 F420
G1 E48.3876 F1800
G1 X36.50 Y-63.22 E48.5747 F600
G1 E46.6646 F2400
G1 Z0.500 F420
G1 X40.15 Y-57.34 F6000
G1 Z0.300 F420
G1 E48.5315 F1800
G1 X41.01 Y-58.57 E48.6250 F600
G1 E46.7572 F2400
G1 Z0.500 F420
G1 X45.00 Y-53.62 F6000
G1 Z0.300 F420
G1 E48.6238 F1800
G1 X45.96 Y-54.77 E48.7173 F600
G1 E46.8494 F2400
G1 Z0.500 F420
G1 X49.50 Y-49.50 F6000
G1 Z0.300 F420
G1 E48.7161 F1800
G1 X50.56 Y-50.56 E48.8096 F600
G1 E46.9417 F2400
G1 Z0.500 F420
G1 X53.62 Y-45.00 F6000
G1 Z0.300 F420
G1 E48.8083 F1800
G1 X54.77 Y-45.96 E48.9019 F600
G1 E47.0340 F2400
G1 Z0.500 F420
G1 X57.34 Y-40.15 F6000
G1 Z0.300 F420
G1 E48.9006 F1800
G1 X58.57 Y-41.01 E48.9942 F600
G1 E47.1263 F2400
G1 Z0.500 F420
G1 X60.62 Y-35.00 F6000
G1 Z0.300 F420
G1 E49.0204 F1800
G1 X63.22 Y-36.50 E49.2075 F600
G1 E47.2974 F2400
G1 Z0.500 F420
G1 X63.44 Y-29.58 F6000
G1 Z0.300 F420
G1 E49.1643 F1800
G1 X64.80 Y-30.22 E49.2578 F600
G1 E47.3899 F2400
G1 Z0.500 F420
G1 X65.78 Y-23.94 F6000
G1 Z0.300 F420
G1 E49.2566 F1800
G1 X67.19 Y-24.45 E49.3501 F600
G1 E47.4822 F2400
G1 Z0.500 F420
G1 X67.61 Y-18.12 F6000
G1 Z0.300 F420
G1 E49.3489 F1800
G1 X69.06 Y-18.51 E49.4424 F600
G1 E47.5745 F2400
G1 Z0.500 F420
G1 X68.94 Y-12.16 F6000
G1 Z0.300 F420
G1 E49.4411 F1800
G1 X70.41 Y-12.42 E49.5347 F600
G1 E47.6668 F2400
G1 Z0.500 F420
G1 X69.73 Y-6.10 F6000
G1 Z0.300 F420
G1 E49.5334 F1800
G1 X71.23 Y-6.23 E49.6270 F600
G1 E47.7591 F2400
G1 Z0.500 F420
G1 X42.00 Y0.00 F6000
G1 Z0.300 F420
G1 E49.6800 F1800
G1 X41.84 Y3.66 E49.9085 F600
G1 X41.36 Y7.29 E50.1370
G1 X40.57 Y10.87 E50.3655
G1 X39.47 Y14.36 E50.5940
G1 X38.06 Y17.75 E50.8225
G1 X36.37 Y21.00 E51.0510
G1 X34.40 Y24.09 E51.2795
G1 X32.17 Y27.00 E51.5080
G1 X29.70 Y29.70 E51.7365
G1 X27.00 Y32.17 E51.9650
G1 X24.09 Y34.40 E52.1935
G1 X21.00 Y36.37 E52.4220
G1 X17.75 Y38.06 E52.6505
G1 X14.36 Y39.47 E52.8790
G1 X10.87 Y40.57 E53.1075
G1 X7.29 Y41.36 E53.3360
G1 X3.66 Y41.84 E53.5645
G1 X0.00 Y42.00 E53.7930
G1 X-3.66 Y41.84 E54.0215
G1 X-7.29 Y41.36 E54.2500
G1 X-10.87 Y40.57 E54.4785
G1 X-14.36 Y39.47 E54.7070
G1 X-17.75 Y38.06 E54.9355
G1 X-21.00 Y36.37 E55.1640
G1 X-24.09 Y34.40 E55.3925
G1 X-27.00 Y32.17 E55.6210
G1 X-29.70 Y29.70 E55.8495
G1 X-32.17 Y27.00 E56.0780
G1 X-34.40 Y24.09 E56.3065
G1 X-36.37 Y21.00 E56.5350
G1 X-38.06 Y17.75 E56.7635
G1 X-39.47 Y14.36 E56.9920
G1 X-40.57 Y10.87 E57.2205
G1 X-41.36 Y7.29 E57.4490
G1 X-41.84 Y3.66 E57.6775
G1 X-42.00 Y0.00 E57.9060
G1 X-41.84 Y-3.66 E58.1345
G1 X-41.36 Y-7.29 E58.3630
G1 X-40.57 Y-10.87 E58.5915
G1 X-39.47 Y-14.36 E58.8200
G1 X-38.06 Y-17.75 E59.0485
G1 X-36.37 Y-21.00 E59.2770
G1 X-34.40 Y-24.09 E59.5055
G1 X-32.17 Y-27.00 E59.7340
G1 X-29.70 Y-29.70 E59.9624
G1 X-27.00 Y-32.17 E60.1909
G1 X-24.09 Y-34.40 E60.4194
G1 X-21.00 Y-36.37 E60.6479
G1 X-17.75 Y-38.06 E60.8764
G1 X-14.36 Y-39.47 E61.1049
G1 X-10.87 Y-40.57 E61.3334
G1 X-7.29 Y-41.36 E61.5619
G1 X-3.66 Y-41.84 E61.7904
G1 X0.00 Y-42.00 E62.0189
G1 X3.66 Y-41.84 E62.2474
G1 X7.29 Y-41.36 E62.4759
G1 X10.87 Y-40.57 E62.7044
G1 X14.36 Y-39.47 E62.9329
G1 X17.75 Y-38.06 E63.1614
G1 X21.00 Y-36.37 E63.3899
G1 X24.09 Y-34.40 E63.6184
G1 X27.00 Y-32.17 E63.8469
G1 X29.70 Y-29.70 E64.0754
G1 X32.17 Y-27.00 E64.3039
G1 X34.40 Y-24.09 E64.5324
G1 X36.37 Y-21.00 E64.7609
G1 X38.06 Y-17.75 E64.9894
G1 X39.47 Y-14.36 E65.2179
G1 X40.57 Y-10.87 E65.4464
G1 X41.36 Y-7.29 E65.6749
G1 X41.84 Y-3.66 E65.9034
G1 X42.00 Y0.00 E66.1319
G1 E64.0141 F2400
G1 Z0.500 F420
G1 Z0.300
G1 E65.9097 F1800
G1 X39.00 Y0.00 E66.0968 F600
G1 E64.1695 F2400
G1 Z0.500 F420
G1 X41.84 Y3.66 F6000
G1 Z0.300 F420
G1 E66.0365 F1800
G1 X40.35 Y3.53 E66.1300 F600
G1 E64.2621 F2400
G1 Z0.500 F420
G1 X41.36 Y7.29 F6000
G1 Z0.300 F420
G1 E66.1288 F1800
G1 X39.88 Y7.03 E66.2223 F600
G1 E64.3544 F2400
G1 Z0.500 F420
G1 X40.57 Y10.87 F6000
G1 Z0.300 F420
G1 E66.2210 F1800
G1 X39.12 Y10.48 E66.3146 F600
G1 E64.4467 F2400
G1 Z0.500 F420
G1 X39.47 Y14.36 F6000
G1 Z0.300 F420
G1 E66.3133 F1800
G1 X38.06 Y13.85 E66.4069 F600
G1 E64.5390 F2400
G1 Z0.500 F420
G1 X38.06 Y17.75 F6000
G1 Z0.300 F420
G1 E66.4056 F1800
G1 X36.71 Y17.12 E66.4992 F600
G1 E64.6313 F2400
G1 Z0.500 F420
G1 X36.37 Y21.00 F6000
G1 Z0.300 F420
G1 E66.5254 F1800
G1 X33.77 Y19.50 E66.7125 F600
G1 E64.8024 F2400
G1 Z0.500 F420
G1 X34.40 Y24.09 F6000
G1 Z0.300 F420
G1 E66.6693 F1800
G1 X33.18 Y23.23 E66.7628 F600
G1 E64.8949 F2400
G1 Z0.500 F420
G1 X32.17 Y27.00 F6000
G1 Z0.300 F420
G1 E66.7616 F1800
G1 X31.02 Y26.03 E66.8551 F600
G1 E64.9872 F2400
G1 Z0.500 F420
G1 X29.70 Y29.70 F6000
G1 Z0.300 F420
G1 E66.8538 F1800
G1 X28.64 Y28.64 E66.9474 F600
G1 E65.0795 F2400
G1 Z0.500 F420
G1 X27.00 Y32.17 F6000
G1 Z0.300 F420
G1 E66.9461 F1800
G1 X26.03 Y31.02 E67.0397 F600
G1 E65.1718 F2400
G1 Z0.500 F420
G1 X24.09 Y34.40 F6000
G1 Z0.300 F420
G1 E67.0384 F1800
G1 X23.23 Y33.18 E67.1320 F600
G1 E65.2641 F2400
G1 Z0.500 F420
G1 X21.00 Y36.37 F6000
G1 Z0.300 F420
G1 E67.1582 F1800
G1 X19.50 Y33.77 E67.3453 F600
G1 E65.4352 F2400
G1 Z0.500 F420
G1 X17.75 Y38.06 F6000
G1 Z0.300 F420
G1 E67.3021 F1800
G1 X17.12 Y36.71 E67.3956 F600
G1 E65.5277 F2400
G1 Z0.500 F420
G1 X14.36 Y39.47 F6000
G1 Z0.300 F420
G1 E67.3944 F1800
G1 X13.85 Y38.06 E67.4879 F600
G1 E65.6200 F2400
G1 Z0.500 F420
G1 X10.87 Y40.57 F6000
G1 Z0.300 F420
G1 E67.4866 F1800
G1 X10.48 Y39.12 E67.5802 F600
G1 E65.7123 F2400
G1 Z0.500 F420
G1 X7.29 Y41.36 F6000
G1 Z0.300 F420
G1 E67.5789 F1800
G1 X7.03 Y39.88 E67.6725 F600
G1 E65.8046 F2400
G1 Z0.500 F420
G1 X3.66 Y41.84 F6000
G1 Z0.300 F420
G1 E67.6712 F1800
G1 X3.53 Y40.35 E67.7648 F600
G1 E65.8969 F2400
G1 Z0.500 F420
G1 X0.00 Y42.00 F6000
G1 Z0.300 F420
G1 E67.7910 F1800
G1 X0.00 Y39.00 E67.9781 F600
G1 E66.0680 F2400
G1 Z0.500 F420
G1 X-3.66 Y41.84 F6000
G1 Z0.300 F420
G1 E67.9349 F1800
G1 X-3.53 Y40.35 E68.0284 F600
G1 E66.1605 F2400
G1 Z0.500 F420
G1 X-7.29 Y41.36 F6000
G1 Z0.300 F420
G1 E68.0271 F1800
G1 X-7.03 Y39.88 E68.1207 F600
G1 E66.2528 F2400
G1 Z0.500 F420
G1 X-10.87 Y40.57 F6000
G1 Z0.300 F420
G1 E68.1194 F1800
G1 X-10.48 Y39.12 E68.2130 F600
G1 E66.3451 F2400
G1 Z0.500 F420
G1 X-14.36 Y39.47 F6000
G1 Z0.300 F420
G1 E68.2117 F1800
G1 X-13.85 Y38.06 E68.3053 F600
G1 E66.4374 F2400
G1 Z0.500 F420
G1 X-17.75 Y38.06 F6000
G1 Z0.300 F420
G1 E68.3040 F1800
G1 X-17.12 Y36.71 E68.3976 F600
G1 E66.5297 F2400
G1 Z0.500 F420
G1 X-21.00 Y36.37 F6000
G1 Z0.300 F420
G1 E68.4238 F1800
G1 X-19.50 Y33.77 E68.6109 F600
G1 E66.7008 F2400
G1 Z0.500 F420
G1 X-24.09 Y34.40 F6000
G1 Z0.300 F420
G1 E68.5677 F1800
G1 X-23.23 Y33.18 E68.6612 F600
G1 E66.7933 F2400
G1 Z0.500 F420
G1 X-27.00 Y32.17 F6000
G1 Z0.300 F420
G1 E68.6599 F1800
G1 X-26.03 Y31.02 E68.7535 F600
G1 E66.8856 F2400
G1 Z0.500 F420
G1 X-29.70 Y29.70 F6000
G1 Z0.300 F420
G1 E68.7522 F1800
G1 X-28.64 Y28.64 E68.8458 F600
G1 E66.9779 F2400
G1 Z0.500 F420
G1 X-32.17 Y27.00 F6000
G1 Z0.300 F420
G1 E68.8445 F1800
G1 X-31.02 Y26.03 E68.9381 F600
G1 E67.0702 F2400
G1 Z0.500 F420
G1 X-34.40 Y24.09 F6000
G1 Z0.300 F420
G1 E68.9368 F1800
G1 X-33.18 Y23.23 E69.0304 F600
G1 E67.1625 F2400
G1 Z0.500 F420
G1 X-36.37 Y21.00 F6000
G1 Z0.300 F420
G1 E69.0566 F1800
G1 X-33.77 Y19.50 E69.2437 F600
G1 E67.3336 F2400
G1 Z0.500 F420
G1 X-38.06 Y17.75 F6000
G1 Z0.300 F420
G1 E69.2005 F1800
G1 X-36.71 Y17.12 E69.2940 F600
G1 E67.4261 F2400
G1 Z0.500 F420
G1 X-39.47 Y14.36 F6000
G1 Z0.300 F420
G1 E69.2927 F1800
G1 X-38.06 Y13.85 E69.3863 F600
G1 E67.5184 F2400
G1 Z0.500 F420
G1 X-40.57 Y10.87 F6000
G1 Z0.300 F420
G1 E69.3850 F1800
G1 X-39.12 Y10.48 E69.4786 F600
G1 E67.6107 F2400
G1 Z0.500 F420
G1 X-41.36 Y7.29 F6000
G1 Z0.300 F420
G1 E69.4773 F1800
G1 X-39.88 Y7.03 E69.5709 F600
G1 E67.7030 F2400
G1 Z0.500 F420
G1 X-41.84 Y3.66 F6000
G1 Z0.300 F420
G1 E69.5696 F1800
G1 X-40.35 Y3.53 E69.6631 F600
G1 E67.7953 F2400
G1 Z0.500 F420
G1 X-42.00 Y0.00 F6000
G1 Z0.300 F420
G1 E69.6894 F1800
G1 X-39.00 Y0.00 E69.8765 F600
G1 E67.9664 F2400
G1 Z0.500 F420
G1 X-41.84 Y-3.66 F6000
G1 Z0.300 F420
G1 E69.8333 F1800
G1 X-40.35 Y-3.53 E69.9268 F600
G1 E68.0589 F2400
G1 Z0.500 F420
G1 X-41.36 Y-7.29 F6000
G1 Z0.300 F420
G1 E69.9255 F1800
G1 X-39.88 Y-7.03 E70.0191 F600
G1 E68.1512 F2400
G1 Z0.500 F420
G1 X-40.57 Y-10.87 F6000
G1 Z0.300 F420
G1 E70.0178 F1800
G1 X-39.12 Y-10.48 E70.1114 F600
G1 E68.2435 F2400
G1 Z0.500 F420
G1 X-39.47 Y-14.36 F6000
G1 Z0.300 F420
G1 E70.1101 F1800
G1 X-38.06 Y-13.85 E70.2037 F600
G1 E68.3358 F2400
G1 Z0.500 F420
G1 X-38.06 Y-17.75 F6000
G1 Z0.300 F420
G1 E70.2024 F1800
G1 X-36.71 Y-17.12 E70.2959 F600
G1 E68.4281 F2400
G1 Z0.500 F420
G1 X-36.37 Y-21.00 F6000
G1 Z0.300 F420
G1 E70.3222 F1800
G1 X-33.77 Y-19.50 E70.5093 F600
G1 E68.5992 F2400
G1 Z0.500 F420
G1 X-34.40 Y-24.09 F6000
G1 Z0.300 F420
G1 E70.4661 F1800
G1 X-33.18 Y-23.23 E70.5596 F600
G1 E68.6917 F2400
G1 Z0.500 F420
G1 X-32.17 Y-27.00 F6000
G1 Z0.300 F420
G1 E70.5583 F1800
G1 X-31.02 Y-26.03 E70.6519 F600
G1 E68.7840 F2400
G1 Z0.500 F420
G1 X-29.70 Y-29.70 F6000
G1 Z0.300 F420
G1 E70.6506 F1800
G1 X-28.64 Y-28.64 E70.7442 F600
G1 E68.8763 F2400
G1 Z0.500 F420
G1 X-27.00 Y-32.17 F6000
G1 Z0.300 F420
G1 E70.7429 F1800
G1 X-26.03 Y-31.02 E70.8365 F600
G1 E68.9686 F2400
G1 Z0.500 F420
G1 X-24.09 Y-34.40 F6000
G1 Z0.300 F420
G1 E70.8352 F1800
G1 X-23.23 Y-33.18 E70.9287 F600
G1 E69.0609 F2400
G1 Z0.500 F420
G1 X-21.00 Y-36.37 F6000
G1 Z0.300 F420
G1 E70.9550 F1800
G1 X-19.50 Y-33.77 E71.1421 F600
G1 E69.2320 F2400
G1 Z0.500 F420
G1 X-17.75 Y-38.06 F6000
G1 Z0.300 F420
G1 E71.0988 F1800
G1 X-17.12 Y-36.71 E71.1924 F600
G1 E69.3245 F2400
G1 Z0.500 F420
G1 X-14.36 Y-39.47 F6000
G1 Z0.300 F420
G1 E71.1911 F1800
G1 X-13.85 Y-38.06 E71.2847 F600
G1 E69.4168 F2400
G1 Z0.500 F420
G1 X-10.87 Y-40.57 F6000
G1 Z0.300 F420
G1 E71.2834 F1800
G1 X-10.48 Y-39.12 E71.3770 F600
G1 E69.5091 F2400
G1 Z0.500 F420
G1 X-7.29 Y-41.36 F6000
G1 Z0.300 F420
G1 E71.3757 F1800
G1 X-7.03 Y-39.88 E71.4693 F600
G1 E69.6014 F2400
G1 Z0.500 F420
G1 X-3.66 Y-41.84 F6000
G1 Z0.300 F420
G1 E71.4680 F1800
G1 X-3.53 Y-40.35 E71.5615 F600
G1 E69.6937 F2400
G1 Z0.500 F420
G1 X0.00 Y-42.00 F6000
G1 Z0.300 F420
G1 E71.5878 F1800
G1 X0.00 Y-39.00 E71.7749 F600
G1 E69.8648 F2400
G1 Z0.500 F420
G1 X3.66 Y-41.84 F6000
G1 Z0.300 F420
G1 E71.7316 F1800
G1 X3.53 Y-40.35 E71.8252 F600
G1 E69.9573 F2400
G1 Z0.500 F420
G1 X7.29 Y-41.36 F6000
G1 Z0.300 F420
G1 E71.8239 F1800
G1 X7.03 Y-39.88 E71.9175 F600
G1 E70.0496 F2400
G1 Z0.500 F420
G1 X10.87 Y-40.57 F6000
G1 Z0.300 F420
G1 E71.9162 F1800
G1 X10.48 Y-39.12 E72.0098 F600
G1 E70.1419 F2400
G1 Z0.500 F420
G1 X14.36 Y-39.47 F6000
G1 Z0.300 F420
G1 E72.0085 F1800
G1 X13.85 Y-38.06 E72.1020 F600
G1 E70.2342 F2400
G1 Z0.500 F420
G1 X17.75 Y-38.06 F6000
G1 Z0.300 F420
G1 E72.1008 F1800
G1 X17.12 Y-36.71 E72.1943 F600
G1 E70.3265 F2400
G1 Z0.500 F420
G1 X21.00 Y-36.37 F6000
G1 Z0.300 F420
G1 E72.2206 F1800
G1 X19.50 Y-33.77 E72.4077 F600
G1 E70.4976 F2400
G1 Z0.500 F420
G1 X24.09 Y-34.40 F6000
G1 Z0.300 F420
G1 E72.3644 F1800
G1 X23.23 Y-33.18 E72.4580 F600
G1 E70.5901 F2400
G1 Z0.500 F420
G1 X27.00 Y-32.17 F6000
G1 Z0.300 F420
G1 E72.4567 F1800
G1 X26.03 Y-31.02 E72.5503 F600
G1 E70.6824 F2400
G1 Z0.500 F420
G1 X29.70 Y-29.70 F6000
G1 Z0.300 F420
G1 E72.5490 F1800
G1 X28.64 Y-28.64 E72.6426 F600
G1 E70.7747 F2400
G1 Z0.500 F420
G1 X32.17 Y-27.00 F6000
G1 Z0.300 F420
G1 E72.6413 F1800
G1 X31.02 Y-26.03 E72.7348 F600
G1 E70.8670 F2400
G1 Z0.500 F420
G1 X34.40 Y-24.09 F6000
G1 Z0.300 F420
G1 E72.7336 F1800
G1 X33.18 Y-23.23 E72.8271 F600
G1 E70.9593 F2400
G1 Z0.500 F420
G1 X36.37 Y-21.00 F6000
G1 Z0.300 F420
G1 E72.8534 F1800
G1 X33.77 Y-19.50 E73.0405 F600
G1 E71.1304 F2400
G1 Z0.500 F420
G1 X38.06 Y-17.75 F6000
G1 Z0.300 F420
G1 E72.9972 F1800
G1 X36.71 Y-17.12 E73.0908 F600
G1 E71.2229 F2400
G1 Z0.500 F420
G1 X39.47 Y-14.36 F6000
G1 Z0.300 F420
G1 E73.0895 F1800
G1 X38.06 Y-13.85 E73.1831 F600
G1 E71.3152 F2400
G1 Z0.500 F420
G1 X40.57 Y-10.87 F6000
G1 Z0.300 F420
G1 E73.1818 F1800
G1 X39.12 Y-10.48 E73.2754 F600
G1 E71.4075 F2400
G1 Z0.500 F420
G1 X41.36 Y-7.29 F6000
G1 Z0.300 F420
G1 E73.2741 F1800
G1 X39.88 Y-7.03 E73.3676 F600
G1 E71.4998 F2400
G1 Z0.500 F420
G1 X41.84 Y-3.66 F6000
G1 Z0.300 F420
G1 E73.3664 F1800
G1 X40.35 Y-3.53 E73.4599 F600
G1 E71.5921 F2400
G1 Z0.500 F420
;structure:shell-outer
G1 X0.50 Y21.48 F6000
G1 Z0.300 F420
G1 E73.5052 F1800
G1 X0.50 Y24.88 E73.7172 F600
G1 X1.73 Y24.88 E73.7939
G1 X2.12 Y24.78 E73.8190
G1 X2.43 Y24.58 E73.8420
G1 X2.53 Y24.45 E73.8522
G1 X2.66 Y24.04 E73.8791
G1 X2.61 Y23.80 E73.8943
G1 X2.50 Y23.56 E73.9108
G1 X2.28 Y23.36 E73.9293
G1 X1.51 Y23.18 E73.9787
G1 E72.0105 F2400
G1 Z0.500 F420
G1 X0.50 Y23.18 F6000
G1 Z0.300 F420
G1 E73.9082 F1800
G1 X1.51 Y23.18 E73.9712 F600
G1 X2.02 Y23.00 E74.0049
G1 X2.41 Y22.38 E74.0506
G1 X2.66 Y21.48 E74.1089
G1 E72.1938 F2400
G1 Z0.500 F420
G1 X3.72 Y22.69 F6000
G1 Z0.300 F420
G1 E74.1099 F1800
G1 X5.86 Y22.69 E74.2434 F600
G1 X5.78 Y23.22 E74.2768
G1 X5.57 Y23.61 E74.3044
G1 X5.23 Y23.86 E74.3307
G1 X4.79 Y23.95 E74.3588
G1 X4.36 Y23.86 E74.3862
G1 X4.02 Y23.61 E74.4125
G1 X3.80 Y23.22 E74.4404
G1 X3.72 Y22.69 E74.4738
G1 X3.80 Y22.15 E74.5079
G1 X4.03 Y21.75 E74.5366
G1 X4.38 Y21.51 E74.5631
G1 X4.84 Y21.42 E74.5923
G1 X5.18 Y21.47 E74.6138
G1 X5.47 Y21.61 E74.6339
G1 X5.68 Y21.83 E74.6528
G1 X5.80 Y22.13 E74.6730
G1 E72.6919 F2400
G1 Z0.500 F420
G1 X6.92 Y23.26 F6000
G1 Z0.300 F420
G1 E74.5650 F1800
G1 X8.61 Y23.26 E74.6704 F600
G1 E72.7947 F2400
G1 Z0.500 F420
G1 X8.61 Y22.55 F6000
G1 Z0.300 F420
G1 E74.6673 F1800
G1 X6.92 Y22.55 E74.7727 F600
G1 E72.8970 F2400
G1 Z0.500 F420
G1 X10.89 Y24.94 F6000
G1 Z0.300 F420
G1 E74.8135 F1800
G1 X11.40 Y24.80 E74.8465 F600
G1 X11.79 Y24.42 E74.8805
G1 X12.03 Y23.86 E74.9185
G1 X12.11 Y23.18 E74.9612
G1 X12.03 Y22.51 E75.0033
G1 X11.79 Y21.95 E75.0413
G1 X11.40 Y21.56 E75.0757
G1 X10.89 Y21.42 E75.1086
G1 X10.37 Y21.56 E75.1422
G1 X9.99 Y21.95 E75.1762
G1 X9.75 Y22.51 E75.2142
G1 X9.67 Y23.18 E75.2563
G1 X9.75 Y23.85 E75.2983
G1 X9.99 Y24.42 E75.3369
G1 X10.37 Y24.80 E75.3704
G1 X10.89 Y24.94 E75.4040
G1 E73.4193 F2400
G1 Z0.500 F420
G1 X13.18 Y21.71 F6000
G1 Z0.300 F420
G1 E74.9752 F1800
G1 X13.18 Y21.65 E74.9790 F600
G1 E73.4324 F2400
G1 Z0.500 F420
G1 X15.46 Y24.94 F6000
G1 Z0.300 F420
G1 E75.3476 F1800
G1 X15.97 Y24.80 E75.3806 F600
G1 X16.36 Y24.42 E75.4145
G1 X16.60 Y23.86 E75.4525
G1 X16.68 Y23.18 E75.4952
G1 X16.60 Y22.51 E75.5373
G1 X16.36 Y21.95 E75.5753
G1 X15.97 Y21.56 E75.6097
G1 X15.46 Y21.42 E75.6427
G1 X14.94 Y21.56 E75.6763
G1 X14.56 Y21.95 E75.7102
G1 X14.32 Y22.51 E75.7482
G1 X14.24 Y23.18 E75.7903
G1 X14.32 Y23.85 E75.8324
G1 X14.56 Y24.42 E75.8710
G1 X14.94 Y24.80 E75.9045
G1 X15.46 Y24.94 E75.9381
G1 E73.9533 F2400
G1 Z0.500 F420
G1 X17.74 Y22.90 F6000
G1 Z0.300 F420
G1 E75.8311 F1800
G1 X19.61 Y22.90 E75.9478 F600
G1 E74.0657 F2400
G1 Z0.500 F420
G1 X22.66 Y24.88 F6000
G1 Z0.300 F420
G1 E75.9795 F1800
G1 X20.91 Y24.88 E76.0887 F600
G1 X20.77 Y23.14 E76.1975
G1 X21.05 Y23.45 E76.2236
G1 X21.22 Y23.57 E76.2366
G1 X21.41 Y23.64 E76.2492
G1 X21.60 Y23.67 E76.2612
G1 X21.80 Y23.68 E76.2737
G1 X22.21 Y23.59 E76.2999
G1 X22.53 Y23.37 E76.3241
G1 X22.74 Y23.03 E76.3490
G1 X22.82 Y22.61 E76.3757
G1 X22.75 Y22.14 E76.4053
G1 X22.54 Y21.77 E76.4318
G1 X22.19 Y21.51 E76.4590
G1 X21.69 Y21.42 E76.4907
G1 X21.32 Y21.48 E76.5141
G1 X21.01 Y21.64 E76.5359
G1 X20.79 Y21.91 E76.5576
G1 X20.67 Y22.27 E76.5812
G1 E74.5978 F2400
G1 Z0.500 F420
G1 X23.88 Y21.71 F6000
G1 Z0.300 F420
G1 E76.1537 F1800
G1 X23.88 Y21.65 E76.1574 F600
G1 E74.6108 F2400
G1 Z0.500 F420
G1 X26.17 Y24.94 F6000
G1 Z0.300 F420
G1 E76.5260 F1800
G1 X26.68 Y24.80 E76.5590 F600
G1 X27.07 Y24.42 E76.5930
G1 X27.31 Y23.86 E76.6310
G1 X27.39 Y23.18 E76.6737
G1 X27.31 Y22.51 E76.7158
G1 X27.07 Y21.95 E76.7538
G1 X26.68 Y21.56 E76.7882
G1 X26.17 Y21.42 E76.8211
G1 X25.65 Y21.56 E76.8547
G1 X25.27 Y21.95 E76.8887
G1 X25.03 Y22.51 E76.9267
G1 X24.95 Y23.18 E76.9688
G1 X25.03 Y23.85 E77.0109
G1 X25.27 Y24.42 E77.0494
G1 X25.65 Y24.80 E77.0829
G1 X26.17 Y24.94 E77.1165
G1 E75.1318 F2400
G1 Z0.500 F420
G1 X0.50 Y18.89 F6000
G1 Z0.300 F420
G1 E77.0405 F1800
G1 X1.36 Y16.48 E77.2001 F600
G1 X2.10 Y18.89 E77.3574
G1 X2.87 Y16.48 E77.5152
G1 X3.71 Y18.89 E77.6743
G1 E75.6927 F2400
G1 Z0.500 F420
G1 X4.77 Y18.26 F6000
G1 Z0.300 F420
G1 E77.5659 F1800
G1 X6.46 Y18.26 E77.6713 F600
G1 E75.7956 F2400
G1 Z0.500 F420
G1 X6.46 Y17.55 F6000
G1 Z0.300 F420
G1 E77.6682 F1800
G1 X4.77 Y17.55 E77.7736 F600
G1 E75.8979 F2400
G1 Z0.500 F420
G1 X8.74 Y19.94 F6000
G1 Z0.300 F420
G1 E77.8145 F1800
G1 X9.25 Y19.80 E77.8474 F600
G1 X9.64 Y19.42 E77.8814
G1 X9.88 Y18.86 E77.9194
G1 X9.96 Y18.18 E77.9621
G1 X9.88 Y17.51 E78.0042
G1 X9.64 Y16.95 E78.0422
G1 X9.25 Y16.56 E78.0766
G1 X8.74 Y16.42 E78.1096
G1 X8.22 Y16.56 E78.1432
G1 X7.84 Y16.95 E78.1771
G1 X7.60 Y17.51 E78.2151
G1 X7.52 Y18.18 E78.2572
G1 X7.60 Y18.85 E78.2993
G1 X7.84 Y19.42 E78.3379
G1 X8.22 Y19.80 E78.3714
G1 X8.74 Y19.94 E78.4050
G1 E76.4202 F2400
G1 Z0.500 F420
G1 X11.02 Y16.71 F6000
G1 Z0.300 F420
G1 E77.9761 F1800
G1 X11.02 Y16.65 E77.9798 F600
G1 E76.4333 F2400
G1 Z0.500 F420
G1 X12.14 Y19.13 F6000
G1 Z0.300 F420
G1 E78.3453 F1800
G1 X12.25 Y19.47 E78.3676 F600
G1 X12.46 Y19.73 E78.3885
G1 X12.75 Y19.89 E78.4091
G1 X13.09 Y19.94 E78.4306
G1 X13.48 Y19.87 E78.4553
G1 X13.77 Y19.68 E78.4769
G1 X13.95 Y19.41 E78.4971
G1 X14.02 Y19.06 E78.5194
G1 X13.95 Y18.85 E78.5332
G1 X13.81 Y18.68 E78.5469
G1 X13.44 Y18.45 E78.5741
G1 X13.00 Y18.30 E78.6031
G1 X13.44 Y18.18 E78.6315
G1 X13.80 Y18.02 E78.6561
G1 X14.09 Y17.74 E78.6812
G1 X14.19 Y17.45 E78.7004
G1 X14.12 Y17.03 E78.7269
G1 X13.89 Y16.70 E78.7520
G1 X13.55 Y16.50 E78.7766
G1 X13.12 Y16.42 E78.8039
G1 X12.73 Y16.48 E78.8285
G1 X12.41 Y16.65 E78.8511
G1 X12.19 Y16.92 E78.8728
G1 X12.09 Y17.28 E78.8961
G1 E76.9192 F2400
G1 Z0.500 F420
;structure:shell-outer
G1 X70.00 Y0.00 F6000
G1 Z0.300 F420
G1 E78.8416 F1800
G1 X42.00 Y0.00 E80.5879 F600
G1 E78.5174 F2400
G1 Z0.500 F420
;structure:shell-inner
G1 X68.00 Y0.00 F6000
G1 Z0.300 F420
G1 E79.5174 F1800
G1 X67.71 Y5.92 E79.8873 F300
G1 X66.91 Y11.80 E80.2570
G1 X65.60 Y17.58 E80.6266
G1 X63.79 Y23.22 E80.9960
G1 X61.50 Y28.68
G1 X58.75 Y33.92
G1 X55.54 Y38.89
G1 X51.92 Y43.57
G1 X47.91 Y47.91 E81.2172 F1604
G1 X43.53 Y51.88 E81.4383
G1 X38.83 Y55.45 E81.6593
G1 X33.83 Y58.60 E81.8803
G1 X28.59 Y61.30 E82.1011
G1 X23.12 Y63.53 E82.3219
G1 X17.49 Y65.28 E82.5425
G1 X11.73 Y66.53 E82.7631
G1 X5.89 Y67.27 E82.9836
G1 X0.00 Y67.50 E83.2040
G1 X-5.88 Y67.22 E83.4243
G1 X-11.71 Y66.42 E83.6445
G1 X-17.45 Y65.12 E83.8646
G1 X-20.79 Y64.11 E83.9951
G1 X-26.29 Y62.03 F300
G1 X-31.58 Y59.48
G1 X-36.63 Y56.48
G1 X-38.59 Y55.15
G1 X-43.23 Y51.55 E84.3612
G1 E83.3612 F2400
G1 Z0.500 F420
G1 X66.00 Y0.00 F6000
G1 Z0.300 F420
G1 E84.3612 F1800
G1 X65.72 Y5.75 E84.7202 F300
G1 X64.94 Y11.45 E85.0791
G1 X63.67 Y17.06 E85.4378
G1 X61.92 Y22.54 E85.7963
G1 X59.69 Y27.83
G1 X57.01 Y32.92
G1 X53.90 Y37.74
G1 X50.39 Y42.28
G1 E86.7963 F1800
G1 X46.49 Y46.49 E87.0110 F1604
G1 X42.25 Y50.35 E87.2256
G1 X37.68 Y53.81 E87.4401
G1 X32.83 Y56.87 E87.6545
G1 X27.74 Y59.49 E87.8688
G1 X22.44 Y61.65 E88.0830
G1 X16.97 Y63.35 E88.2971
G1 X11.38 Y64.56 E88.5112
G1 X5.71 Y65.28 E88.7251
G1 X0.00 Y65.50 E88.9390
G1 X-5.71 Y65.22 E89.1527
G1 X-11.36 Y64.45 E89.3664
G1 X-16.93 Y63.19 E89.5800
G1 X-22.36 Y61.45 E89.7935
G1 X-22.41 Y61.43 E89.7954
G1 E88.7954 F2400
G1 X-27.67 Y59.22 F300
G1 X-32.71 Y56.55
G1 X-37.50 Y53.47
G1 X-39.82 Y51.74
G1 E89.7954 F1800
G1 X-44.16 Y48.05 E90.1505 F300
G1 E89.1505 F2400
G1 Z0.500 F420
G1 X64.00 Y0.00 F6000
G1 Z0.300 F420
G1 E90.1505 F1800
G1 X63.73 Y5.58 E90.4987 F300
G1 X62.97 Y11.10 E90.8466
G1 X61.74 Y16.54 E91.1944
G1 X60.04 Y21.85 E91.5421
G1 X57.88 Y26.99
G1 X55.28 Y31.92
G1 X52.27 Y36.60
G1 X48.86 Y41.00
G1 E93.5421 F1800
G1 X45.08 Y45.08 E93.7502 F1604
G1 X40.96 Y48.81 E93.9583
G1 X36.53 Y52.18 E94.1663
G1 X31.83 Y55.14 E94.3741
G1 X26.89 Y57.68 E94.5819
G1 X21.76 Y59.77 E94.7896
G1 X16.46 Y61.42 E94.9972
G1 X11.04 Y62.59 E95.2047
G1 X5.54 Y63.29 E95.4121
G1 X0.00 Y63.50 E95.6195
G1 X-5.53 Y63.23 E95.8267
G1 X-11.02 Y62.48 E96.0339
G1 X-16.41 Y61.26 E96.2409
G1 X-21.68 Y59.57 E96.4479
G1 X-24.00 Y58.66 E96.5412
G1 E94.5412 F2400
G1 X-29.01 Y56.32 F300
G1 X-33.79 Y53.55
G1 X-38.32 Y50.38
G1 X-40.97 Y48.22
G1 E96.5412 F1800
G1 X-45.00 Y44.45 E96.8854 F300
G1 E95.8854 F2400
G1 Z0.500 F420
G1 X62.00 Y0.00 F6000
G1 Z0.300 F420
G1 E96.8854 F1800
G1 X61.74 Y5.40 E97.2226 F300
G1 X61.00 Y10.76 E97.5597
G1 X59.81 Y16.03 E97.8966
G1 X58.16 Y21.17 E98.2334
G1 X56.07 Y26.14
G1 X53.55 Y30.92
G1 X50.63 Y35.45
G1 X47.32 Y39.71
G1 E101.2334 F1800
G1 X43.66 Y43.66 E101.4350 F1604
G1 X39.67 Y47.28 E101.6366
G1 X35.39 Y50.54 E101.8380
G1 X30.83 Y53.40 E102.0394
G1 X26.05 Y55.86 E102.2406
G1 X21.07 Y57.90 E102.4418
G1 X15.94 Y59.48 E102.6428
G1 X10.69 Y60.62 E102.8438
G1 X5.36 Y61.29 E103.0447
G1 X0.00 Y61.50 E103.2455
G1 X-5.36 Y61.24 E103.4462
G1 X-10.67 Y60.51 E103.6468
G1 X-15.90 Y59.32 E103.8474
G1 X-21.00 Y57.69 E104.0478
G1 X-25.55 Y55.79 E104.2325
G1 E101.2325 F2400
G1 X-30.31 Y53.33 F300
G1 X-34.82 Y50.46
G1 X-39.07 Y47.21
G1 X-42.01 Y44.58
G1 E104.2325 F1800
G1 X-45.72 Y40.73 E104.5657 F300
G1 E103.5657 F2400
G1 Z0.500 F420
G1 X60.00 Y0.00 F6000
G1 Z0.300 F420
G1 E104.5657 F1800
G1 X59.74 Y5.23 E104.8921 F300
G1 X59.03 Y10.41 E105.2183
G1 X57.88 Y15.51 E105.5443
G1 X56.28 Y20.48 E105.8703
G1 X54.25 Y25.30
G1 X51.82 Y29.92
G1 X48.99 Y34.30
G1 X45.79 Y38.42
G1 E109.8703 F1800
G1 X42.25 Y42.25 E110.0653 F1604
G1 X38.39 Y45.75 E110.2603
G1 X34.24 Y48.90 E110.4552
G1 X29.83 Y51.67 E110.6501
G1 X25.20 Y54.05 E110.8448
G1 X20.39 Y56.02 E111.0394
G1 X15.42 Y57.55 E111.2340
G1 X10.34 Y58.65 E111.4284
G1 X5.19 Y59.30 E111.6228
G1 X0.00 Y59.50 E111.8171
G1 X-5.18 Y59.25 E112.0112
G1 X-10.32 Y58.54 E112.2053
G1 X-15.38 Y57.39 E112.3993
G1 X-20.31 Y55.81 E112.5932
G1 X-25.09 Y53.80 E112.7871
G1 X-27.06 Y52.82 E112.8694
G1 E108.8694 F2400
G1 X-31.54 Y50.24 F300
G1 X-35.79 Y47.28
G1 X-39.75 Y43.96
G1 X-42.94 Y40.82
G1 E112.8694 F1800
G1 X-46.31 Y36.90 E113.1916 F300
G1 E112.1916 F2400
G1 Z0.500 F420
G1 X58.00 Y0.00 F6000
G1 Z0.300 F420
G1 E113.1916 F1800
G1 X57.75 Y5.05 E113.5071 F300
G1 X57.06 Y10.06 E113.8224
G1 X55.94 Y14.99 E114.1376
G1 X54.40 Y19.80 E114.4526
G1 X52.44 Y24.45
G1 X50.09 Y28.92
G1 X47.35 Y33.16
G1 X44.26 Y37.14
G1 E119.4526 F1800
G1 X40.84 Y40.84 E119.6412 F1604
G1 X37.10 Y44.22 E119.8296
G1 X33.09 Y47.26 E120.0180
G1 X28.83 Y49.94 E120.2063
G1 X24.36 Y52.24 E120.3945
G1 X19.70 Y54.14 E120.5826
G1 X14.90 Y55.62 E120.7706
G1 X9.99 Y56.68 E120.9585
G1 X5.01 Y57.31 E121.1464
G1 X0.00 Y57.50 E121.3341
G1 X-5.01 Y57.25 E121.5218
G1 X-9.98 Y56.57 E121.7093
G1 X-14.86 Y55.46 E121.8968
G1 X-19.63 Y53.93 E122.0842
G1 X-24.24 Y51.99 E122.2715
G1 X-28.51 Y49.75 E122.4517
G1 E117.4517 F2400
G1 X-32.72 Y47.05 F300
G1 X-36.68 Y44.00
G1 X-40.35 Y40.61
G1 X-43.72 Y36.92
G1 X-43.72 Y36.92
G1 E122.4517 F1800
G1 X-46.75 Y32.95 E122.7629 F300
G1 E121.7629 F2400
G1 Z0.500 F420
;structure:shell-outer
G1 X-29.50 Y21.48 F6000
G1 Z0.300 F420
G1 E122.4446 F1800
G1 X-29.50 Y24.88 E122.6566 F600
G1 X-28.27 Y24.88 E122.7333
G1 X-27.88 Y24.78 E122.7584
G1 X-27.57 Y24.58 E122.7814
G1 X-27.47 Y24.45 E122.7917
G1 X-27.34 Y24.04 E122.8185
G1 X-27.39 Y23.80 E122.8338
G1 X-27.50 Y23.56 E122.8503
G1 X-27.72 Y23.36 E122.8688
G1 X-28.49 Y23.18 E122.9181
G1 E120.9479 F2400
G1 Z0.500 F420
G1 X-29.50 Y23.18 F6000
G1 Z0.300 F420
G1 E122.8457 F1800
G1 X-28.49 Y23.18 E122.9086 F600
G1 X-27.98 Y23.00 E122.9424
G1 X-27.59 Y22.38 E122.9881
G1 X-27.34 Y21.48 E123.0463
G1 E121.1313 F2400
G1 Z0.500 F420
G1 X-26.28 Y22.69 F6000
G1 Z0.300 F420
G1 E123.0473 F1800
G1 X-24.14 Y22.69 E123.1808 F600
G1 X-24.22 Y23.22 E123.2142
G1 X-24.43 Y23.61 E123.2419
G1 X-24.77 Y23.86 E123.2682
G1 X-25.21 Y23.95 E123.2962
G1 X-25.64 Y23.86 E123.3236
G1 X-25.98 Y23.61 E123.3499
G1 X-26.20 Y23.22 E123.3778
G1 X-26.28 Y22.69 E123.4113
G1 X-26.20 Y22.15 E123.4453
G1 X-25.97 Y21.75 E123.4741
G1 X-25.62 Y21.51 E123.5005
G1 X-25.16 Y21.42 E123.5298
G1 X-24.82 Y21.47 E123.5512
G1 X-24.53 Y21.61 E123.5713
G1 X-24.32 Y21.83 E123.5903
G1 X-24.20 Y22.13 E123.6104
G1 E121.6293 F2400
G1 Z0.500 F420
G1 X-23.08 Y23.26 F6000
G1 Z0.300 F420
G1 E123.5024 F1800
G1 X-21.39 Y23.26 E123.6078 F600
G1 E121.7322 F2400
G1 Z0.500 F420
G1 X-21.39 Y22.55 F6000
G1 Z0.300 F420
G1 E123.6047 F1800
G1 X-23.08 Y22.55 E123.7101 F600
G1 E121.8345 F2400
G1 Z0.500 F420
G1 X-19.11 Y24.94 F6000
G1 Z0.300 F420
G1 E123.7510 F1800
G1 X-18.60 Y24.80 E123.7840 F600
G1 X-18.21 Y24.42 E123.8179
G1 X-17.97 Y23.86 E123.8559
G1 X-17.89 Y23.18 E123.8986
G1 X-17.97 Y22.51 E123.9407
G1 X-18.21 Y21.95 E123.9787
G1 X-18.60 Y21.56 E124.0131
G1 X-19.11 Y21.42 E124.0461
G1 X-19.63 Y21.56 E124.0797
G1 X-20.01 Y21.95 E124.1136
G1 X-20.25 Y22.51 E124.1516
G1 X-20.33 Y23.18 E124.1937
G1 X-20.25 Y23.85 E124.2358
G1 X-20.01 Y24.42 E124.2743
G1 X-19.63 Y24.80 E124.3079
G1 X-19.11 Y24.94 E124.3414
G1 E122.3567 F2400
G1 Z0.500 F420
G1 X-16.82 Y21.71 F6000
G1 Z0.300 F420
G1 E123.9126 F1800
G1 X-16.82 Y21.65 E123.9164 F600
G1 E122.3698 F2400
G1 Z0.500 F420
G1 X-14.54 Y24.94 F6000
G1 Z0.300 F420
G1 E124.2850 F1800
G1 X-14.03 Y24.80 E124.3180 F600
G1 X-13.64 Y24.42 E124.3520
G1 X-13.40 Y23.86 E124.3900
G1 X-13.32 Y23.18 E124.4327
G1 X-13.40 Y22.51 E124.4747
G1 X-13.64 Y21.95 E124.5127
G1 X-14.03 Y21.56 E124.5471
G1 X-14.54 Y21.42 E124.5801
G1 X-15.06 Y21.56 E124.6137
G1 X-15.44 Y21.95 E124.6477
G1 X-15.68 Y22.51 E124.6857
G1 X-15.76 Y23.18 E124.7278
G1 X-15.68 Y23.85 E124.7698
G1 X-15.44 Y24.42 E124.8084
G1 X-15.06 Y24.80 E124.8419
G1 X-14.54 Y24.94 E124.8755
G1 E122.8908 F2400
G1 Z0.500 F420
G1 X-12.26 Y22.90 F6000
G1 Z0.300 F420
G1 E124.7686 F1800
G1 X-10.39 Y22.90 E124.8852 F600
G1 E123.0031 F2400
G1 Z0.500 F420
G1 X-7.34 Y24.88 F6000
G1 Z0.300 F420
G1 E124.9170 F1800
G1 X-9.09 Y24.88 E125.0261 F600
G1 X-9.23 Y23.14 E125.1350
G1 X-8.95 Y23.45 E125.1610
G1 X-8.78 Y23.57 E125.1740
G1 X-8.59 Y23.64 E125.1866
G1 X-8.40 Y23.67 E125.1986
G1 X-8.20 Y23.68 E125.2111
G1 X-7.79 Y23.59 E125.2373
G1 X-7.47 Y23.37 E125.2615
G1 X-7.26 Y23.03 E125.2864
G1 X-7.18 Y22.61 E125.3131
G1 X-7.25 Y22.14 E125.3427
G1 X-7.46 Y21.77 E125.3693
G1 X-7.81 Y21.51 E125.3965
G1 X-8.31 Y21.42 E125.4282
G1 X-8.68 Y21.48 E125.4515
G1 X-8.99 Y21.64 E125.4733
G1 X-9.21 Y21.91 E125.4950
G1 X-9.33 Y22.27 E125.5187
G1 E123.5352 F2400
G1 Z0.500 F420
G1 X-6.12 Y21.71 F6000
G1 Z0.300 F420
G1 E125.0911 F1800
G1 X-6.12 Y21.65 E125.0948 F600
G1 E123.5483 F2400
G1 Z0.500 F420
G1 X-3.83 Y24.94 F6000
G1 Z0.300 F420
G1 E125.4635 F1800
G1 X-3.32 Y24.80 E125.4965 F600
G1 X-2.93 Y24.42 E125.5304
G1 X-2.69 Y23.86 E125.5684
G1 X-2.61 Y23.18 E125.6111
G1 X-2.69 Y22.51 E125.6532
G1 X-2.93 Y21.95 E125.6912
G1 X-3.32 Y21.56 E125.7256
G1 X-3.83 Y21.42 E125.7586
G1 X-4.35 Y21.56 E125.7922
G1 X-4.73 Y21.95 E125.8261
G1 X-4.97 Y22.51 E125.8641
G1 X-5.05 Y23.18 E125.9062
G1 X-4.97 Y23.85 E125.9483
G1 X-4.73 Y24.42 E125.9869
G1 X-4.35 Y24.80 E126.0204
G1 X-3.83 Y24.94 E126.0540
G1 E124.0692 F2400
G1 Z0.500 F420
G1 X-29.50 Y18.89 F6000
G1 Z0.300 F420
G1 E125.9780 F1800
G1 X-28.64 Y16.48 E126.1376 F600
G1 X-27.90 Y18.89 E126.2948
G1 X-27.13 Y16.48 E126.4526
G1 X-26.29 Y18.89 E126.6118
G1 E124.6302 F2400
G1 Z0.500 F420
G1 X-25.23 Y18.26 F6000
G1 Z0.300 F420
G1 E126.5034 F1800
G1 X-23.54 Y18.26 E126.6088 F600
G1 E124.7330 F2400
G1 Z0.500 F420
G1 X-23.54 Y17.55 F6000
G1 Z0.300 F420
G1 E126.6057 F1800
G1 X-25.23 Y17.55 E126.7111 F600
G1 E124.8353 F2400
G1 Z0.500 F420
G1 X-21.26 Y19.94 F6000
G1 Z0.300 F420
G1 E126.7519 F1800
G1 X-20.75 Y19.80 E126.7849 F600
G1 X-20.36 Y19.42 E126.8188
G1 X-20.12 Y18.86 E126.8568
G1 X-20.04 Y18.18 E126.8995
G1 X-20.12 Y17.51 E126.9416
G1 X-20.36 Y16.95 E126.9796
G1 X-20.75 Y16.56 E127.0140
G1 X-21.26 Y16.42 E127.0470
G1 X-21.78 Y16.56 E127.0806
G1 X-22.16 Y16.95 E127.1145
G1 X-22.40 Y17.51 E127.1525
G1 X-22.48 Y18.18 E127.1946
G1 X-22.40 Y18.85 E127.2367
G1 X-22.16 Y19.42 E127.2753
G1 X-21.78 Y19.80 E127.3088
G1 X-21.26 Y19.94 E127.3424
G1 E125.3576 F2400
G1 Z0.500 F420
G1 X-18.98 Y16.71 F6000
G1 Z0.300 F420
G1 E126.9135 F1800
G1 X-18.98 Y16.65 E126.9173 F600
G1 E125.3707 F2400
G1 Z0.500 F420
G1 X-16.20 Y16.48 F6000
G1 Z0.300 F420
G1 E127.2790 F1800
G1 X-16.20 Y19.88 E127.4910 F600
G1 X-17.91 Y17.65 E127.6663
G1 X-15.60 Y17.65 E127.8104
G1 E125.8386 F2400
G1 Z0.500 F420
;structure:shell-outer
G1 X70.00 Y0.00 F6000
G1 Z0.300 F420
G1 E127.7610 F1800
G1 X42.00 Y0.00 E129.5073 F600
G1 E127.4368 F2400
G1 Z0.500 F420
;structure:shell-inner
G1 X56.00 Y0.00 F6000
G1 Z0.300 F420
G1 E128.4368 F1800
G1 X55.76 Y4.88 E128.7414 F300
G1 X55.09 Y9.71 E129.0459
G1 X54.01 Y14.47 E129.3501
G1 X52.52 Y19.12 E129.6543
G1 X50.63 Y23.61
G1 X48.35 Y27.92
G1 X45.71 Y32.01
G1 X42.73 Y35.85
G1 X39.42 Y39.42 E129.8970 F1203
G1 X35.82 Y42.69 E130.1396
G1 X31.95 Y45.62 E130.3821
G1 X27.83 Y48.21 E130.6244
G1 X23.51 Y50.43 E130.8666
G1 X19.02 Y52.26 E131.1087
G1 X14.39 Y53.69 E131.3507
G1 X9.65 Y54.71 E131.5926
G1 X4.84 Y55.32 E131.8343
G1 X0.00 Y55.50 E132.0759
G1 X-4.83 Y55.26 E132.3174
G1 X-9.63 Y54.60 E132.5588
G1 X-11.49 Y54.23 E132.6534
G1 X-16.16 Y53.00 F300
G1 X-20.71 Y51.36
G1 X-25.09 Y49.34
G1 X-29.28 Y46.94
G1 X-29.85 Y46.58
G1 X-33.78 Y43.78 E132.9543
G1 E131.9543 F2400
G1 Z0.500 F420
G1 X54.00 Y0.00 F6000
G1 Z0.300 F420
G1 E132.9543 F1800
G1 X53.77 Y4.70 E133.2480 F300
G1 X53.12 Y9.37 E133.5416
G1 X52.08 Y13.95 E133.8350
G1 X50.64 Y18.43 E134.1282
G1 X48.81 Y22.76
G1 X46.62 Y26.92
G1 X44.07 Y30.86
G1 X41.20 Y34.57
G1 E135.1282 F1800
G1 X38.01 Y38.01 E135.3623 F1203
G1 X34.53 Y41.15 E135.5961
G1 X30.80 Y43.98 E135.8299
G1 X26.83 Y46.48 E136.0635
G1 X22.67 Y48.61 E136.2971
G1 X18.34 Y50.38 E136.5305
G1 X13.87 Y51.76 E136.7637
G1 X9.30 Y52.74 E136.9969
G1 X4.67 Y53.32 E137.2299
G1 X-0.00 Y53.50 E137.4628
G1 X-4.66 Y53.27 E137.6956
G1 X-9.28 Y52.63 E137.9283
G1 X-13.18 Y51.77 E138.1274
G1 E137.1274 F2400
G1 X-17.63 Y50.40 F300
G1 X-21.94 Y48.65
G1 X-26.09 Y46.52
G1 X-30.03 Y44.05
G1 X-31.14 Y43.26
G1 E138.1274 F1800
G1 X-34.78 Y40.36 E138.4173 F300
G1 E137.4173 F2400
G1 Z0.500 F420
G1 X52.00 Y0.00 F6000
G1 Z0.300 F420
G1 E138.4173 F1800
G1 X51.77 Y4.53 E138.7001 F300
G1 X51.16 Y9.02 E138.9828
G1 X50.15 Y13.44 E139.2653
G1 X48.76 Y17.75 E139.5477
G1 X47.00 Y21.92
G1 X44.89 Y25.92
G1 X42.44 Y29.71
G1 X39.66 Y33.28
G1 E141.5477 F1800
G1 X36.59 Y36.59 E141.7730 F1203
G1 X33.25 Y39.62 E141.9982
G1 X29.65 Y42.35 E142.2232
G1 X25.83 Y44.74 E142.4482
G1 X21.82 Y46.80 E142.6730
G1 X17.65 Y48.50 E142.8977
G1 X13.35 Y49.83 E143.1223
G1 X8.95 Y50.77 E143.3467
G1 X4.49 Y51.33 E143.5710
G1 X0.00 Y51.50 E143.7953
G1 X-4.49 Y51.28 E144.0193
G1 X-8.93 Y50.66 E144.2433
G1 X-13.31 Y49.66 E144.4672
G1 X-14.84 Y49.22 E144.5468
G1 E142.5468 F2400
G1 X-19.06 Y47.71 F300
G1 X-23.14 Y45.84
G1 X-27.03 Y43.63
G1 X-30.71 Y41.08
G1 X-32.34 Y39.80
G1 E144.5468 F1800
G1 X-35.67 Y36.81 E144.8258 F300
G1 E143.8258 F2400
G1 Z0.500 F420
G1 X50.00 Y0.00 F6000
G1 Z0.300 F420
G1 E144.8258 F1800
G1 X49.78 Y4.36 E145.0977 F300
G1 X49.19 Y8.67 E145.3695
G1 X48.22 Y12.92 E145.6412
G1 X46.88 Y17.06 E145.9127
G1 X45.19 Y21.07
G1 X43.16 Y24.92
G1 X40.80 Y28.57
G1 X38.13 Y32.00
G1 E148.9127 F1800
G1 X35.18 Y35.18 E149.1293 F1203
G1 X31.96 Y38.09 E149.3457
G1 X28.50 Y40.71 E149.5621
G1 X24.83 Y43.01 E149.7783
G1 X20.98 Y44.99 E149.9944
G1 X16.97 Y46.62 E150.2104
G1 X12.83 Y47.89 E150.4263
G1 X8.61 Y48.80 E150.6420
G1 X4.32 Y49.34 E150.8577
G1 X0.00 Y49.50 E151.0732
G1 X-4.31 Y49.28 E151.2886
G1 X-8.59 Y48.69 E151.5038
G1 X-12.79 Y47.73 E151.7190
G1 X-16.47 Y46.56 E151.9118
G1 E148.9118 F2400
G1 X-20.46 Y44.93 F300
G1 X-24.28 Y42.95
G1 X-27.92 Y40.64
G1 X-31.34 Y38.04
G1 X-33.42 Y36.20
G1 E151.9118 F1800
G1 X-36.42 Y33.13 E152.1797 F300
G1 E151.1797 F2400
G1 Z0.500 F420
G1 X48.00 Y0.00 F6000
G1 Z0.300 F420
G1 E152.1797 F1800
G1 X47.79 Y4.18 E152.4408 F300
G1 X47.22 Y8.33 E152.7017
G1 X46.28 Y12.40 E152.9625
G1 X45.00 Y16.38 E153.2231
G1 X43.38 Y20.23
G1 X41.42 Y23.92
G1 X39.16 Y27.42
G1 X36.60 Y30.71
G1 E157.2231 F1800
G1 X33.76 Y33.76 E157.4310 F1203
G1 X30.68 Y36.56 E157.6388
G1 X27.36 Y39.07 E157.8464
G1 X23.83 Y41.28 E158.0539
G1 X20.13 Y43.18 E158.2613
G1 X16.28 Y44.74 E158.4686
G1 X12.32 Y45.96 E158.6758
G1 X8.26 Y46.83 E158.8828
G1 X4.14 Y47.35 E159.0898
G1 X0.00 Y47.50 E159.2966
G1 X-4.14 Y47.29 E159.5033
G1 X-8.24 Y46.72 E159.7098
G1 X-12.27 Y45.80 E159.9163
G1 X-16.21 Y44.53 E160.1226
G1 X-18.07 Y43.80 E160.2222
G1 E156.2222 F2400
G1 X-21.80 Y42.03 F300
G1 X-25.37 Y39.95
G1 X-28.73 Y37.56
G1 X-31.88 Y34.89
G1 X-34.35 Y32.44
G1 E160.2222 F1800
G1 X-37.02 Y29.30 E160.4792 F300
G1 E159.4792 F2400
G1 Z0.500 F420
G1 X46.00 Y0.00 F6000
G1 Z0.300 F420
G1 E160.4792 F1800
G1 X45.80 Y4.01 E160.7294 F300
G1 X45.25 Y7.98 E160.9794
G1 X44.35 Y11.88 E161.2293
G1 X43.12 Y15.69 E161.4790
G1 X41.56 Y19.38
G1 X39.69 Y22.92
G1 X37.52 Y26.27
G1 X35.07 Y29.43
G1 E166.4790 F1800
G1 X32.35 Y32.35 E166.6782 F1203
G1 X29.39 Y35.03 E166.8773
G1 X26.21 Y37.43 E167.0762
G1 X22.83 Y39.55 E167.2751
G1 X19.29 Y41.36 E167.4738
G1 X15.60 Y42.86 E167.6723
G1 X11.80 Y44.03 E167.8708
G1 X7.91 Y44.86 E168.0691
G1 X3.97 Y45.35 E168.2674
G1 X0.00 Y45.50 E168.4655
G1 X-3.96 Y45.30 E168.6634
G1 X-7.89 Y44.75 E168.8613
G1 X-11.75 Y43.87 E169.0590
G1 X-15.52 Y42.65 E169.2566
G1 X-19.17 Y41.11 E169.4541
G1 X-19.60 Y40.90 E169.4782
G1 E164.4782 F2400
G1 X-23.08 Y39.01 F300
G1 X-26.38 Y36.83
G1 X-29.47 Y34.37
G1 X-32.33 Y31.65
G1 X-34.95 Y28.70
G1 X-35.10 Y28.51
G1 E169.4782 F1800
G1 X-37.42 Y25.33 E169.7241 F300
G1 E168.7241 F2400
G1 Z0.500 F420
;structure:shell-outer
G1 X-29.50 Y-3.52 F6000
G1 Z0.300 F420
G1 E169.3213 F1800
G1 X-29.50 Y-0.12 E169.5333 F600
G1 X-28.27 Y-0.12 E169.6100
G1 X-27.88 Y-0.22 E169.6352
G1 X-27.57 Y-0.42 E169.6582
G1 X-27.47 Y-0.55 E169.6684
G1 X-27.34 Y-0.96 E169.6952
G1 X-27.39 Y-1.20 E169.7105
G1 X-27.50 Y-1.44 E169.7270
G1 X-27.72 Y-1.64 E169.7455
G1 X-28.49 Y-1.82 E169.7948
G1 E167.8235 F2400
G1 Z0.500 F420
G1 X-29.50 Y-1.82 F6000
G1 Z0.300 F420
G1 E169.7213 F1800
G1 X-28.49 Y-1.82 E169.7842 F600
G1 X-27.98 Y-2.00 E169.8180
G1 X-27.59 Y-2.62 E169.8637
G1 X-27.34 Y-3.52 E169.9219
G1 E168.0069 F2400
G1 Z0.500 F420
G1 X-26.28 Y-2.31 F6000
G1 Z0.300 F420
G1 E169.9229 F1800
G1 X-24.14 Y-2.31 E170.0564 F600
G1 X-24.22 Y-1.78 E170.0898
G1 X-24.43 Y-1.39 E170.1175
G1 X-24.77 Y-1.14 E170.1438
G1 X-25.21 Y-1.05 E170.1718
G1 X-25.64 Y-1.14 E170.1992
G1 X-25.98 Y-1.39 E170.2255
G1 X-26.20 Y-1.78 E170.2534
G1 X-26.28 Y-2.31 E170.2869
G1 X-26.20 Y-2.85 E170.3209
G1 X-25.97 Y-3.25 E170.3497
G1 X-25.62 Y-3.49 E170.3761
G1 X-25.16 Y-3.58 E170.4054
G1 X-24.82 Y-3.53 E170.4268
G1 X-24.53 Y-3.39 E170.4469
G1 X-24.32 Y-3.17 E170.4659
G1 X-24.20 Y-2.87 E170.4860
G1 E168.5049 F2400
G1 Z0.500 F420
G1 X-23.08 Y-1.74 F6000
G1 Z0.300 F420
G1 E170.3780 F1800
G1 X-21.39 Y-1.74 E170.4834 F600
G1 E168.6078 F2400
G1 Z0.500 F420
G1 X-21.39 Y-2.45 F6000
G1 Z0.300 F420
G1 E170.4803 F1800
G1 X-23.08 Y-2.45 E170.5857 F600
G1 E168.7101 F2400
G1 Z0.500 F420
G1 X-19.11 Y-0.06 F6000
G1 Z0.300 F420
G1 E170.6266 F1800
G1 X-18.60 Y-0.20 E170.6596 F600
G1 X-18.21 Y-0.58 E170.6935
G1 X-17.97 Y-1.14 E170.7315
G1 X-17.89 Y-1.82 E170.7742
G1 X-17.97 Y-2.49 E170.8163
G1 X-18.21 Y-3.05 E170.8543
G1 X-18.60 Y-3.44 E170.8887
G1 X-19.11 Y-3.58 E170.9217
G1 X-19.63 Y-3.44 E170.9553
G1 X-20.01 Y-3.05 E170.9892
G1 X-20.25 Y-2.49 E171.0272
G1 X-20.33 Y-1.82 E171.0693
G1 X-20.25 Y-1.15 E171.1114
G1 X-20.01 Y-0.58 E171.1499
G1 X-19.63 Y-0.20 E171.1835
G1 X-19.11 Y-0.06 E171.2170
G1 E169.2323 F2400
G1 Z0.500 F420
G1 X-16.82 Y-3.29 F6000
G1 Z0.300 F420
G1 E170.7882 F1800
G1 X-16.82 Y-3.35 E170.7920 F600
G1 E169.2454 F2400
G1 Z0.500 F420
G1 X-14.54 Y-0.06 F6000
G1 Z0.300 F420
G1 E171.1606 F1800
G1 X-14.03 Y-0.20 E171.1936 F600
G1 X-13.64 Y-0.58 E171.2276
G1 X-13.40 Y-1.14 E171.2656
G1 X-13.32 Y-1.82 E171.3083
G1 X-13.40 Y-2.49 E171.3503
G1 X-13.64 Y-3.05 E171.3883
G1 X-14.03 Y-3.44 E171.4227
G1 X-14.54 Y-3.58 E171.4557
G1 X-15.06 Y-3.44 E171.4893
G1 X-15.44 Y-3.05 E171.5233
G1 X-15.68 Y-2.49 E171.5613
G1 X-15.76 Y-1.82 E171.6034
G1 X-15.68 Y-1.15 E171.6454
G1 X-15.44 Y-0.58 E171.6840
G1 X-15.06 Y-0.20 E171.7175
G1 X-14.54 Y-0.06 E171.7511
G1 E169.7664 F2400
G1 Z0.500 F420
G1 X-12.26 Y-2.10 F6000
G1 Z0.300 F420
G1 E171.6442 F1800
G1 X-10.39 Y-2.10 E171.7608 F600
G1 E169.8787 F2400
G1 Z0.500 F420
G1 X-7.34 Y-0.12 F6000
G1 Z0.300 F420
G1 E171.7926 F1800
G1 X-9.09 Y-0.12 E171.9017 F600
G1 X-9.23 Y-1.86 E172.0106
G1 X-8.95 Y-1.55 E172.0366
G1 X-8.78 Y-1.43 E172.0496
G1 X-8.59 Y-1.36 E172.0622
G1 X-8.40 Y-1.33 E172.0742
G1 X-8.20 Y-1.32 E172.0867
G1 X-7.79 Y-1.41 E172.1129
G1 X-7.47 Y-1.63 E172.1371
G1 X-7.26 Y-1.97 E172.1620
G1 X-7.18 Y-2.39 E172.1887
G1 X-7.25 Y-2.86 E172.2183
G1 X-7.46 Y-3.23 E172.2449
G1 X-7.81 Y-3.49 E172.2721
G1 X-8.31 Y-3.58 E172.3038
G1 X-8.68 Y-3.52 E172.3271
G1 X-8.99 Y-3.36 E172.3489
G1 X-9.21 Y-3.09 E172.3706
G1 X-9.33 Y-2.73 E172.3943
G1 E170.4108 F2400
G1 Z0.500 F420
G1 X-6.12 Y-3.29 F6000
G1 Z0.300 F420
G1 E171.9667 F1800
G1 X-6.12 Y-3.35 E171.9704 F600
G1 E170.4239 F2400
G1 Z0.500 F420
G1 X-3.83 Y-0.06 F6000
G1 Z0.300 F420
G1 E172.3391 F1800
G1 X-3.32 Y-0.20 E172.3721 F600
G1 X-2.93 Y-0.58 E172.4060
G1 X-2.69 Y-1.14 E172.4440
G1 X-2.61 Y-1.82 E172.4867
G1 X-2.69 Y-2.49 E172.5288
G1 X-2.93 Y-3.05 E172.5668
G1 X-3.32 Y-3.44 E172.6012
G1 X-3.83 Y-3.58 E172.6342
G1 X-4.35 Y-3.44 E172.6678
G1 X-4.73 Y-3.05 E172.7017
G1 X-4.97 Y-2.49 E172.7397
G1 X-5.05 Y-1.82 E172.7818
G1 X-4.97 Y-1.15 E172.8239
G1 X-4.73 Y-0.58 E172.8625
G1 X-4.35 Y-0.20 E172.8960
G1 X-3.83 Y-0.06 E172.9296
G1 E170.9448 F2400
G1 Z0.500 F420
G1 X-29.50 Y-6.11 F6000
G1 Z0.300 F420
G1 E172.8536 F1800
G1 X-28.64 Y-8.52 E173.0132 F600
G1 X-27.90 Y-6.11 E173.1704
G1 X-27.13 Y-8.52 E173.3282
G1 X-26.29 Y-6.11 E173.4874
G1 E171.5057 F2400
G1 Z0.500 F420
G1 X-25.23 Y-6.74 F6000
G1 Z0.300 F420
G1 E173.3790 F1800
G1 X-23.54 Y-6.74 E173.4844 F600
G1 E171.6086 F2400
G1 Z0.500 F420
G1 X-23.54 Y-7.45 F6000
G1 Z0.300 F420
G1 E173.4813 F1800
G1 X-25.23 Y-7.45 E173.5867 F600
G1 E171.7109 F2400
G1 Z0.500 F420
G1 X-21.26 Y-5.06 F6000
G1 Z0.300 F420
G1 E173.6275 F1800
G1 X-20.75 Y-5.20 E173.6605 F600
G1 X-20.36 Y-5.58 E173.6944
G1 X-20.12 Y-6.14 E173.7324
G1 X-20.04 Y-6.82 E173.7751
G1 X-20.12 Y-7.49 E173.8172
G1 X-20.36 Y-8.05 E173.8552
G1 X-20.75 Y-8.44 E173.8896
G1 X-21.26 Y-8.58 E173.9226
G1 X-21.78 Y-8.44 E173.9562
G1 X-22.16 Y-8.05 E173.9901
G1 X-22.40 Y-7.49 E174.0281
G1 X-22.48 Y-6.82 E174.0702
G1 X-22.40 Y-6.15 E174.1123
G1 X-22.16 Y-5.58 E174.1509
G1 X-21.78 Y-5.20 E174.1844
G1 X-21.26 Y-5.06 E174.2180
G1 E172.2332 F2400
G1 Z0.500 F420
G1 X-18.98 Y-8.29 F6000
G1 Z0.300 F420
G1 E173.7891 F1800
G1 X-18.98 Y-8.35 E173.7929 F600
G1 E172.2463 F2400
G1 Z0.500 F420
G1 X-16.89 Y-5.08 F6000
G1 Z0.300 F420
G1 E174.1666 F1800
G1 X-16.54 Y-5.14 E174.1887 F600
G1 X-16.25 Y-5.29 E174.2091
G1 X-16.06 Y-5.54 E174.2286
G1 X-15.99 Y-5.89 E174.2509
G1 X-16.13 Y-6.34 E174.2803
G1 X-16.42 Y-6.60 E174.3046
G1 X-17.35 Y-6.88 E174.3652
G1 X-17.74 Y-7.16 E174.3951
G1 X-17.91 Y-7.65 E174.4275
G1 X-17.83 Y-8.05 E174.4529
G1 X-17.62 Y-8.34 E174.4752
G1 X-17.29 Y-8.52 E174.4987
G1 X-16.89 Y-8.58 E174.5239
G1 X-16.48 Y-8.52 E174.5497
G1 X-16.15 Y-8.34 E174.5732
G1 X-15.94 Y-8.05 E174.5955
G1 X-15.86 Y-7.65 E174.6210
G1 X-16.04 Y-7.16 E174.6535
G1 X-16.42 Y-6.88 E174.6830
G1 X-17.35 Y-6.60 E174.7435
G1 X-17.64 Y-6.34 E174.7678
G1 X-17.78 Y-5.89 E174.7972
G1 X-17.71 Y-5.54 E174.8195
G1 X-17.52 Y-5.29 E174.8391
G1 X-17.24 Y-5.14 E174.8589
G1 X-16.89 Y-5.08 E174.8810
G1 E172.8800 F2400
G1 Z0.500 F420
;structure:shell-outer
G1 X-70.00 Y0.00 F6000
G1 Z0.300 F420
G1 E174.8026 F1800
G1 X-42.00 Y0.00 E176.5489 F600
G1 E174.4784 F2400
G1 Z0.500 F420
;structure:shell-inner
G1 X-68.00 Y0.00 F6000
G1 Z0.300 F420
G1 E175.4784 F1800
G1 X-67.71 Y-5.92 E175.8482 F300
G1 X-66.91 Y-11.80 E176.2180
G1 X-65.60 Y-17.58 E176.5875
G1 X-63.79 Y-23.22 E176.9570
G1 X-61.50 Y-28.68
G1 X-58.75 Y-33.92
G1 X-55.54 Y-38.89
G1 X-51.92 Y-43.57
G1 X-47.91 Y-47.91 E177.5468 F601
G1 X-43.53 Y-51.88 E178.1365
G1 X-38.83 Y-55.45 E178.7259
G1 X-33.83 Y-58.60 E179.3150
G1 X-28.59 Y-61.30 E179.9039
G1 X-28.11 Y-61.52 E179.9561
G1 X-22.63 Y-63.71 F300
G1 X-16.99 Y-65.41
G1 X-11.22 Y-66.62
G1 X-8.94 Y-66.95
G1 X-3.07 Y-67.44 E180.3235
G1 E179.3235 F2400
G1 Z0.500 F420
G1 X-66.00 Y0.00 F6000
G1 Z0.300 F420
G1 E180.3235 F1800
G1 X-65.72 Y-5.75 E180.6825 F300
G1 X-64.94 Y-11.45 E181.0413
G1 X-63.67 Y-17.06 E181.4000
G1 X-61.92 Y-22.54 E181.7585
G1 X-59.69 Y-27.83
G1 X-57.01 Y-32.92
G1 X-53.90 Y-37.74
G1 X-50.39 Y-42.28
G1 E182.7585 F1800
G1 X-46.49 Y-46.49 E183.3310 F601
G1 X-42.25 Y-50.35 E183.9032
G1 X-37.68 Y-53.81 E184.4752
G1 X-32.83 Y-56.87 E185.0469
G1 X-27.74 Y-59.49 E185.6184
G1 X-26.47 Y-60.06 E185.7577
G1 E184.7577 F2400
G1 X-21.12 Y-62.11 F300
G1 X-15.62 Y-63.69
G1 X-10.01 Y-64.78
G1 X-7.20 Y-65.14
G1 E185.7577 F1800
G1 X-1.50 Y-65.49 E186.1141 F300
G1 E185.1141 F2400
G1 Z0.500 F420
G1 X-64.00 Y0.00 F6000
G1 Z0.300 F420
G1 E186.1141 F1800
G1 X-63.73 Y-5.58 E186.4623 F300
G1 X-62.97 Y-11.10 E186.8102
G1 X-61.74 Y-16.54 E187.1580
G1 X-60.04 Y-21.85 E187.5057
G1 X-57.88 Y-26.99
G1 X-55.28 Y-31.92
G1 X-52.27 Y-36.60
G1 X-48.86 Y-41.00
G1 E189.5057 F1800
G1 X-45.08 Y-45.08 E190.0608 F601
G1 X-40.96 Y-48.81 E190.6156
G1 X-36.53 Y-52.18 E191.1701
G1 X-31.83 Y-55.14 E191.7245
G1 X-26.89 Y-57.68 E192.2786
G1 X-24.82 Y-58.59 E192.5048
G1 E190.5048 F2400
G1 X-19.61 Y-60.50 F300
G1 X-14.26 Y-61.95
G1 X-8.80 Y-62.93
G1 X-5.46 Y-63.29
G1 E192.5048 F1800
G1 X0.07 Y-63.50 E192.8504 F300
G1 E191.8504 F2400
G1 Z0.500 F420
G1 X-62.00 Y0.00 F6000
G1 Z0.300 F420
G1 E192.8504 F1800
G1 X-61.74 Y-5.40 E193.1876 F300
G1 X-61.00 Y-10.76 E193.5247
G1 X-59.81 Y-16.03 E193.8616
G1 X-58.16 Y-21.17 E194.1984
G1 X-56.07 Y-26.14
G1 X-53.55 Y-30.92
G1 X-50.63 Y-35.45
G1 X-47.32 Y-39.71
G1 E197.1984 F1800
G1 X-43.66 Y-43.66 E197.7361 F601
G1 X-39.67 Y-47.28 E198.2735
G1 X-35.39 Y-50.54 E198.8106
G1 X-30.83 Y-53.40 E199.3476
G1 X-26.05 Y-55.86 E199.8842
G1 X-23.16 Y-57.10 E200.1976
G1 E197.1976 F2400
G1 X-18.09 Y-58.88 F300
G1 X-12.88 Y-60.20
G1 X-7.59 Y-61.07
G1 X-3.72 Y-61.41
G1 E200.1976 F1800
G1 X1.64 Y-61.47 E200.5322 F300
G1 E199.5322 F2400
G1 Z0.500 F420
G1 X-60.00 Y0.00 F6000
G1 Z0.300 F420
G1 E200.5322 F1800
G1 X-59.74 Y-5.23 E200.8586 F300
G1 X-59.03 Y-10.41 E201.1848
G1 X-57.88 Y-15.51 E201.5108
G1 X-56.28 Y-20.48 E201.8367
G1 X-54.25 Y-25.30
G1 X-51.82 Y-29.92
G1 X-48.99 Y-34.30
G1 X-45.79 Y-38.42
G1 E205.8367 F1800
G1 X-42.25 Y-42.25 E206.3570 F601
G1 X-38.39 Y-45.75 E206.8770
G1 X-34.24 Y-48.90 E207.3967
G1 X-29.83 Y-51.67 E207.9162
G1 X-25.20 Y-54.05 E208.4355
G1 X-21.50 Y-55.60 E208.8359
G1 E204.8359 F2400
G1 X-16.57 Y-57.24 F300
G1 X-11.51 Y-58.44
G1 X-6.37 Y-59.19
G1 X-1.98 Y-59.48
G1 E208.8359 F1800
G1 X3.21 Y-59.40 E209.1596 F300
G1 E208.1596 F2400
G1 Z0.500 F420
G1 X-58.00 Y0.00 F6000
G1 Z0.300 F420
G1 E209.1596 F1800
G1 X-57.75 Y-5.05 E209.4750 F300
G1 X-57.06 Y-10.06 E209.7904
G1 X-55.94 Y-14.99 E210.1055
G1 X-54.40 Y-19.80 E210.4206
G1 X-52.44 Y-24.45
G1 X-50.09 Y-28.92
G1 X-47.35 Y-33.16
G1 X-44.26 Y-37.14
G1 E215.4206 F1800
G1 X-40.84 Y-40.84 E215.9234 F601
G1 X-37.10 Y-44.22 E216.4260
G1 X-33.09 Y-47.26 E216.9283
G1 X-28.83 Y-49.94 E217.4304
G1 X-24.36 Y-52.24 E217.9323
G1 X-19.84 Y-54.09 E218.4197
G1 E213.4197 F2400
G1 X-15.04 Y-55.58 F300
G1 X-10.13 Y-56.66
G1 X-5.16 Y-57.30
G1 X-0.23 Y-57.50
G1 E218.4197 F1800
G1 X4.78 Y-57.27 E218.7324 F300
G1 E217.7324 F2400
G1 Z0.500 F420
;structure:shell-outer
G1 X0.50 Y-3.52 F6000
G1 Z0.300 F420
G1 E218.2167 F1800
G1 X0.50 Y-0.12 E218.4288 F600
G1 X1.73 Y-0.12 E218.5055
G1 X2.12 Y-0.22 E218.5306
G1 X2.43 Y-0.42 E218.5536
G1 X2.53 Y-0.55 E218.5638
G1 X2.66 Y-0.96 E218.5906
G1 X2.61 Y-1.20 E218.6059
G1 X2.50 Y-1.44 E218.6224
G1 X2.28 Y-1.64 E218.6409
G1 X1.51 Y-1.82 E218.6903
G1 E216.7173 F2400
G1 Z0.500 F420
G1 X0.50 Y-1.82 F6000
G1 Z0.300 F420
G1 E218.6151 F1800
G1 X1.51 Y-1.82 E218.6781 F600
G1 X2.02 Y-2.00 E218.7118
G1 X2.41 Y-2.62 E218.7575
G1 X2.66 Y-3.52 E218.8157
G1 E216.9007 F2400
G1 Z0.500 F420
G1 X3.72 Y-2.31 F6000
G1 Z0.300 F420
G1 E218.8168 F1800
G1 X5.86 Y-2.31 E218.9502 F600
G1 X5.78 Y-1.78 E218.9837
G1 X5.57 Y-1.39 E219.0113
G1 X5.23 Y-1.14 E219.0376
G1 X4.79 Y-1.05 E219.0656
G1 X4.36 Y-1.14 E219.0930
G1 X4.02 Y-1.39 E219.1193
G1 X3.80 Y-1.78 E219.1473
G1 X3.72 Y-2.31 E219.1807
G1 X3.80 Y-2.85 E219.2147
G1 X4.03 Y-3.25 E219.2435
G1 X4.38 Y-3.49 E219.2700
G1 X4.84 Y-3.58 E219.2992
G1 X5.18 Y-3.53 E219.3206
G1 X5.47 Y-3.39 E219.3407
G1 X5.68 Y-3.17 E219.3597
G1 X5.80 Y-2.87 E219.3798
G1 E217.3987 F2400
G1 Z0.500 F420
G1 X6.92 Y-1.74 F6000
G1 Z0.300 F420
G1 E219.2719 F1800
G1 X8.61 Y-1.74 E219.3773 F600
G1 E217.5016 F2400
G1 Z0.500 F420
G1 X8.61 Y-2.45 F6000
G1 Z0.300 F420
G1 E219.3742 F1800
G1 X6.92 Y-2.45 E219.4796 F600
G1 E217.6039 F2400
G1 Z0.500 F420
G1 X10.89 Y-0.06 F6000
G1 Z0.300 F420
G1 E219.5204 F1800
G1 X11.40 Y-0.20 E219.5534 F600
G1 X11.79 Y-0.58 E219.5873
G1 X12.03 Y-1.14 E219.6253
G1 X12.11 Y-1.82 E219.6680
G1 X12.03 Y-2.49 E219.7101
G1 X11.79 Y-3.05 E219.7481
G1 X11.40 Y-3.44 E219.7825
G1 X10.89 Y-3.58 E219.8155
G1 X10.37 Y-3.44 E219.8491
G1 X9.99 Y-3.05 E219.8830
G1 X9.75 Y-2.49 E219.9210
G1 X9.67 Y-1.82 E219.9631
G1 X9.75 Y-1.15 E220.0052
G1 X9.99 Y-0.58 E220.0438
G1 X10.37 Y-0.20 E220.0773
G1 X10.89 Y-0.06 E220.1109
G1 E218.1262 F2400
G1 Z0.500 F420
G1 X13.18 Y-3.29 F6000
G1 Z0.300 F420
G1 E219.6821 F1800
G1 X13.18 Y-3.35 E219.6858 F600
G1 E218.1392 F2400
G1 Z0.500 F420
G1 X15.46 Y-0.06 F6000
G1 Z0.300 F420
G1 E220.0544 F1800
G1 X15.97 Y-0.20 E220.0874 F600
G1 X16.36 Y-0.58 E220.1214
G1 X16.60 Y-1.14 E220.1594
G1 X16.68 Y-1.82 E220.2021
G1 X16.60 Y-2.49 E220.2442
G1 X16.36 Y-3.05 E220.2822
G1 X15.97 Y-3.44 E220.3166
G1 X15.46 Y-3.58 E220.3495
G1 X14.94 Y-3.44 E220.3831
G1 X14.56 Y-3.05 E220.4171
G1 X14.32 Y-2.49 E220.4551
G1 X14.24 Y-1.82 E220.4972
G1 X14.32 Y-1.15 E220.5393
G1 X14.56 Y-0.58 E220.5778
G1 X14.94 Y-0.20 E220.6113
G1 X15.46 Y-0.06 E220.6449
G1 E218.6602 F2400
G1 Z0.500 F420
G1 X17.74 Y-2.10 F6000
G1 Z0.300 F420
G1 E220.5380 F1800
G1 X19.61 Y-2.10 E220.6546 F600
G1 E218.7725 F2400
G1 Z0.500 F420
G1 X22.66 Y-0.12 F6000
G1 Z0.300 F420
G1 E220.6864 F1800
G1 X20.91 Y-0.12 E220.7955 F600
G1 X20.77 Y-1.86 E220.9044
G1 X21.05 Y-1.55 E220.9304
G1 X21.22 Y-1.43 E220.9434
G1 X21.41 Y-1.36 E220.9561
G1 X21.60 Y-1.33 E220.9681
G1 X21.80 Y-1.32 E220.9805
G1 X22.21 Y-1.41 E221.0067
G1 X22.53 Y-1.63 E221.0309
G1 X22.74 Y-1.97 E221.0559
G1 X22.82 Y-2.39 E221.0825
G1 X22.75 Y-2.86 E221.1122
G1 X22.54 Y-3.23 E221.1387
G1 X22.19 Y-3.49 E221.1659
G1 X21.69 Y-3.58 E221.1976
G1 X21.32 Y-3.52 E221.2210
G1 X21.01 Y-3.36 E221.2427
G1 X20.79 Y-3.09 E221.2644
G1 X20.67 Y-2.73 E221.2881
G1 E219.3046 F2400
G1 Z0.500 F420
G1 X23.88 Y-3.29 F6000
G1 Z0.300 F420
G1 E220.8605 F1800
G1 X23.88 Y-3.35 E220.8643 F600
G1 E219.3177 F2400
G1 Z0.500 F420
G1 X26.17 Y-0.06 F6000
G1 Z0.300 F420
G1 E221.2329 F1800
G1 X26.68 Y-0.20 E221.2659 F600
G1 X27.07 Y-0.58 E221.2998
G1 X27.31 Y-1.14 E221.3378
G1 X27.39 Y-1.82 E221.3805
G1 X27.31 Y-2.49 E221.4226
G1 X27.07 Y-3.05 E221.4606
G1 X26.68 Y-3.44 E221.4950
G1 X26.17 Y-3.58 E221.5280
G1 X25.65 Y-3.44 E221.5616
G1 X25.27 Y-3.05 E221.5955
G1 X25.03 Y-2.49 E221.6335
G1 X24.95 Y-1.82 E221.6756
G1 X25.03 Y-1.15 E221.7177
G1 X25.27 Y-0.58 E221.7563
G1 X25.65 Y-0.20 E221.7898
G1 X26.17 Y-0.06 E221.8234
G1 E219.8386 F2400
G1 Z0.500 F420
G1 X0.50 Y-6.11 F6000
G1 Z0.300 F420
G1 E221.7474 F1800
G1 X1.36 Y-8.52 E221.9070 F600
G1 X2.10 Y-6.11 E222.0642
G1 X2.87 Y-8.52 E222.2220
G1 X3.71 Y-6.11 E222.3812
G1 E220.3996 F2400
G1 Z0.500 F420
G1 X4.77 Y-6.74 F6000
G1 Z0.300 F420
G1 E222.2728 F1800
G1 X6.46 Y-6.74 E222.3782 F600
G1 E220.5025 F2400
G1 Z0.500 F420
G1 X6.46 Y-7.45 F6000
G1 Z0.300 F420
G1 E222.3751 F1800
G1 X4.77 Y-7.45 E222.4805 F600
G1 E220.6048 F2400
G1 Z0.500 F420
G1 X7.52 Y-6.00 F6000
G1 Z0.300 F420
G1 E222.5063 F1800
G1 X7.99 Y-5.76 E222.5392 F600
G1 X8.36 Y-5.45 E222.5693
G1 X8.61 Y-5.12 E222.5951
G1 X8.61 Y-8.52 E222.8072
G1 E220.8731 F2400
G1 Z0.500 F420
G1 X9.67 Y-8.29 F6000
G1 Z0.300 F420
G1 E222.4287 F1800
G1 X9.67 Y-8.35 E222.4324 F600
G1 E220.8859 F2400
G1 Z0.500 F420
G1 X12.77 Y-5.83 F6000
G1 Z0.300 F420
G1 E222.8057 F1800
G1 X12.46 Y-5.26 E222.8462 F600
G1 X11.87 Y-5.06 E222.8850
G1 X11.36 Y-5.18 E222.9177
G1 X11.01 Y-5.53 E222.9486
G1 X10.80 Y-6.13 E222.9882
G1 X10.73 Y-6.95 E223.0396
G1 X10.80 Y-7.64 E223.0828
G1 X11.02 Y-8.16 E223.1180
G1 X11.36 Y-8.47 E223.1467
G1 X11.83 Y-8.58 E223.1768
G1 X12.28 Y-8.49 E223.2055
G1 X12.60 Y-8.24 E223.2308
G1 X12.78 Y-7.87 E223.2564
G1 X12.85 Y-7.44 E223.2836
G1 X12.78 Y-7.04 E223.3089
G1 X12.59 Y-6.69 E223.3338
G1 X12.28 Y-6.46 E223.3579
G1 X11.88 Y-6.38 E223.3833
G1 X11.42 Y-6.47 E223.4125
G1 X11.00 Y-6.72 E223.4430
G1 X10.73 Y-6.95 E223.4651
G1 E221.4701 F2400
G1 Z0.500 F420
;structure:shell-outer
G1 X-70.00 Y0.00 F6000
G1 Z0.300 F420
G1 E223.3926 F1800
G1 X-42.00 Y0.00 E225.1390 F600
G1 E223.0684 F2400
G1 Z0.500 F420
;structure:shell-inner
G1 X-56.00 Y0.00 F6000
G1 Z0.300 F420
G1 E224.0684 F1800
G1 X-55.76 Y-4.88 E224.3730 F300
G1 X-55.09 Y-9.71 E224.6775
G1 X-54.01 Y-14.47 E224.9818
G1 X-52.52 Y-19.12 E225.2859
G1 X-50.63 Y-23.61
G1 X-48.35 Y-27.92
G1 X-45.71 Y-32.01
G1 X-42.73 Y-35.85
G1 X-39.42 Y-39.42 E226.2568 F301
G1 X-35.82 Y-42.69 E227.2271
G1 X-31.95 Y-45.62 E228.1970
G1 X-31.58 Y-45.87 E228.2850
G1 X-27.45 Y-48.43 F300
G1 X-23.11 Y-50.61
G1 X-18.60 Y-52.40
G1 X-13.96 Y-53.80
G1 X-13.40 Y-53.94
G1 X-8.64 Y-54.87 E228.5873
G1 E227.5873 F2400
G1 Z0.500 F420
G1 X-54.00 Y0.00 F6000
G1 Z0.300 F420
G1 E228.5873 F1800
G1 X-53.77 Y-4.70 E228.8811 F300
G1 X-53.12 Y-9.37 E229.1746
G1 X-52.08 Y-13.95 E229.4680
G1 X-50.64 Y-18.43 E229.7613
G1 X-48.81 Y-22.76
G1 X-46.62 Y-26.92
G1 X-44.07 Y-30.86
G1 X-41.20 Y-34.57
G1 E230.7613 F1800
G1 X-38.01 Y-38.01 E231.6973 F301
G1 X-34.53 Y-41.15 E232.6328
G1 X-30.80 Y-43.98 E233.5679
G1 X-30.00 Y-44.53 E233.7604
G1 E232.7604 F2400
G1 X-25.99 Y-46.95 F300
G1 X-21.79 Y-49.01
G1 X-17.43 Y-50.69
G1 X-12.93 Y-51.99
G1 X-11.69 Y-52.28
G1 E233.7604 F1800
G1 X-7.08 Y-53.07 E234.0518 F300
G1 E233.0518 F2400
G1 Z0.500 F420
G1 X-52.00 Y0.00 F6000
G1 Z0.300 F420
G1 E234.0518 F1800
G1 X-51.77 Y-4.53 E234.3347 F300
G1 X-51.16 Y-9.02 E234.6173
G1 X-50.15 Y-13.44 E234.8999
G1 X-48.76 Y-17.75 E235.1822
G1 X-47.00 Y-21.92
G1 X-44.89 Y-25.92
G1 X-42.44 Y-29.71
G1 X-39.66 Y-33.28
G1 E237.1823 F1800
G1 X-36.59 Y-36.59 E238.0834 F301
G1 X-33.25 Y-39.62 E238.9842
G1 X-29.65 Y-42.35 E239.8844
G1 X-28.41 Y-43.17 E240.1814
G1 E238.1814 F2400
G1 X-24.53 Y-45.46 F300
G1 X-20.46 Y-47.40
G1 X-16.25 Y-48.98
G1 X-11.91 Y-50.18
G1 X-9.97 Y-50.59
G1 E240.1814 F1800
G1 X-5.52 Y-51.24 E240.4619 F300
G1 E239.4619 F2400
G1 Z0.500 F420
G1 X-50.00 Y0.00 F6000
G1 Z0.300 F420
G1 E240.4619 F1800
G1 X-49.78 Y-4.36 E240.7338 F300
G1 X-49.19 Y-8.67 E241.0056
G1 X-48.22 Y-12.92 E241.2773
G1 X-46.88 Y-17.06 E241.5488
G1 X-45.19 Y-21.07
G1 X-43.16 Y-24.92
G1 X-40.80 Y-28.57
G1 X-38.13 Y-32.00
G1 E244.5488 F1800
G1 X-35.18 Y-35.18 E245.4152 F301
G1 X-31.96 Y-38.09 E246.2811
G1 X-28.50 Y-40.71 E247.1465
G1 X-26.83 Y-41.82 E247.5480
G1 E244.5480 F2400
G1 X-23.07 Y-43.97 F300
G1 X-19.13 Y-45.79
G1 X-15.06 Y-47.26
G1 X-10.88 Y-48.36
G1 X-8.25 Y-48.86
G1 E247.5480 F1800
G1 X-3.96 Y-49.37 E247.8175 F300
G1 E246.8175 F2400
G1 Z0.500 F420
G1 X-48.00 Y0.00 F6000
G1 Z0.300 F420
G1 E247.8175 F1800
G1 X-47.79 Y-4.18 E248.0786 F300
G1 X-47.22 Y-8.33 E248.3395
G1 X-46.28 Y-12.40 E248.6003
G1 X-45.00 Y-16.38 E248.8609
G1 X-43.38 Y-20.23
G1 X-41.42 Y-23.92
G1 X-39.16 Y-27.42
G1 X-36.60 Y-30.71
G1 E252.8609 F1800
G1 X-33.76 Y-33.76 E253.6925 F301
G1 X-30.68 Y-36.56 E254.5235
G1 X-27.36 Y-39.07 E255.3541
G1 X-25.23 Y-40.45 E255.8601
G1 E251.8601 F2400
G1 X-21.60 Y-42.47 F300
G1 X-17.80 Y-44.17
G1 X-13.88 Y-45.53
G1 X-9.85 Y-46.54
G1 X-6.52 Y-47.09
G1 E255.8601 F1800
G1 X-2.39 Y-47.46 E256.1187 F300
G1 E255.1187 F2400
G1 Z0.500 F420
G1 X-46.00 Y0.00 F6000
G1 Z0.300 F420
G1 E256.1187 F1800
G1 X-45.80 Y-4.01 E256.3689 F300
G1 X-45.25 Y-7.98 E256.6189
G1 X-44.35 Y-11.88 E256.8688
G1 X-43.12 Y-15.69 E257.1186
G1 X-41.56 Y-19.38
G1 X-39.69 Y-22.92
G1 X-37.52 Y-26.27
G1 X-35.07 Y-29.43
G1 E262.1186 F1800
G1 X-32.35 Y-32.35 E262.9153 F301
G1 X-29.39 Y-35.03 E263.7116
G1 X-26.21 Y-37.43 E264.5073
G1 X-23.63 Y-39.08 E265.1178
G1 E260.1178 F2400
G1 X-20.13 Y-40.97 F300
G1 X-16.47 Y-42.54
G1 X-12.69 Y-43.79
G1 X-8.82 Y-44.70
G1 X-4.89 Y-45.27
G1 X-4.79 Y-45.28
G1 E265.1178 F1800
G1 X-0.82 Y-45.50 E265.3654 F300
G1 E264.3654 F2400
G1 Z0.500 F420
G1 E261.8485 F2400
;end gcode
M107
M104 S0 T0
M140 S0 T0
G162 Z F1800
G28 X Y
M132 X Y A B
M652
G91
M18
