;gcode_flavor: flashforge
;machine_type: Adventurer 3 Series
;filament_diameter0: 1.75
;right_extruder_temperature: 210
;platform_temperature: 50
;extruder_fan: 100%
;case_fan: 100%
;base_print_speed: 60
;travel_speed: 100
;vertical_speed: 7
;retract_speed: 40
;restore_speed: 30
;layer_height: 0.30
;line_width: 0.50
;extrusion_ratio: 1.00
;command_line: ./gcodetest.py -Te=210 -Tp=50 -Fe=1.0 -Fc=1.0 -Kf=1.6 -Kb=3.2 -Re=1.7 -R
;start gcode
M118 X75.00 Y75.00 Z150.00 T0
M140 S50 T0
M104 S210 T0
M104 S0 T1
M107
M900 K0.000 T0
G90
G28
M132 X Y Z A B
G1 Z50.000 F420
G161 X Y F3300
M7 T0
M6 T0
M652 S255
M108 T0
M106
;preExtrude:0.20
G1 X69.29 Y28.70 F6000
G1 Z0.200 F420
G1 E4.8398 F1800
G1 X66.53 Y34.63 E5.7103 F600
G1 X63.25 Y40.30 E6.5808
G1 X59.50 Y45.66 E7.4512
G1 X55.30 Y50.67 E8.3217
G1 X50.67 Y55.30 E9.1922
G1 X45.66 Y59.50 E10.0626
G1 X40.30 Y63.25 E10.9331
G1 X34.63 Y66.53 E11.8036
G1 X28.70 Y69.29 E12.6741
G1 X28.70 Y69.29
G1 E6.2978 F2400
G1 Z0.400 F420
;layer:0.30
;structure:shell-outer
G1 X-69.50 Y68.89 F6000
G1 Z0.300 F420
G1 E10.6341 F1800
G1 X-68.48 Y66.48 E10.7973 F600
G1 X-67.46 Y68.89 E10.9605
G1 E6.7108 F2400
G1 Z0.500 F420
G1 X-66.40 Y67.69 F6000
G1 Z0.300 F420
G1 E11.0234 F1800
G1 X-64.26 Y67.69 E11.1568 F600
G1 X-64.34 Y68.22 E11.1903
G1 X-64.55 Y68.61 E11.2179
G1 X-64.89 Y68.86 E11.2442
G1 X-65.33 Y68.95 E11.2722
G1 X-65.76 Y68.86 E11.2996
G1 X-66.10 Y68.61 E11.3259
G1 X-66.32 Y68.22 E11.3538
G1 X-66.40 Y67.69 E11.3873
G1 X-66.32 Y67.15 E11.4213
G1 X-66.09 Y66.75 E11.4501
G1 X-65.74 Y66.51 E11.4766
G1 X-65.28 Y66.42 E11.5058
G1 X-64.94 Y66.47 E11.5272
G1 X-64.65 Y66.61 E11.5473
G1 X-64.44 Y66.83 E11.5663
G1 X-64.32 Y67.13 E11.5864
G1 E7.3131 F2400
G1 Z0.500 F420
G1 X-63.20 Y68.26 F6000
G1 Z0.300 F420
G1 E11.5392 F1800
G1 X-61.51 Y68.26 E11.6446 F600
G1 E7.4562 F2400
G1 Z0.500 F420
G1 X-61.51 Y67.55 F6000
G1 Z0.300 F420
G1 E11.6817 F1800
G1 X-63.20 Y67.55 E11.7871 F600
G1 E7.5987 F2400
G1 Z0.500 F420
G1 X-60.45 Y69.00 F6000
G1 Z0.300 F420
G1 E11.8820 F1800
G1 X-59.98 Y69.24 E11.9149 F600
G1 X-59.61 Y69.55 E11.9450
G1 X-59.36 Y69.88 E11.9708
G1 X-59.36 Y66.48 E12.1828
G1 E7.9377 F2400
G1 Z0.500 F420
G1 X-58.30 Y66.71 F6000
G1 Z0.300 F420
G1 E11.5291 F1800
G1 X-58.30 Y66.65 E11.5328 F600
G1 E7.9715 F2400
G1 Z0.500 F420
G1 X-56.01 Y69.94 F6000
G1 Z0.300 F420
G1 E12.2792 F1800
G1 X-55.50 Y69.80 E12.3122 F600
G1 X-55.11 Y69.42 E12.3462
G1 X-54.88 Y68.86 E12.3839
G1 X-54.79 Y68.18 E12.4267
G1 X-54.88 Y67.51 E12.4689
G1 X-55.11 Y66.95 E12.5066
G1 X-55.50 Y66.56 E12.5410
G1 X-56.01 Y66.42 E12.5740
G1 X-56.54 Y66.56 E12.6082
G1 X-56.91 Y66.95 E12.6417
G1 X-57.15 Y67.51 E12.6797
G1 X-57.23 Y68.18 E12.7218
G1 X-57.15 Y68.85 E12.7639
G1 X-56.91 Y69.42 E12.8025
G1 X-56.54 Y69.80 E12.8355
G1 X-56.01 Y69.94 E12.8697
G1 E8.5951 F2400
G1 Z0.500 F420
G1 X-69.50 Y64.88 F6000
G1 Z0.300 F420
G1 E12.8715 F1800
G1 X-69.50 Y61.48 E13.0835 F600
G1 E8.8456 F2400
G1 Z0.500 F420
G1 X-69.50 Y63.23 F6000
G1 Z0.300 F420
G1 E13.1363 F1800
G1 X-69.25 Y63.53 E13.1606 F600
G1 X-69.02 Y63.75 E13.1805
G1 X-68.80 Y63.88 E13.1964
G1 X-68.60 Y63.93 E13.2092
G1 X-68.41 Y63.95 E13.2212
G1 X-68.09 Y63.88 E13.2416
G1 X-67.86 Y63.71 E13.2594
G1 X-67.76 Y63.51 E13.2734
G1 X-67.67 Y63.08 E13.3008
G1 X-67.67 Y61.48 E13.4006
G1 E9.1488 F2400
G1 Z0.500 F420
G1 X-66.61 Y63.26 F6000
G1 Z0.300 F420
G1 E13.3748 F1800
G1 X-64.92 Y63.26 E13.4802 F600
G1 E9.2917 F2400
G1 Z0.500 F420
G1 X-64.92 Y62.55 F6000
G1 Z0.300 F420
G1 E13.5173 F1800
G1 X-66.61 Y62.55 E13.6227 F600
G1 E9.4342 F2400
G1 Z0.500 F420
G1 X-62.64 Y64.94 F6000
G1 Z0.300 F420
G1 E13.7477 F1800
G1 X-62.13 Y64.80 E13.7807 F600
G1 X-61.74 Y64.42 E13.8146
G1 X-61.50 Y63.86 E13.8526
G1 X-61.42 Y63.18 E13.8953
G1 X-61.50 Y62.51 E13.9374
G1 X-61.74 Y61.95 E13.9754
G1 X-62.13 Y61.56 E14.0098
G1 X-62.64 Y61.42 E14.0428
G1 X-63.16 Y61.56 E14.0764
G1 X-63.54 Y61.95 E14.1103
G1 X-63.78 Y62.51 E14.1483
G1 X-63.86 Y63.18 E14.1904
G1 X-63.78 Y63.85 E14.2325
G1 X-63.54 Y64.42 E14.2711
G1 X-63.16 Y64.80 E14.3046
G1 X-62.64 Y64.94 E14.3382
G1 E10.0636 F2400
G1 Z0.500 F420
G1 X-60.36 Y61.71 F6000
G1 Z0.300 F420
G1 E13.6552 F1800
G1 X-60.36 Y61.65 E13.6589 F600
G1 E10.0976 F2400
G1 Z0.500 F420
G1 X-59.29 Y64.00 F6000
G1 Z0.300 F420
G1 E14.3753 F1800
G1 X-58.82 Y64.24 E14.4082 F600
G1 X-58.45 Y64.55 E14.4383
G1 X-58.20 Y64.88 E14.4641
G1 X-58.20 Y61.48 E14.6762
G1 E10.4309 F2400
G1 Z0.500 F420
G1 X-56.12 Y64.92 F6000
G1 Z0.300 F420
G1 E14.7550 F1800
G1 X-55.77 Y64.86 E14.7772 F600
G1 X-55.48 Y64.71 E14.7975
G1 X-55.29 Y64.46 E14.8171
G1 X-55.22 Y64.11 E14.8394
G1 X-55.37 Y63.66 E14.8690
G1 X-55.65 Y63.40 E14.8928
G1 X-56.58 Y63.12 E14.9534
G1 X-56.97 Y62.84 E14.9833
G1 X-57.14 Y62.35 E15.0157
G1 X-57.06 Y61.95 E15.0411
G1 X-56.86 Y61.66 E15.0631
G1 X-56.52 Y61.48 E15.0871
G1 X-56.12 Y61.42 E15.1123
G1 X-55.71 Y61.48 E15.1382
G1 X-55.38 Y61.66 E15.1616
G1 X-55.17 Y61.95 E15.1839
G1 X-55.09 Y62.35 E15.2094
G1 X-55.27 Y62.84 E15.2419
G1 X-55.65 Y63.12 E15.2714
G1 X-56.58 Y63.40 E15.3320
G1 X-56.88 Y63.66 E15.3567
G1 X-57.01 Y64.11 E15.3859
G1 X-56.95 Y64.46 E15.4081
G1 X-56.75 Y64.71 E15.4281
G1 X-56.47 Y64.86 E15.4479
G1 X-56.12 Y64.92 E15.4700
G1 E11.1869 F2400
G1 Z0.500 F420
G1 X-54.04 Y62.90 F6000
G1 Z0.300 F420
G1 E15.4230 F1800
G1 X-52.16 Y62.90 E15.5403 F600
G1 E11.3420 F2400
G1 Z0.500 F420
G1 X-49.89 Y64.94 F6000
G1 Z0.300 F420
G1 E15.6559 F1800
G1 X-49.38 Y64.80 E15.6888 F600
G1 X-48.98 Y64.42 E15.7233
G1 X-48.75 Y63.86 E15.7610
G1 X-48.66 Y63.18 E15.8038
G1 X-48.75 Y62.51 E15.8460
G1 X-48.98 Y61.95 E15.8837
G1 X-49.38 Y61.56 E15.9186
G1 X-49.89 Y61.42 E15.9516
G1 X-50.41 Y61.56 E15.9851
G1 X-50.79 Y61.95 E16.0191
G1 X-51.03 Y62.51 E16.0571
G1 X-51.11 Y63.18 E16.0992
G1 X-51.03 Y63.85 E16.1413
G1 X-50.79 Y64.42 E16.1799
G1 X-50.41 Y64.80 E16.2134
G1 X-49.89 Y64.94 E16.2470
G1 E11.9721 F2400
G1 Z0.500 F420
G1 X-47.60 Y61.71 F6000
G1 Z0.300 F420
G1 E15.5637 F1800
G1 X-47.60 Y61.65 E15.5674 F600
G1 E12.0061 F2400
G1 Z0.500 F420
G1 X-46.49 Y64.13 F6000
G1 Z0.300 F420
G1 E16.3075 F1800
G1 X-46.38 Y64.47 E16.3298 F600
G1 X-46.17 Y64.73 E16.3506
G1 X-45.88 Y64.89 E16.3713
G1 X-45.54 Y64.94 E16.3927
G1 X-45.15 Y64.87 E16.4174
G1 X-44.86 Y64.68 E16.4391
G1 X-44.68 Y64.41 E16.4593
G1 X-44.61 Y64.06 E16.4816
G1 X-44.68 Y63.85 E16.4954
G1 X-44.82 Y63.68 E16.5091
G1 X-45.19 Y63.45 E16.5363
G1 X-45.63 Y63.30 E16.5653
G1 X-45.19 Y63.18 E16.5937
G1 X-44.83 Y63.02 E16.6183
G1 X-44.54 Y62.74 E16.6434
G1 X-44.44 Y62.45 E16.6626
G1 X-44.51 Y62.03 E16.6891
G1 X-44.74 Y61.70 E16.7142
G1 X-45.08 Y61.50 E16.7388
G1 X-45.50 Y61.42 E16.7655
G1 X-45.90 Y61.48 E16.7907
G1 X-46.22 Y61.65 E16.8133
G1 X-46.44 Y61.92 E16.8350
G1 X-46.54 Y62.28 E16.8583
G1 E12.5901 F2400
G1 Z0.500 F420
G1 X-42.35 Y64.92 F6000
G1 Z0.300 F420
G1 E16.9142 F1800
G1 X-41.99 Y64.86 E16.9369 F600
G1 X-41.71 Y64.71 E16.9568
G1 X-41.52 Y64.46 E16.9763
G1 X-41.45 Y64.11 E16.9986
G1 X-41.59 Y63.66 E17.0280
G1 X-41.88 Y63.40 E17.0523
G1 X-42.81 Y63.12 E17.1129
G1 X-43.20 Y62.84 E17.1428
G1 X-43.37 Y62.35 E17.1752
G1 X-43.29 Y61.95 E17.2006
G1 X-43.08 Y61.66 E17.2229
G1 X-42.75 Y61.48 E17.2464
G1 X-42.35 Y61.42 E17.2716
G1 X-41.94 Y61.48 E17.2974
G1 X-41.61 Y61.66 E17.3209
G1 X-41.40 Y61.95 E17.3432
G1 X-41.32 Y62.35 E17.3687
G1 X-41.49 Y62.84 E17.4010
G1 X-41.88 Y63.12 E17.4309
G1 X-42.81 Y63.40 E17.4915
G1 X-43.10 Y63.66 E17.5158
G1 X-43.24 Y64.11 E17.5452
G1 X-43.17 Y64.46 E17.5675
G1 X-42.98 Y64.71 E17.5870
G1 X-42.70 Y64.86 E17.6069
G1 X-42.35 Y64.92 E17.6290
G1 E13.3461 F2400
G1 Z0.500 F420
G1 X-67.52 Y59.88 F6000
G1 Z0.300 F420
G1 E17.6225 F1800
G1 X-67.52 Y56.48 E17.8346 F600
G1 E13.5967 F2400
G1 Z0.500 F420
G1 X-67.52 Y56.98 F6000
G1 Z0.300 F420
G1 E17.9023 F1800
G1 X-67.77 Y56.74 E17.9239 F600
G1 X-68.16 Y56.49 E17.9528
G1 X-68.54 Y56.42 E17.9769
G1 X-68.92 Y56.51 E18.0012
G1 X-69.22 Y56.77 E18.0260
G1 X-69.43 Y57.18 E18.0547
G1 X-69.50 Y57.71 E18.0881
G1 X-69.44 Y58.22 E18.1201
G1 X-69.26 Y58.61 E18.1469
G1 X-68.97 Y58.86 E18.1708
G1 X-68.57 Y58.95 E18.1963
G1 X-68.38 Y58.93 E18.2082
G1 X-68.18 Y58.85 E18.2217
G1 X-67.97 Y58.72 E18.2371
G1 X-67.77 Y58.50 E18.2556
G1 X-67.52 Y58.03 E18.2888
G1 E14.0191 F2400
G1 Z0.500 F420
G1 X-66.46 Y58.89 F6000
G1 Z0.300 F420
G1 E18.2823 F1800
G1 X-65.29 Y56.44 E18.4516 F600
G1 E14.2267 F2400
G1 Z0.500 F420
G1 X-66.29 Y55.57 F6000
G1 Z0.300 F420
G1 E18.5219 F1800
G1 X-66.19 Y55.56 E18.5282 F600
G1 X-66.10 Y55.56 E18.5338
G1 X-65.84 Y55.62 E18.5504
G1 X-65.63 Y55.78 E18.5669
G1 X-65.45 Y56.06 E18.5876
G1 X-65.29 Y56.44 E18.6134
G1 X-64.41 Y58.89 E18.7757
G1 E14.5200 F2400
G1 Z0.500 F420
G1 X-63.35 Y58.76 F6000
G1 Z0.300 F420
G1 E18.7708 F1800
G1 X-63.35 Y56.48 E18.9130 F600
G1 E14.7001 F2400
G1 Z0.500 F420
G1 X-63.35 Y57.89 F6000
G1 Z0.300 F420
G1 E18.9915 F1800
G1 X-63.11 Y58.34 E19.0233 F600
G1 X-62.92 Y58.67 E19.0471
G1 X-62.70 Y58.86 E19.0652
G1 X-62.49 Y58.93 E19.0790
G1 X-62.28 Y58.95 E19.0921
G1 X-61.95 Y58.88 E19.1132
G1 X-61.77 Y58.73 E19.1278
G1 X-61.67 Y58.40 E19.1493
G1 X-61.61 Y58.08 E19.1696
G1 X-61.61 Y56.48 E19.2694
G1 E15.0166 F2400
G1 Z0.500 F420
G1 X-60.55 Y56.48 F6000
G1 Z0.300 F420
G1 E19.2717 F1800
G1 X-60.55 Y58.89 E19.4220 F600
G1 E15.2049 F2400
G1 Z0.500 F420
G1 X-60.55 Y58.20 F6000
G1 Z0.300 F420
G1 E19.4513 F1800
G1 X-60.30 Y58.55 E19.4781 F600
G1 X-60.09 Y58.76 E19.4966
G1 X-59.89 Y58.88 E19.5112
G1 X-59.70 Y58.94 E19.5236
G1 X-59.54 Y58.95 E19.5336
G1 X-59.49 Y58.95 E19.5367
G1 X-59.44 Y58.94 E19.5399
G1 E15.3325 F2400
G1 Z0.500 F420
G1 X-58.38 Y57.69 F6000
G1 Z0.300 F420
G1 E19.6448 F1800
G1 X-56.24 Y57.69 E19.7782 F600
G1 X-56.32 Y58.22 E19.8117
G1 X-56.53 Y58.61 E19.8393
G1 X-56.87 Y58.86 E19.8656
G1 X-57.31 Y58.95 E19.8936
G1 X-57.74 Y58.86 E19.9210
G1 X-58.08 Y58.61 E19.9473
G1 X-58.30 Y58.22 E19.9753
G1 X-58.38 Y57.69 E20.0087
G1 X-58.30 Y57.15 E20.0427
G1 X-58.07 Y56.75 E20.0715
G1 X-57.72 Y56.51 E20.0980
G1 X-57.26 Y56.42 E20.1272
G1 X-56.92 Y56.47 E20.1486
G1 X-56.63 Y56.61 E20.1687
G1 X-56.42 Y56.83 E20.1877
G1 X-56.30 Y57.13 E20.2078
G1 E15.9345 F2400
G1 Z0.500 F420
G1 X-53.99 Y56.46 F6000
G1 Z0.300 F420
G1 E20.2214 F1800
G1 X-54.14 Y56.45 E20.2307 F600
G1 X-54.32 Y56.50 E20.2424
G1 X-54.48 Y56.62 E20.2549
G1 X-54.60 Y56.81 E20.2689
G1 X-54.68 Y57.19 E20.2931
G1 X-54.68 Y59.52 E20.4384
G1 E16.1910 F2400
G1 Z0.500 F420
G1 X-55.18 Y58.76 F6000
G1 Z0.300 F420
G1 E20.3665 F1800
G1 X-54.10 Y58.76 E20.4339 F600
G1 E16.2951 F2400
G1 Z0.500 F420
G1 X-52.92 Y58.26 F6000
G1 Z0.300 F420
G1 E20.5201 F1800
G1 X-51.23 Y58.26 E20.6255 F600
G1 E16.4372 F2400
G1 Z0.500 F420
G1 X-51.23 Y57.55 F6000
G1 Z0.300 F420
G1 E20.6626 F1800
G1 X-52.92 Y57.55 E20.7680 F600
G1 E16.5797 F2400
G1 Z0.500 F420
G1 X-48.95 Y59.94 F6000
G1 Z0.300 F420
G1 E20.8930 F1800
G1 X-48.44 Y59.80 E20.9260 F600
G1 X-48.05 Y59.42 E20.9599
G1 X-47.81 Y58.86 E20.9979
G1 X-47.73 Y58.18 E21.0406
G1 X-47.81 Y57.51 E21.0827
G1 X-48.05 Y56.95 E21.1207
G1 X-48.44 Y56.56 E21.1551
G1 X-48.95 Y56.42 E21.1881
G1 X-49.47 Y56.56 E21.2217
G1 X-49.85 Y56.95 E21.2556
G1 X-50.09 Y57.51 E21.2936
G1 X-50.17 Y58.18 E21.3357
G1 X-50.09 Y58.85 E21.3778
G1 X-49.85 Y59.42 E21.4164
G1 X-49.47 Y59.80 E21.4499
G1 X-48.95 Y59.94 E21.4835
G1 E17.2090 F2400
G1 Z0.500 F420
;structure:shell-outer
G1 X70.00 Y0.00 F6000
G1 Z0.300 F420
G1 E21.5326 F1800
G1 X69.73 Y6.10 E21.9134 F600
G1 X68.94 Y12.16 E22.2943
G1 X67.61 Y18.12 E22.6751
G1 X65.78 Y23.94 E23.0559
G1 X63.44 Y29.58 E23.4368
G1 X60.62 Y35.00 E23.8176
G1 X57.34 Y40.15 E24.1984
G1 X53.62 Y45.00 E24.5793
G1 X49.50 Y49.50 E24.9601
G1 X45.00 Y53.62 E25.3409
G1 X40.15 Y57.34 E25.7218
G1 X35.00 Y60.62 E26.1026
G1 X29.58 Y63.44 E26.4834
G1 X23.94 Y65.78 E26.8642
G1 X18.12 Y67.61 E27.2451
G1 X12.16 Y68.94 E27.6259
G1 X6.10 Y69.73 E28.0067
G1 X0.00 Y70.00 E28.3876
G1 X-6.10 Y69.73 E28.7684
G1 X-12.16 Y68.94 E29.1492
G1 X-18.12 Y67.61 E29.5301
G1 X-23.94 Y65.78 E29.9109
G1 X-29.58 Y63.44 E30.2917
G1 X-35.00 Y60.62 E30.6726
G1 X-40.15 Y57.34 E31.0534
G1 X-45.00 Y53.62 E31.4342
G1 X-49.50 Y49.50 E31.8151
G1 X-53.62 Y45.00 E32.1959
G1 X-57.34 Y40.15 E32.5767
G1 X-60.62 Y35.00 E32.9576
G1 X-63.44 Y29.58 E33.3384
G1 X-65.78 Y23.94 E33.7192
G1 X-67.61 Y18.12 E34.1001
G1 X-68.94 Y12.16 E34.4809
G1 X-69.73 Y6.10 E34.8617
G1 X-70.00 Y0.00 E35.2425
G1 X-69.73 Y-6.10 E35.6234
G1 X-68.94 Y-12.16 E36.0042
G1 X-67.61 Y-18.12 E36.3850
G1 X-65.78 Y-23.94 E36.7659
G1 X-63.44 Y-29.58 E37.1467
G1 X-60.62 Y-35.00 E37.5275
G1 X-57.34 Y-40.15 E37.9084
G1 X-53.62 Y-45.00 E38.2892
G1 X-49.50 Y-49.50 E38.6700
G1 X-45.00 Y-53.62 E39.0509
G1 X-40.15 Y-57.34 E39.4317
G1 X-35.00 Y-60.62 E39.8125
G1 X-29.58 Y-63.44 E40.1934
G1 X-23.94 Y-65.78 E40.5742
G1 X-18.12 Y-67.61 E40.9550
G1 X-12.16 Y-68.94 E41.3359
G1 X-6.10 Y-69.73 E41.7167
G1 X0.00 Y-70.00 E42.0975
G1 X6.10 Y-69.73 E42.4784
G1 X12.16 Y-68.94 E42.8592
G1 X18.12 Y-67.61 E43.2400
G1 X23.94 Y-65.78 E43.6208
G1 X29.58 Y-63.44 E44.0017
G1 X35.00 Y-60.62 E44.3825
G1 X40.15 Y-57.34 E44.7633
G1 X45.00 Y-53.62 E45.1442
G1 X49.50 Y-49.50 E45.5250
G1 X53.62 Y-45.00 E45.9058
G1 X57.34 Y-40.15 E46.2867
G1 X60.62 Y-35.00 E46.6675
G1 X63.44 Y-29.58 E47.0483
G1 X65.78 Y-23.94 E47.4292
G1 X67.61 Y-18.12 E47.8100
G1 X68.94 Y-12.16 E48.1908
G1 X69.73 Y-6.10 E48.5717
G1 X70.00 Y0.00 E48.9525
G1 E44.6602 F2400
G1 Z0.500 F420
G1 Z0.300
G1 E48.9296 F1800
G1 X73.00 Y0.00 E49.1167 F600
G1 E44.8537 F2400
G1 Z0.500 F420
G1 X69.73 Y6.10 F6000
G1 Z0.300 F420
G1 E49.0678 F1800
G1 X71.23 Y6.23 E49.1614 F600
G1 E44.9846 F2400
G1 Z0.500 F420
G1 X68.94 Y12.16 F6000
G1 Z0.300 F420
G1 E49.1982 F1800
G1 X70.41 Y12.42 E49.2918 F600
G1 E45.1150 F2400
G1 Z0.500 F420
G1 X67.61 Y18.12 F6000
G1 Z0.300 F420
G1 E49.3286 F1800
G1 X69.06 Y18.51 E49.4221 F600
G1 E45.2454 F2400
G1 Z0.500 F420
G1 X65.78 Y23.94 F6000
G1 Z0.300 F420
G1 E49.4590 F1800
G1 X67.19 Y24.45 E49.5525 F600
G1 E45.3758 F2400
G1 Z0.500 F420
G1 X63.44 Y29.58 F6000
G1 Z0.300 F420
G1 E49.5894 F1800
G1 X64.80 Y30.22 E49.6829 F600
G1 E45.5062 F2400
G1 Z0.500 F420
G1 X60.62 Y35.00 F6000
G1 Z0.300 F420
G1 E49.7748 F1800
G1 X63.22 Y36.50 E49.9619 F600
G1 E45.7310 F2400
G1 Z0.500 F420
G1 X57.34 Y40.15 F6000
G1 Z0.300 F420
G1 E49.9449 F1800
G1 X58.57 Y41.01 E50.0385 F600
G1 E45.8617 F2400
G1 Z0.500 F420
G1 X53.62 Y45.00 F6000
G1 Z0.300 F420
G1 E50.0753 F1800
G1 X54.77 Y45.96 E50.1689 F600
G1 E45.9921 F2400
G1 Z0.500 F420
G1 X49.50 Y49.50 F6000
G1 Z0.300 F420
G1 E50.2057 F1800
G1 X50.56 Y50.56 E50.2993 F600
G1 E46.1225 F2400
G1 Z0.500 F420
G1 X45.00 Y53.62 F6000
G1 Z0.300 F420
G1 E50.3361 F1800
G1 X45.96 Y54.77 E50.4296 F600
G1 E46.2529 F2400
G1 Z0.500 F420
G1 X40.15 Y57.34 F6000
G1 Z0.300 F420
G1 E50.4665 F1800
G1 X41.01 Y58.57 E50.5600 F600
G1 E46.3833 F2400
G1 Z0.500 F420
G1 X35.00 Y60.62 F6000
G1 Z0.300 F420
G1 E50.6519 F1800
G1 X36.50 Y63.22 E50.8390 F600
G1 E46.6081 F2400
G1 Z0.500 F420
G1 X29.58 Y63.44 F6000
G1 Z0.300 F420
G1 E50.8220 F1800
G1 X30.22 Y64.80 E50.9156 F600
G1 E46.7388 F2400
G1 Z0.500 F420
G1 X23.94 Y65.78 F6000
G1 Z0.300 F420
G1 E50.9524 F1800
G1 X24.45 Y67.19 E51.0460 F600
G1 E46.8692 F2400
G1 Z0.500 F420
G1 X18.12 Y67.61 F6000
G1 Z0.300 F420
G1 E51.0828 F1800
G1 X18.51 Y69.06 E51.1764 F600
G1 E46.9996 F2400
G1 Z0.500 F420
G1 X12.16 Y68.94 F6000
G1 Z0.300 F420
G1 E51.2132 F1800
G1 X12.42 Y70.41 E51.3067 F600
G1 E47.1300 F2400
G1 Z0.500 F420
G1 X6.10 Y69.73 F6000
G1 Z0.300 F420
G1 E51.3436 F1800
G1 X6.23 Y71.23 E51.4371 F600
G1 E47.2604 F2400
G1 Z0.500 F420
G1 X0.00 Y70.00 F6000
G1 Z0.300 F420
G1 E51.5290 F1800
G1 X0.00 Y73.00 E51.7161 F600
G1 E47.4852 F2400
G1 Z0.500 F420
G1 X-6.10 Y69.73 F6000
G1 Z0.300 F420
G1 E51.6992 F1800
G1 X-6.23 Y71.23 E51.7927 F600
G1 E47.6160 F2400
G1 Z0.500 F420
G1 X-12.16 Y68.94 F6000
G1 Z0.300 F420
G1 E51.8295 F1800
G1 X-12.42 Y70.41 E51.9231 F600
G1 E47.7463 F2400
G1 Z0.500 F420
G1 X-18.12 Y67.61 F6000
G1 Z0.300 F420
G1 E51.9599 F1800
G1 X-18.51 Y69.06 E52.0535 F600
G1 E47.8767 F2400
G1 Z0.500 F420
G1 X-23.94 Y65.78 F6000
G1 Z0.300 F420
G1 E52.0903 F1800
G1 X-24.45 Y67.19 E52.1839 F600
G1 E48.0071 F2400
G1 Z0.500 F420
G1 X-29.58 Y63.44 F6000
G1 Z0.300 F420
G1 E52.2207 F1800
G1 X-30.22 Y64.80 E52.3142 F600
G1 E48.1375 F2400
G1 Z0.500 F420
G1 X-35.00 Y60.62 F6000
G1 Z0.300 F420
G1 E52.4061 F1800
G1 X-36.50 Y63.22 E52.5932 F600
G1 E48.3623 F2400
G1 Z0.500 F420
G1 X-40.15 Y57.34 F6000
G1 Z0.300 F420
G1 E52.5763 F1800
G1 X-41.01 Y58.57 E52.6698 F600
G1 E48.4931 F2400
G1 Z0.500 F420
G1 X-45.00 Y53.62 F6000
G1 Z0.300 F420
G1 E52.7066 F1800
G1 X-45.96 Y54.77 E52.8002 F600
G1 E48.6234 F2400
G1 Z0.500 F420
G1 X-49.50 Y49.50 F6000
G1 Z0.300 F420
G1 E52.8370 F1800
G1 X-50.56 Y50.56 E52.9306 F600
G1 E48.7538 F2400
G1 Z0.500 F420
G1 X-53.62 Y45.00 F6000
G1 Z0.300 F420
G1 E52.9674 F1800
G1 X-54.77 Y45.96 E53.0610 F600
G1 E48.8842 F2400
G1 Z0.500 F420
G1 X-57.34 Y40.15 F6000
G1 Z0.300 F420
G1 E53.0978 F1800
G1 X-58.57 Y41.01 E53.1913 F600
G1 E49.0146 F2400
G1 Z0.500 F420
G1 X-60.62 Y35.00 F6000
G1 Z0.300 F420
G1 E53.2832 F1800
G1 X-63.22 Y36.50 E53.4703 F600
G1 E49.2394 F2400
G1 Z0.500 F420
G1 X-63.44 Y29.58 F6000
G1 Z0.300 F420
G1 E53.4534 F1800
G1 X-64.80 Y30.22 E53.5469 F600
G1 E49.3702 F2400
G1 Z0.500 F420
G1 X-65.78 Y23.94 F6000
G1 Z0.300 F420
G1 E53.5838 F1800
G1 X-67.19 Y24.45 E53.6773 F600
G1 E49.5006 F2400
G1 Z0.500 F420
G1 X-67.61 Y18.12 F6000
G1 Z0.300 F420
G1 E53.7141 F1800
G1 X-69.06 Y18.51 E53.8077 F600
G1 E49.6309 F2400
G1 Z0.500 F420
G1 X-68.94 Y12.16 F6000
G1 Z0.300 F420
G1 E53.8445 F1800
G1 X-70.41 Y12.42 E53.9381 F600
G1 E49.7613 F2400
G1 Z0.500 F420
G1 X-69.73 Y6.10 F6000
G1 Z0.300 F420
G1 E53.9749 F1800
G1 X-71.23 Y6.23 E54.0685 F600
G1 E49.8917 F2400
G1 Z0.500 F420
G1 X-70.00 Y0.00 F6000
G1 Z0.300 F420
G1 E54.1603 F1800
G1 X-73.00 Y0.00 E54.3474 F600
G1 E50.1165 F2400
G1 Z0.500 F420
G1 X-69.73 Y-6.10 F6000
G1 Z0.300 F420
G1 E54.3305 F1800
G1 X-71.23 Y-6.23 E54.4240 F600
G1 E50.2473 F2400
G1 Z0.500 F420
G1 X-68.94 Y-12.16 F6000
G1 Z0.300 F420
G1 E54.4609 F1800
G1 X-70.41 Y-12.42 E54.5544 F600
G1 E50.3777 F2400
G1 Z0.500 F420
G1 X-67.61 Y-18.12 F6000
G1 Z0.300 F420
G1 E54.5912 F1800
G1 X-69.06 Y-18.51 E54.6848 F600
G1 E50.5080 F2400
G1 Z0.500 F420
G1 X-65.78 Y-23.94 F6000
G1 Z0.300 F420
G1 E54.7216 F1800
G1 X-67.19 Y-24.45 E54.8152 F600
G1 E50.6384 F2400
G1 Z0.500 F420
G1 X-63.44 Y-29.58 F6000
G1 Z0.300 F420
G1 E54.8520 F1800
G1 X-64.80 Y-30.22 E54.9456 F600
G1 E50.7688 F2400
G1 Z0.500 F420
G1 X-60.62 Y-35.00 F6000
G1 Z0.300 F420
G1 E55.0374 F1800
G1 X-63.22 Y-36.50 E55.2245 F600
G1 E50.9936 F2400
G1 Z0.500 F420
G1 X-57.34 Y-40.15 F6000
G1 Z0.300 F420
G1 E55.2076 F1800
G1 X-58.57 Y-41.01 E55.3011 F600
G1 E51.1244 F2400
G1 Z0.500 F420
G1 X-53.62 Y-45.00 F6000
G1 Z0.300 F420
G1 E55.3380 F1800
G1 X-54.77 Y-45.96 E55.4315 F600
G1 E51.2548 F2400
G1 Z0.500 F420
G1 X-49.50 Y-49.50 F6000
G1 Z0.300 F420
G1 E55.4684 F1800
G1 X-50.56 Y-50.56 E55.5619 F600
G1 E51.3852 F2400
G1 Z0.500 F420
G1 X-45.00 Y-53.62 F6000
G1 Z0.300 F420
G1 E55.5987 F1800
G1 X-45.96 Y-54.77 E55.6923 F600
G1 E51.5155 F2400
G1 Z0.500 F420
G1 X-40.15 Y-57.34 F6000
G1 Z0.300 F420
G1 E55.7291 F1800
G1 X-41.01 Y-58.57 E55.8227 F600
G1 E51.6459 F2400
G1 Z0.500 F420
G1 X-35.00 Y-60.62 F6000
G1 Z0.300 F420
G1 E55.9145 F1800
G1 X-36.50 Y-63.22 E56.1016 F600
G1 E51.8707 F2400
G1 Z0.500 F420
G1 X-29.58 Y-63.44 F6000
G1 Z0.300 F420
G1 E56.0847 F1800
G1 X-30.22 Y-64.80 E56.1782 F600
G1 E52.0015 F2400
G1 Z0.500 F420
G1 X-23.94 Y-65.78 F6000
G1 Z0.300 F420
G1 E56.2151 F1800
G1 X-24.45 Y-67.19 E56.3086 F600
G1 E52.1319 F2400
G1 Z0.500 F420
G1 X-18.12 Y-67.61 F6000
G1 Z0.300 F420
G1 E56.3455 F1800
G1 X-18.51 Y-69.06 E56.4390 F600
G1 E52.2623 F2400
G1 Z0.500 F420
G1 X-12.16 Y-68.94 F6000
G1 Z0.300 F420
G1 E56.4758 F1800
G1 X-12.42 Y-70.41 E56.5694 F600
G1 E52.3926 F2400
G1 Z0.500 F420
G1 X-6.10 Y-69.73 F6000
G1 Z0.300 F420
G1 E56.6062 F1800
G1 X-6.23 Y-71.23 E56.6998 F600
G1 E52.5230 F2400
G1 Z0.500 F420
G1 X0.00 Y-70.00 F6000
G1 Z0.300 F420
G1 E56.7916 F1800
G1 X0.00 Y-73.00 E56.9787 F600
G1 E52.7478 F2400
G1 Z0.500 F420
G1 X6.10 Y-69.73 F6000
G1 Z0.300 F420
G1 E56.9618 F1800
G1 X6.23 Y-71.23 E57.0553 F600
G1 E52.8786 F2400
G1 Z0.500 F420
G1 X12.16 Y-68.94 F6000
G1 Z0.300 F420
G1 E57.0922 F1800
G1 X12.42 Y-70.41 E57.1857 F600
G1 E53.0090 F2400
G1 Z0.500 F420
G1 X18.12 Y-67.61 F6000
G1 Z0.300 F420
G1 E57.2226 F1800
G1 X18.51 Y-69.06 E57.3161 F600
G1 E53.1394 F2400
G1 Z0.500 F420
G1 X23.94 Y-65.78 F6000
G1 Z0.300 F420
G1 E57.3530 F1800
G1 X24.45 Y-67.19 E57.4465 F600
G1 E53.2698 F2400
G1 Z0.500 F420
G1 X29.58 Y-63.44 F6000
G1 Z0.300 F420
G1 E57.4833 F1800
G1 X30.22 Y-64.80 E57.5769 F600
G1 E53.4001 F2400
G1 Z0.500 F420
G1 X35.00 Y-60.62 F6000
G1 Z0.300 F420
G1 E57.6687 F1800
G1 X36.50 Y-63.22 E57.8558 F600
G1 E53.6249 F2400
G1 Z0.500 F420
G1 X40.15 Y-57.34 F6000
G1 Z0.300 F420
G1 E57.8389 F1800
G1 X41.01 Y-58.57 E57.9324 F600
G1 E53.7557 F2400
G1 Z0.500 F420
G1 X45.00 Y-53.62 F6000
G1 Z0.300 F420
G1 E57.9693 F1800
G1 X45.96 Y-54.77 E58.0628 F600
G1 E53.8861 F2400
G1 Z0.500 F420
G1 X49.50 Y-49.50 F6000
G1 Z0.300 F420
G1 E58.0997 F1800
G1 X50.56 Y-50.56 E58.1932 F600
G1 E54.0165 F2400
G1 Z0.500 F420
G1 X53.62 Y-45.00 F6000
G1 Z0.300 F420
G1 E58.2301 F1800
G1 X54.77 Y-45.96 E58.3236 F600
G1 E54.1469 F2400
G1 Z0.500 F420
G1 X57.34 Y-40.15 F6000
G1 Z0.300 F420
G1 E58.3604 F1800
G1 X58.57 Y-41.01 E58.4540 F600
G1 E54.2772 F2400
G1 Z0.500 F420
G1 X60.62 Y-35.00 F6000
G1 Z0.300 F420
G1 E58.5459 F1800
G1 X63.22 Y-36.50 E58.7329 F600
G1 E54.5020 F2400
G1 Z0.500 F420
G1 X63.44 Y-29.58 F6000
G1 Z0.300 F420
G1 E58.7160 F1800
G1 X64.80 Y-30.22 E58.8096 F600
G1 E54.6328 F2400
G1 Z0.500 F420
G1 X65.78 Y-23.94 F6000
G1 Z0.300 F420
G1 E58.8464 F1800
G1 X67.19 Y-24.45 E58.9399 F600
G1 E54.7632 F2400
G1 Z0.500 F420
G1 X67.61 Y-18.12 F6000
G1 Z0.300 F420
G1 E58.9768 F1800
G1 X69.06 Y-18.51 E59.0703 F600
G1 E54.8936 F2400
G1 Z0.500 F420
G1 X68.94 Y-12.16 F6000
G1 Z0.300 F420
G1 E59.1072 F1800
G1 X70.41 Y-12.42 E59.2007 F600
G1 E55.0240 F2400
G1 Z0.500 F420
G1 X69.73 Y-6.10 F6000
G1 Z0.300 F420
G1 E59.2376 F1800
G1 X71.23 Y-6.23 E59.3311 F600
G1 E55.1544 F2400
G1 Z0.500 F420
G1 X42.00 Y0.00 F6000
G1 Z0.300 F420
G1 E59.4765 F1800
G1 X41.84 Y3.66 E59.7050 F600
G1 X41.36 Y7.29 E59.9335
G1 X40.57 Y10.87 E60.1620
G1 X39.47 Y14.36 E60.3905
G1 X38.06 Y17.75 E60.6190
G1 X36.37 Y21.00 E60.8475
G1 X34.40 Y24.09 E61.0760
G1 X32.17 Y27.00 E61.3045
G1 X29.70 Y29.70 E61.5330
G1 X27.00 Y32.17 E61.7615
G1 X24.09 Y34.40 E61.9900
G1 X21.00 Y36.37 E62.2185
G1 X17.75 Y38.06 E62.4470
G1 X14.36 Y39.47 E62.6755
G1 X10.87 Y40.57 E62.9040
G1 X7.29 Y41.36 E63.1325
G1 X3.66 Y41.84 E63.3610
G1 X0.00 Y42.00 E63.5895
G1 X-3.66 Y41.84 E63.8180
G1 X-7.29 Y41.36 E64.0465
G1 X-10.87 Y40.57 E64.2750
G1 X-14.36 Y39.47 E64.5035
G1 X-17.75 Y38.06 E64.7320
G1 X-21.00 Y36.37 E64.9605
G1 X-24.09 Y34.40 E65.1890
G1 X-27.00 Y32.17 E65.4175
G1 X-29.70 Y29.70 E65.6460
G1 X-32.17 Y27.00 E65.8745
G1 X-34.40 Y24.09 E66.1030
G1 X-36.37 Y21.00 E66.3315
G1 X-38.06 Y17.75 E66.5600
G1 X-39.47 Y14.36 E66.7885
G1 X-40.57 Y10.87 E67.0170
G1 X-41.36 Y7.29 E67.2455
G1 X-41.84 Y3.66 E67.4740
G1 X-42.00 Y0.00 E67.7025
G1 X-41.84 Y-3.66 E67.9310
G1 X-41.36 Y-7.29 E68.1595
G1 X-40.57 Y-10.87 E68.3880
G1 X-39.47 Y-14.36 E68.6165
G1 X-38.06 Y-17.75 E68.8450
G1 X-36.37 Y-21.00 E69.0735
G1 X-34.40 Y-24.09 E69.3020
G1 X-32.17 Y-27.00 E69.5304
G1 X-29.70 Y-29.70 E69.7589
G1 X-27.00 Y-32.17 E69.9874
G1 X-24.09 Y-34.40 E70.2159
G1 X-21.00 Y-36.37 E70.4444
G1 X-17.75 Y-38.06 E70.6729
G1 X-14.36 Y-39.47 E70.9014
G1 X-10.87 Y-40.57 E71.1299
G1 X-7.29 Y-41.36 E71.3584
G1 X-3.66 Y-41.84 E71.5869
G1 X0.00 Y-42.00 E71.8154
G1 X3.66 Y-41.84 E72.0439
G1 X7.29 Y-41.36 E72.2724
G1 X10.87 Y-40.57 E72.5009
G1 X14.36 Y-39.47 E72.7294
G1 X17.75 Y-38.06 E72.9579
G1 X21.00 Y-36.37 E73.1864
G1 X24.09 Y-34.40 E73.4149
G1 X27.00 Y-32.17 E73.6434
G1 X29.70 Y-29.70 E73.8719
G1 X32.17 Y-27.00 E74.1004
G1 X34.40 Y-24.09 E74.3289
G1 X36.37 Y-21.00 E74.5574
G1 X38.06 Y-17.75 E74.7859
G1 X39.47 Y-14.36 E75.0144
G1 X40.57 Y-10.87 E75.2429
G1 X41.36 Y-7.29 E75.4714
G1 X41.84 Y-3.66 E75.6999
G1 X42.00 Y0.00 E75.9284
G1 E71.6362 F2400
G1 Z0.500 F420
G1 Z0.300
G1 E75.9056 F1800
G1 X39.00 Y0.00 E76.0927 F600
G1 E71.8296 F2400
G1 Z0.500 F420
G1 X41.84 Y3.66 F6000
G1 Z0.300 F420
G1 E76.0438 F1800
G1 X40.35 Y3.53 E76.1373 F600
G1 E71.9606 F2400
G1 Z0.500 F420
G1 X41.36 Y7.29 F6000
G1 Z0.300 F420
G1 E76.1742 F1800
G1 X39.88 Y7.03 E76.2677 F600
G1 E72.0910 F2400
G1 Z0.500 F420
G1 X40.57 Y10.87 F6000
G1 Z0.300 F420
G1 E76.3046 F1800
G1 X39.12 Y10.48 E76.3981 F600
G1 E72.2214 F2400
G1 Z0.500 F420
G1 X39.47 Y14.36 F6000
G1 Z0.300 F420
G1 E76.4349 F1800
G1 X38.06 Y13.85 E76.5285 F600
G1 E72.3517 F2400
G1 Z0.500 F420
G1 X38.06 Y17.75 F6000
G1 Z0.300 F420
G1 E76.5653 F1800
G1 X36.71 Y17.12 E76.6589 F600
G1 E72.4821 F2400
G1 Z0.500 F420
G1 X36.37 Y21.00 F6000
G1 Z0.300 F420
G1 E76.7507 F1800
G1 X33.77 Y19.50 E76.9378 F600
G1 E72.7069 F2400
G1 Z0.500 F420
G1 X34.40 Y24.09 F6000
G1 Z0.300 F420
G1 E76.9209 F1800
G1 X33.18 Y23.23 E77.0144 F600
G1 E72.8377 F2400
G1 Z0.500 F420
G1 X32.17 Y27.00 F6000
G1 Z0.300 F420
G1 E77.0513 F1800
G1 X31.02 Y26.03 E77.1448 F600
G1 E72.9681 F2400
G1 Z0.500 F420
G1 X29.70 Y29.70 F6000
G1 Z0.300 F420
G1 E77.1817 F1800
G1 X28.64 Y28.64 E77.2752 F600
G1 E73.0985 F2400
G1 Z0.500 F420
G1 X27.00 Y32.17 F6000
G1 Z0.300 F420
G1 E77.3121 F1800
G1 X26.03 Y31.02 E77.4056 F600
G1 E73.2288 F2400
G1 Z0.500 F420
G1 X24.09 Y34.40 F6000
G1 Z0.300 F420
G1 E77.4424 F1800
G1 X23.23 Y33.18 E77.5360 F600
G1 E73.3592 F2400
G1 Z0.500 F420
G1 X21.00 Y36.37 F6000
G1 Z0.300 F420
G1 E77.6278 F1800
G1 X19.50 Y33.77 E77.8149 F600
G1 E73.5840 F2400
G1 Z0.500 F420
G1 X17.75 Y38.06 F6000
G1 Z0.300 F420
G1 E77.7980 F1800
G1 X17.12 Y36.71 E77.8915 F600
G1 E73.7148 F2400
G1 Z0.500 F420
G1 X14.36 Y39.47 F6000
G1 Z0.300 F420
G1 E77.9284 F1800
G1 X13.85 Y38.06 E78.0219 F600
G1 E73.8452 F2400
G1 Z0.500 F420
G1 X10.87 Y40.57 F6000
G1 Z0.300 F420
G1 E78.0588 F1800
G1 X10.48 Y39.12 E78.1523 F600
G1 E73.9756 F2400
G1 Z0.500 F420
G1 X7.29 Y41.36 F6000
G1 Z0.300 F420
G1 E78.1892 F1800
G1 X7.03 Y39.88 E78.2827 F600
G1 E74.1060 F2400
G1 Z0.500 F420
G1 X3.66 Y41.84 F6000
G1 Z0.300 F420
G1 E78.3195 F1800
G1 X3.53 Y40.35 E78.4131 F600
G1 E74.2363 F2400
G1 Z0.500 F420
G1 X0.00 Y42.00 F6000
G1 Z0.300 F420
G1 E78.5050 F1800
G1 X0.00 Y39.00 E78.6920 F600
G1 E74.4611 F2400
G1 Z0.500 F420
G1 X-3.66 Y41.84 F6000
G1 Z0.300 F420
G1 E78.6751 F1800
G1 X-3.53 Y40.35 E78.7687 F600
G1 E74.5919 F2400
G1 Z0.500 F420
G1 X-7.29 Y41.36 F6000
G1 Z0.300 F420
G1 E78.8055 F1800
G1 X-7.03 Y39.88 E78.8990 F600
G1 E74.7223 F2400
G1 Z0.500 F420
G1 X-10.87 Y40.57 F6000
G1 Z0.300 F420
G1 E78.9359 F1800
G1 X-10.48 Y39.12 E79.0294 F600
G1 E74.8527 F2400
G1 Z0.500 F420
G1 X-14.36 Y39.47 F6000
G1 Z0.300 F420
G1 E79.0663 F1800
G1 X-13.85 Y38.06 E79.1598 F600
G1 E74.9831 F2400
G1 Z0.500 F420
G1 X-17.75 Y38.06 F6000
G1 Z0.300 F420
G1 E79.1967 F1800
G1 X-17.12 Y36.71 E79.2902 F600
G1 E75.1134 F2400
G1 Z0.500 F420
G1 X-21.00 Y36.37 F6000
G1 Z0.300 F420
G1 E79.3821 F1800
G1 X-19.50 Y33.77 E79.5691 F600
G1 E75.3383 F2400
G1 Z0.500 F420
G1 X-24.09 Y34.40 F6000
G1 Z0.300 F420
G1 E79.5522 F1800
G1 X-23.23 Y33.18 E79.6458 F600
G1 E75.4690 F2400
G1 Z0.500 F420
G1 X-27.00 Y32.17 F6000
G1 Z0.300 F420
G1 E79.6826 F1800
G1 X-26.03 Y31.02 E79.7761 F600
G1 E75.5994 F2400
G1 Z0.500 F420
G1 X-29.70 Y29.70 F6000
G1 Z0.300 F420
G1 E79.8130 F1800
G1 X-28.64 Y28.64 E79.9065 F600
G1 E75.7298 F2400
G1 Z0.500 F420
G1 X-32.17 Y27.00 F6000
G1 Z0.300 F420
G1 E79.9434 F1800
G1 X-31.02 Y26.03 E80.0369 F600
G1 E75.8602 F2400
G1 Z0.500 F420
G1 X-34.40 Y24.09 F6000
G1 Z0.300 F420
G1 E80.0738 F1800
G1 X-33.18 Y23.23 E80.1673 F600
G1 E75.9906 F2400
G1 Z0.500 F420
G1 X-36.37 Y21.00 F6000
G1 Z0.300 F420
G1 E80.2592 F1800
G1 X-33.77 Y19.50 E80.4463 F600
G1 E76.2154 F2400
G1 Z0.500 F420
G1 X-38.06 Y17.75 F6000
G1 Z0.300 F420
G1 E80.4293 F1800
G1 X-36.71 Y17.12 E80.5229 F600
G1 E76.3461 F2400
G1 Z0.500 F420
G1 X-39.47 Y14.36 F6000
G1 Z0.300 F420
G1 E80.5597 F1800
G1 X-38.06 Y13.85 E80.6533 F600
G1 E76.4765 F2400
G1 Z0.500 F420
G1 X-40.57 Y10.87 F6000
G1 Z0.300 F420
G1 E80.6901 F1800
G1 X-39.12 Y10.48 E80.7836 F600
G1 E76.6069 F2400
G1 Z0.500 F420
G1 X-41.36 Y7.29 F6000
G1 Z0.300 F420
G1 E80.8205 F1800
G1 X-39.88 Y7.03 E80.9140 F600
G1 E76.7373 F2400
G1 Z0.500 F420
G1 X-41.84 Y3.66 F6000
G1 Z0.300 F420
G1 E80.9509 F1800
G1 X-40.35 Y3.53 E81.0444 F600
G1 E76.8677 F2400
G1 Z0.500 F420
G1 X-42.00 Y0.00 F6000
G1 Z0.300 F420
G1 E81.1363 F1800
G1 X-39.00 Y0.00 E81.3234 F600
G1 E77.0925 F2400
G1 Z0.500 F420
G1 X-41.84 Y-3.66 F6000
G1 Z0.300 F420
G1 E81.3064 F1800
G1 X-40.35 Y-3.53 E81.4000 F600
G1 E77.2232 F2400
G1 Z0.500 F420
G1 X-41.36 Y-7.29 F6000
G1 Z0.300 F420
G1 E81.4368 F1800
G1 X-39.88 Y-7.03 E81.5304 F600
G1 E77.3536 F2400
G1 Z0.500 F420
G1 X-40.57 Y-10.87 F6000
G1 Z0.300 F420
G1 E81.5672 F1800
G1 X-39.12 Y-10.48 E81.6607 F600
G1 E77.4840 F2400
G1 Z0.500 F420
G1 X-39.47 Y-14.36 F6000
G1 Z0.300 F420
G1 E81.6976 F1800
G1 X-38.06 Y-13.85 E81.7911 F600
G1 E77.6144 F2400
G1 Z0.500 F420
G1 X-38.06 Y-17.75 F6000
G1 Z0.300 F420
G1 E81.8280 F1800
G1 X-36.71 Y-17.12 E81.9215 F600
G1 E77.7448 F2400
G1 Z0.500 F420
G1 X-36.37 Y-21.00 F6000
G1 Z0.300 F420
G1 E82.0134 F1800
G1 X-33.77 Y-19.50 E82.2005 F600
G1 E77.9696 F2400
G1 Z0.500 F420
G1 X-34.40 Y-24.09 F6000
G1 Z0.300 F420
G1 E82.1835 F1800
G1 X-33.18 Y-23.23 E82.2771 F600
G1 E78.1003 F2400
G1 Z0.500 F420
G1 X-32.17 Y-27.00 F6000
G1 Z0.300 F420
G1 E82.3139 F1800
G1 X-31.02 Y-26.03 E82.4075 F600
G1 E78.2307 F2400
G1 Z0.500 F420
G1 X-29.70 Y-29.70 F6000
G1 Z0.300 F420
G1 E82.4443 F1800
G1 X-28.64 Y-28.64 E82.5379 F600
G1 E78.3611 F2400
G1 Z0.500 F420
G1 X-27.00 Y-32.17 F6000
G1 Z0.300 F420
G1 E82.5747 F1800
G1 X-26.03 Y-31.02 E82.6682 F600
G1 E78.4915 F2400
G1 Z0.500 F420
G1 X-24.09 Y-34.40 F6000
G1 Z0.300 F420
G1 E82.7051 F1800
G1 X-23.23 Y-33.18 E82.7986 F600
G1 E78.6219 F2400
G1 Z0.500 F420
G1 X-21.00 Y-36.37 F6000
G1 Z0.300 F420
G1 E82.8905 F1800
G1 X-19.50 Y-33.77 E83.0776 F600
G1 E78.8467 F2400
G1 Z0.500 F420
G1 X-17.75 Y-38.06 F6000
G1 Z0.300 F420
G1 E83.0606 F1800
G1 X-17.12 Y-36.71 E83.1542 F600
G1 E78.9774 F2400
G1 Z0.500 F420
G1 X-14.36 Y-39.47 F6000
G1 Z0.300 F420
G1 E83.1910 F1800
G1 X-13.85 Y-38.06 E83.2846 F600
G1 E79.1078 F2400
G1 Z0.500 F420
G1 X-10.87 Y-40.57 F6000
G1 Z0.300 F420
G1 E83.3214 F1800
G1 X-10.48 Y-39.12 E83.4150 F600
G1 E79.2382 F2400
G1 Z0.500 F420
G1 X-7.29 Y-41.36 F6000
G1 Z0.300 F420
G1 E83.4518 F1800
G1 X-7.03 Y-39.88 E83.5453 F600
G1 E79.3686 F2400
G1 Z0.500 F420
G1 X-3.66 Y-41.84 F6000
G1 Z0.300 F420
G1 E83.5822 F1800
G1 X-3.53 Y-40.35 E83.6757 F600
G1 E79.4990 F2400
G1 Z0.500 F420
G1 X0.00 Y-42.00 F6000
G1 Z0.300 F420
G1 E83.7676 F1800
G1 X0.00 Y-39.00 E83.9547 F600
G1 E79.7238 F2400
G1 Z0.500 F420
G1 X3.66 Y-41.84 F6000
G1 Z0.300 F420
G1 E83.9378 F1800
G1 X3.53 Y-40.35 E84.0313 F600
G1 E79.8546 F2400
G1 Z0.500 F420
G1 X7.29 Y-41.36 F6000
G1 Z0.300 F420
G1 E84.0681 F1800
G1 X7.03 Y-39.88 E84.1617 F600
G1 E79.9849 F2400
G1 Z0.500 F420
G1 X10.87 Y-40.57 F6000
G1 Z0.300 F420
G1 E84.1985 F1800
G1 X10.48 Y-39.12 E84.2921 F600
G1 E80.1153 F2400
G1 Z0.500 F420
G1 X14.36 Y-39.47 F6000
G1 Z0.300 F420
G1 E84.3289 F1800
G1 X13.85 Y-38.06 E84.4225 F600
G1 E80.2457 F2400
G1 Z0.500 F420
G1 X17.75 Y-38.06 F6000
G1 Z0.300 F420
G1 E84.4593 F1800
G1 X17.12 Y-36.71 E84.5528 F600
G1 E80.3761 F2400
G1 Z0.500 F420
G1 X21.00 Y-36.37 F6000
G1 Z0.300 F420
G1 E84.6447 F1800
G1 X19.50 Y-33.77 E84.8318 F600
G1 E80.6009 F2400
G1 Z0.500 F420
G1 X24.09 Y-34.40 F6000
G1 Z0.300 F420
G1 E84.8149 F1800
G1 X23.23 Y-33.18 E84.9084 F600
G1 E80.7317 F2400
G1 Z0.500 F420
G1 X27.00 Y-32.17 F6000
G1 Z0.300 F420
G1 E84.9452 F1800
G1 X26.03 Y-31.02 E85.0388 F600
G1 E80.8620 F2400
G1 Z0.500 F420
G1 X29.70 Y-29.70 F6000
G1 Z0.300 F420
G1 E85.0756 F1800
G1 X28.64 Y-28.64 E85.1692 F600
G1 E80.9924 F2400
G1 Z0.500 F420
G1 X32.17 Y-27.00 F6000
G1 Z0.300 F420
G1 E85.2060 F1800
G1 X31.02 Y-26.03 E85.2996 F600
G1 E81.1228 F2400
G1 Z0.500 F420
G1 X34.40 Y-24.09 F6000
G1 Z0.300 F420
G1 E85.3364 F1800
G1 X33.18 Y-23.23 E85.4299 F600
G1 E81.2532 F2400
G1 Z0.500 F420
G1 X36.37 Y-21.00 F6000
G1 Z0.300 F420
G1 E85.5218 F1800
G1 X33.77 Y-19.50 E85.7089 F600
G1 E81.4780 F2400
G1 Z0.500 F420
G1 X38.06 Y-17.75 F6000
G1 Z0.300 F420
G1 E85.6920 F1800
G1 X36.71 Y-17.12 E85.7855 F600
G1 E81.6088 F2400
G1 Z0.500 F420
G1 X39.47 Y-14.36 F6000
G1 Z0.300 F420
G1 E85.8224 F1800
G1 X38.06 Y-13.85 E85.9159 F600
G1 E81.7392 F2400
G1 Z0.500 F420
G1 X40.57 Y-10.87 F6000
G1 Z0.300 F420
G1 E85.9527 F1800
G1 X39.12 Y-10.48 E86.0463 F600
G1 E81.8695 F2400
G1 Z0.500 F420
G1 X41.36 Y-7.29 F6000
G1 Z0.300 F420
G1 E86.0831 F1800
G1 X39.88 Y-7.03 E86.1767 F600
G1 E81.9999 F2400
G1 Z0.500 F420
G1 X41.84 Y-3.66 F6000
G1 Z0.300 F420
G1 E86.2135 F1800
G1 X40.35 Y-3.53 E86.3071 F600
G1 E82.1303 F2400
G1 Z0.500 F420
;structure:shell-outer
G1 X0.50 Y21.48 F6000
G1 Z0.300 F420
G1 E86.4368 F1800
G1 X0.50 Y24.88 E86.6489 F600
G1 X1.73 Y24.88 E86.7256
G1 X2.12 Y24.78 E86.7507
G1 X2.43 Y24.58 E86.7737
G1 X2.53 Y24.45 E86.7839
G1 X2.66 Y24.04 E86.8107
G1 X2.61 Y23.80 E86.8260
G1 X2.50 Y23.56 E86.8425
G1 X2.28 Y23.36 E86.8610
G1 X1.51 Y23.18 E86.9104
G1 E82.6422 F2400
G1 Z0.500 F420
G1 X0.50 Y23.18 F6000
G1 Z0.300 F420
G1 E86.9176 F1800
G1 X1.51 Y23.18 E86.9806 F600
G1 X2.02 Y23.00 E87.0144
G1 X2.41 Y22.38 E87.0600
G1 X2.66 Y21.48 E87.1183
G1 E82.8814 F2400
G1 Z0.500 F420
G1 X3.72 Y22.69 F6000
G1 Z0.300 F420
G1 E87.1939 F1800
G1 X5.86 Y22.69 E87.3274 F600
G1 X5.78 Y23.22 E87.3608
G1 X5.57 Y23.61 E87.3884
G1 X5.23 Y23.86 E87.4147
G1 X4.79 Y23.95 E87.4428
G1 X4.36 Y23.86 E87.4702
G1 X4.02 Y23.61 E87.4965
G1 X3.80 Y23.22 E87.5244
G1 X3.72 Y22.69 E87.5578
G1 X3.80 Y22.15 E87.5919
G1 X4.03 Y21.75 E87.6206
G1 X4.38 Y21.51 E87.6471
G1 X4.84 Y21.42 E87.6763
G1 X5.18 Y21.47 E87.6978
G1 X5.47 Y21.61 E87.7179
G1 X5.68 Y21.83 E87.7368
G1 X5.80 Y22.13 E87.7570
G1 E83.4836 F2400
G1 Z0.500 F420
G1 X6.92 Y23.26 F6000
G1 Z0.300 F420
G1 E87.7097 F1800
G1 X8.61 Y23.26 E87.8151 F600
G1 E83.6267 F2400
G1 Z0.500 F420
G1 X8.61 Y22.55 F6000
G1 Z0.300 F420
G1 E87.8522 F1800
G1 X6.92 Y22.55 E87.9576 F600
G1 E83.7692 F2400
G1 Z0.500 F420
G1 X9.67 Y24.44 F6000
G1 Z0.300 F420
G1 E88.0767 F1800
G1 X9.86 Y24.65 E88.0943 F600
G1 X10.09 Y24.81 E88.1118
G1 X10.35 Y24.90 E88.1290
G1 X10.63 Y24.94 E88.1466
G1 X11.00 Y24.88 E88.1700
G1 X11.30 Y24.68 E88.1925
G1 X11.49 Y24.39 E88.2141
G1 X11.56 Y24.02 E88.2376
G1 X11.46 Y23.63 E88.2627
G1 X11.18 Y23.27 E88.2911
G1 X10.40 Y22.64 E88.3537
G1 X10.10 Y22.23 E88.3853
G1 X9.71 Y21.48 E88.4381
G1 X11.53 Y21.48 E88.5516
G1 E84.2830 F2400
G1 Z0.500 F420
G1 X12.62 Y21.71 F6000
G1 Z0.300 F420
G1 E87.8745 F1800
G1 X12.62 Y21.65 E87.8783 F600
G1 E84.3169 F2400
G1 Z0.500 F420
G1 X13.76 Y22.17 F6000
G1 Z0.300 F420
G1 E88.6262 F1800
G1 X14.06 Y21.61 E88.6658 F600
G1 X14.65 Y21.42 E88.7045
G1 X15.16 Y21.54 E88.7372
G1 X15.51 Y21.88 E88.7676
G1 X15.72 Y22.47 E88.8067
G1 X15.79 Y23.28 E88.8574
G1 X15.72 Y23.99 E88.9019
G1 X15.51 Y24.51 E88.9368
G1 X15.16 Y24.83 E88.9664
G1 X14.69 Y24.94 E88.9965
G1 X14.26 Y24.85 E89.0239
G1 X13.95 Y24.59 E89.0492
G1 X13.76 Y24.22 E89.0751
G1 X13.69 Y23.78 E89.1029
G1 X13.76 Y23.37 E89.1288
G1 X13.96 Y23.04 E89.1529
G1 X14.26 Y22.81 E89.1765
G1 X14.66 Y22.72 E89.2020
G1 X14.95 Y22.75 E89.2202
G1 X15.18 Y22.82 E89.2352
G1 X15.38 Y22.92 E89.2492
G1 X15.79 Y23.28 E89.2832
G1 E85.0069 F2400
G1 Z0.500 F420
G1 X0.50 Y19.88 F6000
G1 Z0.300 F420
G1 E89.3002 F1800
G1 X1.47 Y19.88 E89.3607 F600
G1 X1.86 Y19.78 E89.3859
G1 X2.17 Y19.58 E89.4089
G1 X2.27 Y19.45 E89.4191
G1 X2.40 Y19.04 E89.4459
G1 X2.35 Y18.80 E89.4612
G1 X2.28 Y18.56 E89.4768
G1 X2.02 Y18.36 E89.4973
G1 X1.51 Y18.18 E89.5310
G1 X0.50 Y18.18 E89.5940
G1 E85.3396 F2400
G1 Z0.500 F420
G1 X1.51 Y18.18 F6000
G1 Z0.300 F420
G1 E89.6469 F1800
G1 X2.28 Y18.01 E89.6961 F600
G1 X2.50 Y17.81 E89.7146
G1 X2.61 Y17.56 E89.7316
G1 X2.66 Y17.32 E89.7469
G1 X2.53 Y16.91 E89.7737
G1 X2.43 Y16.78 E89.7840
G1 X2.12 Y16.59 E89.8067
G1 X1.73 Y16.48 E89.8319
G1 X0.50 Y16.48 E89.9086
G1 X0.50 Y19.88 E90.1207
G1 E85.8523 F2400
G1 Z0.500 F420
G1 X3.72 Y17.69 F6000
G1 Z0.300 F420
G1 E90.1651 F1800
G1 X5.86 Y17.69 E90.2986 F600
G1 X5.78 Y18.22 E90.3320
G1 X5.57 Y18.61 E90.3596
G1 X5.23 Y18.86 E90.3859
G1 X4.79 Y18.95 E90.4139
G1 X4.36 Y18.86 E90.4413
G1 X4.02 Y18.61 E90.4677
G1 X3.80 Y18.22 E90.4956
G1 X3.72 Y17.69 E90.5290
G1 X3.80 Y17.15 E90.5631
G1 X4.03 Y16.75 E90.5918
G1 X4.38 Y16.51 E90.6183
G1 X4.84 Y16.42 E90.6475
G1 X5.18 Y16.47 E90.6690
G1 X5.47 Y16.61 E90.6891
G1 X5.68 Y16.83 E90.7080
G1 X5.80 Y17.13 E90.7282
G1 E86.4547 F2400
G1 Z0.500 F420
G1 X6.92 Y18.26 F6000
G1 Z0.300 F420
G1 E90.6809 F1800
G1 X8.61 Y18.26 E90.7863 F600
G1 E86.5978 F2400
G1 Z0.500 F420
G1 X8.61 Y17.55 F6000
G1 Z0.300 F420
G1 E90.8234 F1800
G1 X6.92 Y17.55 E90.9288 F600
G1 E86.7403 F2400
G1 Z0.500 F420
G1 X9.67 Y19.00 F6000
G1 Z0.300 F420
G1 E91.0237 F1800
G1 X10.14 Y19.24 E91.0566 F600
G1 X10.51 Y19.55 E91.0867
G1 X10.76 Y19.88 E91.1125
G1 X10.76 Y16.48 E91.3246
G1 E87.0794 F2400
G1 Z0.500 F420
G1 X11.82 Y16.71 F6000
G1 Z0.300 F420
G1 E90.6708 F1800
G1 X11.82 Y16.65 E90.6745 F600
G1 E87.1131 F2400
G1 Z0.500 F420
G1 X12.93 Y19.13 F6000
G1 Z0.300 F420
G1 E91.4146 F1800
G1 X13.04 Y19.47 E91.4369 F600
G1 X13.25 Y19.73 E91.4577
G1 X13.54 Y19.89 E91.4784
G1 X13.88 Y19.94 E91.4998
G1 X14.27 Y19.87 E91.5245
G1 X14.56 Y19.68 E91.5461
G1 X14.74 Y19.41 E91.5664
G1 X14.81 Y19.06 E91.5886
G1 X14.74 Y18.85 E91.6024
G1 X14.60 Y18.68 E91.6162
G1 X14.23 Y18.45 E91.6434
G1 X13.79 Y18.30 E91.6723
G1 X14.23 Y18.18 E91.7008
G1 X14.59 Y18.02 E91.7254
G1 X14.88 Y17.74 E91.7505
G1 X14.98 Y17.45 E91.7696
G1 X14.91 Y17.03 E91.7962
G1 X14.68 Y16.70 E91.8213
G1 X14.34 Y16.50 E91.8459
G1 X13.92 Y16.42 E91.8725
G1 X13.52 Y16.48 E91.8978
G1 X13.20 Y16.65 E91.9204
G1 X12.98 Y16.92 E91.9421
G1 X12.88 Y17.28 E91.9654
G1 E87.6972 F2400
G1 Z0.500 F420
G1 X0.50 Y13.89 F6000
G1 Z0.300 F420
G1 E91.9944 F1800
G1 X1.36 Y11.48 E92.1540 F600
G1 X2.10 Y13.89 E92.3113
G1 X2.87 Y11.48 E92.4690
G1 X3.71 Y13.89 E92.6282
G1 E88.3694 F2400
G1 Z0.500 F420
G1 X4.77 Y13.26 F6000
G1 Z0.300 F420
G1 E92.5955 F1800
G1 X6.46 Y13.26 E92.7009 F600
G1 E88.5124 F2400
G1 Z0.500 F420
G1 X6.46 Y12.55 F6000
G1 Z0.300 F420
G1 E92.7380 F1800
G1 X4.77 Y12.55 E92.8434 F600
G1 E88.6549 F2400
G1 Z0.500 F420
G1 X8.74 Y14.94 F6000
G1 Z0.300 F420
G1 E92.9683 F1800
G1 X9.25 Y14.80 E93.0013 F600
G1 X9.64 Y14.42 E93.0353
G1 X9.88 Y13.86 E93.0733
G1 X9.96 Y13.18 E93.1160
G1 X9.88 Y12.51 E93.1581
G1 X9.64 Y11.95 E93.1961
G1 X9.25 Y11.56 E93.2305
G1 X8.74 Y11.42 E93.2634
G1 X8.22 Y11.56 E93.2970
G1 X7.84 Y11.95 E93.3310
G1 X7.60 Y12.51 E93.3690
G1 X7.52 Y13.18 E93.4111
G1 X7.60 Y13.85 E93.4531
G1 X7.84 Y14.42 E93.4917
G1 X8.22 Y14.80 E93.5252
G1 X8.74 Y14.94 E93.5588
G1 E89.2843 F2400
G1 Z0.500 F420
G1 X11.02 Y11.71 F6000
G1 Z0.300 F420
G1 E92.8758 F1800
G1 X11.02 Y11.65 E92.8796 F600
G1 E89.3182 F2400
G1 Z0.500 F420
G1 X12.14 Y14.13 F6000
G1 Z0.300 F420
G1 E93.6197 F1800
G1 X12.25 Y14.47 E93.6420 F600
G1 X12.46 Y14.73 E93.6628
G1 X12.75 Y14.89 E93.6835
G1 X13.09 Y14.94 E93.7049
G1 X13.48 Y14.87 E93.7296
G1 X13.77 Y14.68 E93.7512
G1 X13.95 Y14.41 E93.7715
G1 X14.02 Y14.06 E93.7937
G1 X13.95 Y13.85 E93.8075
G1 X13.81 Y13.68 E93.8213
G1 X13.44 Y13.45 E93.8484
G1 X13.00 Y13.30 E93.8774
G1 X13.44 Y13.18 E93.9059
G1 X13.80 Y13.02 E93.9304
G1 X14.09 Y12.74 E93.9556
G1 X14.19 Y12.45 E93.9747
G1 X14.12 Y12.03 E94.0013
G1 X13.89 Y11.70 E94.0264
G1 X13.55 Y11.50 E94.0510
G1 X13.12 Y11.42 E94.0782
G1 X12.73 Y11.48 E94.1028
G1 X12.41 Y11.65 E94.1254
G1 X12.19 Y11.92 E94.1472
G1 X12.09 Y12.28 E94.1705
G1 E89.9023 F2400
G1 Z0.500 F420
;structure:shell-outer
G1 X70.00 Y0.00 F6000
G1 Z0.300 F420
G1 E94.2270 F1800
G1 X42.00 Y0.00 E95.9732 F600
G1 E91.6869 F2400
G1 Z0.500 F420
G1 E91.6963 F2400
;structure:shell-inner
G1 X68.00 Y0.00 F6000
G1 Z0.180 F420
G1 E96.6963 F1800
G1 X67.71 Y5.92 E96.9183 F300
G1 X66.91 Y11.80 F60
G1 X65.60 Y17.58
G1 X63.79 Y23.22
G1 E99.8183 F1800
G1 X61.50 Y28.68 E99.9512 F2673
G1 X58.75 Y33.92 E100.0841
G1 X55.54 Y38.89 E100.2169
G1 X51.92 Y43.57 E100.3497
G1 X47.91 Y47.91 E100.4824
G1 X43.53 Y51.88 E100.6151
G1 X38.83 Y55.45 E100.7477
G1 X33.83 Y58.60 E100.8803
G1 X28.59 Y61.30 E101.0128
G1 X23.12 Y63.53 E101.1452
G1 X17.49 Y65.28 E101.2776
G1 X11.73 Y66.53 E101.4099
G1 X5.89 Y67.27 E101.5422
G1 X-0.00 Y67.50 E101.6745
G1 X-5.88 Y67.22 E101.8066
G1 X-11.71 Y66.42 E101.9388
G1 X-17.45 Y65.12 E102.0708
G1 X-23.05 Y63.32 E102.2028
G1 X-28.47 Y61.05 E102.3348
G1 X-33.67 Y58.31 E102.4667
G1 X-38.60 Y55.13 E102.5986
G1 X-43.25 Y51.54 E102.7304
G1 X-47.55 Y47.55 E102.8621
G1 X-51.50 Y43.21 E102.9938
G1 X-55.04 Y38.54 E103.1254
G1 X-58.17 Y33.58 E103.2570
G1 X-60.85 Y28.37 E103.3885
G1 X-63.06 Y22.95 E103.5200
G1 X-64.80 Y17.36 E103.6514
G1 X-66.04 Y11.64 E103.7828
G1 X-66.28 Y10.14 E103.8171
G1 E99.6171 F2400
G1 X-66.88 Y4.32 F300
G1 X-66.98 Y-1.53
G1 X-66.56 Y-7.35
G1 X-66.23 Y-9.79
G1 E104.0186 F1800
G1 X-65.10 Y-15.52 E104.2371 F300
G1 X-63.47 Y-21.13 E104.4555
G1 X-61.37 Y-26.57 E104.6738
G1 E99.6738 F2400
G1 Z0.500 F420
G1 X66.00 Y0.00 F6000
G1 Z0.220 F420
G1 E104.6738 F1800
G1 X65.72 Y5.75 E104.9371 F300
G1 X64.94 Y11.45 F60
G1 X63.67 Y17.06
G1 X61.92 Y22.54
G1 E107.8371 F1800
G1 X59.69 Y27.83 E107.9948 F2187
G1 X57.01 Y32.92 E108.1524
G1 X53.90 Y37.74 E108.3100
G1 X50.39 Y42.28 E108.4675
G1 X46.49 Y46.49 E108.6249
G1 X42.25 Y50.35 E108.7823
G1 X37.68 Y53.81 E108.9396
G1 X32.83 Y56.87 E109.0968
G1 X27.74 Y59.49 E109.2539
G1 X22.44 Y61.65 E109.4110
G1 X16.97 Y63.35 E109.5681
G1 X11.38 Y64.56 E109.7250
G1 X5.71 Y65.28 E109.8819
G1 X0.00 Y65.50 E110.0388
G1 X-5.71 Y65.22 E110.1955
G1 X-11.36 Y64.45 E110.3522
G1 X-16.93 Y63.19 E110.5088
G1 X-22.36 Y61.45 E110.6654
G1 X-27.62 Y59.24 E110.8219
G1 X-32.67 Y56.58 E110.9783
G1 X-37.46 Y53.50 E111.1347
G1 X-41.96 Y50.01 E111.2910
G1 X-46.14 Y46.14 E111.4472
G1 X-49.96 Y41.92 E111.6034
G1 X-53.40 Y37.39 E111.7595
G1 X-54.94 Y35.07 E111.8359
G1 E107.6359 F2400
G1 X-57.76 Y30.14 F300
G1 X-60.15 Y24.98
G1 X-62.07 Y19.63
G1 X-62.88 Y16.80
G1 E111.8658 F1800
G1 X-64.08 Y11.25 E112.1254 F300
G1 X-64.78 Y5.62 E112.3849
G1 X-65.00 Y-0.05 E112.6443
G1 E107.6443 F2400
G1 Z0.500 F420
G1 X64.00 Y0.00 F6000
G1 Z0.260 F420
G1 E112.6443 F1800
G1 X63.73 Y5.58 E112.9460 F300
G1 X62.97 Y11.10 F60
G1 X61.74 Y16.54
G1 X60.04 Y21.85
G1 E115.8460 F1800
G1 X57.88 Y26.99 E116.0267 F1850
G1 X55.28 Y31.92 E116.2074
G1 X52.27 Y36.60 E116.3879
G1 X48.86 Y41.00 E116.5684
G1 X45.08 Y45.08 E116.7488
G1 X40.96 Y48.81 E116.9291
G1 X36.53 Y52.18 E117.1093
G1 X31.83 Y55.14 E117.2895
G1 X26.89 Y57.68 E117.4696
G1 X21.76 Y59.77 E117.6496
G1 X16.46 Y61.42 E117.8295
G1 X11.04 Y62.59 E118.0093
G1 X5.54 Y63.29 E118.1891
G1 X0.00 Y63.50 E118.3688
G1 X-5.53 Y63.23 E118.5484
G1 X-11.02 Y62.48 E118.7279
G1 X-16.41 Y61.26 E118.9074
G1 X-21.68 Y59.57 E119.0867
G1 X-26.78 Y57.42 E119.2660
G1 X-31.67 Y54.85 E119.4452
G1 X-36.31 Y51.86 E119.6244
G1 X-40.67 Y48.47 E119.8034
G1 X-41.64 Y47.64 E119.8448
G1 E115.6448 F2400
G1 X-45.61 Y43.81 F300
G1 X-49.24 Y39.65
G1 X-52.48 Y35.19
G1 X-54.31 Y32.27
G1 E119.8087 F1800
G1 X-56.89 Y27.40 E120.1065 F300
G1 X-59.03 Y22.33 E120.4041
G1 X-60.73 Y17.09 E120.7017
G1 E115.7017 F2400
G1 Z0.500 F420
G1 X62.00 Y0.00 F6000
G1 Z0.300 F420
G1 E120.7017 F1800
G1 X61.74 Y5.40 E121.0389 F300
G1 X61.00 Y10.76 F60
G1 X59.81 Y16.03
G1 X58.16 Y21.17
G1 E123.9389 F1800
G1 X56.07 Y26.14 E124.1409 F1604
G1 X53.55 Y30.92 E124.3428
G1 X50.63 Y35.45 E124.5446
G1 X47.32 Y39.71 E124.7463
G1 X43.66 Y43.66 E124.9479
G1 X39.67 Y47.28 E125.1494
G1 X35.39 Y50.54 E125.3509
G1 X30.83 Y53.40 E125.5522
G1 X26.05 Y55.86 E125.7535
G1 X21.07 Y57.90 E125.9546
G1 X15.94 Y59.48 E126.1557
G1 X10.69 Y60.62 E126.3567
G1 X5.36 Y61.29 E126.5576
G1 X0.00 Y61.50 E126.7584
G1 X-5.36 Y61.24 E126.9591
G1 X-10.67 Y60.51 E127.1597
G1 X-15.90 Y59.32 E127.3602
G1 X-21.00 Y57.69 E127.5607
G1 X-25.93 Y55.61 E127.7610
G1 X-30.12 Y53.43 E127.9377
G1 E123.7377 F2400
G1 X-34.65 Y50.58 F300
G1 X-38.91 Y47.35
G1 X-42.87 Y43.76
G1 X-45.58 Y40.89
G1 E127.8432 F1800
G1 X-48.95 Y36.74 E128.1762 F300
G1 X-51.94 Y32.32 E128.5092
G1 X-54.54 Y27.66 E128.8419
G1 E123.8419 F2400
G1 Z0.500 F420
G1 X60.00 Y0.00 F6000
G1 Z0.340 F420
G1 E128.8419 F1800
G1 X59.74 Y5.23 E129.2118 F300
G1 X59.03 Y10.41 F60
G1 X57.88 Y15.51
G1 X56.28 Y20.48
G1 E132.1118 F1800
G1 X54.25 Y25.30 E132.3333 F1415
G1 X51.82 Y29.92 E132.5547
G1 X48.99 Y34.30 E132.7760
G1 X45.79 Y38.42 E132.9972
G1 X42.25 Y42.25 E133.2183
G1 X38.39 Y45.75 E133.4393
G1 X34.24 Y48.90 E133.6602
G1 X29.83 Y51.67 E133.8810
G1 X25.20 Y54.05 E134.1017
G1 X20.39 Y56.02 E134.3223
G1 X15.42 Y57.55 E134.5428
G1 X10.34 Y58.65 E134.7631
G1 X5.19 Y59.30 E134.9834
G1 X-0.00 Y59.50 E135.2036
G1 X-5.18 Y59.25 E135.4237
G1 X-10.32 Y58.54 E135.6436
G1 X-15.38 Y57.39 E135.8635
G1 X-20.31 Y55.81 E136.0833
G1 X-20.92 Y55.58 E136.1106
G1 E131.9106 F2400
G1 X-25.67 Y53.52 F300
G1 X-30.22 Y51.06
G1 X-34.54 Y48.21
G1 X-38.05 Y45.45
G1 E136.0007 F1800
G1 X-41.85 Y41.94 E136.3661 F300
G1 X-45.32 Y38.12 E136.7314
G1 X-48.45 Y34.01 E137.0964
G1 E132.0964 F2400
G1 Z0.500 F420
G1 X58.00 Y0.00 F6000
G1 Z0.380 F420
G1 E137.0964 F1800
G1 X57.75 Y5.05 E137.4960 F300
G1 X57.06 Y10.06 F60
G1 X55.94 Y14.99
G1 X54.40 Y19.80
G1 E140.3960 F1800
G1 X52.44 Y24.45 E140.6353 F1266
G1 X50.09 Y28.92 E140.8745
G1 X47.35 Y33.16 E141.1136
G1 X44.26 Y37.14 E141.3526
G1 X40.84 Y40.84 E141.5914
G1 X37.10 Y44.22 E141.8301
G1 X33.09 Y47.26 E142.0687
G1 X28.83 Y49.94 E142.3072
G1 X24.36 Y52.24 E142.5456
G1 X19.70 Y54.14 E142.7839
G1 X14.90 Y55.62 E143.0220
G1 X9.99 Y56.68 E143.2601
G1 X5.01 Y57.31 E143.4980
G1 X0.00 Y57.50 E143.7358
G1 X-5.01 Y57.25 E143.9735
G1 X-9.98 Y56.57 E144.2111
G1 X-13.76 Y55.75 E144.3949
G1 E140.1949 F2400
G1 X-18.56 Y54.31 F300
G1 X-23.21 Y52.46
G1 X-27.68 Y50.21
G1 X-31.92 Y47.60
G1 E144.2520 F1800
G1 X-35.93 Y44.62 E144.6468 F300
G1 X-39.66 Y41.30 E145.0415
G1 X-43.09 Y37.66 E145.4360
G1 E140.4360 F2400
G1 Z0.500 F420
;structure:shell-outer
G1 X-29.50 Y21.48 F6000
G1 Z0.300 F420
G1 E145.5602 F1800
G1 X-29.50 Y24.88 E145.7722 F600
G1 X-28.27 Y24.88 E145.8489
G1 X-27.88 Y24.78 E145.8740
G1 X-27.57 Y24.58 E145.8971
G1 X-27.47 Y24.45 E145.9073
G1 X-27.34 Y24.04 E145.9341
G1 X-27.39 Y23.80 E145.9494
G1 X-27.50 Y23.56 E145.9659
G1 X-27.72 Y23.36 E145.9844
G1 X-28.49 Y23.18 E146.0337
G1 E141.7655 F2400
G1 Z0.500 F420
G1 X-29.50 Y23.18 F6000
G1 Z0.300 F420
G1 E146.0410 F1800
G1 X-28.49 Y23.18 E146.1040 F600
G1 X-27.98 Y23.00 E146.1377
G1 X-27.59 Y22.38 E146.1834
G1 X-27.34 Y21.48 E146.2416
G1 E142.0048 F2400
G1 Z0.500 F420
G1 X-26.28 Y22.69 F6000
G1 Z0.300 F420
G1 E146.3173 F1800
G1 X-24.14 Y22.69 E146.4507 F600
G1 X-24.22 Y23.22 E146.4842
G1 X-24.43 Y23.61 E146.5118
G1 X-24.77 Y23.86 E146.5381
G1 X-25.21 Y23.95 E146.5661
G1 X-25.64 Y23.86 E146.5935
G1 X-25.98 Y23.61 E146.6198
G1 X-26.20 Y23.22 E146.6478
G1 X-26.28 Y22.69 E146.6812
G1 X-26.20 Y22.15 E146.7152
G1 X-25.97 Y21.75 E146.7440
G1 X-25.62 Y21.51 E146.7705
G1 X-25.16 Y21.42 E146.7997
G1 X-24.82 Y21.47 E146.8211
G1 X-24.53 Y21.61 E146.8412
G1 X-24.32 Y21.83 E146.8602
G1 X-24.20 Y22.13 E146.8803
G1 E142.6070 F2400
G1 Z0.500 F420
G1 X-23.08 Y23.26 F6000
G1 Z0.300 F420
G1 E146.8330 F1800
G1 X-21.39 Y23.26 E146.9384 F600
G1 E142.7501 F2400
G1 Z0.500 F420
G1 X-21.39 Y22.55 F6000
G1 Z0.300 F420
G1 E146.9755 F1800
G1 X-23.08 Y22.55 E147.0809 F600
G1 E142.8926 F2400
G1 Z0.500 F420
G1 X-20.28 Y24.13 F6000
G1 Z0.300 F420
G1 E147.1995 F1800
G1 X-20.17 Y24.47 E147.2218 F600
G1 X-19.96 Y24.73 E147.2427
G1 X-19.67 Y24.89 E147.2633
G1 X-19.33 Y24.94 E147.2847
G1 X-18.94 Y24.87 E147.3095
G1 X-18.65 Y24.68 E147.3311
G1 X-18.47 Y24.41 E147.3513
G1 X-18.40 Y24.06 E147.3736
G1 X-18.47 Y23.85 E147.3874
G1 X-18.61 Y23.68 E147.4011
G1 X-18.98 Y23.45 E147.4283
G1 X-19.42 Y23.30 E147.4573
G1 X-18.98 Y23.18 E147.4857
G1 X-18.62 Y23.02 E147.5103
G1 X-18.33 Y22.74 E147.5354
G1 X-18.23 Y22.45 E147.5545
G1 X-18.30 Y22.03 E147.5811
G1 X-18.53 Y21.70 E147.6062
G1 X-18.87 Y21.50 E147.6308
G1 X-19.29 Y21.42 E147.6574
G1 X-19.69 Y21.48 E147.6827
G1 X-20.01 Y21.65 E147.7053
G1 X-20.23 Y21.92 E147.7270
G1 X-20.33 Y22.28 E147.7503
G1 E143.4823 F2400
G1 Z0.500 F420
G1 X-17.16 Y21.71 F6000
G1 Z0.300 F420
G1 E147.0733 F1800
G1 X-17.16 Y21.65 E147.0771 F600
G1 E143.5162 F2400
G1 Z0.500 F420
G1 X-16.10 Y24.44 F6000
G1 Z0.300 F420
G1 E147.8172 F1800
G1 X-15.91 Y24.65 E147.8348 F600
G1 X-15.68 Y24.81 E147.8523
G1 X-15.42 Y24.90 E147.8694
G1 X-15.14 Y24.94 E147.8871
G1 X-14.77 Y24.88 E147.9104
G1 X-14.47 Y24.68 E147.9329
G1 X-14.28 Y24.39 E147.9545
G1 X-14.21 Y24.02 E147.9780
G1 X-14.31 Y23.63 E148.0031
G1 X-14.59 Y23.27 E148.0316
G1 X-15.37 Y22.64 E148.0941
G1 X-15.67 Y22.23 E148.1257
G1 X-16.06 Y21.48 E148.1785
G1 X-14.24 Y21.48 E148.2919
G1 E144.0241 F2400
G1 Z0.500 F420
G1 X-29.50 Y19.88 F6000
G1 Z0.300 F420
G1 E148.3166 F1800
G1 X-28.53 Y19.88 E148.3771 F600
G1 X-28.14 Y19.78 E148.4022
G1 X-27.83 Y19.58 E148.4252
G1 X-27.73 Y19.45 E148.4354
G1 X-27.60 Y19.04 E148.4623
G1 X-27.65 Y18.80 E148.4775
G1 X-27.72 Y18.56 E148.4931
G1 X-27.98 Y18.36 E148.5136
G1 X-28.49 Y18.18 E148.5473
G1 X-29.50 Y18.18 E148.6103
G1 E144.3566 F2400
G1 Z0.500 F420
G1 X-28.49 Y18.18 F6000
G1 Z0.300 F420
G1 E148.6632 F1800
G1 X-27.72 Y18.01 E148.7123 F600
G1 X-27.50 Y17.81 E148.7309
G1 X-27.39 Y17.56 E148.7479
G1 X-27.34 Y17.32 E148.7632
G1 X-27.47 Y16.91 E148.7900
G1 X-27.57 Y16.78 E148.8002
G1 X-27.88 Y16.59 E148.8229
G1 X-28.27 Y16.48 E148.8481
G1 X-29.50 Y16.48 E148.9248
G1 X-29.50 Y19.88 E149.1368
G1 E144.8692 F2400
G1 Z0.500 F420
G1 X-26.28 Y17.69 F6000
G1 Z0.300 F420
G1 E149.1812 F1800
G1 X-24.14 Y17.69 E149.3146 F600
G1 X-24.22 Y18.22 E149.3481
G1 X-24.43 Y18.61 E149.3757
G1 X-24.77 Y18.86 E149.4020
G1 X-25.21 Y18.95 E149.4300
G1 X-25.64 Y18.86 E149.4574
G1 X-25.98 Y18.61 E149.4837
G1 X-26.20 Y18.22 E149.5116
G1 X-26.28 Y17.69 E149.5450
G1 X-26.20 Y17.15 E149.5791
G1 X-25.97 Y16.75 E149.6078
G1 X-25.62 Y16.51 E149.6343
G1 X-25.16 Y16.42 E149.6635
G1 X-24.82 Y16.47 E149.6849
G1 X-24.53 Y16.61 E149.7050
G1 X-24.32 Y16.83 E149.7240
G1 X-24.20 Y17.13 E149.7441
G1 E145.4714 F2400
G1 Z0.500 F420
G1 X-23.08 Y18.26 F6000
G1 Z0.300 F420
G1 E149.6970 F1800
G1 X-21.39 Y18.26 E149.8023 F600
G1 E145.6145 F2400
G1 Z0.500 F420
G1 X-21.39 Y17.55 F6000
G1 Z0.300 F420
G1 E149.8394 F1800
G1 X-23.08 Y17.55 E149.9448 F600
G1 E145.7569 F2400
G1 Z0.500 F420
G1 X-20.33 Y19.00 F6000
G1 Z0.300 F420
G1 E150.0396 F1800
G1 X-19.86 Y19.24 E150.0725 F600
G1 X-19.49 Y19.55 E150.1026
G1 X-19.24 Y19.88 E150.1284
G1 X-19.24 Y16.48 E150.3404
G1 E146.0958 F2400
G1 Z0.500 F420
G1 X-18.18 Y16.71 F6000
G1 Z0.300 F420
G1 E149.6867 F1800
G1 X-18.18 Y16.65 E149.6905 F600
G1 E146.1296 F2400
G1 Z0.500 F420
G1 X-17.12 Y19.00 F6000
G1 Z0.300 F420
G1 E150.4065 F1800
G1 X-16.65 Y19.24 E150.4394 F600
G1 X-16.28 Y19.55 E150.4695
G1 X-16.03 Y19.88 E150.4954
G1 X-16.03 Y16.48 E150.7073
G1 E146.4628 F2400
G1 Z0.500 F420
G1 X-29.50 Y13.89 F6000
G1 Z0.300 F420
G1 E150.7592 F1800
G1 X-28.64 Y11.48 E150.9187 F600
G1 X-27.90 Y13.89 E151.0759
G1 X-27.13 Y11.48 E151.2336
G1 X-26.29 Y13.89 E151.3928
G1 E147.1347 F2400
G1 Z0.500 F420
G1 X-25.23 Y13.26 F6000
G1 Z0.300 F420
G1 E151.3601 F1800
G1 X-23.54 Y13.26 E151.4655 F600
G1 E147.2776 F2400
G1 Z0.500 F420
G1 X-23.54 Y12.55 F6000
G1 Z0.300 F420
G1 E151.5026 F1800
G1 X-25.23 Y12.55 E151.6079 F600
G1 E147.4201 F2400
G1 Z0.500 F420
G1 X-21.26 Y14.94 F6000
G1 Z0.300 F420
G1 E151.7329 F1800
G1 X-20.75 Y14.80 E151.7659 F600
G1 X-20.36 Y14.42 E151.7998
G1 X-20.12 Y13.86 E151.8378
G1 X-20.04 Y13.18 E151.8805
G1 X-20.12 Y12.51 E151.9226
G1 X-20.36 Y11.95 E151.9606
G1 X-20.75 Y11.56 E151.9949
G1 X-21.26 Y11.42 E152.0279
G1 X-21.78 Y11.56 E152.0615
G1 X-22.16 Y11.95 E152.0954
G1 X-22.40 Y12.51 E152.1334
G1 X-22.48 Y13.18 E152.1755
G1 X-22.40 Y13.85 E152.2176
G1 X-22.16 Y14.42 E152.2561
G1 X-21.78 Y14.80 E152.2896
G1 X-21.26 Y14.94 E152.3232
G1 E148.0493 F2400
G1 Z0.500 F420
G1 X-18.98 Y11.71 F6000
G1 Z0.300 F420
G1 E151.6403 F1800
G1 X-18.98 Y11.65 E151.6441 F600
G1 E148.0832 F2400
G1 Z0.500 F420
G1 X-16.20 Y11.48 F6000
G1 Z0.300 F420
G1 E152.3764 F1800
G1 X-16.20 Y14.88 E152.5884 F600
G1 X-17.91 Y12.65 E152.7636
G1 X-15.60 Y12.65 E152.9076
G1 E148.6468 F2400
G1 Z0.500 F420
G1 E148.6560 F2400
;structure:shell-inner
G1 X56.00 Y0.00 F6000
G1 Z0.180 F420
G1 E153.6560 F1800
G1 X55.76 Y4.88 E153.8388 F300
G1 X55.09 Y9.71 F60
G1 X54.01 Y14.47
G1 X52.52 Y19.12
G1 E157.0388 F1800
G1 X50.63 Y23.61 E157.1847 F2004
G1 X48.35 Y27.92 E157.3306
G1 X45.71 Y32.01 E157.4763
G1 X42.73 Y35.85 E157.6220
G1 X39.42 Y39.42 E157.7677
G1 X35.82 Y42.69 E157.9132
G1 X31.95 Y45.62 E158.0587
G1 X27.83 Y48.21 E158.2041
G1 X23.51 Y50.43 E158.3494
G1 X19.02 Y52.26 E158.4947
G1 X14.39 Y53.69 E158.6399
G1 X9.65 Y54.71 E158.7850
G1 X4.84 Y55.32 E158.9300
G1 X0.00 Y55.50 E159.0750
G1 X-4.83 Y55.26 E159.2199
G1 X-9.63 Y54.60 E159.3647
G1 X-14.34 Y53.53 E159.5095
G1 X-18.94 Y52.05 E159.6542
G1 X-23.40 Y50.17 E159.7988
G1 X-27.67 Y47.92 E159.9433
G1 X-31.72 Y45.30 E160.0878
G1 X-35.53 Y42.35 E160.2322
G1 X-39.07 Y39.07 E160.3765
G1 X-42.30 Y35.50 E160.5207
G1 X-45.21 Y31.66 E160.6649
G1 X-47.78 Y27.58 E160.8090
G1 X-49.97 Y23.30 E160.9531
G1 X-51.09 Y20.71 E161.0376
G1 E156.7376 F2400
G1 X-52.67 Y16.17 F300
G1 X-53.85 Y11.51
G1 X-54.62 Y6.77
G1 X-54.98 Y1.98
G1 X-54.99 Y1.20
G1 E160.6291 F1800
G1 X-54.86 Y-3.59 E160.8086 F300
G1 X-54.31 Y-8.36 E160.9881
G1 X-53.35 Y-13.05 E161.1674
G1 E156.1674 F2400
G1 Z0.500 F420
G1 X54.00 Y0.00 F6000
G1 Z0.220 F420
G1 E161.1674 F1800
G1 X53.77 Y4.70 E161.3828 F300
G1 X53.12 Y9.37 F60
G1 X52.08 Y13.95
G1 X50.64 Y18.43
G1 E164.5828 F1800
G1 X48.81 Y22.76 E164.7548 F1640
G1 X46.62 Y26.92 E164.9266
G1 X44.07 Y30.86 E165.0984
G1 X41.20 Y34.57 E165.2701
G1 X38.01 Y38.01 E165.4417
G1 X34.53 Y41.15 E165.6132
G1 X30.80 Y43.98 E165.7846
G1 X26.83 Y46.48 E165.9560
G1 X22.67 Y48.61 E166.1272
G1 X18.34 Y50.38 E166.2984
G1 X13.87 Y51.76 E166.4695
G1 X9.30 Y52.74 E166.6404
G1 X4.67 Y53.32 E166.8113
G1 X0.00 Y53.50 E166.9821
G1 X-4.66 Y53.27 E167.1528
G1 X-9.28 Y52.63 E167.3235
G1 X-13.83 Y51.60 E167.4940
G1 X-18.26 Y50.17 E167.6645
G1 X-22.55 Y48.36 E167.8348
G1 X-26.67 Y46.19 E168.0051
G1 X-30.57 Y43.67 E168.1753
G1 X-34.25 Y40.81 E168.3454
G1 X-37.65 Y37.65 E168.5154
G1 X-38.90 Y36.34 E168.5816
G1 E164.2816 F2400
G1 X-41.90 Y32.80 F300
G1 X-44.58 Y29.01
G1 X-46.91 Y25.00
G1 X-48.89 Y20.80
G1 X-49.42 Y19.47
G1 E168.1030 F1800
G1 X-50.90 Y15.08 E168.3149 F300
G1 X-52.00 Y10.58 E168.5266
G1 X-52.69 Y6.01 E168.7383
G1 E163.7383 F2400
G1 Z0.500 F420
G1 X52.00 Y0.00 F6000
G1 Z0.260 F420
G1 E168.7383 F1800
G1 X51.77 Y4.53 E168.9834 F300
G1 X51.16 Y9.02 F60
G1 X50.15 Y13.44
G1 X48.76 Y17.75
G1 E172.1834 F1800
G1 X47.00 Y21.92 E172.3791 F1388
G1 X44.89 Y25.92 E172.5747
G1 X42.44 Y29.71 E172.7701
G1 X39.66 Y33.28 E172.9655
G1 X36.59 Y36.59 E173.1608
G1 X33.25 Y39.62 E173.3559
G1 X29.65 Y42.35 E173.5510
G1 X25.83 Y44.74 E173.7459
G1 X21.82 Y46.80 E173.9408
G1 X17.65 Y48.50 E174.1355
G1 X13.35 Y49.83 E174.3301
G1 X8.95 Y50.77 E174.5247
G1 X4.49 Y51.33 E174.7191
G1 X-0.00 Y51.50 E174.9134
G1 X-4.49 Y51.28 E175.1076
G1 X-8.93 Y50.66 E175.3017
G1 X-13.31 Y49.66 E175.4957
G1 X-17.58 Y48.29 E175.6896
G1 X-21.71 Y46.55 E175.8834
G1 X-25.67 Y44.46 E176.0771
G1 X-27.74 Y43.18 E176.1823
G1 E171.8823 F2400
G1 X-31.38 Y40.57 F300
G1 X-34.77 Y37.66
G1 X-37.90 Y34.47
G1 X-40.74 Y31.02
G1 X-41.97 Y29.31
G1 E175.6482 F1800
G1 X-44.34 Y25.53 E175.8896 F300
G1 X-46.37 Y21.55 E176.1307
G1 X-48.05 Y17.42 E176.3718
G1 E171.3718 F2400
G1 Z0.500 F420
G1 X50.00 Y0.00 F6000
G1 Z0.300 F420
G1 E176.3718 F1800
G1 X49.78 Y4.36 E176.6438 F300
G1 X49.19 Y8.67 F60
G1 X48.22 Y12.92
G1 X46.88 Y17.06
G1 E179.8438 F1800
G1 X45.19 Y21.07 E180.0608 F1203
G1 X43.16 Y24.92 E180.2778
G1 X40.80 Y28.57 E180.4946
G1 X38.13 Y32.00 E180.7113
G1 X35.18 Y35.18 E180.9279
G1 X31.96 Y38.09 E181.1444
G1 X28.50 Y40.71 E181.3608
G1 X24.83 Y43.01 E181.5770
G1 X20.98 Y44.99 E181.7931
G1 X16.97 Y46.62 E182.0091
G1 X12.83 Y47.89 E182.2250
G1 X8.61 Y48.80 E182.4407
G1 X4.32 Y49.34 E182.6563
G1 X0.00 Y49.50 E182.8719
G1 X-4.31 Y49.28 E183.0872
G1 X-8.59 Y48.69 E183.3025
G1 X-12.79 Y47.73 E183.5176
G1 X-16.89 Y46.41 E183.7327
G1 X-18.94 Y45.60 E183.8426
G1 E179.5426 F2400
G1 X-22.83 Y43.75 F300
G1 X-26.54 Y41.57
G1 X-30.05 Y39.08
G1 X-33.32 Y36.29
G1 X-35.30 Y34.34
G1 E183.2783 F1800
G1 X-38.14 Y31.11 E183.5462 F300
G1 X-40.68 Y27.65 E183.8139
G1 X-42.91 Y23.99 E184.0814
G1 E179.0814 F2400
G1 Z0.500 F420
G1 X48.00 Y0.00 F6000
G1 Z0.340 F420
G1 E184.0814 F1800
G1 X47.79 Y4.18 E184.3773 F300
G1 X47.22 Y8.33 F60
G1 X46.28 Y12.40
G1 X45.00 Y16.38
G1 E187.5773 F1800
G1 X43.38 Y20.23 E187.8135 F1061
G1 X41.42 Y23.92 E188.0495
G1 X39.16 Y27.42 E188.2854
G1 X36.60 Y30.71 E188.5211
G1 X33.76 Y33.76 E188.7567
G1 X30.68 Y36.56 E188.9922
G1 X27.36 Y39.07 E189.2275
G1 X23.83 Y41.28 E189.4627
G1 X20.13 Y43.18 E189.6978
G1 X16.28 Y44.74 E189.9327
G1 X12.32 Y45.96 E190.1675
G1 X8.26 Y46.83 E190.4022
G1 X4.14 Y47.35 E190.6367
G1 X-0.00 Y47.50 E190.8710
G1 X-4.14 Y47.29 E191.1053
G1 X-8.24 Y46.72 E191.3394
G1 X-12.27 Y45.80 E191.5733
G1 X-12.32 Y45.79 E191.5761
G1 E187.2761 F2400
G1 X-16.25 Y44.51 F300
G1 X-20.06 Y42.90
G1 X-23.71 Y40.97
G1 X-27.17 Y38.72
G1 X-29.92 Y36.61
G1 E190.9909 F1800
G1 X-32.98 Y33.84 E191.2823 F300
G1 X-35.78 Y30.82 E191.5736
G1 X-38.31 Y27.57 E191.8647
G1 E186.8647 F2400
G1 Z0.500 F420
G1 X46.00 Y0.00 F6000
G1 Z0.380 F420
G1 E191.8647 F1800
G1 X45.80 Y4.01 E192.1816 F300
G1 X45.25 Y7.98 F60
G1 X44.35 Y11.88
G1 X43.12 Y15.69
G1 E195.3816 F1800
G1 X41.56 Y19.38 E195.6345 F949
G1 X39.69 Y22.92 E195.8873
G1 X37.52 Y26.27 E196.1399
G1 X35.07 Y29.43 E196.3924
G1 X32.35 Y32.35 E196.6447
G1 X29.39 Y35.03 E196.8968
G1 X26.21 Y37.43 E197.1488
G1 X22.83 Y39.55 E197.4007
G1 X19.29 Y41.36 E197.6523
G1 X15.60 Y42.86 E197.9039
G1 X11.80 Y44.03 E198.1553
G1 X7.91 Y44.86 E198.4065
G1 X3.97 Y45.35 E198.6576
G1 X0.00 Y45.50 E198.9085
G1 X-3.96 Y45.30 E199.1593
G1 X-7.43 Y44.84 E199.3805
G1 E195.0805 F2400
G1 X-11.31 Y43.99 F300
G1 X-15.09 Y42.81
G1 X-18.75 Y41.31
G1 X-22.26 Y39.49
G1 X-25.61 Y37.38
G1 X-25.77 Y37.26
G1 E198.7751 F1800
G1 X-28.90 Y34.86 E199.0872 F300
G1 X-31.81 Y32.18 E199.3992
G1 X-34.47 Y29.27 E199.7109
G1 E194.7109 F2400
G1 Z0.500 F420
;structure:shell-outer
G1 X-29.50 Y-3.52 F6000
G1 Z0.300 F420
G1 E199.8348 F1800
G1 X-29.50 Y-0.12 E200.0468 F600
G1 X-28.27 Y-0.12 E200.1235
G1 X-27.88 Y-0.22 E200.1486
G1 X-27.57 Y-0.42 E200.1716
G1 X-27.47 Y-0.55 E200.1818
G1 X-27.34 Y-0.96 E200.2087
G1 X-27.39 Y-1.20 E200.2239
G1 X-27.50 Y-1.44 E200.2404
G1 X-27.72 Y-1.64 E200.2590
G1 X-28.49 Y-1.82 E200.3083
G1 E196.0401 F2400
G1 Z0.500 F420
G1 X-29.50 Y-1.82 F6000
G1 Z0.300 F420
G1 E200.3155 F1800
G1 X-28.49 Y-1.82 E200.3785 F600
G1 X-27.98 Y-2.00 E200.4123
G1 X-27.59 Y-2.62 E200.4579
G1 X-27.34 Y-3.52 E200.5162
G1 E196.2793 F2400
G1 Z0.500 F420
G1 X-26.28 Y-2.31 F6000
G1 Z0.300 F420
G1 E200.5918 F1800
G1 X-24.14 Y-2.31 E200.7253 F600
G1 X-24.22 Y-1.78 E200.7587
G1 X-24.43 Y-1.39 E200.7863
G1 X-24.77 Y-1.14 E200.8127
G1 X-25.21 Y-1.05 E200.8407
G1 X-25.64 Y-1.14 E200.8681
G1 X-25.98 Y-1.39 E200.8944
G1 X-26.20 Y-1.78 E200.9223
G1 X-26.28 Y-2.31 E200.9557
G1 X-26.20 Y-2.85 E200.9898
G1 X-25.97 Y-3.25 E201.0186
G1 X-25.62 Y-3.49 E201.0450
G1 X-25.16 Y-3.58 E201.0743
G1 X-24.82 Y-3.53 E201.0957
G1 X-24.53 Y-3.39 E201.1158
G1 X-24.32 Y-3.17 E201.1347
G1 X-24.20 Y-2.87 E201.1549
G1 E196.8815 F2400
G1 Z0.500 F420
G1 X-23.08 Y-1.74 F6000
G1 Z0.300 F420
G1 E201.1076 F1800
G1 X-21.39 Y-1.74 E201.2130 F600
G1 E197.0246 F2400
G1 Z0.500 F420
G1 X-21.39 Y-2.45 F6000
G1 Z0.300 F420
G1 E201.2501 F1800
G1 X-23.08 Y-2.45 E201.3555 F600
G1 E197.1671 F2400
G1 Z0.500 F420
G1 X-18.62 Y-3.52 F6000
G1 Z0.300 F420
G1 E201.4666 F1800
G1 X-18.62 Y-0.12 E201.6786 F600
G1 X-20.33 Y-2.35 E201.8539
G1 X-18.02 Y-2.35 E201.9979
G1 E197.7365 F2400
G1 Z0.500 F420
G1 X-16.95 Y-3.29 F6000
G1 Z0.300 F420
G1 E201.3280 F1800
G1 X-16.95 Y-3.35 E201.3318 F600
G1 E197.7704 F2400
G1 Z0.500 F420
G1 X-14.67 Y-0.06 F6000
G1 Z0.300 F420
G1 E202.0782 F1800
G1 X-14.16 Y-0.20 E202.1112 F600
G1 X-13.77 Y-0.58 E202.1451
G1 X-13.53 Y-1.14 E202.1831
G1 X-13.45 Y-1.82 E202.2258
G1 X-13.53 Y-2.49 E202.2679
G1 X-13.77 Y-3.05 E202.3059
G1 X-14.16 Y-3.44 E202.3403
G1 X-14.67 Y-3.58 E202.3733
G1 X-15.19 Y-3.44 E202.4069
G1 X-15.57 Y-3.05 E202.4408
G1 X-15.81 Y-2.49 E202.4788
G1 X-15.89 Y-1.82 E202.5209
G1 X-15.81 Y-1.15 E202.5630
G1 X-15.57 Y-0.58 E202.6016
G1 X-15.19 Y-0.20 E202.6351
G1 X-14.67 Y-0.06 E202.6687
G1 E198.3940 F2400
G1 Z0.500 F420
G1 X-29.50 Y-5.12 F6000
G1 Z0.300 F420
G1 E202.6873 F1800
G1 X-28.53 Y-5.12 E202.7478 F600
G1 X-28.14 Y-5.22 E202.7730
G1 X-27.83 Y-5.42 E202.7960
G1 X-27.73 Y-5.55 E202.8062
G1 X-27.60 Y-5.96 E202.8330
G1 X-27.65 Y-6.20 E202.8483
G1 X-27.72 Y-6.44 E202.8639
G1 X-27.98 Y-6.64 E202.8843
G1 X-28.49 Y-6.82 E202.9181
G1 X-29.50 Y-6.82 E202.9811
G1 E198.7267 F2400
G1 Z0.500 F420
G1 X-28.49 Y-6.82 F6000
G1 Z0.300 F420
G1 E203.0340 F1800
G1 X-27.72 Y-6.99 E203.0832 F600
G1 X-27.50 Y-7.19 E203.1017
G1 X-27.39 Y-7.44 E203.1187
G1 X-27.34 Y-7.68 E203.1340
G1 X-27.47 Y-8.09 E203.1608
G1 X-27.57 Y-8.22 E203.1711
G1 X-27.88 Y-8.41 E203.1937
G1 X-28.27 Y-8.52 E203.2190
G1 X-29.50 Y-8.52 E203.2957
G1 X-29.50 Y-5.12 E203.5078
G1 E199.2394 F2400
G1 Z0.500 F420
G1 X-26.28 Y-7.31 F6000
G1 Z0.300 F420
G1 E203.5522 F1800
G1 X-24.14 Y-7.31 E203.6857 F600
G1 X-24.22 Y-6.78 E203.7191
G1 X-24.43 Y-6.39 E203.7467
G1 X-24.77 Y-6.14 E203.7730
G1 X-25.21 Y-6.05 E203.8010
G1 X-25.64 Y-6.14 E203.8284
G1 X-25.98 Y-6.39 E203.8548
G1 X-26.20 Y-6.78 E203.8827
G1 X-26.28 Y-7.31 E203.9161
G1 X-26.20 Y-7.85 E203.9502
G1 X-25.97 Y-8.25 E203.9789
G1 X-25.62 Y-8.49 E204.0054
G1 X-25.16 Y-8.58 E204.0346
G1 X-24.82 Y-8.53 E204.0561
G1 X-24.53 Y-8.39 E204.0762
G1 X-24.32 Y-8.17 E204.0951
G1 X-24.20 Y-7.87 E204.1153
G1 E199.8418 F2400
G1 Z0.500 F420
G1 X-23.08 Y-6.74 F6000
G1 Z0.300 F420
G1 E204.0680 F1800
G1 X-21.39 Y-6.74 E204.1734 F600
G1 E199.9849 F2400
G1 Z0.500 F420
G1 X-21.39 Y-7.45 F6000
G1 Z0.300 F420
G1 E204.2105 F1800
G1 X-23.08 Y-7.45 E204.3159 F600
G1 E200.1274 F2400
G1 Z0.500 F420
G1 X-19.11 Y-5.06 F6000
G1 Z0.300 F420
G1 E204.4409 F1800
G1 X-18.60 Y-5.20 E204.4738 F600
G1 X-18.21 Y-5.58 E204.5078
G1 X-17.97 Y-6.14 E204.5458
G1 X-17.89 Y-6.82 E204.5885
G1 X-17.97 Y-7.49 E204.6306
G1 X-18.21 Y-8.05 E204.6686
G1 X-18.60 Y-8.44 E204.7030
G1 X-19.11 Y-8.58 E204.7360
G1 X-19.63 Y-8.44 E204.7695
G1 X-20.01 Y-8.05 E204.8035
G1 X-20.25 Y-7.49 E204.8415
G1 X-20.33 Y-6.82 E204.8836
G1 X-20.25 Y-6.15 E204.9257
G1 X-20.01 Y-5.58 E204.9642
G1 X-19.63 Y-5.20 E204.9978
G1 X-19.11 Y-5.06 E205.0313
G1 E200.7568 F2400
G1 Z0.500 F420
G1 X-16.82 Y-8.29 F6000
G1 Z0.300 F420
G1 E204.3484 F1800
G1 X-16.82 Y-8.35 E204.3521 F600
G1 E200.7908 F2400
G1 Z0.500 F420
G1 X-14.05 Y-8.52 F6000
G1 Z0.300 F420
G1 E205.0847 F1800
G1 X-14.05 Y-5.12 E205.2967 F600
G1 X-15.76 Y-7.35 E205.4720
G1 X-13.45 Y-7.35 E205.6160
G1 E201.3545 F2400
G1 Z0.500 F420
G1 X-29.50 Y-11.11 F6000
G1 Z0.300 F420
G1 E205.6517 F1800
G1 X-28.64 Y-13.52 E205.8113 F600
G1 X-27.90 Y-11.11 E205.9685
G1 X-27.13 Y-13.52 E206.1263
G1 X-26.29 Y-11.11 E206.2855
G1 E202.0267 F2400
G1 Z0.500 F420
G1 X-25.23 Y-11.74 F6000
G1 Z0.300 F420
G1 E206.2528 F1800
G1 X-23.54 Y-11.74 E206.3582 F600
G1 E202.1697 F2400
G1 Z0.500 F420
G1 X-23.54 Y-12.45 F6000
G1 Z0.300 F420
G1 E206.3953 F1800
G1 X-25.23 Y-12.45 E206.5007 F600
G1 E202.3122 F2400
G1 Z0.500 F420
G1 X-21.26 Y-10.06 F6000
G1 Z0.300 F420
G1 E206.6257 F1800
G1 X-20.75 Y-10.20 E206.6586 F600
G1 X-20.36 Y-10.58 E206.6926
G1 X-20.12 Y-11.14 E206.7306
G1 X-20.04 Y-11.82 E206.7733
G1 X-20.12 Y-12.49 E206.8154
G1 X-20.36 Y-13.05 E206.8534
G1 X-20.75 Y-13.44 E206.8878
G1 X-21.26 Y-13.58 E206.9208
G1 X-21.78 Y-13.44 E206.9544
G1 X-22.16 Y-13.05 E206.9883
G1 X-22.40 Y-12.49 E207.0263
G1 X-22.48 Y-11.82 E207.0684
G1 X-22.40 Y-11.15 E207.1105
G1 X-22.16 Y-10.58 E207.1491
G1 X-21.78 Y-10.20 E207.1826
G1 X-21.26 Y-10.06 E207.2162
G1 E202.9415 F2400
G1 Z0.500 F420
G1 X-18.98 Y-13.29 F6000
G1 Z0.300 F420
G1 E206.5331 F1800
G1 X-18.98 Y-13.35 E206.5369 F600
G1 E202.9755 F2400
G1 Z0.500 F420
G1 X-15.88 Y-10.83 F6000
G1 Z0.300 F420
G1 E207.2925 F1800
G1 X-16.18 Y-10.26 E207.3327 F600
G1 X-16.77 Y-10.06 E207.3716
G1 X-17.29 Y-10.18 E207.4049
G1 X-17.63 Y-10.53 E207.4353
G1 X-17.84 Y-11.13 E207.4749
G1 X-17.91 Y-11.95 E207.5263
G1 X-17.84 Y-12.64 E207.5695
G1 X-17.62 Y-13.16 E207.6047
G1 X-17.29 Y-13.47 E207.6330
G1 X-16.81 Y-13.58 E207.6637
G1 X-16.36 Y-13.49 E207.6923
G1 X-16.04 Y-13.24 E207.7176
G1 X-15.86 Y-12.87 E207.7433
G1 X-15.79 Y-12.44 E207.7705
G1 X-15.86 Y-12.04 E207.7958
G1 X-16.05 Y-11.69 E207.8206
G1 X-16.36 Y-11.46 E207.8447
G1 X-16.76 Y-11.38 E207.8701
G1 X-17.22 Y-11.47 E207.8994
G1 X-17.64 Y-11.72 E207.9298
G1 X-17.91 Y-11.95 E207.9520
G1 E203.6698 F2400
G1 Z0.500 F420
;structure:shell-outer
G1 X-70.00 Y0.00 F6000
G1 Z0.300 F420
G1 E207.9947 F1800
G1 X-42.00 Y0.00 E209.7410 F600
G1 E205.4546 F2400
G1 Z0.500 F420
G1 E205.4640 F2400
;structure:shell-inner
G1 X-68.00 Y0.00 F6000
G1 Z0.180 F420
G1 E210.4640 F1800
G1 X-67.71 Y-5.92 E210.6860 F300
G1 X-66.91 Y-11.80 F60
G1 X-65.60 Y-17.58
G1 X-63.79 Y-23.22
G1 E214.6860 F1800
G1 X-61.50 Y-28.68 E214.9518 F1336
G1 X-58.75 Y-33.92 E215.2176
G1 X-55.54 Y-38.89 E215.4833
G1 X-51.92 Y-43.57 E215.7488
G1 X-47.91 Y-47.91 E216.0143
G1 X-43.53 Y-51.88 E216.2796
G1 X-38.83 Y-55.45 E216.5448
G1 X-33.83 Y-58.60 E216.8099
G1 X-28.59 Y-61.30 E217.0749
G1 X-23.12 Y-63.53 E217.3398
G1 X-17.49 Y-65.28 E217.6046
G1 X-11.73 Y-66.53 E217.8693
G1 X-5.89 Y-67.27 E218.1339
G1 X0.00 Y-67.50 E218.3983
G1 X5.88 Y-67.22 E218.6627
G1 X6.37 Y-67.17 E218.6847
G1 E214.2847 F2400
G1 X12.19 Y-66.33 F300
G1 X17.92 Y-64.99
G1 X23.51 Y-63.15
G1 X25.69 Y-62.29
G1 E217.4311 F1800
G1 X31.01 Y-59.79 E217.6510 F300
G1 X36.08 Y-56.83 E217.8708
G1 X40.88 Y-53.45 E218.0905
G1 E213.0905 F2400
G1 Z0.500 F420
G1 X-66.00 Y0.00 F6000
G1 Z0.220 F420
G1 E218.0905 F1800
G1 X-65.72 Y-5.75 E218.3538 F300
G1 X-64.94 Y-11.45 F60
G1 X-63.67 Y-17.06
G1 X-61.92 Y-22.54
G1 E222.3538 F1800
G1 X-59.69 Y-27.83 E222.6692 F1093
G1 X-57.01 Y-32.92 E222.9844
G1 X-53.90 Y-37.74 E223.2996
G1 X-50.39 Y-42.28 E223.6145
G1 X-46.49 Y-46.49 E223.9294
G1 X-42.25 Y-50.35 E224.2441
G1 X-37.68 Y-53.81 E224.5587
G1 X-32.83 Y-56.87 E224.8732
G1 X-27.74 Y-59.49 E225.1875
G1 X-22.44 Y-61.65 E225.5017
G1 X-16.97 Y-63.35 E225.8157
G1 X-11.38 Y-64.56 E226.1297
G1 X-7.36 Y-65.12 E226.3526
G1 E221.9526 F2400
G1 X-1.66 Y-65.49 F300
G1 X4.06 Y-65.35
G1 X9.73 Y-64.72
G1 X12.54 Y-64.23
G1 E225.0272 F1800
G1 X18.08 Y-62.86 E225.2883 F300
G1 X23.48 Y-61.02 E225.5492
G1 X28.70 Y-58.72 E225.8100
G1 E220.8100 F2400
G1 Z0.500 F420
G1 X-64.00 Y0.00 F6000
G1 Z0.260 F420
G1 E225.8100 F1800
G1 X-63.73 Y-5.58 E226.1117 F300
G1 X-62.97 Y-11.10 F60
G1 X-61.74 Y-16.54
G1 X-60.04 Y-21.85
G1 E230.1117 F1800
G1 X-57.88 Y-26.99 E230.4731 F925
G1 X-55.28 Y-31.92 E230.8344
G1 X-52.27 Y-36.60 E231.1955
G1 X-48.86 Y-41.00 E231.5564
G1 X-45.08 Y-45.08 E231.9172
G1 X-40.96 Y-48.81 E232.2778
G1 X-36.53 Y-52.18 E232.6383
G1 X-31.83 Y-55.14 E232.9986
G1 X-26.89 Y-57.68 E233.3587
G1 X-21.76 Y-59.77 E233.7187
G1 X-16.46 Y-61.42 E234.0786
G1 X-15.98 Y-61.54 E234.1105
G1 E229.7105 F2400
G1 X-10.55 Y-62.67 F300
G1 X-5.05 Y-63.32
G1 X0.49 Y-63.50
G1 X3.85 Y-63.36
G1 E232.7641 F1800
G1 X9.36 Y-62.76 E233.0633 F300
G1 X14.78 Y-61.68 E233.3625
G1 X20.10 Y-60.13 E233.6614
G1 E228.6614 F2400
G1 Z0.500 F420
G1 X-62.00 Y0.00 F6000
G1 Z0.300 F420
G1 E233.6614 F1800
G1 X-61.74 Y-5.40 E233.9987 F300
G1 X-61.00 Y-10.76 F60
G1 X-59.81 Y-16.03
G1 X-58.16 Y-21.17
G1 E237.9987 F1800
G1 X-56.07 Y-26.14 E238.4026 F802
G1 X-53.55 Y-30.92 E238.8064
G1 X-50.63 Y-35.45 E239.2100
G1 X-47.32 Y-39.71 E239.6134
G1 X-43.66 Y-43.66 E240.0167
G1 X-39.67 Y-47.28 E240.4197
G1 X-35.39 Y-50.54 E240.8226
G1 X-30.83 Y-53.40 E241.2253
G1 X-26.05 Y-55.86 E241.6278
G1 X-21.48 Y-57.75 E241.9975
G1 E237.5975 F2400
G1 X-16.36 Y-59.37 F300
G1 X-11.12 Y-60.55
G1 X-5.80 Y-61.26
G1 X-1.92 Y-61.48
G1 E240.6151 F1800
G1 X3.44 Y-61.39 E240.9497 F300
G1 X8.77 Y-60.82 E241.2841
G1 X14.04 Y-59.80 E241.6183
G1 E236.6183 F2400
G1 Z0.500 F420
G1 X-60.00 Y0.00 F6000
G1 Z0.340 F420
G1 E241.6183 F1800
G1 X-59.74 Y-5.23 E241.9882 F300
G1 X-59.03 Y-10.41 F60
G1 X-57.88 Y-15.51
G1 X-56.28 Y-20.48
G1 E245.9882 F1800
G1 X-54.25 Y-25.30 E246.4312 F707
G1 X-51.82 Y-29.92 E246.8741
G1 X-48.99 Y-34.30 E247.3167
G1 X-45.79 Y-38.42 E247.7591
G1 X-42.25 Y-42.25 E248.2013
G1 X-38.39 Y-45.75 E248.6433
G1 X-34.24 Y-48.90 E249.0851
G1 X-29.83 Y-51.67 E249.5266
G1 X-25.20 Y-54.05 E249.9680
G1 X-25.00 Y-54.14 E249.9870
G1 E245.5870 F2400
G1 X-20.18 Y-56.09 F300
G1 X-15.20 Y-57.61
G1 X-10.12 Y-58.69
G1 X-5.76 Y-59.25
G1 E248.6097 F1800
G1 X-0.57 Y-59.50 E248.9767 F300
G1 X4.61 Y-59.30 E249.3435
G1 X9.76 Y-58.64 E249.7102
G1 E244.7102 F2400
G1 Z0.500 F420
G1 X-58.00 Y0.00 F6000
G1 Z0.380 F420
G1 E249.7102 F1800
G1 X-57.75 Y-5.05 E250.1098 F300
G1 X-57.06 Y-10.06 F60
G1 X-55.94 Y-14.99
G1 X-54.40 Y-19.80
G1 E254.1098 F1800
G1 X-52.44 Y-24.45 E254.5884 F633
G1 X-50.09 Y-28.92 E255.0667
G1 X-47.35 Y-33.16 E255.5449
G1 X-44.26 Y-37.14 E256.0228
G1 X-40.84 Y-40.84 E256.5005
G1 X-37.10 Y-44.22 E256.9779
G1 X-33.09 Y-47.26 E257.4552
G1 X-28.83 Y-49.94 E257.9322
G1 X-27.20 Y-50.84 E258.1086
G1 E253.7086 F2400
G1 X-22.66 Y-52.99 F300
G1 X-17.94 Y-54.73
G1 X-13.10 Y-56.06
G1 X-8.26 Y-56.95
G1 E256.7149 F1800
G1 X-3.27 Y-57.43 E257.1113 F300
G1 X1.75 Y-57.46 E257.5076
G1 X6.75 Y-57.06 E257.9037
G1 E252.9037 F2400
G1 Z0.500 F420
;structure:shell-outer
G1 X0.50 Y-3.52 F6000
G1 Z0.300 F420
G1 E258.1047 F1800
G1 X0.50 Y-0.12 E258.3167 F600
G1 X1.73 Y-0.12 E258.3934
G1 X2.12 Y-0.22 E258.4185
G1 X2.43 Y-0.42 E258.4415
G1 X2.53 Y-0.55 E258.4517
G1 X2.66 Y-0.96 E258.4786
G1 X2.61 Y-1.20 E258.4939
G1 X2.50 Y-1.44 E258.5103
G1 X2.28 Y-1.64 E258.5289
G1 X1.51 Y-1.82 E258.5782
G1 E254.3100 F2400
G1 Z0.500 F420
G1 X0.50 Y-1.82 F6000
G1 Z0.300 F420
G1 E258.5855 F1800
G1 X1.51 Y-1.82 E258.6484 F600
G1 X2.02 Y-2.00 E258.6822
G1 X2.41 Y-2.62 E258.7278
G1 X2.66 Y-3.52 E258.7861
G1 E254.5493 F2400
G1 Z0.500 F420
G1 X3.72 Y-2.31 F6000
G1 Z0.300 F420
G1 E258.8617 F1800
G1 X5.86 Y-2.31 E258.9952 F600
G1 X5.78 Y-1.78 E259.0286
G1 X5.57 Y-1.39 E259.0562
G1 X5.23 Y-1.14 E259.0826
G1 X4.79 Y-1.05 E259.1106
G1 X4.36 Y-1.14 E259.1380
G1 X4.02 Y-1.39 E259.1643
G1 X3.80 Y-1.78 E259.1922
G1 X3.72 Y-2.31 E259.2256
G1 X3.80 Y-2.85 E259.2597
G1 X4.03 Y-3.25 E259.2885
G1 X4.38 Y-3.49 E259.3149
G1 X4.84 Y-3.58 E259.3442
G1 X5.18 Y-3.53 E259.3656
G1 X5.47 Y-3.39 E259.3857
G1 X5.68 Y-3.17 E259.4046
G1 X5.80 Y-2.87 E259.4248
G1 E255.1514 F2400
G1 Z0.500 F420
G1 X6.92 Y-1.74 F6000
G1 Z0.300 F420
G1 E259.3775 F1800
G1 X8.61 Y-1.74 E259.4829 F600
G1 E255.2945 F2400
G1 Z0.500 F420
G1 X8.61 Y-2.45 F6000
G1 Z0.300 F420
G1 E259.5200 F1800
G1 X6.92 Y-2.45 E259.6254 F600
G1 E255.4370 F2400
G1 Z0.500 F420
G1 X11.38 Y-3.52 F6000
G1 Z0.300 F420
G1 E259.7365 F1800
G1 X11.38 Y-0.12 E259.9485 F600
G1 X9.67 Y-2.35 E260.1238
G1 X11.98 Y-2.35 E260.2678
G1 E256.0064 F2400
G1 Z0.500 F420
G1 X13.05 Y-3.29 F6000
G1 Z0.300 F420
G1 E259.5979 F1800
G1 X13.05 Y-3.35 E259.6017 F600
G1 E256.0403 F2400
G1 Z0.500 F420
G1 X16.10 Y-0.12 F6000
G1 Z0.300 F420
G1 E260.3426 F1800
G1 X14.35 Y-0.12 E260.4518 F600
G1 X14.21 Y-1.86 E260.5606
G1 X14.49 Y-1.55 E260.5867
G1 X14.66 Y-1.43 E260.5996
G1 X14.85 Y-1.36 E260.6123
G1 X15.04 Y-1.33 E260.6243
G1 X15.24 Y-1.32 E260.6368
G1 X15.65 Y-1.41 E260.6629
G1 X15.97 Y-1.63 E260.6872
G1 X16.18 Y-1.97 E260.7121
G1 X16.26 Y-2.39 E260.7388
G1 X16.19 Y-2.86 E260.7684
G1 X15.98 Y-3.23 E260.7949
G1 X15.63 Y-3.49 E260.8221
G1 X15.13 Y-3.58 E260.8538
G1 X14.76 Y-3.52 E260.8772
G1 X14.45 Y-3.36 E260.8989
G1 X14.23 Y-3.09 E260.9207
G1 X14.11 Y-2.73 E260.9443
G1 E256.6749 F2400
G1 Z0.500 F420
G1 X0.50 Y-5.12 F6000
G1 Z0.300 F420
G1 E260.9680 F1800
G1 X1.47 Y-5.12 E261.0285 F600
G1 X1.86 Y-5.22 E261.0536
G1 X2.17 Y-5.42 E261.0766
G1 X2.27 Y-5.55 E261.0868
G1 X2.40 Y-5.96 E261.1137
G1 X2.35 Y-6.20 E261.1289
G1 X2.28 Y-6.44 E261.1445
G1 X2.02 Y-6.64 E261.1650
G1 X1.51 Y-6.82 E261.1987
G1 X0.50 Y-6.82 E261.2617
G1 E257.0075 F2400
G1 Z0.500 F420
G1 X1.51 Y-6.82 F6000
G1 Z0.300 F420
G1 E261.3146 F1800
G1 X2.28 Y-6.99 E261.3637 F600
G1 X2.50 Y-7.19 E261.3823
G1 X2.61 Y-7.44 E261.3993
G1 X2.66 Y-7.68 E261.4146
G1 X2.53 Y-8.09 E261.4414
G1 X2.43 Y-8.22 E261.4516
G1 X2.12 Y-8.41 E261.4743
G1 X1.73 Y-8.52 E261.4996
G1 X0.50 Y-8.52 E261.5763
G1 X0.50 Y-5.12 E261.7883
G1 E257.5202 F2400
G1 Z0.500 F420
G1 X3.72 Y-7.31 F6000
G1 Z0.300 F420
G1 E261.8327 F1800
G1 X5.86 Y-7.31 E261.9661 F600
G1 X5.78 Y-6.78 E261.9996
G1 X5.57 Y-6.39 E262.0272
G1 X5.23 Y-6.14 E262.0535
G1 X4.79 Y-6.05 E262.0815
G1 X4.36 Y-6.14 E262.1089
G1 X4.02 Y-6.39 E262.1352
G1 X3.80 Y-6.78 E262.1631
G1 X3.72 Y-7.31 E262.1966
G1 X3.80 Y-7.85 E262.2306
G1 X4.03 Y-8.25 E262.2594
G1 X4.38 Y-8.49 E262.2859
G1 X4.84 Y-8.58 E262.3151
G1 X5.18 Y-8.53 E262.3365
G1 X5.47 Y-8.39 E262.3566
G1 X5.68 Y-8.17 E262.3756
G1 X5.80 Y-7.87 E262.3957
G1 E258.1225 F2400
G1 Z0.500 F420
G1 X6.92 Y-6.74 F6000
G1 Z0.300 F420
G1 E262.3486 F1800
G1 X8.61 Y-6.74 E262.4540 F600
G1 E258.2656 F2400
G1 Z0.500 F420
G1 X8.61 Y-7.45 F6000
G1 Z0.300 F420
G1 E262.4911 F1800
G1 X6.92 Y-7.45 E262.5965 F600
G1 E258.4081 F2400
G1 Z0.500 F420
G1 X10.89 Y-5.06 F6000
G1 Z0.300 F420
G1 E262.7215 F1800
G1 X11.40 Y-5.20 E262.7544 F600
G1 X11.79 Y-5.58 E262.7884
G1 X12.03 Y-6.14 E262.8264
G1 X12.11 Y-6.82 E262.8691
G1 X12.03 Y-7.49 E262.9112
G1 X11.79 Y-8.05 E262.9492
G1 X11.40 Y-8.44 E262.9836
G1 X10.89 Y-8.58 E263.0165
G1 X10.37 Y-8.44 E263.0501
G1 X9.99 Y-8.05 E263.0841
G1 X9.75 Y-7.49 E263.1221
G1 X9.67 Y-6.82 E263.1642
G1 X9.75 Y-6.15 E263.2062
G1 X9.99 Y-5.58 E263.2448
G1 X10.37 Y-5.20 E263.2783
G1 X10.89 Y-5.06 E263.3119
G1 E259.0374 F2400
G1 Z0.500 F420
G1 X13.18 Y-8.29 F6000
G1 Z0.300 F420
G1 E262.6290 F1800
G1 X13.18 Y-8.35 E262.6328 F600
G1 E259.0714 F2400
G1 Z0.500 F420
G1 X15.46 Y-5.06 F6000
G1 Z0.300 F420
G1 E263.3791 F1800
G1 X15.97 Y-5.20 E263.4121 F600
G1 X16.36 Y-5.58 E263.4461
G1 X16.60 Y-6.14 E263.4841
G1 X16.68 Y-6.82 E263.5268
G1 X16.60 Y-7.49 E263.5689
G1 X16.36 Y-8.05 E263.6069
G1 X15.97 Y-8.44 E263.6413
G1 X15.46 Y-8.58 E263.6743
G1 X14.94 Y-8.44 E263.7078
G1 X14.56 Y-8.05 E263.7418
G1 X14.32 Y-7.49 E263.7798
G1 X14.24 Y-6.82 E263.8219
G1 X14.32 Y-6.15 E263.8640
G1 X14.56 Y-5.58 E263.9025
G1 X14.94 Y-5.20 E263.9361
G1 X15.46 Y-5.06 E263.9696
G1 E259.6950 F2400
G1 Z0.500 F420
G1 X0.50 Y-11.11 F6000
G1 Z0.300 F420
G1 E263.9923 F1800
G1 X1.36 Y-13.52 E264.1519 F600
G1 X2.10 Y-11.11 E264.3092
G1 X2.87 Y-13.52 E264.4670
G1 X3.71 Y-11.11 E264.6261
G1 E260.3673 F2400
G1 Z0.500 F420
G1 X4.77 Y-11.74 F6000
G1 Z0.300 F420
G1 E264.5934 F1800
G1 X6.46 Y-11.74 E264.6988 F600
G1 E260.5103 F2400
G1 Z0.500 F420
G1 X6.46 Y-12.45 F6000
G1 Z0.300 F420
G1 E264.7360 F1800
G1 X4.77 Y-12.45 E264.8414 F600
G1 E260.6528 F2400
G1 Z0.500 F420
G1 X8.74 Y-10.06 F6000
G1 Z0.300 F420
G1 E264.9663 F1800
G1 X9.25 Y-10.20 E264.9993 F600
G1 X9.64 Y-10.58 E265.0332
G1 X9.88 Y-11.14 E265.0712
G1 X9.96 Y-11.82 E265.1139
G1 X9.88 Y-12.49 E265.1560
G1 X9.64 Y-13.05 E265.1940
G1 X9.25 Y-13.44 E265.2284
G1 X8.74 Y-13.58 E265.2614
G1 X8.22 Y-13.44 E265.2950
G1 X7.84 Y-13.05 E265.3289
G1 X7.60 Y-12.49 E265.3669
G1 X7.52 Y-11.82 E265.4090
G1 X7.60 Y-11.15 E265.4511
G1 X7.84 Y-10.58 E265.4897
G1 X8.22 Y-10.20 E265.5232
G1 X8.74 Y-10.06 E265.5568
G1 E261.2822 F2400
G1 Z0.500 F420
G1 X11.02 Y-13.29 F6000
G1 Z0.300 F420
G1 E264.8737 F1800
G1 X11.02 Y-13.35 E264.8775 F600
G1 E261.3161 F2400
G1 Z0.500 F420
G1 X13.11 Y-10.08 F6000
G1 Z0.300 F420
G1 E265.6340 F1800
G1 X13.46 Y-10.14 E265.6561 F600
G1 X13.75 Y-10.29 E265.6765
G1 X13.94 Y-10.54 E265.6961
G1 X14.01 Y-10.89 E265.7183
G1 X13.87 Y-11.34 E265.7477
G1 X13.58 Y-11.60 E265.7720
G1 X12.65 Y-11.88 E265.8326
G1 X12.26 Y-12.16 E265.8625
G1 X12.09 Y-12.65 E265.8949
G1 X12.17 Y-13.05 E265.9203
G1 X12.38 Y-13.34 E265.9426
G1 X12.71 Y-13.52 E265.9661
G1 X13.11 Y-13.58 E265.9913
G1 X13.52 Y-13.52 E266.0171
G1 X13.85 Y-13.34 E266.0406
G1 X14.06 Y-13.05 E266.0629
G1 X14.14 Y-12.65 E266.0884
G1 X13.96 Y-12.16 E266.1209
G1 X13.58 Y-11.88 E266.1504
G1 X12.65 Y-11.60 E266.2109
G1 X12.36 Y-11.34 E266.2352
G1 X12.22 Y-10.89 E266.2646
G1 X12.29 Y-10.54 E266.2869
G1 X12.48 Y-10.29 E266.3065
G1 X12.76 Y-10.14 E266.3263
G1 X13.11 Y-10.08 E266.3484
G1 E262.0655 F2400
G1 Z0.500 F420
G1 E262.0749 F2400
;structure:shell-inner
G1 X-56.00 Y0.00 F6000
G1 Z0.180 F420
G1 E267.0749 F1800
G1 X-55.76 Y-4.88 E267.2576 F300
G1 X-55.09 Y-9.71 F60
G1 X-54.01 Y-14.47
G1 X-52.52 Y-19.12
G1 E271.7576 F1800
G1 X-50.63 Y-23.61 E272.0495 F1002
G1 X-48.35 Y-27.92 E272.3411
G1 X-45.71 Y-32.01 E272.6327
G1 X-42.73 Y-35.85 E272.9241
G1 X-39.42 Y-39.42 E273.2153
G1 X-35.82 Y-42.69 E273.5064
G1 X-31.95 Y-45.62 E273.7974
G1 X-27.83 Y-48.21 E274.0882
G1 X-23.51 Y-50.43 E274.3789
G1 X-19.02 Y-52.26 E274.6694
G1 X-14.39 Y-53.69 E274.9598
G1 X-9.65 Y-54.71 E275.2500
G1 X-4.84 Y-55.32 E275.5401
G1 X-1.23 Y-55.49 E275.7565
G1 E271.2565 F2400
G1 X3.61 Y-55.36 F300
G1 X8.42 Y-54.81
G1 X13.15 Y-53.84
G1 X17.79 Y-52.46
G1 X18.40 Y-52.25
G1 E274.1771 F1800
G1 X22.87 Y-50.42 E274.3579 F300
G1 X27.16 Y-48.21 E274.5386
G1 X31.24 Y-45.64 E274.7192
G1 E269.7192 F2400
G1 Z0.500 F420
G1 X-54.00 Y0.00 F6000
G1 Z0.220 F420
G1 E274.7192 F1800
G1 X-53.77 Y-4.70 E274.9346 F300
G1 X-53.12 Y-9.37 F60
G1 X-52.08 Y-13.95
G1 X-50.64 Y-18.43
G1 E279.4346 F1800
G1 X-48.81 Y-22.76 E279.7785 F820
G1 X-46.62 Y-26.92 E280.1222
G1 X-44.07 Y-30.86 E280.4658
G1 X-41.20 Y-34.57 E280.8092
G1 X-38.01 Y-38.01 E281.1524
G1 X-34.53 Y-41.15 E281.4954
G1 X-30.80 Y-43.98 E281.8383
G1 X-26.83 Y-46.48 E282.1809
G1 X-22.67 Y-48.61 E282.5234
G1 X-18.34 Y-50.38 E282.8658
G1 X-13.87 Y-51.76 E283.2079
G1 X-10.87 Y-52.45 E283.4334
G1 E278.9334 F2400
G1 X-6.25 Y-53.17 F300
G1 X-1.59 Y-53.49
G1 X3.08 Y-53.39
G1 X7.71 Y-52.89
G1 X9.02 Y-52.68
G1 E281.8138 F1800
G1 X13.57 Y-51.67 E282.0269 F300
G1 X18.01 Y-50.26 E282.2400
G1 X22.31 Y-48.48 E282.4530
G1 E277.4530 F2400
G1 Z0.500 F420
G1 X-52.00 Y0.00 F6000
G1 Z0.260 F420
G1 E282.4530 F1800
G1 X-51.77 Y-4.53 E282.6981 F300
G1 X-51.16 Y-9.02 F60
G1 X-50.15 Y-13.44
G1 X-48.76 Y-17.75
G1 E287.1981 F1800
G1 X-47.00 Y-21.92 E287.5894 F694
G1 X-44.89 Y-25.92 E287.9806
G1 X-42.44 Y-29.71 E288.3715
G1 X-39.66 Y-33.28 E288.7623
G1 X-36.59 Y-36.59 E289.1528
G1 X-33.25 Y-39.62 E289.5431
G1 X-29.65 Y-42.35 E289.9332
G1 X-25.83 Y-44.74 E290.3231
G1 X-21.82 Y-46.80 E290.7128
G1 X-17.65 Y-48.50 E291.1022
G1 X-16.62 Y-48.86 E291.1969
G1 E286.6969 F2400
G1 X-12.29 Y-50.09 F300
G1 X-7.87 Y-50.94
G1 X-3.40 Y-51.41
G1 X1.09 Y-51.48
G1 X3.10 Y-51.39
G1 E289.5585 F1800
G1 X7.56 Y-50.89 E289.8011 F300
G1 X11.96 Y-50.02 E290.0437
G1 X16.26 Y-48.76 E290.2861
G1 E285.2861 F2400
G1 Z0.500 F420
G1 X-50.00 Y0.00 F6000
G1 Z0.300 F420
G1 E290.2861 F1800
G1 X-49.78 Y-4.36 E290.5580 F300
G1 X-49.19 Y-8.67 F60
G1 X-48.22 Y-12.92
G1 X-46.88 Y-17.06
G1 E295.0580 F1800
G1 X-45.19 Y-21.07 E295.4922 F601
G1 X-43.16 Y-24.92 E295.9261
G1 X-40.80 Y-28.57 E296.3598
G1 X-38.13 Y-32.00 E296.7932
G1 X-35.18 Y-35.18 E297.2264
G1 X-31.96 Y-38.09 E297.6593
G1 X-28.50 Y-40.71 E298.0921
G1 X-24.83 Y-43.01 E298.5245
G1 X-20.98 Y-44.99 E298.9567
G1 X-20.06 Y-45.40 E299.0569
G1 E294.5569 F2400
G1 X-16.02 Y-46.95 F300
G1 X-11.86 Y-48.14
G1 X-7.62 Y-48.96
G1 X-3.32 Y-49.41
G1 X-0.63 Y-49.50
G1 E297.3998 F1800
G1 X3.69 Y-49.34 E297.6691 F300
G1 X7.97 Y-48.80 E297.9382
G1 X12.19 Y-47.89 E298.2071
G1 E293.2071 F2400
G1 Z0.500 F420
G1 X-48.00 Y0.00 F6000
G1 Z0.340 F420
G1 E298.2071 F1800
G1 X-47.79 Y-4.18 E298.5030 F300
G1 X-47.22 Y-8.33 F60
G1 X-46.28 Y-12.40
G1 X-45.00 Y-16.38
G1 E303.0030 F1800
G1 X-43.38 Y-20.23 E303.4753 F531
G1 X-41.42 Y-23.92 E303.9474
G1 X-39.16 Y-27.42 E304.4191
G1 X-36.60 Y-30.71 E304.8906
G1 X-33.76 Y-33.76 E305.3618
G1 X-30.68 Y-36.56 E305.8328
G1 X-27.36 Y-39.07 E306.3034
G1 X-23.83 Y-41.28 E306.7738
G1 X-22.06 Y-42.24 E307.0019
G1 E302.5019 F2400
G1 X-18.28 Y-43.98 F300
G1 X-14.37 Y-45.38
G1 X-10.36 Y-46.43
G1 X-6.27 Y-47.13
G1 X-2.90 Y-47.43
G1 E305.3275 F1800
G1 X1.25 Y-47.48 E305.6204 F300
G1 X5.38 Y-47.16 E305.9132
G1 X9.46 Y-46.48 E306.2057
G1 E301.2057 F2400
G1 Z0.500 F420
G1 X-46.00 Y0.00 F6000
G1 Z0.380 F420
G1 E306.2057 F1800
G1 X-45.80 Y-4.01 E306.5227 F300
G1 X-45.25 Y-7.98 F60
G1 X-44.35 Y-11.88
G1 X-43.12 Y-15.69
G1 E311.0227 F1800
G1 X-41.56 Y-19.38 E311.5285 F475
G1 X-39.69 Y-22.92 E312.0340
G1 X-37.52 Y-26.27 E312.5392
G1 X-35.07 Y-29.43 E313.0441
G1 X-32.35 Y-32.35 E313.5487
G1 X-29.39 Y-35.03 E314.0530
G1 X-26.21 Y-37.43 E314.5570
G1 X-23.10 Y-39.39 E315.0215
G1 E310.5215 F2400
G1 X-19.57 Y-41.23 F300
G1 X-15.89 Y-42.76
G1 X-12.10 Y-43.95
G1 X-8.22 Y-44.81
G1 X-4.28 Y-45.33
G1 X-4.17 Y-45.34
G1 E313.3321 F1800
G1 X-0.21 Y-45.50 E313.6457 F300
G1 X3.76 Y-45.32 E313.9592
G1 X7.69 Y-44.79 E314.2725
G1 E309.2725 F2400
G1 Z0.500 F420
G1 E310.1674 F2400
;end gcode
M107
M104 S0 T0
M140 S0 T0
G162 Z F1800
G28 X Y
M132 X Y A B
M652
G91
M18
