;gcode_flavor: flashforge
;machine_type: Adventurer 3 Series
;filament_diameter0: 1.75
;right_extruder_temperature: 210
;platform_temperature: 50
;extruder_fan: 100%
;case_fan: 100%
;base_print_speed: 60
;travel_speed: 100
;vertical_speed: 7
;retract_speed: 40
;restore_speed: 30
;layer_height: 0.30
;line_width: 0.50
;extrusion_ratio: 1.00
;command_line: ./gcodetest.py -Te=210 -Tp=50 -Fe=1.0 -Fc=1.0 -Kf=0.4 -Kb=1.0 -Re=1.5 -R -v
;start gcode
M118 X75.00 Y75.00 Z150.00 T0
M140 S50 T0
M104 S210 T0
M104 S0 T1
M107
M900 K0.000 T0
G90
G28
M132 X Y Z A B
G1 Z50.000 F420
G161 X Y F3300
M7 T0
M6 T0
M652 S255
M108 T0
M106
;preExtrude:0.20
;00:00:00.000: layer=0 h=0.20 w=0.50 r=1.00
G1 X69.29 Y28.70 F6000                  ; move dl=75.0@100(0<100>0) de=0.000@0.0(0.0<0.0>0.0) l=0.00x0.50x0.00 r=0.00
;00:00:00.950: pe=0.0000 eb=0.0000 ve=0.0000 vn=0.0000 vl=0.000 db=0.00
G1 Z0.200 F420                          ; hopup dz=0.20@7 h=0.2 r=0.00
;00:00:00.979: pe=0.0000 eb=0.0000 ve=0.0000 vn=0.0000 vl=0.000 db=0.00
G1 E2.2953 F1800                        ; restore de=2.2953@30.0 r=2.45
;00:00:01.055: pe=2.1972 eb=0.0981 ve=30.0000 vn=2.4290 vl=0.000 db=1.23
;00:00:01.055: spiral RC0=(75.0,0.062) dRC=(0.0,0.125) dl=58.9@10 de=7.837@1.3 l=0.20x0.40x4.00
G1 X66.53 Y34.63 E3.1658 F600           ; draw dl=6.5@10(0<10>10) de=0.870@1.31(0.0<1.33>1.33) l=0.20x0.40x4.00 r=4.28
;00:00:01.719: pe=2.1362 eb=0.1678 ve=1.3304 vn=1.3326 vl=10.000 db=1.60
G1 X63.25 Y40.30 E4.0363                ; draw dl=6.5@10(10<10>10) de=0.870@1.33(1.33<1.33>1.33) l=0.20x0.40x4.00 r=4.01
;00:00:02.374: pe=2.1350 eb=0.1676 ve=1.3304 vn=1.3320 vl=10.000 db=1.60
G1 X59.50 Y45.66 E4.9068                ; draw dl=6.5@10(10<10>10) de=0.870@1.33(1.33<1.33>1.33) l=0.20x0.40x4.00 r=4.00
;00:00:03.028: pe=2.1341 eb=0.1675 ve=1.3304 vn=1.3315 vl=10.000 db=1.60
G1 X55.30 Y50.67 E5.7772                ; draw dl=6.5@10(10<10>10) de=0.870@1.33(1.33<1.33>1.33) l=0.20x0.40x4.00 r=4.00
;00:00:03.682: pe=2.1335 eb=0.1674 ve=1.3304 vn=1.3312 vl=10.000 db=1.60
G1 X50.67 Y55.30 E6.6477                ; draw dl=6.5@10(10<10>10) de=0.870@1.33(1.33<1.33>1.33) l=0.20x0.40x4.00 r=4.00
;00:00:04.337: pe=2.1331 eb=0.1673 ve=1.3304 vn=1.3309 vl=10.000 db=1.60
G1 X45.66 Y59.50 E7.5182                ; draw dl=6.5@10(10<10>10) de=0.870@1.33(1.33<1.33>1.33) l=0.20x0.40x4.00 r=4.00
;00:00:04.991: pe=2.1328 eb=0.1673 ve=1.3304 vn=1.3308 vl=10.000 db=1.60
G1 X40.30 Y63.25 E8.3886                ; draw dl=6.5@10(10<10>10) de=0.870@1.33(1.33<1.33>1.33) l=0.20x0.40x4.00 r=4.00
;00:00:05.645: pe=2.1326 eb=0.1673 ve=1.3304 vn=1.3307 vl=10.000 db=1.60
G1 X34.63 Y66.53 E9.2591                ; draw dl=6.5@10(10<10>10) de=0.870@1.33(1.33<1.33>1.33) l=0.20x0.40x4.00 r=4.00
;00:00:06.299: pe=2.1325 eb=0.1672 ve=1.3304 vn=1.3306 vl=10.000 db=1.60
G1 X28.70 Y69.29 E10.1296               ; draw dl=6.5@10(10<10>0) de=0.870@1.31(1.33<1.33>0.0) l=0.20x0.40x4.00 r=4.06
;00:00:06.964: pe=2.1203 eb=0.1792 ve=0.0042 vn=1.1589 vl=0.032 db=1.66
G1 X28.70 Y69.29                        ; move dl=0.0@10(0<0>0) de=0.000@0.0(0.0<0.0>0.0) l=0.20x0.40x0.00 r=2203.35
;00:00:06.964: pe=2.1202 eb=0.1793 ve=0.0000 vn=1.1579 vl=0.000 db=1.66
G1 E6.5094 F2400                        ; retract de=-3.6202@-40.0 r=4.21
;00:00:07.054: pe=-1.5056 eb=0.1849 ve=-40.0000 vn=0.0000 vl=0.000 db=1.68
G1 Z0.400 F420                          ; hopup dz=0.20@7 h=0.4 r=2.97
;00:00:07.083: pe=-1.5056 eb=0.1849 ve=0.0000 vn=0.0000 vl=0.000 db=1.19
;layer:0.30
;00:00:07.083: layer=1 h=0.30 w=0.50 r=1.00
;structure:shell-outer
;00:00:07.083: text [(-70, 70), (None, None)] fsize=5 angle=0 've=1.0\nh=0.3\ndynret=0'
G1 X-69.50 Y68.89 F6000                 ; move dl=98.2@100(0<100>0) de=0.000@0.0(0.0<0.0>0.0) l=0.40x0.50x0.00 r=0.00
;00:00:08.265: pe=-1.5056 eb=0.0000 ve=0.0000 vn=0.0000 vl=0.000 db=0.00
G1 Z0.300 F420                          ; hopdn dz=-0.10@7 h=0.3 r=0.00
;00:00:08.279: pe=-1.5056 eb=0.0000 ve=0.0000 vn=0.0000 vl=0.000 db=0.00
G1 E8.7781 F1800                        ; restore de=2.2687@30.0 r=0.74
;00:00:08.355: pe=0.7498 eb=0.0133 ve=30.0000 vn=0.9541 vl=0.000 db=0.37
G1 X-68.48 Y66.48 E8.9413 F600          ; draw dl=2.6@10(0<10>6) de=0.163@0.6(0.0<0.62>0.35) l=0.30x0.50x1.00 r=1.06
;00:00:08.628: pe=0.7407 eb=0.0250 ve=0.3524 vn=0.5876 vl=5.651 db=0.51
G1 X-67.46 Y68.89 E9.1045               ; draw dl=2.6@10(6<10>0) de=0.163@0.6(0.35<0.62>0.0) l=0.30x0.50x1.00 r=1.02
;00:00:08.902: pe=0.7374 eb=0.0292 ve=0.0000 vn=0.4789 vl=0.000 db=0.55
G1 E6.8670 F2400                        ; retract de=-2.2374@-40.0 r=1.11
;00:00:08.958: pe=-1.5009 eb=0.0301 ve=-40.0000 vn=0.0000 vl=0.000 db=0.55
G1 Z0.500 F420                          ; hopup dz=0.20@7 h=0.5 r=0.86
;00:00:08.986: pe=-1.5009 eb=0.0301 ve=0.0000 vn=0.0000 vl=0.000 db=0.43
G1 X-66.40 Y67.69 F6000                 ; move dl=1.6@100(0<20>0) de=0.000@0.0(0.0<0.0>0.0) l=0.50x0.50x0.00 r=0.00
;00:00:09.106: pe=-1.5009 eb=0.0000 ve=0.0000 vn=0.0000 vl=0.000 db=0.00
G1 Z0.300 F420                          ; hopdn dz=-0.20@7 h=0.3 r=0.00
;00:00:09.135: pe=-1.5009 eb=0.0000 ve=0.0000 vn=0.0000 vl=0.000 db=0.00
G1 E9.1371 F1800                        ; restore de=2.2701@30.0 r=0.74
;00:00:09.211: pe=0.7557 eb=0.0135 ve=30.0000 vn=0.9617 vl=0.000 db=0.37
G1 X-64.26 Y67.69 E9.2706 F600          ; draw dl=2.1@10(0<10>10) de=0.133@0.6(0.0<0.62>0.6) l=0.30x0.50x1.00 r=1.07
;00:00:09.435: pe=0.7464 eb=0.0243 ve=0.6039 vn=0.6210 vl=9.683 db=0.50
G1 X-64.34 Y68.22 E9.3040               ; draw dl=0.5@10(10<10>10) de=0.033@0.62(0.6<0.62>0.62) l=0.30x0.50x1.00 r=1.00
;00:00:09.488: pe=0.7465 eb=0.0243 ve=0.6236 vn=0.6212 vl=10.000 db=0.50
G1 X-64.55 Y68.61 E9.3316               ; draw dl=0.4@10(10<10>10) de=0.028@0.62(0.62<0.62>0.62) l=0.30x0.50x1.00 r=1.00
;00:00:09.533: pe=0.7466 eb=0.0243 ve=0.6236 vn=0.6213 vl=10.000 db=0.50
G1 X-64.89 Y68.86 E9.3579               ; draw dl=0.4@10(10<10>10) de=0.026@0.62(0.62<0.62>0.62) l=0.30x0.50x1.00 r=1.00
;00:00:09.575: pe=0.7467 eb=0.0243 ve=0.6236 vn=0.6214 vl=10.000 db=0.50
G1 X-65.33 Y68.95 E9.3859               ; draw dl=0.4@10(10<10>10) de=0.028@0.62(0.62<0.62>0.62) l=0.30x0.50x1.00 r=1.00
;00:00:09.620: pe=0.7468 eb=0.0243 ve=0.6237 vn=0.6215 vl=10.000 db=0.50
G1 X-65.76 Y68.86 E9.4133               ; draw dl=0.4@10(10<10>10) de=0.027@0.62(0.62<0.62>0.62) l=0.30x0.50x1.00 r=1.00
;00:00:09.664: pe=0.7469 eb=0.0243 ve=0.6236 vn=0.6216 vl=10.000 db=0.50
G1 X-66.10 Y68.61 E9.4397               ; draw dl=0.4@10(10<10>10) de=0.026@0.62(0.62<0.62>0.62) l=0.30x0.50x1.00 r=1.00
;00:00:09.706: pe=0.7470 eb=0.0243 ve=0.6236 vn=0.6216 vl=10.000 db=0.50
G1 X-66.32 Y68.22 E9.4676               ; draw dl=0.4@10(10<10>10) de=0.028@0.62(0.62<0.62>0.62) l=0.30x0.50x1.00 r=1.00
;00:00:09.751: pe=0.7471 eb=0.0243 ve=0.6236 vn=0.6217 vl=10.000 db=0.50
G1 X-66.40 Y67.69 E9.5010               ; draw dl=0.5@10(10<10>10) de=0.033@0.62(0.62<0.62>0.62) l=0.30x0.50x1.00 r=1.00
;00:00:09.804: pe=0.7472 eb=0.0243 ve=0.6237 vn=0.6218 vl=10.000 db=0.50
G1 X-66.32 Y67.15 E9.5351               ; draw dl=0.5@10(10<10>10) de=0.034@0.62(0.62<0.62>0.62) l=0.30x0.50x1.00 r=1.00
;00:00:09.859: pe=0.7473 eb=0.0243 ve=0.6237 vn=0.6219 vl=10.000 db=0.50
G1 X-66.09 Y66.75 E9.5638               ; draw dl=0.5@10(10<10>10) de=0.029@0.62(0.62<0.62>0.62) l=0.30x0.50x1.00 r=1.00
;00:00:09.905: pe=0.7473 eb=0.0243 ve=0.6237 vn=0.6219 vl=10.000 db=0.50
G1 X-65.74 Y66.51 E9.5903               ; draw dl=0.4@10(10<10>10) de=0.026@0.62(0.62<0.62>0.62) l=0.30x0.50x1.00 r=1.00
;00:00:09.947: pe=0.7474 eb=0.0244 ve=0.6237 vn=0.6220 vl=10.000 db=0.50
G1 X-65.28 Y66.42 E9.6195               ; draw dl=0.5@10(10<10>10) de=0.029@0.62(0.62<0.62>0.62) l=0.30x0.50x1.00 r=1.00
;00:00:09.994: pe=0.7475 eb=0.0244 ve=0.6237 vn=0.6221 vl=10.000 db=0.50
G1 X-64.94 Y66.47 E9.6410               ; draw dl=0.3@10(10<10>10) de=0.021@0.62(0.62<0.62>0.62) l=0.30x0.50x1.00 r=1.00
;00:00:10.029: pe=0.7475 eb=0.0244 ve=0.6236 vn=0.6221 vl=10.000 db=0.50
G1 X-64.65 Y66.61 E9.6610               ; draw dl=0.3@10(10<10>10) de=0.020@0.62(0.62<0.62>0.62) l=0.30x0.50x1.00 r=1.00
;00:00:10.061: pe=0.7476 eb=0.0244 ve=0.6236 vn=0.6221 vl=10.000 db=0.50
G1 X-64.44 Y66.83 E9.6800               ; draw dl=0.3@10(10<10>10) de=0.019@0.62(0.62<0.62>0.62) l=0.30x0.50x1.00 r=1.00
;00:00:10.091: pe=0.7476 eb=0.0244 ve=0.6236 vn=0.6222 vl=10.000 db=0.50
G1 X-64.32 Y67.13 E9.7002               ; draw dl=0.3@10(10<10>0) de=0.020@0.48(0.62<0.62>0.0) l=0.30x0.50x1.00 r=1.26
;00:00:10.134: pe=0.7424 eb=0.0296 ve=0.0000 vn=0.4826 vl=0.000 db=0.55
G1 E7.4578 F2400                        ; retract de=-2.2424@-40.0 r=1.11
;00:00:10.190: pe=-1.5009 eb=0.0304 ve=-40.0000 vn=0.0000 vl=0.000 db=0.56
G1 Z0.500 F420                          ; hopup dz=0.20@7 h=0.5 r=0.86
;00:00:10.218: pe=-1.5009 eb=0.0304 ve=0.0000 vn=0.0000 vl=0.000 db=0.43
G1 X-63.20 Y68.26 F6000                 ; move dl=1.6@100(0<20>0) de=0.000@0.0(0.0<0.0>0.0) l=0.50x0.50x0.00 r=0.00
;00:00:10.338: pe=-1.5009 eb=0.0000 ve=0.0000 vn=0.0000 vl=0.000 db=0.00
G1 Z0.300 F420                          ; hopdn dz=-0.20@7 h=0.3 r=0.00
;00:00:10.366: pe=-1.5009 eb=0.0000 ve=0.0000 vn=0.0000 vl=0.000 db=0.00
G1 E9.7062 F1800                        ; restore de=2.2484@30.0 r=0.72
;00:00:10.441: pe=0.7348 eb=0.0128 ve=30.0000 vn=0.9342 vl=0.000 db=0.36
G1 X-61.51 Y68.26 E9.8116 F600          ; draw dl=1.7@10(0<10>0) de=0.105@0.56(0.0<0.62>0.0) l=0.30x0.50x1.00 r=1.11
;00:00:10.630: pe=0.7233 eb=0.0281 ve=0.0000 vn=0.4681 vl=0.000 db=0.54
G1 E7.5883 F2400                        ; retract de=-2.2233@-40.0 r=1.09
;00:00:10.686: pe=-1.5008 eb=0.0290 ve=-40.0000 vn=0.0000 vl=0.000 db=0.54
G1 Z0.500 F420                          ; hopup dz=0.20@7 h=0.5 r=0.84
;00:00:10.715: pe=-1.5008 eb=0.0290 ve=0.0000 vn=0.0000 vl=0.000 db=0.42
G1 X-61.51 Y67.55 F6000                 ; move dl=0.7@100(0<13>0) de=0.000@0.0(0.0<0.0>0.0) l=0.50x0.50x0.00 r=0.00
;00:00:10.794: pe=-1.5008 eb=0.0000 ve=0.0000 vn=0.0000 vl=0.000 db=0.00
G1 Z0.300 F420                          ; hopdn dz=-0.20@7 h=0.3 r=0.00
;00:00:10.823: pe=-1.5008 eb=0.0000 ve=0.0000 vn=0.0000 vl=0.000 db=0.00
G1 E9.8367 F1800                        ; restore de=2.2484@30.0 r=0.72
;00:00:10.898: pe=0.7348 eb=0.0128 ve=30.0000 vn=0.9342 vl=0.000 db=0.36
G1 X-63.20 Y67.55 E9.9421 F600          ; draw dl=1.7@10(0<10>0) de=0.105@0.56(0.0<0.62>0.0) l=0.30x0.50x1.00 r=1.11
;00:00:11.087: pe=0.7233 eb=0.0281 ve=0.0000 vn=0.4681 vl=0.000 db=0.54
G1 E7.7188 F2400                        ; retract de=-2.2233@-40.0 r=1.09
;00:00:11.143: pe=-1.5008 eb=0.0290 ve=-40.0000 vn=0.0000 vl=0.000 db=0.54
G1 Z0.500 F420                          ; hopup dz=0.20@7 h=0.5 r=0.84
;00:00:11.171: pe=-1.5008 eb=0.0290 ve=0.0000 vn=0.0000 vl=0.000 db=0.42
G1 X-60.45 Y69.00 F6000                 ; move dl=3.1@100(0<28>0) de=0.000@0.0(0.0<0.0>0.0) l=0.50x0.50x0.00 r=0.00
;00:00:11.338: pe=-1.5008 eb=0.0000 ve=0.0000 vn=0.0000 vl=0.000 db=0.00
G1 Z0.300 F420                          ; hopdn dz=-0.20@7 h=0.3 r=0.00
;00:00:11.367: pe=-1.5008 eb=0.0000 ve=0.0000 vn=0.0000 vl=0.000 db=0.00
G1 E9.9817 F1800                        ; restore de=2.2628@30.0 r=0.74
;00:00:11.442: pe=0.7488 eb=0.0132 ve=30.0000 vn=0.9527 vl=0.000 db=0.37
G1 X-59.98 Y69.24 E10.0146 F600         ; draw dl=0.5@10(0<10>10) de=0.033@0.52(0.0<0.62>0.62) l=0.30x0.50x1.00 r=1.28
;00:00:11.505: pe=0.7396 eb=0.0236 ve=0.6236 vn=0.6214 vl=10.000 db=0.49
G1 X-59.61 Y69.55 E10.0447              ; draw dl=0.5@10(10<10>10) de=0.030@0.62(0.62<0.62>0.62) l=0.30x0.50x1.00 r=0.99
;00:00:11.553: pe=0.7398 eb=0.0238 ve=0.6236 vn=0.6167 vl=10.000 db=0.49
G1 X-59.36 Y69.88 E10.0705              ; draw dl=0.4@10(10<10>5) de=0.026@0.59(0.62<0.62>0.3) l=0.30x0.50x1.00 r=1.05
;00:00:11.597: pe=0.7386 eb=0.0253 ve=0.3015 vn=0.5749 vl=4.834 db=0.51
G1 X-59.36 Y66.48 E10.2825              ; draw dl=3.4@10(5<10>0) de=0.212@0.6(0.3<0.62>0.0) l=0.30x0.50x1.00 r=1.01
;00:00:11.950: pe=0.7364 eb=0.0291 ve=0.0000 vn=0.4781 vl=0.000 db=0.55
G1 E8.0462 F2400                        ; retract de=-2.2364@-40.0 r=1.11
;00:00:12.006: pe=-1.5009 eb=0.0300 ve=-40.0000 vn=0.0000 vl=0.000 db=0.55
G1 Z0.500 F420                          ; hopup dz=0.20@7 h=0.5 r=0.86
;00:00:12.035: pe=-1.5009 eb=0.0300 ve=0.0000 vn=0.0000 vl=0.000 db=0.43
G1 X-58.30 Y66.71 F6000                 ; move dl=1.1@100(0<16>0) de=0.000@0.0(0.0<0.0>0.0) l=0.50x0.50x0.00 r=0.00
;00:00:12.133: pe=-1.5009 eb=0.0000 ve=0.0000 vn=0.0000 vl=0.000 db=0.00
G1 Z0.300 F420                          ; hopdn dz=-0.20@7 h=0.3 r=0.00
;00:00:12.162: pe=-1.5009 eb=0.0000 ve=0.0000 vn=0.0000 vl=0.000 db=0.00
G1 E10.1360 F1800                       ; restore de=2.0898@30.0 r=0.57
;00:00:12.232: pe=0.5809 eb=0.0081 ve=30.0000 vn=0.7347 vl=0.000 db=0.29
G1 X-58.30 Y66.65 E10.1397 F600         ; draw dl=0.1@10(0<4>0) de=0.004@0.16(0.0<0.24>0.0) l=0.30x0.50x1.00 r=3.26
;00:00:12.255: pe=0.5724 eb=0.0175 ve=0.0000 vn=0.3747 vl=0.000 db=0.42
G1 E8.0673 F2400                        ; retract de=-2.0724@-40.0 r=0.86
;00:00:12.307: pe=-1.5005 eb=0.0180 ve=-40.0000 vn=0.0000 vl=0.000 db=0.43
G1 Z0.500 F420                          ; hopup dz=0.20@7 h=0.5 r=0.66
;00:00:12.335: pe=-1.5005 eb=0.0180 ve=0.0000 vn=0.0000 vl=0.000 db=0.33
G1 X-56.01 Y69.94 F6000                 ; move dl=4.0@100(0<32>0) de=0.000@0.0(0.0<0.0>0.0) l=0.50x0.50x0.00 r=0.00
;00:00:12.525: pe=-1.5005 eb=0.0000 ve=0.0000 vn=0.0000 vl=0.000 db=0.00
G1 Z0.300 F420                          ; hopdn dz=-0.20@7 h=0.3 r=0.00
;00:00:12.554: pe=-1.5005 eb=0.0000 ve=0.0000 vn=0.0000 vl=0.000 db=0.00
G1 E10.3373 F1800                       ; restore de=2.2701@30.0 r=0.74
;00:00:12.629: pe=0.7561 eb=0.0135 ve=30.0000 vn=0.9621 vl=0.000 db=0.37
G1 X-55.50 Y69.80 E10.3703 F600         ; draw dl=0.5@10(0<10>10) de=0.033@0.52(0.0<0.62>0.62) l=0.30x0.50x1.00 r=1.29
;00:00:12.692: pe=0.7464 eb=0.0241 ve=0.6237 vn=0.6273 vl=10.000 db=0.50
G1 X-55.11 Y69.42 E10.4043              ; draw dl=0.5@10(10<10>10) de=0.034@0.62(0.62<0.62>0.62) l=0.30x0.50x1.00 r=1.00
;00:00:12.747: pe=0.7464 eb=0.0243 ve=0.6237 vn=0.6219 vl=10.000 db=0.50
G1 X-54.88 Y68.86 E10.4420              ; draw dl=0.6@10(10<10>10) de=0.038@0.62(0.62<0.62>0.62) l=0.30x0.50x1.00 r=1.00
;00:00:12.807: pe=0.7466 eb=0.0243 ve=0.6237 vn=0.6214 vl=10.000 db=0.50
G1 X-54.79 Y68.18 E10.4848              ; draw dl=0.7@10(10<10>10) de=0.043@0.62(0.62<0.62>0.62) l=0.30x0.50x1.00 r=1.00
;00:00:12.876: pe=0.7467 eb=0.0243 ve=0.6237 vn=0.6214 vl=10.000 db=0.50
G1 X-54.88 Y67.51 E10.5270              ; draw dl=0.7@10(10<10>10) de=0.042@0.62(0.62<0.62>0.62) l=0.30x0.50x1.00 r=1.00
;00:00:12.944: pe=0.7469 eb=0.0243 ve=0.6237 vn=0.6216 vl=10.000 db=0.50
G1 X-55.11 Y66.95 E10.5647              ; draw dl=0.6@10(10<10>10) de=0.038@0.62(0.62<0.62>0.62) l=0.30x0.50x1.00 r=1.00
;00:00:13.004: pe=0.7470 eb=0.0243 ve=0.6237 vn=0.6217 vl=10.000 db=0.50
G1 X-55.50 Y66.56 E10.5991              ; draw dl=0.6@10(10<10>10) de=0.034@0.62(0.62<0.62>0.62) l=0.30x0.50x1.00 r=1.00
;00:00:13.059: pe=0.7471 eb=0.0243 ve=0.6237 vn=0.6217 vl=10.000 db=0.50
G1 X-56.01 Y66.42 E10.6321              ; draw dl=0.5@10(10<10>10) de=0.033@0.62(0.62<0.62>0.62) l=0.30x0.50x1.00 r=1.00
;00:00:13.112: pe=0.7472 eb=0.0243 ve=0.6237 vn=0.6218 vl=10.000 db=0.50
G1 X-56.54 Y66.56 E10.6663              ; draw dl=0.5@10(10<10>10) de=0.034@0.62(0.62<0.62>0.62) l=0.30x0.50x1.00 r=1.00
;00:00:13.167: pe=0.7473 eb=0.0243 ve=0.6237 vn=0.6219 vl=10.000 db=0.50
G1 X-56.91 Y66.95 E10.6998              ; draw dl=0.5@10(10<10>10) de=0.034@0.62(0.62<0.62>0.62) l=0.30x0.50x1.00 r=1.00
;00:00:13.221: pe=0.7474 eb=0.0244 ve=0.6237 vn=0.6220 vl=10.000 db=0.50
G1 X-57.15 Y67.51 E10.7378              ; draw dl=0.6@10(10<10>10) de=0.038@0.62(0.62<0.62>0.62) l=0.30x0.50x1.00 r=1.00
;00:00:13.282: pe=0.7475 eb=0.0244 ve=0.6237 vn=0.6221 vl=10.000 db=0.50
G1 X-57.23 Y68.18 E10.7799              ; draw dl=0.7@10(10<10>10) de=0.042@0.62(0.62<0.62>0.62) l=0.30x0.50x1.00 r=1.00
;00:00:13.349: pe=0.7476 eb=0.0244 ve=0.6237 vn=0.6221 vl=10.000 db=0.50
G1 X-57.15 Y68.85 E10.8220              ; draw dl=0.7@10(10<10>10) de=0.042@0.62(0.62<0.62>0.62) l=0.30x0.50x1.00 r=1.00
;00:00:13.417: pe=0.7477 eb=0.0244 ve=0.6237 vn=0.6222 vl=10.000 db=0.50
G1 X-56.91 Y69.42 E10.8606              ; draw dl=0.6@10(10<10>10) de=0.039@0.62(0.62<0.62>0.62) l=0.30x0.50x1.00 r=1.00
;00:00:13.478: pe=0.7478 eb=0.0244 ve=0.6237 vn=0.6223 vl=10.000 db=0.50
G1 X-56.54 Y69.80 E10.8936              ; draw dl=0.5@10(10<10>10) de=0.033@0.62(0.62<0.62>0.62) l=0.30x0.50x1.00 r=1.00
;00:00:13.531: pe=0.7479 eb=0.0244 ve=0.6237 vn=0.6224 vl=10.000 db=0.50
G1 X-56.01 Y69.94 E10.9278              ; draw dl=0.5@10(10<10>0) de=0.034@0.53(0.62<0.62>0.0) l=0.30x0.50x1.00 r=1.15
;00:00:13.596: pe=0.7426 eb=0.0296 ve=0.0000 vn=0.4828 vl=0.000 db=0.55
G1 E8.6852 F2400                        ; retract de=-2.2426@-40.0 r=1.12
;00:00:13.652: pe=-1.5009 eb=0.0305 ve=-40.0000 vn=0.0000 vl=0.000 db=0.56
G1 Z0.500 F420                          ; hopup dz=0.20@7 h=0.5 r=0.86
;00:00:13.681: pe=-1.5009 eb=0.0305 ve=0.0000 vn=0.0000 vl=0.000 db=0.43
G1 X-69.50 Y64.88 F6000                 ; move dl=14.4@100(0<60>0) de=0.000@0.0(0.0<0.0>0.0) l=0.50x0.50x0.00 r=0.00
;00:00:14.041: pe=-1.5009 eb=0.0000 ve=0.0000 vn=0.0000 vl=0.000 db=0.00
G1 Z0.300 F420                          ; hopdn dz=-0.20@7 h=0.3 r=0.00
;00:00:14.070: pe=-1.5009 eb=0.0000 ve=0.0000 vn=0.0000 vl=0.000 db=0.00
G1 E10.9462 F1800                       ; restore de=2.2610@30.0 r=0.73
;00:00:14.145: pe=0.7469 eb=0.0132 ve=30.0000 vn=0.9503 vl=0.000 db=0.37
G1 X-69.50 Y61.48 E11.1583 F600         ; draw dl=3.4@10(0<10>0) de=0.212@0.59(0.0<0.62>0.0) l=0.30x0.50x1.00 r=1.06
;00:00:14.505: pe=0.7349 eb=0.0290 ve=0.0000 vn=0.4769 vl=0.000 db=0.54
G1 E8.9234 F2400                        ; retract de=-2.2349@-40.0 r=1.10
;00:00:14.561: pe=-1.5009 eb=0.0299 ve=-40.0000 vn=0.0000 vl=0.000 db=0.55
G1 Z0.500 F420                          ; hopup dz=0.20@7 h=0.5 r=0.86
;00:00:14.589: pe=-1.5009 eb=0.0299 ve=0.0000 vn=0.0000 vl=0.000 db=0.43
G1 X-69.50 Y63.23 F6000                 ; move dl=1.8@100(0<21>0) de=0.000@0.0(0.0<0.0>0.0) l=0.50x0.50x0.00 r=0.00
;00:00:14.715: pe=-1.5009 eb=0.0000 ve=0.0000 vn=0.0000 vl=0.000 db=0.00
G1 Z0.300 F420                          ; hopdn dz=-0.20@7 h=0.3 r=0.00
;00:00:14.743: pe=-1.5009 eb=0.0000 ve=0.0000 vn=0.0000 vl=0.000 db=0.00
G1 E11.1880 F1800                       ; restore de=2.2646@30.0 r=0.74
;00:00:14.819: pe=0.7504 eb=0.0133 ve=30.0000 vn=0.9549 vl=0.000 db=0.37
G1 X-69.25 Y63.53 E11.2123 F600         ; draw dl=0.4@10(0<10>10) de=0.024@0.5(0.0<0.62>0.62) l=0.30x0.50x1.00 r=1.38
;00:00:14.868: pe=0.7412 eb=0.0235 ve=0.6237 vn=0.6272 vl=10.000 db=0.49
G1 X-69.02 Y63.75 E11.2322              ; draw dl=0.3@10(10<10>10) de=0.020@0.62(0.62<0.62>0.62) l=0.30x0.50x1.00 r=1.00
;00:00:14.900: pe=0.7412 eb=0.0238 ve=0.6237 vn=0.6198 vl=10.000 db=0.49
G1 X-68.80 Y63.88 E11.2481              ; draw dl=0.3@10(10<10>10) de=0.016@0.62(0.62<0.62>0.62) l=0.30x0.50x1.00 r=0.99
;00:00:14.925: pe=0.7413 eb=0.0239 ve=0.6237 vn=0.6181 vl=10.000 db=0.49
G1 X-68.60 Y63.93 E11.2610              ; draw dl=0.2@10(10<10>10) de=0.013@0.62(0.62<0.62>0.62) l=0.30x0.50x1.00 r=0.99
;00:00:14.946: pe=0.7415 eb=0.0239 ve=0.6237 vn=0.6177 vl=10.000 db=0.49
G1 X-68.41 Y63.95 E11.2729              ; draw dl=0.2@10(10<10>10) de=0.012@0.62(0.62<0.62>0.62) l=0.30x0.50x1.00 r=0.99
;00:00:14.965: pe=0.7416 eb=0.0240 ve=0.6237 vn=0.6175 vl=10.000 db=0.49
G1 X-68.09 Y63.88 E11.2933              ; draw dl=0.3@10(10<10>10) de=0.020@0.62(0.62<0.62>0.62) l=0.30x0.50x1.00 r=0.99
;00:00:14.998: pe=0.7418 eb=0.0240 ve=0.6237 vn=0.6175 vl=10.000 db=0.49
G1 X-67.86 Y63.71 E11.3111              ; draw dl=0.3@10(10<10>10) de=0.018@0.62(0.62<0.62>0.62) l=0.30x0.50x1.00 r=0.99
;00:00:15.026: pe=0.7419 eb=0.0240 ve=0.6237 vn=0.6177 vl=10.000 db=0.49
G1 X-67.76 Y63.51 E11.3251              ; draw dl=0.2@10(10<10>10) de=0.014@0.62(0.62<0.62>0.62) l=0.30x0.50x1.00 r=0.99
;00:00:15.049: pe=0.7421 eb=0.0240 ve=0.6236 vn=0.6177 vl=10.000 db=0.49
G1 X-67.67 Y63.08 E11.3525              ; draw dl=0.4@10(10<10>10) de=0.027@0.62(0.62<0.62>0.62) l=0.30x0.50x1.00 r=0.99
;00:00:15.093: pe=0.7423 eb=0.0240 ve=0.6236 vn=0.6179 vl=10.000 db=0.50
G1 X-67.67 Y61.48 E11.4523              ; draw dl=1.6@10(10<10>0) de=0.100@0.59(0.62<0.62>0.0) l=0.30x0.50x1.00 r=1.04
;00:00:15.263: pe=0.7379 eb=0.0292 ve=0.0000 vn=0.4792 vl=0.000 db=0.55
G1 E9.2143 F2400                        ; retract de=-2.2379@-40.0 r=1.11
;00:00:15.319: pe=-1.5009 eb=0.0301 ve=-40.0000 vn=0.0000 vl=0.000 db=0.55
G1 Z0.500 F420                          ; hopup dz=0.20@7 h=0.5 r=0.86
;00:00:15.347: pe=-1.5009 eb=0.0301 ve=0.0000 vn=0.0000 vl=0.000 db=0.43
G1 X-66.61 Y63.26 F6000                 ; move dl=2.1@100(0<23>0) de=0.000@0.0(0.0<0.0>0.0) l=0.50x0.50x0.00 r=0.00
;00:00:15.484: pe=-1.5009 eb=0.0000 ve=0.0000 vn=0.0000 vl=0.000 db=0.00
G1 Z0.300 F420                          ; hopdn dz=-0.20@7 h=0.3 r=0.00
;00:00:15.512: pe=-1.5009 eb=0.0000 ve=0.0000 vn=0.0000 vl=0.000 db=0.00
G1 E11.4628 F1800                       ; restore de=2.2484@30.0 r=0.72
;00:00:15.587: pe=0.7348 eb=0.0128 ve=30.0000 vn=0.9342 vl=0.000 db=0.36
G1 X-64.92 Y63.26 E11.5682 F600         ; draw dl=1.7@10(0<10>0) de=0.105@0.56(0.0<0.62>0.0) l=0.30x0.50x1.00 r=1.11
;00:00:15.776: pe=0.7233 eb=0.0281 ve=0.0000 vn=0.4681 vl=0.000 db=0.54
G1 E9.3449 F2400                        ; retract de=-2.2233@-40.0 r=1.09
;00:00:15.832: pe=-1.5008 eb=0.0290 ve=-40.0000 vn=0.0000 vl=0.000 db=0.54
G1 Z0.500 F420                          ; hopup dz=0.20@7 h=0.5 r=0.84
;00:00:15.861: pe=-1.5008 eb=0.0290 ve=0.0000 vn=0.0000 vl=0.000 db=0.42
G1 X-64.92 Y62.55 F6000                 ; move dl=0.7@100(0<13>0) de=0.000@0.0(0.0<0.0>0.0) l=0.50x0.50x0.00 r=0.00
;00:00:15.940: pe=-1.5008 eb=0.0000 ve=0.0000 vn=0.0000 vl=0.000 db=0.00
G1 Z0.300 F420                          ; hopdn dz=-0.20@7 h=0.3 r=0.00
;00:00:15.969: pe=-1.5008 eb=0.0000 ve=0.0000 vn=0.0000 vl=0.000 db=0.00
G1 E11.5933 F1800                       ; restore de=2.2484@30.0 r=0.72
;00:00:16.044: pe=0.7348 eb=0.0128 ve=30.0000 vn=0.9342 vl=0.000 db=0.36
G1 X-66.61 Y62.55 E11.6987 F600         ; draw dl=1.7@10(0<10>0) de=0.105@0.56(0.0<0.62>0.0) l=0.30x0.50x1.00 r=1.11
;00:00:16.233: pe=0.7233 eb=0.0281 ve=0.0000 vn=0.4681 vl=0.000 db=0.54
G1 E9.4754 F2400                        ; retract de=-2.2233@-40.0 r=1.09
;00:00:16.289: pe=-1.5008 eb=0.0290 ve=-40.0000 vn=0.0000 vl=0.000 db=0.54
G1 Z0.500 F420                          ; hopup dz=0.20@7 h=0.5 r=0.84
;00:00:16.317: pe=-1.5008 eb=0.0290 ve=0.0000 vn=0.0000 vl=0.000 db=0.42
G1 X-62.64 Y64.94 F6000                 ; move dl=4.6@100(0<34>0) de=0.000@0.0(0.0<0.0>0.0) l=0.50x0.50x0.00 r=0.00
;00:00:16.521: pe=-1.5008 eb=0.0000 ve=0.0000 vn=0.0000 vl=0.000 db=0.00
G1 Z0.300 F420                          ; hopdn dz=-0.20@7 h=0.3 r=0.00
;00:00:16.550: pe=-1.5008 eb=0.0000 ve=0.0000 vn=0.0000 vl=0.000 db=0.00
G1 E11.7458 F1800                       ; restore de=2.2704@30.0 r=0.74
;00:00:16.626: pe=0.7560 eb=0.0135 ve=30.0000 vn=0.9621 vl=0.000 db=0.37
G1 X-62.13 Y64.80 E11.7788 F600         ; draw dl=0.5@10(0<10>10) de=0.033@0.52(0.0<0.62>0.62) l=0.30x0.50x1.00 r=1.29
;00:00:16.688: pe=0.7464 eb=0.0241 ve=0.6237 vn=0.6273 vl=10.000 db=0.50
G1 X-61.74 Y64.42 E11.8127              ; draw dl=0.5@10(10<10>10) de=0.034@0.62(0.62<0.62>0.62) l=0.30x0.50x1.00 r=1.00
;00:00:16.743: pe=0.7464 eb=0.0243 ve=0.6237 vn=0.6219 vl=10.000 db=0.50
G1 X-61.50 Y63.86 E11.8507              ; draw dl=0.6@10(10<10>10) de=0.038@0.62(0.62<0.62>0.62) l=0.30x0.50x1.00 r=1.00
;00:00:16.804: pe=0.7465 eb=0.0243 ve=0.6237 vn=0.6214 vl=10.000 db=0.50
G1 X-61.42 Y63.18 E11.8934              ; draw dl=0.7@10(10<10>10) de=0.043@0.62(0.62<0.62>0.62) l=0.30x0.50x1.00 r=1.00
;00:00:16.872: pe=0.7467 eb=0.0243 ve=0.6237 vn=0.6214 vl=10.000 db=0.50
G1 X-61.50 Y62.51 E11.9355              ; draw dl=0.7@10(10<10>10) de=0.042@0.62(0.62<0.62>0.62) l=0.30x0.50x1.00 r=1.00
;00:00:16.940: pe=0.7468 eb=0.0243 ve=0.6237 vn=0.6215 vl=10.000 db=0.50
G1 X-61.74 Y61.95 E11.9735              ; draw dl=0.6@10(10<10>10) de=0.038@0.62(0.62<0.62>0.62) l=0.30x0.50x1.00 r=1.00
;00:00:17.001: pe=0.7470 eb=0.0243 ve=0.6237 vn=0.6216 vl=10.000 db=0.50
G1 X-62.13 Y61.56 E12.0079              ; draw dl=0.6@10(10<10>10) de=0.034@0.62(0.62<0.62>0.62) l=0.30x0.50x1.00 r=1.00
;00:00:17.056: pe=0.7471 eb=0.0243 ve=0.6237 vn=0.6217 vl=10.000 db=0.50
G1 X-62.64 Y61.42 E12.0409              ; draw dl=0.5@10(10<10>10) de=0.033@0.62(0.62<0.62>0.62) l=0.30x0.50x1.00 r=1.00
;00:00:17.109: pe=0.7472 eb=0.0243 ve=0.6237 vn=0.6218 vl=10.000 db=0.50
G1 X-63.16 Y61.56 E12.0745              ; draw dl=0.5@10(10<10>10) de=0.034@0.62(0.62<0.62>0.62) l=0.30x0.50x1.00 r=1.00
;00:00:17.163: pe=0.7473 eb=0.0243 ve=0.6237 vn=0.6219 vl=10.000 db=0.50
G1 X-63.54 Y61.95 E12.1084              ; draw dl=0.5@10(10<10>10) de=0.034@0.62(0.62<0.62>0.62) l=0.30x0.50x1.00 r=1.00
;00:00:17.217: pe=0.7474 eb=0.0244 ve=0.6237 vn=0.6220 vl=10.000 db=0.50
G1 X-63.78 Y62.51 E12.1464              ; draw dl=0.6@10(10<10>10) de=0.038@0.62(0.62<0.62>0.62) l=0.30x0.50x1.00 r=1.00
;00:00:17.278: pe=0.7475 eb=0.0244 ve=0.6237 vn=0.6220 vl=10.000 db=0.50
G1 X-63.86 Y63.18 E12.1885              ; draw dl=0.7@10(10<10>10) de=0.042@0.62(0.62<0.62>0.62) l=0.30x0.50x1.00 r=1.00
;00:00:17.345: pe=0.7476 eb=0.0244 ve=0.6237 vn=0.6221 vl=10.000 db=0.50
G1 X-63.78 Y63.85 E12.2306              ; draw dl=0.7@10(10<10>10) de=0.042@0.62(0.62<0.62>0.62) l=0.30x0.50x1.00 r=1.00
;00:00:17.413: pe=0.7477 eb=0.0244 ve=0.6237 vn=0.6222 vl=10.000 db=0.50
G1 X-63.54 Y64.42 E12.2691              ; draw dl=0.6@10(10<10>10) de=0.039@0.62(0.62<0.62>0.62) l=0.30x0.50x1.00 r=1.00
;00:00:17.475: pe=0.7478 eb=0.0244 ve=0.6237 vn=0.6223 vl=10.000 db=0.50
G1 X-63.16 Y64.80 E12.3027              ; draw dl=0.5@10(10<10>10) de=0.034@0.62(0.62<0.62>0.62) l=0.30x0.50x1.00 r=1.00
;00:00:17.529: pe=0.7478 eb=0.0244 ve=0.6236 vn=0.6223 vl=10.000 db=0.50
G1 X-62.64 Y64.94 E12.3362              ; draw dl=0.5@10(10<10>0) de=0.034@0.53(0.62<0.62>0.0) l=0.30x0.50x1.00 r=1.16
;00:00:17.592: pe=0.7426 eb=0.0296 ve=0.0000 vn=0.4828 vl=0.000 db=0.55
G1 E10.0936 F2400                       ; retract de=-2.2426@-40.0 r=1.12
;00:00:17.648: pe=-1.5009 eb=0.0305 ve=-40.0000 vn=0.0000 vl=0.000 db=0.56
G1 Z0.500 F420                          ; hopup dz=0.20@7 h=0.5 r=0.86
;00:00:17.677: pe=-1.5009 eb=0.0305 ve=0.0000 vn=0.0000 vl=0.000 db=0.43
G1 X-60.36 Y61.71 F6000                 ; move dl=4.0@100(0<31>0) de=0.000@0.0(0.0<0.0>0.0) l=0.50x0.50x0.00 r=0.00
;00:00:17.866: pe=-1.5009 eb=0.0000 ve=0.0000 vn=0.0000 vl=0.000 db=0.00
G1 Z0.300 F420                          ; hopdn dz=-0.20@7 h=0.3 r=0.00
;00:00:17.894: pe=-1.5009 eb=0.0000 ve=0.0000 vn=0.0000 vl=0.000 db=0.00
G1 E12.1835 F1800                       ; restore de=2.0898@30.0 r=0.57
;00:00:17.964: pe=0.5809 eb=0.0081 ve=30.0000 vn=0.7347 vl=0.000 db=0.29
G1 X-60.36 Y61.65 E12.1872 F600         ; draw dl=0.1@10(0<4>0) de=0.004@0.16(0.0<0.24>0.0) l=0.30x0.50x1.00 r=3.26
;00:00:17.987: pe=0.5724 eb=0.0175 ve=0.0000 vn=0.3747 vl=0.000 db=0.42
G1 E10.1148 F2400                       ; retract de=-2.0724@-40.0 r=0.86
;00:00:18.039: pe=-1.5005 eb=0.0180 ve=-40.0000 vn=0.0000 vl=0.000 db=0.43
G1 Z0.500 F420                          ; hopup dz=0.20@7 h=0.5 r=0.66
;00:00:18.068: pe=-1.5005 eb=0.0180 ve=0.0000 vn=0.0000 vl=0.000 db=0.33
G1 X-59.24 Y64.13 F6000                 ; move dl=2.7@100(0<26>0) de=0.000@0.0(0.0<0.0>0.0) l=0.50x0.50x0.00 r=0.00
;00:00:18.224: pe=-1.5005 eb=0.0000 ve=0.0000 vn=0.0000 vl=0.000 db=0.00
G1 Z0.300 F420                          ; hopdn dz=-0.20@7 h=0.3 r=0.00
;00:00:18.253: pe=-1.5005 eb=0.0000 ve=0.0000 vn=0.0000 vl=0.000 db=0.00
G1 E12.3833 F1800                       ; restore de=2.2685@30.0 r=0.74
;00:00:18.328: pe=0.7545 eb=0.0134 ve=30.0000 vn=0.9602 vl=0.000 db=0.37
G1 X-59.13 Y64.47 E12.4055 F600         ; draw dl=0.4@10(0<10>10) de=0.022@0.49(0.0<0.62>0.62) l=0.30x0.50x1.00 r=1.42
;00:00:18.374: pe=0.7451 eb=0.0237 ve=0.6237 vn=0.6323 vl=10.000 db=0.49
G1 X-58.92 Y64.73 E12.4264              ; draw dl=0.3@10(10<10>10) de=0.021@0.62(0.62<0.62>0.62) l=0.30x0.50x1.00 r=1.01
;00:00:18.407: pe=0.7450 eb=0.0241 ve=0.6237 vn=0.6231 vl=10.000 db=0.50
G1 X-58.63 Y64.89 E12.4470              ; draw dl=0.3@10(10<10>10) de=0.021@0.62(0.62<0.62>0.62) l=0.30x0.50x1.00 r=1.00
;00:00:18.440: pe=0.7450 eb=0.0242 ve=0.6237 vn=0.6209 vl=10.000 db=0.50
G1 X-58.29 Y64.94 E12.4685              ; draw dl=0.3@10(10<10>10) de=0.021@0.62(0.62<0.62>0.62) l=0.30x0.50x1.00 r=1.00
;00:00:18.475: pe=0.7452 eb=0.0242 ve=0.6237 vn=0.6204 vl=10.000 db=0.50
G1 X-57.90 Y64.87 E12.4932              ; draw dl=0.4@10(10<10>10) de=0.025@0.62(0.62<0.62>0.62) l=0.30x0.50x1.00 r=0.99
;00:00:18.514: pe=0.7453 eb=0.0242 ve=0.6237 vn=0.6203 vl=10.000 db=0.50
G1 X-57.61 Y64.68 E12.5148              ; draw dl=0.3@10(10<10>10) de=0.022@0.62(0.62<0.62>0.62) l=0.30x0.50x1.00 r=0.99
;00:00:18.549: pe=0.7454 eb=0.0242 ve=0.6237 vn=0.6204 vl=10.000 db=0.50
G1 X-57.43 Y64.41 E12.5351              ; draw dl=0.3@10(10<10>10) de=0.020@0.62(0.62<0.62>0.62) l=0.30x0.50x1.00 r=0.99
;00:00:18.582: pe=0.7455 eb=0.0242 ve=0.6237 vn=0.6205 vl=10.000 db=0.50
G1 X-57.36 Y64.06 E12.5573              ; draw dl=0.4@10(10<10>10) de=0.022@0.62(0.62<0.62>0.62) l=0.30x0.50x1.00 r=1.00
;00:00:18.617: pe=0.7456 eb=0.0242 ve=0.6237 vn=0.6206 vl=10.000 db=0.50
G1 X-57.43 Y63.85 E12.5711              ; draw dl=0.2@10(10<10>10) de=0.014@0.62(0.62<0.62>0.62) l=0.30x0.50x1.00 r=1.00
;00:00:18.639: pe=0.7457 eb=0.0242 ve=0.6237 vn=0.6206 vl=10.000 db=0.50
G1 X-57.57 Y63.68 E12.5849              ; draw dl=0.2@10(10<10>10) de=0.014@0.62(0.62<0.62>0.62) l=0.30x0.50x1.00 r=1.00
;00:00:18.661: pe=0.7458 eb=0.0242 ve=0.6237 vn=0.6207 vl=10.000 db=0.50
G1 X-57.94 Y63.45 E12.6120              ; draw dl=0.4@10(10<10>10) de=0.027@0.62(0.62<0.62>0.62) l=0.30x0.50x1.00 r=1.00
;00:00:18.705: pe=0.7459 eb=0.0243 ve=0.6237 vn=0.6208 vl=10.000 db=0.50
G1 X-58.38 Y63.30 E12.6410              ; draw dl=0.5@10(10<10>5) de=0.029@0.59(0.62<0.62>0.28) l=0.30x0.50x1.00 r=1.05
;00:00:18.754: pe=0.7443 eb=0.0259 ve=0.2839 vn=0.5751 vl=4.552 db=0.51
G1 X-57.94 Y63.18 E12.6695              ; draw dl=0.5@10(5<10>10) de=0.028@0.59(0.28<0.62>0.62) l=0.30x0.50x1.00 r=0.99
;00:00:18.803: pe=0.7447 eb=0.0248 ve=0.6237 vn=0.6048 vl=10.000 db=0.50
G1 X-57.58 Y63.02 E12.6940              ; draw dl=0.4@10(10<10>10) de=0.025@0.62(0.62<0.62>0.62) l=0.30x0.50x1.00 r=0.98
;00:00:18.842: pe=0.7452 eb=0.0243 ve=0.6237 vn=0.6172 vl=10.000 db=0.50
G1 X-57.29 Y62.74 E12.7192              ; draw dl=0.4@10(10<10>10) de=0.025@0.62(0.62<0.62>0.62) l=0.30x0.50x1.00 r=0.99
;00:00:18.883: pe=0.7454 eb=0.0242 ve=0.6236 vn=0.6198 vl=10.000 db=0.50
G1 X-57.19 Y62.45 E12.7383              ; draw dl=0.3@10(10<10>10) de=0.019@0.62(0.62<0.62>0.62) l=0.30x0.50x1.00 r=0.99
;00:00:18.913: pe=0.7455 eb=0.0242 ve=0.6237 vn=0.6203 vl=10.000 db=0.50
G1 X-57.26 Y62.03 E12.7649              ; draw dl=0.4@10(10<10>10) de=0.027@0.62(0.62<0.62>0.62) l=0.30x0.50x1.00 r=0.99
;00:00:18.956: pe=0.7456 eb=0.0242 ve=0.6237 vn=0.6205 vl=10.000 db=0.50
G1 X-57.49 Y61.70 E12.7899              ; draw dl=0.4@10(10<10>10) de=0.025@0.62(0.62<0.62>0.62) l=0.30x0.50x1.00 r=1.00
;00:00:18.996: pe=0.7457 eb=0.0242 ve=0.6237 vn=0.6207 vl=10.000 db=0.50
G1 X-57.83 Y61.50 E12.8145              ; draw dl=0.4@10(10<10>10) de=0.025@0.62(0.62<0.62>0.62) l=0.30x0.50x1.00 r=1.00
;00:00:19.036: pe=0.7459 eb=0.0243 ve=0.6237 vn=0.6208 vl=10.000 db=0.50
G1 X-58.25 Y61.42 E12.8412              ; draw dl=0.4@10(10<10>10) de=0.027@0.62(0.62<0.62>0.62) l=0.30x0.50x1.00 r=1.00
;00:00:19.078: pe=0.7460 eb=0.0243 ve=0.6237 vn=0.6209 vl=10.000 db=0.50
G1 X-58.65 Y61.48 E12.8664              ; draw dl=0.4@10(10<10>10) de=0.025@0.62(0.62<0.62>0.62) l=0.30x0.50x1.00 r=1.00
;00:00:19.119: pe=0.7461 eb=0.0243 ve=0.6237 vn=0.6209 vl=10.000 db=0.50
G1 X-58.97 Y61.65 E12.8890              ; draw dl=0.4@10(10<10>10) de=0.023@0.62(0.62<0.62>0.62) l=0.30x0.50x1.00 r=1.00
;00:00:19.155: pe=0.7462 eb=0.0243 ve=0.6237 vn=0.6210 vl=10.000 db=0.50
G1 X-59.19 Y61.92 E12.9108              ; draw dl=0.3@10(10<10>10) de=0.022@0.62(0.62<0.62>0.62) l=0.30x0.50x1.00 r=1.00
;00:00:19.190: pe=0.7463 eb=0.0243 ve=0.6237 vn=0.6211 vl=10.000 db=0.50
G1 X-59.29 Y62.28 E12.9341              ; draw dl=0.4@10(10<10>0) de=0.023@0.49(0.62<0.62>0.0) l=0.30x0.50x1.00 r=1.22
;00:00:19.237: pe=0.7411 eb=0.0295 ve=0.0000 vn=0.4816 vl=0.000 db=0.55
G1 E10.6930 F2400                       ; retract de=-2.2411@-40.0 r=1.11
;00:00:19.293: pe=-1.5009 eb=0.0303 ve=-40.0000 vn=0.0000 vl=0.000 db=0.56
G1 Z0.500 F420                          ; hopup dz=0.20@7 h=0.5 r=0.86
;00:00:19.322: pe=-1.5009 eb=0.0303 ve=0.0000 vn=0.0000 vl=0.000 db=0.43
G1 X-67.52 Y59.88 F6000                 ; move dl=8.6@100(0<46>0) de=0.000@0.0(0.0<0.0>0.0) l=0.50x0.50x0.00 r=0.00
;00:00:19.600: pe=-1.5009 eb=0.0000 ve=0.0000 vn=0.0000 vl=0.000 db=0.00
G1 Z0.300 F420                          ; hopdn dz=-0.20@7 h=0.3 r=0.00
;00:00:19.628: pe=-1.5009 eb=0.0000 ve=0.0000 vn=0.0000 vl=0.000 db=0.00
G1 E12.9540 F1800                       ; restore de=2.2610@30.0 r=0.73
;00:00:19.704: pe=0.7469 eb=0.0132 ve=30.0000 vn=0.9503 vl=0.000 db=0.37
G1 X-67.52 Y56.48 E13.1660 F600         ; draw dl=3.4@10(0<10>0) de=0.212@0.59(0.0<0.62>0.0) l=0.30x0.50x1.00 r=1.06
;00:00:20.064: pe=0.7349 eb=0.0290 ve=0.0000 vn=0.4769 vl=0.000 db=0.54
G1 E10.9311 F2400                       ; retract de=-2.2349@-40.0 r=1.10
;00:00:20.119: pe=-1.5009 eb=0.0299 ve=-40.0000 vn=0.0000 vl=0.000 db=0.55
G1 Z0.500 F420                          ; hopup dz=0.20@7 h=0.5 r=0.86
;00:00:20.148: pe=-1.5009 eb=0.0299 ve=0.0000 vn=0.0000 vl=0.000 db=0.43
G1 X-67.52 Y56.98 F6000                 ; move dl=0.5@100(0<11>0) de=0.000@0.0(0.0<0.0>0.0) l=0.50x0.50x0.00 r=0.00
;00:00:20.215: pe=-1.5009 eb=0.0018 ve=0.0000 vn=0.0000 vl=0.000 db=0.11
G1 Z0.300 F420                          ; hopdn dz=-0.20@7 h=0.3 r=0.27
;00:00:20.244: pe=-1.5009 eb=0.0018 ve=0.0000 vn=0.0000 vl=0.000 db=0.14
G1 E13.1994 F1800                       ; restore de=2.2683@30.0 r=0.75
;00:00:20.319: pe=0.7555 eb=0.0138 ve=30.0000 vn=0.9512 vl=0.000 db=0.38
G1 X-67.77 Y56.74 E13.2210 F600         ; draw dl=0.3@10(0<10>10) de=0.022@0.48(0.0<0.62>0.62) l=0.30x0.50x1.00 r=1.43
;00:00:20.364: pe=0.7462 eb=0.0238 ve=0.6237 vn=0.6326 vl=10.000 db=0.49
G1 X-68.16 Y56.49 E13.2499              ; draw dl=0.5@10(10<10>10) de=0.029@0.62(0.62<0.62>0.62) l=0.30x0.50x1.00 r=1.00
;00:00:20.410: pe=0.7461 eb=0.0242 ve=0.6237 vn=0.6227 vl=10.000 db=0.50
G1 X-68.54 Y56.42 E13.2740              ; draw dl=0.4@10(10<10>10) de=0.024@0.62(0.62<0.62>0.62) l=0.30x0.50x1.00 r=1.00
;00:00:20.449: pe=0.7461 eb=0.0243 ve=0.6237 vn=0.6213 vl=10.000 db=0.50
G1 X-68.92 Y56.51 E13.2984              ; draw dl=0.4@10(10<10>10) de=0.024@0.62(0.62<0.62>0.62) l=0.30x0.50x1.00 r=1.00
;00:00:20.488: pe=0.7462 eb=0.0243 ve=0.6237 vn=0.6211 vl=10.000 db=0.50
G1 X-69.22 Y56.77 E13.3231              ; draw dl=0.4@10(10<10>10) de=0.025@0.62(0.62<0.62>0.62) l=0.30x0.50x1.00 r=1.00
;00:00:20.528: pe=0.7463 eb=0.0243 ve=0.6237 vn=0.6212 vl=10.000 db=0.50
G1 X-69.43 Y57.18 E13.3519              ; draw dl=0.5@10(10<10>10) de=0.029@0.62(0.62<0.62>0.62) l=0.30x0.50x1.00 r=1.00
;00:00:20.574: pe=0.7465 eb=0.0243 ve=0.6237 vn=0.6212 vl=10.000 db=0.50
G1 X-69.50 Y57.71 E13.3852              ; draw dl=0.5@10(10<10>10) de=0.033@0.62(0.62<0.62>0.62) l=0.30x0.50x1.00 r=1.00
;00:00:20.627: pe=0.7466 eb=0.0243 ve=0.6237 vn=0.6213 vl=10.000 db=0.50
G1 X-69.44 Y58.22 E13.4172              ; draw dl=0.5@10(10<10>10) de=0.032@0.62(0.62<0.62>0.62) l=0.30x0.50x1.00 r=1.00
;00:00:20.679: pe=0.7467 eb=0.0243 ve=0.6237 vn=0.6214 vl=10.000 db=0.50
G1 X-69.26 Y58.61 E13.4440              ; draw dl=0.4@10(10<10>10) de=0.027@0.62(0.62<0.62>0.62) l=0.30x0.50x1.00 r=1.00
;00:00:20.721: pe=0.7468 eb=0.0243 ve=0.6237 vn=0.6215 vl=10.000 db=0.50
G1 X-68.97 Y58.86 E13.4679              ; draw dl=0.4@10(10<10>10) de=0.024@0.62(0.62<0.62>0.62) l=0.30x0.50x1.00 r=1.00
;00:00:20.760: pe=0.7469 eb=0.0243 ve=0.6237 vn=0.6216 vl=10.000 db=0.50
G1 X-68.57 Y58.95 E13.4935              ; draw dl=0.4@10(10<10>10) de=0.026@0.62(0.62<0.62>0.62) l=0.30x0.50x1.00 r=1.00
;00:00:20.801: pe=0.7470 eb=0.0243 ve=0.6237 vn=0.6216 vl=10.000 db=0.50
G1 X-68.38 Y58.93 E13.5054              ; draw dl=0.2@10(10<10>10) de=0.012@0.62(0.62<0.62>0.62) l=0.30x0.50x1.00 r=1.00
;00:00:20.820: pe=0.7470 eb=0.0243 ve=0.6237 vn=0.6217 vl=10.000 db=0.50
G1 X-68.18 Y58.85 E13.5188              ; draw dl=0.2@10(10<10>10) de=0.013@0.62(0.62<0.62>0.62) l=0.30x0.50x1.00 r=1.00
;00:00:20.841: pe=0.7470 eb=0.0243 ve=0.6237 vn=0.6217 vl=10.000 db=0.50
G1 X-67.97 Y58.72 E13.5342              ; draw dl=0.2@10(10<10>10) de=0.015@0.62(0.62<0.62>0.62) l=0.30x0.50x1.00 r=1.00
;00:00:20.866: pe=0.7471 eb=0.0243 ve=0.6236 vn=0.6217 vl=10.000 db=0.50
G1 X-67.77 Y58.50 E13.5528              ; draw dl=0.3@10(10<10>10) de=0.019@0.62(0.62<0.62>0.62) l=0.30x0.50x1.00 r=1.00
;00:00:20.896: pe=0.7471 eb=0.0243 ve=0.6236 vn=0.6218 vl=10.000 db=0.50
G1 X-67.52 Y58.03 E13.5860              ; draw dl=0.5@10(10<10>0) de=0.033@0.53(0.62<0.62>0.0) l=0.30x0.50x1.00 r=1.16
;00:00:20.959: pe=0.7419 eb=0.0295 ve=0.0000 vn=0.4823 vl=0.000 db=0.55
G1 E11.3440 F2400                       ; retract de=-2.2419@-40.0 r=1.11
;00:00:21.015: pe=-1.5009 eb=0.0304 ve=-40.0000 vn=0.0000 vl=0.000 db=0.56
G1 Z0.500 F420                          ; hopup dz=0.20@7 h=0.5 r=0.86
;00:00:21.044: pe=-1.5009 eb=0.0304 ve=0.0000 vn=0.0000 vl=0.000 db=0.43
G1 X-66.46 Y58.89 F6000                 ; move dl=1.4@100(0<18>0) de=0.000@0.0(0.0<0.0>0.0) l=0.50x0.50x0.00 r=0.00
;00:00:21.155: pe=-1.5009 eb=0.0000 ve=0.0000 vn=0.0000 vl=0.000 db=0.00
G1 Z0.300 F420                          ; hopdn dz=-0.20@7 h=0.3 r=0.00
;00:00:21.183: pe=-1.5009 eb=0.0000 ve=0.0000 vn=0.0000 vl=0.000 db=0.00
G1 E13.6017 F1800                       ; restore de=2.2577@30.0 r=0.73
;00:00:21.258: pe=0.7438 eb=0.0131 ve=30.0000 vn=0.9461 vl=0.000 db=0.37
G1 X-65.29 Y56.44 E13.7710 F600         ; draw dl=2.7@10(0<10>0) de=0.169@0.58(0.0<0.62>0.0) l=0.30x0.50x1.00 r=1.07
;00:00:21.550: pe=0.7319 eb=0.0288 ve=0.0000 vn=0.4746 vl=0.000 db=0.54
G1 E11.5392 F2400                       ; retract de=-2.2319@-40.0 r=1.10
;00:00:21.606: pe=-1.5008 eb=0.0296 ve=-40.0000 vn=0.0000 vl=0.000 db=0.55
G1 Z0.500 F420                          ; hopup dz=0.20@7 h=0.5 r=0.85
;00:00:21.634: pe=-1.5008 eb=0.0296 ve=0.0000 vn=0.0000 vl=0.000 db=0.43
G1 X-66.29 Y55.57 F6000                 ; move dl=1.3@100(0<18>0) de=0.000@0.0(0.0<0.0>0.0) l=0.50x0.50x0.00 r=0.00
;00:00:21.743: pe=-1.5008 eb=0.0000 ve=0.0000 vn=0.0000 vl=0.000 db=0.00
G1 Z0.300 F420                          ; hopdn dz=-0.20@7 h=0.3 r=0.00
;00:00:21.772: pe=-1.5008 eb=0.0000 ve=0.0000 vn=0.0000 vl=0.000 db=0.00
G1 E13.8049 F1800                       ; restore de=2.2658@30.0 r=0.74
;00:00:21.848: pe=0.7516 eb=0.0133 ve=30.0000 vn=0.9564 vl=0.000 db=0.37
G1 X-66.19 Y55.56 E13.8112 F600         ; draw dl=0.1@10(0<10>10) de=0.006@0.31(0.0<0.62>0.62) l=0.30x0.50x1.00 r=2.42
;00:00:21.868: pe=0.7427 eb=0.0227 ve=0.6236 vn=0.6528 vl=10.000 db=0.48
G1 X-66.10 Y55.56 E13.8168              ; draw dl=0.1@10(10<10>10) de=0.006@0.62(0.62<0.62>0.62) l=0.30x0.50x1.00 r=1.04
;00:00:21.877: pe=0.7425 eb=0.0231 ve=0.6236 vn=0.6417 vl=10.000 db=0.49
G1 X-65.84 Y55.62 E13.8334              ; draw dl=0.3@10(10<10>10) de=0.017@0.62(0.62<0.62>0.62) l=0.30x0.50x1.00 r=1.01
;00:00:21.903: pe=0.7422 eb=0.0237 ve=0.6236 vn=0.6257 vl=10.000 db=0.49
G1 X-65.63 Y55.78 E13.8499              ; draw dl=0.3@10(10<10>10) de=0.016@0.62(0.62<0.62>0.62) l=0.30x0.50x1.00 r=1.00
;00:00:21.930: pe=0.7422 eb=0.0239 ve=0.6236 vn=0.6205 vl=10.000 db=0.49
G1 X-65.45 Y56.06 E13.8706              ; draw dl=0.3@10(10<10>10) de=0.021@0.62(0.62<0.62>0.62) l=0.30x0.50x1.00 r=0.99
;00:00:21.963: pe=0.7424 eb=0.0240 ve=0.6236 vn=0.6187 vl=10.000 db=0.49
G1 X-65.29 Y56.44 E13.8964              ; draw dl=0.4@10(10<10>10) de=0.026@0.62(0.62<0.62>0.62) l=0.30x0.50x1.00 r=0.99
;00:00:22.004: pe=0.7426 eb=0.0240 ve=0.6236 vn=0.6183 vl=10.000 db=0.50
G1 X-64.41 Y58.89 E14.0587              ; draw dl=2.6@10(10<10>0) de=0.162@0.6(0.62<0.62>0.0) l=0.30x0.50x1.00 r=1.02
;00:00:22.275: pe=0.7386 eb=0.0293 ve=0.0000 vn=0.4797 vl=0.000 db=0.55
G1 E11.8201 F2400                       ; retract de=-2.2386@-40.0 r=1.11
;00:00:22.331: pe=-1.5009 eb=0.0301 ve=-40.0000 vn=0.0000 vl=0.000 db=0.55
G1 Z0.500 F420                          ; hopup dz=0.20@7 h=0.5 r=0.86
;00:00:22.359: pe=-1.5009 eb=0.0301 ve=0.0000 vn=0.0000 vl=0.000 db=0.43
G1 X-63.35 Y58.76 F6000                 ; move dl=1.1@100(0<16>0) de=0.000@0.0(0.0<0.0>0.0) l=0.50x0.50x0.00 r=0.00
;00:00:22.457: pe=-1.5009 eb=0.0000 ve=0.0000 vn=0.0000 vl=0.000 db=0.00
G1 Z0.300 F420                          ; hopdn dz=-0.20@7 h=0.3 r=0.00
;00:00:22.486: pe=-1.5009 eb=0.0000 ve=0.0000 vn=0.0000 vl=0.000 db=0.00
G1 E14.0747 F1800                       ; restore de=2.2546@30.0 r=0.73
;00:00:22.561: pe=0.7408 eb=0.0130 ve=30.0000 vn=0.9422 vl=0.000 db=0.36
G1 X-63.35 Y56.48 E14.2169 F600         ; draw dl=2.3@10(0<10>0) de=0.142@0.57(0.0<0.62>0.0) l=0.30x0.50x1.00 r=1.08
;00:00:22.809: pe=0.7291 eb=0.0286 ve=0.0000 vn=0.4725 vl=0.000 db=0.54
G1 E11.9878 F2400                       ; retract de=-2.2291@-40.0 r=1.10
;00:00:22.865: pe=-1.5008 eb=0.0294 ve=-40.0000 vn=0.0000 vl=0.000 db=0.55
G1 Z0.500 F420                          ; hopup dz=0.20@7 h=0.5 r=0.85
;00:00:22.893: pe=-1.5008 eb=0.0294 ve=0.0000 vn=0.0000 vl=0.000 db=0.42
G1 X-63.35 Y57.89 F6000                 ; move dl=1.4@100(0<19>0) de=0.000@0.0(0.0<0.0>0.0) l=0.50x0.50x0.00 r=0.00
;00:00:23.006: pe=-1.5008 eb=0.0000 ve=0.0000 vn=0.0000 vl=0.000 db=0.00
G1 Z0.300 F420                          ; hopdn dz=-0.20@7 h=0.3 r=0.00
;00:00:23.034: pe=-1.5008 eb=0.0000 ve=0.0000 vn=0.0000 vl=0.000 db=0.00
G1 E14.2527 F1800                       ; restore de=2.2648@30.0 r=0.74
;00:00:23.110: pe=0.7507 eb=0.0133 ve=30.0000 vn=0.9552 vl=0.000 db=0.37
G1 X-63.11 Y58.34 E14.2845 F600         ; draw dl=0.5@10(0<10>10) de=0.032@0.52(0.0<0.62>0.62) l=0.30x0.50x1.00 r=1.29
;00:00:23.171: pe=0.7414 eb=0.0237 ve=0.6236 vn=0.6234 vl=10.000 db=0.49
G1 X-62.92 Y58.67 E14.3082              ; draw dl=0.4@10(10<10>10) de=0.024@0.62(0.62<0.62>0.62) l=0.30x0.50x1.00 r=0.99
;00:00:23.209: pe=0.7415 eb=0.0239 ve=0.6236 vn=0.6186 vl=10.000 db=0.49
G1 X-62.70 Y58.86 E14.3263              ; draw dl=0.3@10(10<10>10) de=0.018@0.62(0.62<0.62>0.62) l=0.30x0.50x1.00 r=0.99
;00:00:23.238: pe=0.7416 eb=0.0240 ve=0.6236 vn=0.6178 vl=10.000 db=0.49
G1 X-62.49 Y58.93 E14.3401              ; draw dl=0.2@10(10<10>10) de=0.014@0.62(0.62<0.62>0.62) l=0.30x0.50x1.00 r=0.99
;00:00:23.260: pe=0.7418 eb=0.0240 ve=0.6236 vn=0.6177 vl=10.000 db=0.49
G1 X-62.28 Y58.95 E14.3533              ; draw dl=0.2@10(10<10>10) de=0.013@0.62(0.62<0.62>0.62) l=0.30x0.50x1.00 r=0.99
;00:00:23.281: pe=0.7419 eb=0.0240 ve=0.6236 vn=0.6177 vl=10.000 db=0.49
G1 X-61.95 Y58.88 E14.3743              ; draw dl=0.3@10(10<10>10) de=0.021@0.62(0.62<0.62>0.62) l=0.30x0.50x1.00 r=0.99
;00:00:23.315: pe=0.7421 eb=0.0240 ve=0.6236 vn=0.6178 vl=10.000 db=0.49
G1 X-61.77 Y58.73 E14.3889              ; draw dl=0.2@10(10<10>10) de=0.015@0.62(0.62<0.62>0.62) l=0.30x0.50x1.00 r=0.99
;00:00:23.338: pe=0.7422 eb=0.0240 ve=0.6236 vn=0.6179 vl=10.000 db=0.50
G1 X-61.67 Y58.40 E14.4104              ; draw dl=0.3@10(10<10>10) de=0.022@0.62(0.62<0.62>0.62) l=0.30x0.50x1.00 r=0.99
;00:00:23.373: pe=0.7424 eb=0.0240 ve=0.6236 vn=0.6180 vl=10.000 db=0.50
G1 X-61.61 Y58.08 E14.4307              ; draw dl=0.3@10(10<10>10) de=0.020@0.62(0.62<0.62>0.62) l=0.30x0.50x1.00 r=0.99
;00:00:23.405: pe=0.7426 eb=0.0240 ve=0.6236 vn=0.6182 vl=10.000 db=0.50
G1 X-61.61 Y56.48 E14.5305              ; draw dl=1.6@10(10<10>0) de=0.100@0.59(0.62<0.62>0.0) l=0.30x0.50x1.00 r=1.04
;00:00:23.575: pe=0.7382 eb=0.0292 ve=0.0000 vn=0.4794 vl=0.000 db=0.55
G1 E12.2924 F2400                       ; retract de=-2.2382@-40.0 r=1.11
;00:00:23.631: pe=-1.5009 eb=0.0301 ve=-40.0000 vn=0.0000 vl=0.000 db=0.55
G1 Z0.500 F420                          ; hopup dz=0.20@7 h=0.5 r=0.86
;00:00:23.660: pe=-1.5009 eb=0.0301 ve=0.0000 vn=0.0000 vl=0.000 db=0.43
G1 X-60.55 Y56.48 F6000                 ; move dl=1.1@100(0<16>0) de=0.000@0.0(0.0<0.0>0.0) l=0.50x0.50x0.00 r=0.00
;00:00:23.758: pe=-1.5009 eb=0.0000 ve=0.0000 vn=0.0000 vl=0.000 db=0.00
G1 Z0.300 F420                          ; hopdn dz=-0.20@7 h=0.3 r=0.00
;00:00:23.786: pe=-1.5009 eb=0.0000 ve=0.0000 vn=0.0000 vl=0.000 db=0.00
G1 E14.5481 F1800                       ; restore de=2.2557@30.0 r=0.73
;00:00:23.861: pe=0.7418 eb=0.0130 ve=30.0000 vn=0.9435 vl=0.000 db=0.36
G1 X-60.55 Y58.89 E14.6984 F600         ; draw dl=2.4@10(0<10>0) de=0.150@0.58(0.0<0.62>0.0) l=0.30x0.50x1.00 r=1.08
;00:00:24.122: pe=0.7301 eb=0.0286 ve=0.0000 vn=0.4732 vl=0.000 db=0.54
G1 E12.4683 F2400                       ; retract de=-2.2301@-40.0 r=1.10
;00:00:24.178: pe=-1.5008 eb=0.0295 ve=-40.0000 vn=0.0000 vl=0.000 db=0.55
G1 Z0.500 F420                          ; hopup dz=0.20@7 h=0.5 r=0.85
;00:00:24.207: pe=-1.5008 eb=0.0295 ve=0.0000 vn=0.0000 vl=0.000 db=0.42
G1 X-60.55 Y58.20 F6000                 ; move dl=0.7@100(0<13>0) de=0.000@0.0(0.0<0.0>0.0) l=0.50x0.50x0.00 r=0.00
;00:00:24.286: pe=-1.5008 eb=0.0000 ve=0.0000 vn=0.0000 vl=0.000 db=0.00
G1 Z0.300 F420                          ; hopdn dz=-0.20@7 h=0.3 r=0.00
;00:00:24.314: pe=-1.5008 eb=0.0000 ve=0.0000 vn=0.0000 vl=0.000 db=0.00
G1 E14.7219 F1800                       ; restore de=2.2536@30.0 r=0.73
;00:00:24.389: pe=0.7398 eb=0.0129 ve=30.0000 vn=0.9408 vl=0.000 db=0.36
G1 X-60.30 Y58.55 E14.7487 F600         ; draw dl=0.4@10(0<10>10) de=0.027@0.51(0.0<0.62>0.62) l=0.30x0.50x1.00 r=1.32
;00:00:24.442: pe=0.7311 eb=0.0230 ve=0.6236 vn=0.6167 vl=10.000 db=0.48
G1 X-60.09 Y58.76 E14.7672              ; draw dl=0.3@10(10<10>10) de=0.019@0.62(0.62<0.62>0.62) l=0.30x0.50x1.00 r=0.98
;00:00:24.472: pe=0.7314 eb=0.0232 ve=0.6236 vn=0.6114 vl=10.000 db=0.49
G1 X-59.89 Y58.88 E14.7818              ; draw dl=0.2@10(10<10>10) de=0.015@0.62(0.62<0.62>0.62) l=0.30x0.50x1.00 r=0.98
;00:00:24.495: pe=0.7317 eb=0.0233 ve=0.6237 vn=0.6103 vl=10.000 db=0.49
G1 X-59.70 Y58.94 E14.7942              ; draw dl=0.2@10(10<10>10) de=0.012@0.62(0.62<0.62>0.62) l=0.30x0.50x1.00 r=0.98
;00:00:24.515: pe=0.7320 eb=0.0233 ve=0.6236 vn=0.6100 vl=10.000 db=0.49
G1 X-59.54 Y58.95 E14.8042              ; draw dl=0.2@10(10<10>10) de=0.010@0.62(0.62<0.62>0.62) l=0.30x0.50x1.00 r=0.98
;00:00:24.531: pe=0.7322 eb=0.0233 ve=0.6237 vn=0.6100 vl=10.000 db=0.49
G1 X-59.49 Y58.95 E14.8073              ; draw dl=0.1@10(10<10>7) de=0.003@0.54(0.62<0.62>0.45) l=0.30x0.50x1.00 r=1.13
;00:00:24.537: pe=0.7318 eb=0.0238 ve=0.4453 vn=0.5966 vl=7.141 db=0.49
G1 X-59.44 Y58.94 E14.8105              ; draw dl=0.1@10(7<7>0) de=0.003@0.22(0.45<0.45>0.0) l=0.30x0.50x1.00 r=2.46
;00:00:24.551: pe=0.7271 eb=0.0284 ve=0.0000 vn=0.4711 vl=0.000 db=0.54
G1 E12.5833 F2400                       ; retract de=-2.2271@-40.0 r=1.09
;00:00:24.607: pe=-1.5008 eb=0.0293 ve=-40.0000 vn=0.0000 vl=0.000 db=0.55
G1 Z0.500 F420                          ; hopup dz=0.20@7 h=0.5 r=0.85
;00:00:24.636: pe=-1.5008 eb=0.0293 ve=0.0000 vn=0.0000 vl=0.000 db=0.42
G1 X-58.38 Y57.69 F6000                 ; move dl=1.6@100(0<20>0) de=0.000@0.0(0.0<0.0>0.0) l=0.50x0.50x0.00 r=0.00
;00:00:24.757: pe=-1.5008 eb=0.0000 ve=0.0000 vn=0.0000 vl=0.000 db=0.00
G1 Z0.300 F420                          ; hopdn dz=-0.20@7 h=0.3 r=0.00
;00:00:24.786: pe=-1.5008 eb=0.0000 ve=0.0000 vn=0.0000 vl=0.000 db=0.00
G1 E14.8534 F1800                       ; restore de=2.2700@30.0 r=0.74
;00:00:24.861: pe=0.7557 eb=0.0135 ve=30.0000 vn=0.9617 vl=0.000 db=0.37
G1 X-56.24 Y57.69 E14.9869 F600         ; draw dl=2.1@10(0<10>10) de=0.133@0.6(0.0<0.62>0.6) l=0.30x0.50x1.00 r=1.07
;00:00:25.085: pe=0.7464 eb=0.0243 ve=0.6039 vn=0.6210 vl=9.683 db=0.50
G1 X-56.32 Y58.22 E15.0203              ; draw dl=0.5@10(10<10>10) de=0.033@0.62(0.6<0.62>0.62) l=0.30x0.50x1.00 r=1.00
;00:00:25.139: pe=0.7465 eb=0.0243 ve=0.6237 vn=0.6212 vl=10.000 db=0.50
G1 X-56.53 Y58.61 E15.0479              ; draw dl=0.4@10(10<10>10) de=0.028@0.62(0.62<0.62>0.62) l=0.30x0.50x1.00 r=1.00
;00:00:25.183: pe=0.7466 eb=0.0243 ve=0.6236 vn=0.6214 vl=10.000 db=0.50
G1 X-56.87 Y58.86 E15.0742              ; draw dl=0.4@10(10<10>10) de=0.026@0.62(0.62<0.62>0.62) l=0.30x0.50x1.00 r=1.00
;00:00:25.225: pe=0.7467 eb=0.0243 ve=0.6236 vn=0.6214 vl=10.000 db=0.50
G1 X-57.31 Y58.95 E15.1022              ; draw dl=0.4@10(10<10>10) de=0.028@0.62(0.62<0.62>0.62) l=0.30x0.50x1.00 r=1.00
;00:00:25.270: pe=0.7468 eb=0.0243 ve=0.6237 vn=0.6215 vl=10.000 db=0.50
G1 X-57.74 Y58.86 E15.1296              ; draw dl=0.4@10(10<10>10) de=0.027@0.62(0.62<0.62>0.62) l=0.30x0.50x1.00 r=1.00
;00:00:25.314: pe=0.7469 eb=0.0243 ve=0.6236 vn=0.6216 vl=10.000 db=0.50
G1 X-58.08 Y58.61 E15.1560              ; draw dl=0.4@10(10<10>10) de=0.026@0.62(0.62<0.62>0.62) l=0.30x0.50x1.00 r=1.00
;00:00:25.356: pe=0.7470 eb=0.0243 ve=0.6236 vn=0.6217 vl=10.000 db=0.50
G1 X-58.30 Y58.22 E15.1839              ; draw dl=0.4@10(10<10>10) de=0.028@0.62(0.62<0.62>0.62) l=0.30x0.50x1.00 r=1.00
;00:00:25.401: pe=0.7471 eb=0.0243 ve=0.6236 vn=0.6217 vl=10.000 db=0.50
G1 X-58.38 Y57.69 E15.2173              ; draw dl=0.5@10(10<10>10) de=0.033@0.62(0.62<0.62>0.62) l=0.30x0.50x1.00 r=1.00
;00:00:25.455: pe=0.7472 eb=0.0243 ve=0.6237 vn=0.6218 vl=10.000 db=0.50
G1 X-58.30 Y57.15 E15.2513              ; draw dl=0.5@10(10<10>10) de=0.034@0.62(0.62<0.62>0.62) l=0.30x0.50x1.00 r=1.00
;00:00:25.509: pe=0.7473 eb=0.0243 ve=0.6237 vn=0.6219 vl=10.000 db=0.50
G1 X-58.07 Y56.75 E15.2801              ; draw dl=0.5@10(10<10>10) de=0.029@0.62(0.62<0.62>0.62) l=0.30x0.50x1.00 r=1.00
;00:00:25.556: pe=0.7473 eb=0.0243 ve=0.6237 vn=0.6219 vl=10.000 db=0.50
G1 X-57.72 Y56.51 E15.3066              ; draw dl=0.4@10(10<10>10) de=0.026@0.62(0.62<0.62>0.62) l=0.30x0.50x1.00 r=1.00
;00:00:25.598: pe=0.7474 eb=0.0244 ve=0.6237 vn=0.6220 vl=10.000 db=0.50
G1 X-57.26 Y56.42 E15.3358              ; draw dl=0.5@10(10<10>10) de=0.029@0.62(0.62<0.62>0.62) l=0.30x0.50x1.00 r=1.00
;00:00:25.645: pe=0.7475 eb=0.0244 ve=0.6237 vn=0.6221 vl=10.000 db=0.50
G1 X-56.92 Y56.47 E15.3573              ; draw dl=0.3@10(10<10>10) de=0.021@0.62(0.62<0.62>0.62) l=0.30x0.50x1.00 r=1.00
;00:00:25.679: pe=0.7475 eb=0.0244 ve=0.6236 vn=0.6221 vl=10.000 db=0.50
G1 X-56.63 Y56.61 E15.3773              ; draw dl=0.3@10(10<10>10) de=0.020@0.62(0.62<0.62>0.62) l=0.30x0.50x1.00 r=1.00
;00:00:25.711: pe=0.7476 eb=0.0244 ve=0.6236 vn=0.6221 vl=10.000 db=0.50
G1 X-56.42 Y56.83 E15.3963              ; draw dl=0.3@10(10<10>10) de=0.019@0.62(0.62<0.62>0.62) l=0.30x0.50x1.00 r=1.00
;00:00:25.742: pe=0.7476 eb=0.0244 ve=0.6236 vn=0.6222 vl=10.000 db=0.50
G1 X-56.30 Y57.13 E15.4165              ; draw dl=0.3@10(10<10>0) de=0.020@0.48(0.62<0.62>0.0) l=0.30x0.50x1.00 r=1.26
;00:00:25.784: pe=0.7424 eb=0.0296 ve=0.0000 vn=0.4826 vl=0.000 db=0.55
G1 E13.1741 F2400                       ; retract de=-2.2424@-40.0 r=1.11
;00:00:25.840: pe=-1.5009 eb=0.0304 ve=-40.0000 vn=0.0000 vl=0.000 db=0.56
G1 Z0.500 F420                          ; hopup dz=0.20@7 h=0.5 r=0.86
;00:00:25.869: pe=-1.5009 eb=0.0304 ve=0.0000 vn=0.0000 vl=0.000 db=0.43
G1 X-53.99 Y56.46 F6000                 ; move dl=2.4@100(0<25>0) de=0.000@0.0(0.0<0.0>0.0) l=0.50x0.50x0.00 r=0.00
;00:00:26.016: pe=-1.5009 eb=0.0000 ve=0.0000 vn=0.0000 vl=0.000 db=0.00
G1 Z0.300 F420                          ; hopdn dz=-0.20@7 h=0.3 r=0.00
;00:00:26.044: pe=-1.5009 eb=0.0000 ve=0.0000 vn=0.0000 vl=0.000 db=0.00
G1 E15.4377 F1800                       ; restore de=2.2636@30.0 r=0.74
;00:00:26.120: pe=0.7495 eb=0.0133 ve=30.0000 vn=0.9536 vl=0.000 db=0.37
G1 X-54.14 Y56.45 E15.4471 F600         ; draw dl=0.2@10(0<10>10) de=0.009@0.37(0.0<0.62>0.62) l=0.30x0.50x1.00 r=1.96
;00:00:26.145: pe=0.7405 eb=0.0228 ve=0.6236 vn=0.6441 vl=10.000 db=0.48
G1 X-54.32 Y56.50 E15.4587              ; draw dl=0.2@10(10<10>10) de=0.012@0.62(0.62<0.62>0.62) l=0.30x0.50x1.00 r=1.02
;00:00:26.164: pe=0.7403 eb=0.0234 ve=0.6236 vn=0.6289 vl=10.000 db=0.49
G1 X-54.48 Y56.62 E15.4712              ; draw dl=0.2@10(10<10>10) de=0.012@0.62(0.62<0.62>0.62) l=0.30x0.50x1.00 r=1.00
;00:00:26.184: pe=0.7403 eb=0.0237 ve=0.6236 vn=0.6218 vl=10.000 db=0.49
G1 X-54.60 Y56.81 E15.4852              ; draw dl=0.2@10(10<10>10) de=0.014@0.62(0.62<0.62>0.62) l=0.30x0.50x1.00 r=0.99
;00:00:26.206: pe=0.7403 eb=0.0238 ve=0.6236 vn=0.6185 vl=10.000 db=0.49
G1 X-54.68 Y57.19 E15.5094              ; draw dl=0.4@10(10<10>10) de=0.024@0.62(0.62<0.62>0.62) l=0.30x0.50x1.00 r=0.99
;00:00:26.245: pe=0.7406 eb=0.0239 ve=0.6236 vn=0.6170 vl=10.000 db=0.49
G1 X-54.68 Y59.52 E15.6547              ; draw dl=2.3@10(10<10>0) de=0.145@0.6(0.62<0.62>0.0) l=0.30x0.50x1.00 r=1.03
;00:00:26.488: pe=0.7368 eb=0.0291 ve=0.0000 vn=0.4784 vl=0.000 db=0.55
G1 E13.4179 F2400                       ; retract de=-2.2368@-40.0 r=1.11
;00:00:26.544: pe=-1.5009 eb=0.0300 ve=-40.0000 vn=0.0000 vl=0.000 db=0.55
G1 Z0.500 F420                          ; hopup dz=0.20@7 h=0.5 r=0.86
;00:00:26.572: pe=-1.5009 eb=0.0300 ve=0.0000 vn=0.0000 vl=0.000 db=0.43
G1 X-55.18 Y58.76 F6000                 ; move dl=0.9@100(0<15>0) de=0.000@0.0(0.0<0.0>0.0) l=0.50x0.50x0.00 r=0.00
;00:00:26.663: pe=-1.5009 eb=0.0000 ve=0.0000 vn=0.0000 vl=0.000 db=0.00
G1 Z0.300 F420                          ; hopdn dz=-0.20@7 h=0.3 r=0.00
;00:00:26.691: pe=-1.5009 eb=0.0000 ve=0.0000 vn=0.0000 vl=0.000 db=0.00
G1 E15.6537 F1800                       ; restore de=2.2358@30.0 r=0.71
;00:00:26.766: pe=0.7226 eb=0.0124 ve=30.0000 vn=0.9188 vl=0.000 db=0.36
G1 X-54.10 Y58.76 E15.7211 F600         ; draw dl=1.1@10(0<10>0) de=0.067@0.53(0.0<0.62>0.0) l=0.30x0.50x1.00 r=1.17
;00:00:26.894: pe=0.7114 eb=0.0273 ve=0.0000 vn=0.4593 vl=0.000 db=0.53
G1 E13.5097 F2400                       ; retract de=-2.2114@-40.0 r=1.07
;00:00:26.949: pe=-1.5008 eb=0.0281 ve=-40.0000 vn=0.0000 vl=0.000 db=0.54
G1 Z0.500 F420                          ; hopup dz=0.20@7 h=0.5 r=0.83
;00:00:26.978: pe=-1.5008 eb=0.0281 ve=0.0000 vn=0.0000 vl=0.000 db=0.41
G1 X-52.92 Y58.26 F6000                 ; move dl=1.3@100(0<18>0) de=0.000@0.0(0.0<0.0>0.0) l=0.50x0.50x0.00 r=0.00
;00:00:27.085: pe=-1.5008 eb=0.0000 ve=0.0000 vn=0.0000 vl=0.000 db=0.00
G1 Z0.300 F420                          ; hopdn dz=-0.20@7 h=0.3 r=0.00
;00:00:27.114: pe=-1.5008 eb=0.0000 ve=0.0000 vn=0.0000 vl=0.000 db=0.00
G1 E15.7580 F1800                       ; restore de=2.2483@30.0 r=0.72
;00:00:27.189: pe=0.7348 eb=0.0128 ve=30.0000 vn=0.9342 vl=0.000 db=0.36
G1 X-51.23 Y58.26 E15.8634 F600         ; draw dl=1.7@10(0<10>0) de=0.105@0.56(0.0<0.62>0.0) l=0.30x0.50x1.00 r=1.11
;00:00:27.378: pe=0.7232 eb=0.0281 ve=0.0000 vn=0.4681 vl=0.000 db=0.54
G1 E13.6402 F2400                       ; retract de=-2.2232@-40.0 r=1.09
;00:00:27.433: pe=-1.5008 eb=0.0290 ve=-40.0000 vn=0.0000 vl=0.000 db=0.54
G1 Z0.500 F420                          ; hopup dz=0.20@7 h=0.5 r=0.84
;00:00:27.462: pe=-1.5008 eb=0.0290 ve=0.0000 vn=0.0000 vl=0.000 db=0.42
G1 X-51.23 Y57.55 F6000                 ; move dl=0.7@100(0<13>0) de=0.000@0.0(0.0<0.0>0.0) l=0.50x0.50x0.00 r=0.00
;00:00:27.542: pe=-1.5008 eb=0.0000 ve=0.0000 vn=0.0000 vl=0.000 db=0.00
G1 Z0.300 F420                          ; hopdn dz=-0.20@7 h=0.3 r=0.00
;00:00:27.570: pe=-1.5008 eb=0.0000 ve=0.0000 vn=0.0000 vl=0.000 db=0.00
G1 E15.8885 F1800                       ; restore de=2.2484@30.0 r=0.72
;00:00:27.645: pe=0.7348 eb=0.0128 ve=30.0000 vn=0.9342 vl=0.000 db=0.36
G1 X-52.92 Y57.55 E15.9939 F600         ; draw dl=1.7@10(0<10>0) de=0.105@0.56(0.0<0.62>0.0) l=0.30x0.50x1.00 r=1.11
;00:00:27.834: pe=0.7232 eb=0.0281 ve=0.0000 vn=0.4681 vl=0.000 db=0.54
G1 E13.7707 F2400                       ; retract de=-2.2232@-40.0 r=1.09
;00:00:27.890: pe=-1.5008 eb=0.0290 ve=-40.0000 vn=0.0000 vl=0.000 db=0.54
G1 Z0.500 F420                          ; hopup dz=0.20@7 h=0.5 r=0.84
;00:00:27.919: pe=-1.5008 eb=0.0290 ve=0.0000 vn=0.0000 vl=0.000 db=0.42
G1 X-48.95 Y59.94 F6000                 ; move dl=4.6@100(0<34>0) de=0.000@0.0(0.0<0.0>0.0) l=0.50x0.50x0.00 r=0.00
;00:00:28.123: pe=-1.5008 eb=0.0000 ve=0.0000 vn=0.0000 vl=0.000 db=0.00
G1 Z0.300 F420                          ; hopdn dz=-0.20@7 h=0.3 r=0.00
;00:00:28.151: pe=-1.5008 eb=0.0000 ve=0.0000 vn=0.0000 vl=0.000 db=0.00
G1 E16.0410 F1800                       ; restore de=2.2703@30.0 r=0.74
;00:00:28.227: pe=0.7560 eb=0.0135 ve=30.0000 vn=0.9620 vl=0.000 db=0.37
G1 X-48.44 Y59.80 E16.0740 F600         ; draw dl=0.5@10(0<10>10) de=0.033@0.52(0.0<0.62>0.62) l=0.30x0.50x1.00 r=1.29
;00:00:28.290: pe=0.7464 eb=0.0240 ve=0.6236 vn=0.6273 vl=10.000 db=0.50
G1 X-48.05 Y59.42 E16.1079              ; draw dl=0.5@10(10<10>10) de=0.034@0.62(0.62<0.62>0.62) l=0.30x0.50x1.00 r=1.00
;00:00:28.344: pe=0.7464 eb=0.0243 ve=0.6236 vn=0.6218 vl=10.000 db=0.50
G1 X-47.81 Y58.86 E16.1459              ; draw dl=0.6@10(10<10>10) de=0.038@0.62(0.62<0.62>0.62) l=0.30x0.50x1.00 r=1.00
;00:00:28.405: pe=0.7465 eb=0.0243 ve=0.6236 vn=0.6213 vl=10.000 db=0.50
G1 X-47.73 Y58.18 E16.1886              ; draw dl=0.7@10(10<10>10) de=0.043@0.62(0.62<0.62>0.62) l=0.30x0.50x1.00 r=1.00
;00:00:28.474: pe=0.7467 eb=0.0243 ve=0.6236 vn=0.6214 vl=10.000 db=0.50
G1 X-47.81 Y57.51 E16.2307              ; draw dl=0.7@10(10<10>10) de=0.042@0.62(0.62<0.62>0.62) l=0.30x0.50x1.00 r=1.00
;00:00:28.541: pe=0.7468 eb=0.0243 ve=0.6236 vn=0.6215 vl=10.000 db=0.50
G1 X-48.05 Y56.95 E16.2687              ; draw dl=0.6@10(10<10>10) de=0.038@0.62(0.62<0.62>0.62) l=0.30x0.50x1.00 r=1.00
;00:00:28.602: pe=0.7469 eb=0.0243 ve=0.6236 vn=0.6216 vl=10.000 db=0.50
G1 X-48.44 Y56.56 E16.3031              ; draw dl=0.6@10(10<10>10) de=0.034@0.62(0.62<0.62>0.62) l=0.30x0.50x1.00 r=1.00
;00:00:28.657: pe=0.7470 eb=0.0243 ve=0.6236 vn=0.6217 vl=10.000 db=0.50
G1 X-48.95 Y56.42 E16.3361              ; draw dl=0.5@10(10<10>10) de=0.033@0.62(0.62<0.62>0.62) l=0.30x0.50x1.00 r=1.00
;00:00:28.710: pe=0.7471 eb=0.0243 ve=0.6236 vn=0.6218 vl=10.000 db=0.50
G1 X-49.47 Y56.56 E16.3697              ; draw dl=0.5@10(10<10>10) de=0.034@0.62(0.62<0.62>0.62) l=0.30x0.50x1.00 r=1.00
;00:00:28.764: pe=0.7472 eb=0.0243 ve=0.6236 vn=0.6219 vl=10.000 db=0.50
G1 X-49.85 Y56.95 E16.4036              ; draw dl=0.5@10(10<10>10) de=0.034@0.62(0.62<0.62>0.62) l=0.30x0.50x1.00 r=1.00
;00:00:28.818: pe=0.7473 eb=0.0243 ve=0.6236 vn=0.6219 vl=10.000 db=0.50
G1 X-50.09 Y57.51 E16.4416              ; draw dl=0.6@10(10<10>10) de=0.038@0.62(0.62<0.62>0.62) l=0.30x0.50x1.00 r=1.00
;00:00:28.879: pe=0.7474 eb=0.0244 ve=0.6236 vn=0.6220 vl=10.000 db=0.50
G1 X-50.17 Y58.18 E16.4837              ; draw dl=0.7@10(10<10>10) de=0.042@0.62(0.62<0.62>0.62) l=0.30x0.50x1.00 r=1.00
;00:00:28.947: pe=0.7475 eb=0.0244 ve=0.6236 vn=0.6221 vl=10.000 db=0.50
G1 X-50.09 Y58.85 E16.5258              ; draw dl=0.7@10(10<10>10) de=0.042@0.62(0.62<0.62>0.62) l=0.30x0.50x1.00 r=1.00
;00:00:29.014: pe=0.7476 eb=0.0244 ve=0.6236 vn=0.6222 vl=10.000 db=0.50
G1 X-49.85 Y59.42 E16.5643              ; draw dl=0.6@10(10<10>10) de=0.039@0.62(0.62<0.62>0.62) l=0.30x0.50x1.00 r=1.00
;00:00:29.076: pe=0.7477 eb=0.0244 ve=0.6236 vn=0.6223 vl=10.000 db=0.50
G1 X-49.47 Y59.80 E16.5979              ; draw dl=0.5@10(10<10>10) de=0.034@0.62(0.62<0.62>0.62) l=0.30x0.50x1.00 r=1.00
;00:00:29.130: pe=0.7478 eb=0.0244 ve=0.6236 vn=0.6223 vl=10.000 db=0.50
G1 X-48.95 Y59.94 E16.6314              ; draw dl=0.5@10(10<10>0) de=0.034@0.53(0.62<0.62>0.0) l=0.30x0.50x1.00 r=1.16
;00:00:29.194: pe=0.7426 eb=0.0296 ve=0.0000 vn=0.4828 vl=0.000 db=0.55
G1 E14.3889 F2400                       ; retract de=-2.2426@-40.0 r=1.12
;00:00:29.250: pe=-1.5009 eb=0.0305 ve=-40.0000 vn=0.0000 vl=0.000 db=0.56
G1 Z0.500 F420                          ; hopup dz=0.20@7 h=0.5 r=0.86
;00:00:29.278: pe=-1.5009 eb=0.0305 ve=0.0000 vn=0.0000 vl=0.000 db=0.43
;structure:shell-outer
G1 X70.00 Y0.00 F6000                   ; move dl=133.2@100(0<100>0) de=0.000@0.0(0.0<0.0>0.0) l=0.50x0.50x0.00 r=0.00
;00:00:30.810: pe=-1.5009 eb=0.0000 ve=0.0000 vn=0.0000 vl=0.000 db=0.00
G1 Z0.300 F420                          ; hopdn dz=-0.20@7 h=0.3 r=0.00
;00:00:30.839: pe=-1.5009 eb=0.0000 ve=0.0000 vn=0.0000 vl=0.000 db=0.00
G1 E16.6617 F1800                       ; restore de=2.2728@30.0 r=0.74
;00:00:30.915: pe=0.7584 eb=0.0136 ve=30.0000 vn=0.9650 vl=0.000 db=0.37
;00:00:30.915: spiral RC0=(70.0,0.000) dRC=(0.0,1.000) dl=439.8@10 de=27.429@0.6 l=0.30x0.50x1.00
G1 X69.73 Y6.10 E17.0425 F600           ; draw dl=6.1@10(0<10>10) de=0.381@0.61(0.0<0.62>0.62) l=0.30x0.50x1.00 r=1.03
;00:00:31.535: pe=0.7488 eb=0.0244 ve=0.6236 vn=0.6231 vl=10.000 db=0.50
G1 X68.94 Y12.16 E17.4233               ; draw dl=6.1@10(10<10>10) de=0.381@0.62(0.62<0.62>0.62) l=0.30x0.50x1.00 r=1.00
;00:00:32.146: pe=0.7490 eb=0.0245 ve=0.6236 vn=0.6233 vl=10.000 db=0.50
G1 X67.61 Y18.12 E17.8042               ; draw dl=6.1@10(10<10>10) de=0.381@0.62(0.62<0.62>0.62) l=0.30x0.50x1.00 r=1.00
;00:00:32.757: pe=0.7492 eb=0.0245 ve=0.6236 vn=0.6234 vl=10.000 db=0.50
G1 X65.78 Y23.94 E18.1850               ; draw dl=6.1@10(10<10>10) de=0.381@0.62(0.62<0.62>0.62) l=0.30x0.50x1.00 r=1.00
;00:00:33.367: pe=0.7493 eb=0.0245 ve=0.6236 vn=0.6235 vl=10.000 db=0.50
G1 X63.44 Y29.58 E18.5658               ; draw dl=6.1@10(10<10>10) de=0.381@0.62(0.62<0.62>0.62) l=0.30x0.50x1.00 r=1.00
;00:00:33.978: pe=0.7494 eb=0.0245 ve=0.6236 vn=0.6236 vl=10.000 db=0.50
G1 X60.62 Y35.00 E18.9467               ; draw dl=6.1@10(10<10>10) de=0.381@0.62(0.62<0.62>0.62) l=0.30x0.50x1.00 r=1.00
;00:00:34.589: pe=0.7494 eb=0.0245 ve=0.6236 vn=0.6236 vl=10.000 db=0.50
G1 X57.34 Y40.15 E19.3275               ; draw dl=6.1@10(10<10>10) de=0.381@0.62(0.62<0.62>0.62) l=0.30x0.50x1.00 r=1.00
;00:00:35.199: pe=0.7494 eb=0.0245 ve=0.6236 vn=0.6236 vl=10.000 db=0.50
G1 X53.62 Y45.00 E19.7083               ; draw dl=6.1@10(10<10>10) de=0.381@0.62(0.62<0.62>0.62) l=0.30x0.50x1.00 r=1.00
;00:00:35.810: pe=0.7494 eb=0.0245 ve=0.6236 vn=0.6236 vl=10.000 db=0.50
G1 X49.50 Y49.50 E20.0892               ; draw dl=6.1@10(10<10>10) de=0.381@0.62(0.62<0.62>0.62) l=0.30x0.50x1.00 r=1.00
;00:00:36.421: pe=0.7494 eb=0.0245 ve=0.6236 vn=0.6236 vl=10.000 db=0.50
G1 X45.00 Y53.62 E20.4700               ; draw dl=6.1@10(10<10>10) de=0.381@0.62(0.62<0.62>0.62) l=0.30x0.50x1.00 r=1.00
;00:00:37.031: pe=0.7494 eb=0.0245 ve=0.6236 vn=0.6236 vl=10.000 db=0.50
G1 X40.15 Y57.34 E20.8508               ; draw dl=6.1@10(10<10>10) de=0.381@0.62(0.62<0.62>0.62) l=0.30x0.50x1.00 r=1.00
;00:00:37.642: pe=0.7494 eb=0.0245 ve=0.6236 vn=0.6236 vl=10.000 db=0.50
G1 X35.00 Y60.62 E21.2317               ; draw dl=6.1@10(10<10>10) de=0.381@0.62(0.62<0.62>0.62) l=0.30x0.50x1.00 r=1.00
;00:00:38.253: pe=0.7494 eb=0.0245 ve=0.6236 vn=0.6236 vl=10.000 db=0.50
G1 X29.58 Y63.44 E21.6125               ; draw dl=6.1@10(10<10>10) de=0.381@0.62(0.62<0.62>0.62) l=0.30x0.50x1.00 r=1.00
;00:00:38.863: pe=0.7494 eb=0.0245 ve=0.6236 vn=0.6236 vl=10.000 db=0.50
G1 X23.94 Y65.78 E21.9933               ; draw dl=6.1@10(10<10>10) de=0.381@0.62(0.62<0.62>0.62) l=0.30x0.50x1.00 r=1.00
;00:00:39.474: pe=0.7494 eb=0.0245 ve=0.6236 vn=0.6236 vl=10.000 db=0.50
G1 X18.12 Y67.61 E22.3742               ; draw dl=6.1@10(10<10>10) de=0.381@0.62(0.62<0.62>0.62) l=0.30x0.50x1.00 r=1.00
;00:00:40.085: pe=0.7495 eb=0.0245 ve=0.6236 vn=0.6236 vl=10.000 db=0.50
G1 X12.16 Y68.94 E22.7550               ; draw dl=6.1@10(10<10>10) de=0.381@0.62(0.62<0.62>0.62) l=0.30x0.50x1.00 r=1.00
;00:00:40.695: pe=0.7495 eb=0.0245 ve=0.6236 vn=0.6236 vl=10.000 db=0.50
G1 X6.10 Y69.73 E23.1358                ; draw dl=6.1@10(10<10>10) de=0.381@0.62(0.62<0.62>0.62) l=0.30x0.50x1.00 r=1.00
;00:00:41.306: pe=0.7495 eb=0.0245 ve=0.6236 vn=0.6236 vl=10.000 db=0.50
G1 X0.00 Y70.00 E23.5167                ; draw dl=6.1@10(10<10>10) de=0.381@0.62(0.62<0.62>0.62) l=0.30x0.50x1.00 r=1.00
;00:00:41.917: pe=0.7495 eb=0.0245 ve=0.6236 vn=0.6236 vl=10.000 db=0.50
G1 X-6.10 Y69.73 E23.8975               ; draw dl=6.1@10(10<10>10) de=0.381@0.62(0.62<0.62>0.62) l=0.30x0.50x1.00 r=1.00
;00:00:42.528: pe=0.7495 eb=0.0245 ve=0.6236 vn=0.6236 vl=10.000 db=0.50
G1 X-12.16 Y68.94 E24.2783              ; draw dl=6.1@10(10<10>10) de=0.381@0.62(0.62<0.62>0.62) l=0.30x0.50x1.00 r=1.00
;00:00:43.138: pe=0.7495 eb=0.0245 ve=0.6236 vn=0.6236 vl=10.000 db=0.50
G1 X-18.12 Y67.61 E24.6591              ; draw dl=6.1@10(10<10>10) de=0.381@0.62(0.62<0.62>0.62) l=0.30x0.50x1.00 r=1.00
;00:00:43.749: pe=0.7495 eb=0.0245 ve=0.6236 vn=0.6236 vl=10.000 db=0.50
G1 X-23.94 Y65.78 E25.0400              ; draw dl=6.1@10(10<10>10) de=0.381@0.62(0.62<0.62>0.62) l=0.30x0.50x1.00 r=1.00
;00:00:44.360: pe=0.7495 eb=0.0245 ve=0.6236 vn=0.6236 vl=10.000 db=0.50
G1 X-29.58 Y63.44 E25.4208              ; draw dl=6.1@10(10<10>10) de=0.381@0.62(0.62<0.62>0.62) l=0.30x0.50x1.00 r=1.00
;00:00:44.970: pe=0.7495 eb=0.0245 ve=0.6236 vn=0.6236 vl=10.000 db=0.50
G1 X-35.00 Y60.62 E25.8016              ; draw dl=6.1@10(10<10>10) de=0.381@0.62(0.62<0.62>0.62) l=0.30x0.50x1.00 r=1.00
;00:00:45.581: pe=0.7495 eb=0.0245 ve=0.6236 vn=0.6236 vl=10.000 db=0.50
G1 X-40.15 Y57.34 E26.1825              ; draw dl=6.1@10(10<10>10) de=0.381@0.62(0.62<0.62>0.62) l=0.30x0.50x1.00 r=1.00
;00:00:46.192: pe=0.7495 eb=0.0245 ve=0.6236 vn=0.6236 vl=10.000 db=0.50
G1 X-45.00 Y53.62 E26.5633              ; draw dl=6.1@10(10<10>10) de=0.381@0.62(0.62<0.62>0.62) l=0.30x0.50x1.00 r=1.00
;00:00:46.802: pe=0.7495 eb=0.0245 ve=0.6236 vn=0.6236 vl=10.000 db=0.50
G1 X-49.50 Y49.50 E26.9441              ; draw dl=6.1@10(10<10>10) de=0.381@0.62(0.62<0.62>0.62) l=0.30x0.50x1.00 r=1.00
;00:00:47.413: pe=0.7495 eb=0.0245 ve=0.6236 vn=0.6236 vl=10.000 db=0.50
G1 X-53.62 Y45.00 E27.3250              ; draw dl=6.1@10(10<10>10) de=0.381@0.62(0.62<0.62>0.62) l=0.30x0.50x1.00 r=1.00
;00:00:48.024: pe=0.7495 eb=0.0245 ve=0.6236 vn=0.6236 vl=10.000 db=0.50
G1 X-57.34 Y40.15 E27.7058              ; draw dl=6.1@10(10<10>10) de=0.381@0.62(0.62<0.62>0.62) l=0.30x0.50x1.00 r=1.00
;00:00:48.634: pe=0.7495 eb=0.0245 ve=0.6236 vn=0.6236 vl=10.000 db=0.50
G1 X-60.62 Y35.00 E28.0866              ; draw dl=6.1@10(10<10>10) de=0.381@0.62(0.62<0.62>0.62) l=0.30x0.50x1.00 r=1.00
;00:00:49.245: pe=0.7495 eb=0.0245 ve=0.6236 vn=0.6236 vl=10.000 db=0.50
G1 X-63.44 Y29.58 E28.4675              ; draw dl=6.1@10(10<10>10) de=0.381@0.62(0.62<0.62>0.62) l=0.30x0.50x1.00 r=1.00
;00:00:49.856: pe=0.7495 eb=0.0245 ve=0.6236 vn=0.6236 vl=10.000 db=0.50
G1 X-65.78 Y23.94 E28.8483              ; draw dl=6.1@10(10<10>10) de=0.381@0.62(0.62<0.62>0.62) l=0.30x0.50x1.00 r=1.00
;00:00:50.466: pe=0.7495 eb=0.0245 ve=0.6236 vn=0.6236 vl=10.000 db=0.50
G1 X-67.61 Y18.12 E29.2291              ; draw dl=6.1@10(10<10>10) de=0.381@0.62(0.62<0.62>0.62) l=0.30x0.50x1.00 r=1.00
;00:00:51.077: pe=0.7495 eb=0.0245 ve=0.6236 vn=0.6236 vl=10.000 db=0.50
G1 X-68.94 Y12.16 E29.6100              ; draw dl=6.1@10(10<10>10) de=0.381@0.62(0.62<0.62>0.62) l=0.30x0.50x1.00 r=1.00
;00:00:51.688: pe=0.7495 eb=0.0245 ve=0.6236 vn=0.6236 vl=10.000 db=0.50
G1 X-69.73 Y6.10 E29.9908               ; draw dl=6.1@10(10<10>10) de=0.381@0.62(0.62<0.62>0.62) l=0.30x0.50x1.00 r=1.00
;00:00:52.298: pe=0.7495 eb=0.0245 ve=0.6236 vn=0.6236 vl=10.000 db=0.50
G1 X-70.00 Y0.00 E30.3716               ; draw dl=6.1@10(10<10>10) de=0.381@0.62(0.62<0.62>0.62) l=0.30x0.50x1.00 r=1.00
;00:00:52.909: pe=0.7495 eb=0.0245 ve=0.6236 vn=0.6236 vl=10.000 db=0.50
G1 X-69.73 Y-6.10 E30.7525              ; draw dl=6.1@10(10<10>10) de=0.381@0.62(0.62<0.62>0.62) l=0.30x0.50x1.00 r=1.00
;00:00:53.520: pe=0.7495 eb=0.0245 ve=0.6236 vn=0.6236 vl=10.000 db=0.50
G1 X-68.94 Y-12.16 E31.1333             ; draw dl=6.1@10(10<10>10) de=0.381@0.62(0.62<0.62>0.62) l=0.30x0.50x1.00 r=1.00
;00:00:54.130: pe=0.7495 eb=0.0245 ve=0.6236 vn=0.6236 vl=10.000 db=0.50
G1 X-67.61 Y-18.12 E31.5141             ; draw dl=6.1@10(10<10>10) de=0.381@0.62(0.62<0.62>0.62) l=0.30x0.50x1.00 r=1.00
;00:00:54.741: pe=0.7495 eb=0.0245 ve=0.6236 vn=0.6236 vl=10.000 db=0.50
G1 X-65.78 Y-23.94 E31.8950             ; draw dl=6.1@10(10<10>10) de=0.381@0.62(0.62<0.62>0.62) l=0.30x0.50x1.00 r=1.00
;00:00:55.352: pe=0.7495 eb=0.0245 ve=0.6236 vn=0.6236 vl=10.000 db=0.50
G1 X-63.44 Y-29.58 E32.2758             ; draw dl=6.1@10(10<10>10) de=0.381@0.62(0.62<0.62>0.62) l=0.30x0.50x1.00 r=1.00
;00:00:55.962: pe=0.7495 eb=0.0245 ve=0.6236 vn=0.6236 vl=10.000 db=0.50
G1 X-60.62 Y-35.00 E32.6566             ; draw dl=6.1@10(10<10>10) de=0.381@0.62(0.62<0.62>0.62) l=0.30x0.50x1.00 r=1.00
;00:00:56.573: pe=0.7495 eb=0.0245 ve=0.6236 vn=0.6236 vl=10.000 db=0.50
G1 X-57.34 Y-40.15 E33.0374             ; draw dl=6.1@10(10<10>10) de=0.381@0.62(0.62<0.62>0.62) l=0.30x0.50x1.00 r=1.00
;00:00:57.184: pe=0.7495 eb=0.0245 ve=0.6236 vn=0.6236 vl=10.000 db=0.50
G1 X-53.62 Y-45.00 E33.4183             ; draw dl=6.1@10(10<10>10) de=0.381@0.62(0.62<0.62>0.62) l=0.30x0.50x1.00 r=1.00
;00:00:57.794: pe=0.7495 eb=0.0245 ve=0.6236 vn=0.6236 vl=10.000 db=0.50
G1 X-49.50 Y-49.50 E33.7991             ; draw dl=6.1@10(10<10>10) de=0.381@0.62(0.62<0.62>0.62) l=0.30x0.50x1.00 r=1.00
;00:00:58.405: pe=0.7495 eb=0.0245 ve=0.6236 vn=0.6236 vl=10.000 db=0.50
G1 X-45.00 Y-53.62 E34.1799             ; draw dl=6.1@10(10<10>10) de=0.381@0.62(0.62<0.62>0.62) l=0.30x0.50x1.00 r=1.00
;00:00:59.016: pe=0.7495 eb=0.0245 ve=0.6236 vn=0.6236 vl=10.000 db=0.50
G1 X-40.15 Y-57.34 E34.5608             ; draw dl=6.1@10(10<10>10) de=0.381@0.62(0.62<0.62>0.62) l=0.30x0.50x1.00 r=1.00
;00:00:59.626: pe=0.7495 eb=0.0245 ve=0.6236 vn=0.6236 vl=10.000 db=0.50
G1 X-35.00 Y-60.62 E34.9416             ; draw dl=6.1@10(10<10>10) de=0.381@0.62(0.62<0.62>0.62) l=0.30x0.50x1.00 r=1.00
;00:01:00.237: pe=0.7495 eb=0.0245 ve=0.6236 vn=0.6236 vl=10.000 db=0.50
G1 X-29.58 Y-63.44 E35.3224             ; draw dl=6.1@10(10<10>10) de=0.381@0.62(0.62<0.62>0.62) l=0.30x0.50x1.00 r=1.00
;00:01:00.848: pe=0.7495 eb=0.0245 ve=0.6236 vn=0.6236 vl=10.000 db=0.50
G1 X-23.94 Y-65.78 E35.7033             ; draw dl=6.1@10(10<10>10) de=0.381@0.62(0.62<0.62>0.62) l=0.30x0.50x1.00 r=1.00
;00:01:01.458: pe=0.7495 eb=0.0245 ve=0.6236 vn=0.6236 vl=10.000 db=0.50
G1 X-18.12 Y-67.61 E36.0841             ; draw dl=6.1@10(10<10>10) de=0.381@0.62(0.62<0.62>0.62) l=0.30x0.50x1.00 r=1.00
;00:01:02.069: pe=0.7495 eb=0.0245 ve=0.6236 vn=0.6236 vl=10.000 db=0.50
G1 X-12.16 Y-68.94 E36.4649             ; draw dl=6.1@10(10<10>10) de=0.381@0.62(0.62<0.62>0.62) l=0.30x0.50x1.00 r=1.00
;00:01:02.680: pe=0.7495 eb=0.0245 ve=0.6236 vn=0.6236 vl=10.000 db=0.50
G1 X-6.10 Y-69.73 E36.8458              ; draw dl=6.1@10(10<10>10) de=0.381@0.62(0.62<0.62>0.62) l=0.30x0.50x1.00 r=1.00
;00:01:03.290: pe=0.7495 eb=0.0245 ve=0.6236 vn=0.6236 vl=10.000 db=0.50
G1 X0.00 Y-70.00 E37.2266               ; draw dl=6.1@10(10<10>10) de=0.381@0.62(0.62<0.62>0.62) l=0.30x0.50x1.00 r=1.00
;00:01:03.901: pe=0.7495 eb=0.0245 ve=0.6236 vn=0.6236 vl=10.000 db=0.50
G1 X6.10 Y-69.73 E37.6074               ; draw dl=6.1@10(10<10>10) de=0.381@0.62(0.62<0.62>0.62) l=0.30x0.50x1.00 r=1.00
;00:01:04.512: pe=0.7495 eb=0.0245 ve=0.6236 vn=0.6236 vl=10.000 db=0.50
G1 X12.16 Y-68.94 E37.9883              ; draw dl=6.1@10(10<10>10) de=0.381@0.62(0.62<0.62>0.62) l=0.30x0.50x1.00 r=1.00
;00:01:05.122: pe=0.7495 eb=0.0245 ve=0.6236 vn=0.6236 vl=10.000 db=0.50
G1 X18.12 Y-67.61 E38.3691              ; draw dl=6.1@10(10<10>10) de=0.381@0.62(0.62<0.62>0.62) l=0.30x0.50x1.00 r=1.00
;00:01:05.733: pe=0.7495 eb=0.0245 ve=0.6236 vn=0.6236 vl=10.000 db=0.50
G1 X23.94 Y-65.78 E38.7499              ; draw dl=6.1@10(10<10>10) de=0.381@0.62(0.62<0.62>0.62) l=0.30x0.50x1.00 r=1.00
;00:01:06.344: pe=0.7495 eb=0.0245 ve=0.6236 vn=0.6236 vl=10.000 db=0.50
G1 X29.58 Y-63.44 E39.1308              ; draw dl=6.1@10(10<10>10) de=0.381@0.62(0.62<0.62>0.62) l=0.30x0.50x1.00 r=1.00
;00:01:06.954: pe=0.7495 eb=0.0245 ve=0.6236 vn=0.6236 vl=10.000 db=0.50
G1 X35.00 Y-60.62 E39.5116              ; draw dl=6.1@10(10<10>10) de=0.381@0.62(0.62<0.62>0.62) l=0.30x0.50x1.00 r=1.00
;00:01:07.565: pe=0.7495 eb=0.0245 ve=0.6236 vn=0.6236 vl=10.000 db=0.50
G1 X40.15 Y-57.34 E39.8924              ; draw dl=6.1@10(10<10>10) de=0.381@0.62(0.62<0.62>0.62) l=0.30x0.50x1.00 r=1.00
;00:01:08.176: pe=0.7495 eb=0.0245 ve=0.6236 vn=0.6236 vl=10.000 db=0.50
G1 X45.00 Y-53.62 E40.2733              ; draw dl=6.1@10(10<10>10) de=0.381@0.62(0.62<0.62>0.62) l=0.30x0.50x1.00 r=1.00
;00:01:08.786: pe=0.7495 eb=0.0245 ve=0.6236 vn=0.6236 vl=10.000 db=0.50
G1 X49.50 Y-49.50 E40.6541              ; draw dl=6.1@10(10<10>10) de=0.381@0.62(0.62<0.62>0.62) l=0.30x0.50x1.00 r=1.00
;00:01:09.397: pe=0.7495 eb=0.0245 ve=0.6236 vn=0.6236 vl=10.000 db=0.50
G1 X53.62 Y-45.00 E41.0349              ; draw dl=6.1@10(10<10>10) de=0.381@0.62(0.62<0.62>0.62) l=0.30x0.50x1.00 r=1.00
;00:01:10.008: pe=0.7495 eb=0.0245 ve=0.6236 vn=0.6236 vl=10.000 db=0.50
G1 X57.34 Y-40.15 E41.4157              ; draw dl=6.1@10(10<10>10) de=0.381@0.62(0.62<0.62>0.62) l=0.30x0.50x1.00 r=1.00
;00:01:10.618: pe=0.7495 eb=0.0245 ve=0.6236 vn=0.6236 vl=10.000 db=0.50
G1 X60.62 Y-35.00 E41.7966              ; draw dl=6.1@10(10<10>10) de=0.381@0.62(0.62<0.62>0.62) l=0.30x0.50x1.00 r=1.00
;00:01:11.229: pe=0.7495 eb=0.0245 ve=0.6236 vn=0.6236 vl=10.000 db=0.50
G1 X63.44 Y-29.58 E42.1774              ; draw dl=6.1@10(10<10>10) de=0.381@0.62(0.62<0.62>0.62) l=0.30x0.50x1.00 r=1.00
;00:01:11.840: pe=0.7495 eb=0.0245 ve=0.6236 vn=0.6236 vl=10.000 db=0.50
G1 X65.78 Y-23.94 E42.5582              ; draw dl=6.1@10(10<10>10) de=0.381@0.62(0.62<0.62>0.62) l=0.30x0.50x1.00 r=1.00
;00:01:12.450: pe=0.7495 eb=0.0245 ve=0.6236 vn=0.6236 vl=10.000 db=0.50
G1 X67.61 Y-18.12 E42.9391              ; draw dl=6.1@10(10<10>10) de=0.381@0.62(0.62<0.62>0.62) l=0.30x0.50x1.00 r=1.00
;00:01:13.061: pe=0.7495 eb=0.0245 ve=0.6236 vn=0.6236 vl=10.000 db=0.50
G1 X68.94 Y-12.16 E43.3199              ; draw dl=6.1@10(10<10>10) de=0.381@0.62(0.62<0.62>0.62) l=0.30x0.50x1.00 r=1.00
;00:01:13.672: pe=0.7495 eb=0.0245 ve=0.6236 vn=0.6236 vl=10.000 db=0.50
G1 X69.73 Y-6.10 E43.7007               ; draw dl=6.1@10(10<10>10) de=0.381@0.62(0.62<0.62>0.62) l=0.30x0.50x1.00 r=1.00
;00:01:14.282: pe=0.7495 eb=0.0245 ve=0.6236 vn=0.6236 vl=10.000 db=0.50
G1 X70.00 Y0.00 E44.0816                ; draw dl=6.1@10(10<10>0) de=0.381@0.61(0.62<0.62>0.0) l=0.30x0.50x1.00 r=1.01
;00:01:14.903: pe=0.7441 eb=0.0297 ve=0.0000 vn=0.4840 vl=0.000 db=0.55
;00:01:14.903: skipping empty move move dl=0.0@10(0<0>0) de=0.000@0.0(0.0<0.0>0.0) l=0.30x0.50x0.00
G1 E41.8374 F2400                       ; retract de=-2.2441@-40.0 r=1.12
;00:01:14.959: pe=-1.5009 eb=0.0306 ve=-40.0000 vn=0.0000 vl=0.000 db=0.56
G1 Z0.500 F420                          ; hopup dz=0.20@7 h=0.5 r=0.87
;00:01:14.988: pe=-1.5009 eb=0.0306 ve=0.0000 vn=0.0000 vl=0.000 db=0.43
;00:01:14.988: skipping empty move move dl=0.0@7(0<0>0) de=0.000@0.0(0.0<0.0>0.0) l=0.50x0.50x0.00
G1 Z0.300                               ; hopdn dz=-0.20@7 h=0.3 r=1.12
;00:01:15.016: pe=-1.5009 eb=0.0306 ve=0.0000 vn=0.0000 vl=0.000 db=0.56
G1 E44.0967 F1800                       ; restore de=2.2592@30.0 r=1.15
;00:01:15.092: pe=0.7565 eb=0.0324 ve=30.0000 vn=0.4537 vl=0.000 db=0.58
G1 X73.00 Y0.00 E44.2837 F600           ; draw dl=3.0@10(0<10>0) de=0.187@0.58(0.0<0.62>0.0) l=0.30x0.50x1.00 r=1.02
;00:01:15.412: pe=0.7525 eb=0.0303 ve=0.0000 vn=0.4903 vl=0.000 db=0.56
G1 E42.0313 F2400                       ; retract de=-2.2525@-40.0 r=1.13
;00:01:15.468: pe=-1.5009 eb=0.0312 ve=-40.0000 vn=0.0000 vl=0.000 db=0.56
G1 Z0.500 F420                          ; hopup dz=0.20@7 h=0.5 r=0.87
;00:01:15.497: pe=-1.5009 eb=0.0312 ve=0.0000 vn=0.0000 vl=0.000 db=0.44
G1 X69.73 Y6.10 F6000                   ; move dl=6.9@100(0<42>0) de=0.000@0.0(0.0<0.0>0.0) l=0.50x0.50x0.00 r=0.00
;00:01:15.746: pe=-1.5009 eb=0.0000 ve=0.0000 vn=0.0000 vl=0.000 db=0.00
G1 Z0.300 F420                          ; hopdn dz=-0.20@7 h=0.3 r=0.00
;00:01:15.775: pe=-1.5009 eb=0.0000 ve=0.0000 vn=0.0000 vl=0.000 db=0.00
G1 E44.2768 F1800                       ; restore de=2.2455@30.0 r=0.72
;00:01:15.850: pe=0.7319 eb=0.0127 ve=30.0000 vn=0.9306 vl=0.000 db=0.36
G1 X71.23 Y6.23 E44.3703 F600           ; draw dl=1.5@10(0<10>0) de=0.094@0.55(0.0<0.62>0.0) l=0.30x0.50x1.00 r=1.12
;00:01:16.020: pe=0.7205 eb=0.0279 ve=0.0000 vn=0.4660 vl=0.000 db=0.53
G1 E42.1498 F2400                       ; retract de=-2.2205@-40.0 r=1.08
;00:01:16.075: pe=-1.5008 eb=0.0288 ve=-40.0000 vn=0.0000 vl=0.000 db=0.54
G1 Z0.500 F420                          ; hopup dz=0.20@7 h=0.5 r=0.84
;00:01:16.104: pe=-1.5008 eb=0.0288 ve=0.0000 vn=0.0000 vl=0.000 db=0.42
G1 X68.94 Y12.16 F6000                  ; move dl=6.4@100(0<40>0) de=0.000@0.0(0.0<0.0>0.0) l=0.50x0.50x0.00 r=0.00
;00:01:16.343: pe=-1.5008 eb=0.0000 ve=0.0000 vn=0.0000 vl=0.000 db=0.00
G1 Z0.300 F420                          ; hopdn dz=-0.20@7 h=0.3 r=0.00
;00:01:16.371: pe=-1.5008 eb=0.0000 ve=0.0000 vn=0.0000 vl=0.000 db=0.00
G1 E44.3952 F1800                       ; restore de=2.2454@30.0 r=0.72
;00:01:16.446: pe=0.7319 eb=0.0127 ve=30.0000 vn=0.9306 vl=0.000 db=0.36
G1 X70.41 Y12.42 E44.4888 F600          ; draw dl=1.5@10(0<10>0) de=0.094@0.55(0.0<0.62>0.0) l=0.30x0.50x1.00 r=1.12
;00:01:16.616: pe=0.7205 eb=0.0279 ve=0.0000 vn=0.4660 vl=0.000 db=0.53
G1 E42.2683 F2400                       ; retract de=-2.2205@-40.0 r=1.08
;00:01:16.672: pe=-1.5008 eb=0.0288 ve=-40.0000 vn=0.0000 vl=0.000 db=0.54
G1 Z0.500 F420                          ; hopup dz=0.20@7 h=0.5 r=0.84
;00:01:16.700: pe=-1.5008 eb=0.0288 ve=0.0000 vn=0.0000 vl=0.000 db=0.42
G1 X67.61 Y18.12 F6000                  ; move dl=6.4@100(0<40>0) de=0.000@0.0(0.0<0.0>0.0) l=0.50x0.50x0.00 r=0.00
;00:01:16.939: pe=-1.5008 eb=0.0000 ve=0.0000 vn=0.0000 vl=0.000 db=0.00
G1 Z0.300 F420                          ; hopdn dz=-0.20@7 h=0.3 r=0.00
;00:01:16.968: pe=-1.5008 eb=0.0000 ve=0.0000 vn=0.0000 vl=0.000 db=0.00
G1 E44.5137 F1800                       ; restore de=2.2454@30.0 r=0.72
;00:01:17.043: pe=0.7319 eb=0.0127 ve=30.0000 vn=0.9306 vl=0.000 db=0.36
G1 X69.06 Y18.51 E44.6073 F600          ; draw dl=1.5@10(0<10>0) de=0.094@0.55(0.0<0.62>0.0) l=0.30x0.50x1.00 r=1.12
;00:01:17.213: pe=0.7205 eb=0.0279 ve=0.0000 vn=0.4660 vl=0.000 db=0.53
G1 E42.3868 F2400                       ; retract de=-2.2205@-40.0 r=1.08
;00:01:17.268: pe=-1.5008 eb=0.0288 ve=-40.0000 vn=0.0000 vl=0.000 db=0.54
G1 Z0.500 F420                          ; hopup dz=0.20@7 h=0.5 r=0.84
;00:01:17.297: pe=-1.5008 eb=0.0288 ve=0.0000 vn=0.0000 vl=0.000 db=0.42
G1 X65.78 Y23.94 F6000                  ; move dl=6.4@100(0<40>0) de=0.000@0.0(0.0<0.0>0.0) l=0.50x0.50x0.00 r=0.00
;00:01:17.536: pe=-1.5008 eb=0.0000 ve=0.0000 vn=0.0000 vl=0.000 db=0.00
G1 Z0.300 F420                          ; hopdn dz=-0.20@7 h=0.3 r=0.00
;00:01:17.564: pe=-1.5008 eb=0.0000 ve=0.0000 vn=0.0000 vl=0.000 db=0.00
G1 E44.6322 F1800                       ; restore de=2.2454@30.0 r=0.72
;00:01:17.639: pe=0.7319 eb=0.0127 ve=30.0000 vn=0.9306 vl=0.000 db=0.36
G1 X67.19 Y24.45 E44.7257 F600          ; draw dl=1.5@10(0<10>0) de=0.094@0.55(0.0<0.62>0.0) l=0.30x0.50x1.00 r=1.12
;00:01:17.809: pe=0.7205 eb=0.0279 ve=0.0000 vn=0.4660 vl=0.000 db=0.53
G1 E42.5052 F2400                       ; retract de=-2.2205@-40.0 r=1.08
;00:01:17.865: pe=-1.5008 eb=0.0288 ve=-40.0000 vn=0.0000 vl=0.000 db=0.54
G1 Z0.500 F420                          ; hopup dz=0.20@7 h=0.5 r=0.84
;00:01:17.893: pe=-1.5008 eb=0.0288 ve=0.0000 vn=0.0000 vl=0.000 db=0.42
G1 X63.44 Y29.58 F6000                  ; move dl=6.4@100(0<40>0) de=0.000@0.0(0.0<0.0>0.0) l=0.50x0.50x0.00 r=0.00
;00:01:18.132: pe=-1.5008 eb=0.0000 ve=0.0000 vn=0.0000 vl=0.000 db=0.00
G1 Z0.300 F420                          ; hopdn dz=-0.20@7 h=0.3 r=0.00
;00:01:18.161: pe=-1.5008 eb=0.0000 ve=0.0000 vn=0.0000 vl=0.000 db=0.00
G1 E44.7507 F1800                       ; restore de=2.2454@30.0 r=0.72
;00:01:18.236: pe=0.7319 eb=0.0127 ve=30.0000 vn=0.9306 vl=0.000 db=0.36
G1 X64.80 Y30.22 E44.8442 F600          ; draw dl=1.5@10(0<10>0) de=0.094@0.55(0.0<0.62>0.0) l=0.30x0.50x1.00 r=1.12
;00:01:18.406: pe=0.7205 eb=0.0279 ve=0.0000 vn=0.4660 vl=0.000 db=0.53
G1 E42.6237 F2400                       ; retract de=-2.2205@-40.0 r=1.08
;00:01:18.461: pe=-1.5008 eb=0.0288 ve=-40.0000 vn=0.0000 vl=0.000 db=0.54
G1 Z0.500 F420                          ; hopup dz=0.20@7 h=0.5 r=0.84
;00:01:18.490: pe=-1.5008 eb=0.0288 ve=0.0000 vn=0.0000 vl=0.000 db=0.42
G1 X60.62 Y35.00 F6000                  ; move dl=6.4@100(0<40>0) de=0.000@0.0(0.0<0.0>0.0) l=0.50x0.50x0.00 r=0.00
;00:01:18.729: pe=-1.5008 eb=0.0000 ve=0.0000 vn=0.0000 vl=0.000 db=0.00
G1 Z0.300 F420                          ; hopdn dz=-0.20@7 h=0.3 r=0.00
;00:01:18.758: pe=-1.5008 eb=0.0000 ve=0.0000 vn=0.0000 vl=0.000 db=0.00
G1 E44.8829 F1800                       ; restore de=2.2592@30.0 r=0.73
;00:01:18.833: pe=0.7452 eb=0.0131 ve=30.0000 vn=0.9481 vl=0.000 db=0.37
G1 X63.22 Y36.50 E45.0700 F600          ; draw dl=3.0@10(0<10>0) de=0.187@0.58(0.0<0.62>0.0) l=0.30x0.50x1.00 r=1.06
;00:01:19.153: pe=0.7333 eb=0.0289 ve=0.0000 vn=0.4757 vl=0.000 db=0.54
G1 E42.8367 F2400                       ; retract de=-2.2333@-40.0 r=1.10
;00:01:19.209: pe=-1.5009 eb=0.0297 ve=-40.0000 vn=0.0000 vl=0.000 db=0.55
G1 Z0.500 F420                          ; hopup dz=0.20@7 h=0.5 r=0.85
;00:01:19.237: pe=-1.5009 eb=0.0297 ve=0.0000 vn=0.0000 vl=0.000 db=0.43
G1 X57.34 Y40.15 F6000                  ; move dl=6.9@100(0<42>0) de=0.000@0.0(0.0<0.0>0.0) l=0.50x0.50x0.00 r=0.00
;00:01:19.487: pe=-1.5009 eb=0.0000 ve=0.0000 vn=0.0000 vl=0.000 db=0.00
G1 Z0.300 F420                          ; hopdn dz=-0.20@7 h=0.3 r=0.00
;00:01:19.515: pe=-1.5009 eb=0.0000 ve=0.0000 vn=0.0000 vl=0.000 db=0.00
G1 E45.0821 F1800                       ; restore de=2.2454@30.0 r=0.72
;00:01:19.590: pe=0.7319 eb=0.0127 ve=30.0000 vn=0.9306 vl=0.000 db=0.36
G1 X58.57 Y41.01 E45.1757 F600          ; draw dl=1.5@10(0<10>0) de=0.094@0.55(0.0<0.62>0.0) l=0.30x0.50x1.00 r=1.12
;00:01:19.760: pe=0.7205 eb=0.0279 ve=0.0000 vn=0.4660 vl=0.000 db=0.53
G1 E42.9552 F2400                       ; retract de=-2.2205@-40.0 r=1.08
;00:01:19.816: pe=-1.5008 eb=0.0288 ve=-40.0000 vn=0.0000 vl=0.000 db=0.54
G1 Z0.500 F420                          ; hopup dz=0.20@7 h=0.5 r=0.84
;00:01:19.844: pe=-1.5008 eb=0.0288 ve=0.0000 vn=0.0000 vl=0.000 db=0.42
G1 X53.62 Y45.00 F6000                  ; move dl=6.4@100(0<40>0) de=0.000@0.0(0.0<0.0>0.0) l=0.50x0.50x0.00 r=0.00
;00:01:20.083: pe=-1.5008 eb=0.0000 ve=0.0000 vn=0.0000 vl=0.000 db=0.00
G1 Z0.300 F420                          ; hopdn dz=-0.20@7 h=0.3 r=0.00
;00:01:20.112: pe=-1.5008 eb=0.0000 ve=0.0000 vn=0.0000 vl=0.000 db=0.00
G1 E45.2006 F1800                       ; restore de=2.2454@30.0 r=0.72
;00:01:20.187: pe=0.7319 eb=0.0127 ve=30.0000 vn=0.9306 vl=0.000 db=0.36
G1 X54.77 Y45.96 E45.2941 F600          ; draw dl=1.5@10(0<10>0) de=0.094@0.55(0.0<0.62>0.0) l=0.30x0.50x1.00 r=1.12
;00:01:20.357: pe=0.7205 eb=0.0279 ve=0.0000 vn=0.4660 vl=0.000 db=0.53
G1 E43.0737 F2400                       ; retract de=-2.2205@-40.0 r=1.08
;00:01:20.412: pe=-1.5008 eb=0.0288 ve=-40.0000 vn=0.0000 vl=0.000 db=0.54
G1 Z0.500 F420                          ; hopup dz=0.20@7 h=0.5 r=0.84
;00:01:20.441: pe=-1.5008 eb=0.0288 ve=0.0000 vn=0.0000 vl=0.000 db=0.42
G1 X49.50 Y49.50 F6000                  ; move dl=6.4@100(0<40>0) de=0.000@0.0(0.0<0.0>0.0) l=0.50x0.50x0.00 r=0.00
;00:01:20.680: pe=-1.5008 eb=0.0000 ve=0.0000 vn=0.0000 vl=0.000 db=0.00
G1 Z0.300 F420                          ; hopdn dz=-0.20@7 h=0.3 r=0.00
;00:01:20.709: pe=-1.5008 eb=0.0000 ve=0.0000 vn=0.0000 vl=0.000 db=0.00
G1 E45.3191 F1800                       ; restore de=2.2454@30.0 r=0.72
;00:01:20.783: pe=0.7319 eb=0.0127 ve=30.0000 vn=0.9307 vl=0.000 db=0.36
G1 X50.56 Y50.56 E45.4126 F600          ; draw dl=1.5@10(0<10>0) de=0.094@0.55(0.0<0.62>0.0) l=0.30x0.50x1.00 r=1.12
;00:01:20.953: pe=0.7205 eb=0.0279 ve=0.0000 vn=0.4660 vl=0.000 db=0.53
G1 E43.1921 F2400                       ; retract de=-2.2205@-40.0 r=1.08
;00:01:21.009: pe=-1.5008 eb=0.0288 ve=-40.0000 vn=0.0000 vl=0.000 db=0.54
G1 Z0.500 F420                          ; hopup dz=0.20@7 h=0.5 r=0.84
;00:01:21.038: pe=-1.5008 eb=0.0288 ve=0.0000 vn=0.0000 vl=0.000 db=0.42
G1 X45.00 Y53.62 F6000                  ; move dl=6.4@100(0<40>0) de=0.000@0.0(0.0<0.0>0.0) l=0.50x0.50x0.00 r=0.00
;00:01:21.277: pe=-1.5008 eb=0.0000 ve=0.0000 vn=0.0000 vl=0.000 db=0.00
G1 Z0.300 F420                          ; hopdn dz=-0.20@7 h=0.3 r=0.00
;00:01:21.305: pe=-1.5008 eb=0.0000 ve=0.0000 vn=0.0000 vl=0.000 db=0.00
G1 E45.4375 F1800                       ; restore de=2.2454@30.0 r=0.72
;00:01:21.380: pe=0.7319 eb=0.0127 ve=30.0000 vn=0.9306 vl=0.000 db=0.36
G1 X45.96 Y54.77 E45.5311 F600          ; draw dl=1.5@10(0<10>0) de=0.094@0.55(0.0<0.62>0.0) l=0.30x0.50x1.00 r=1.12
;00:01:21.550: pe=0.7205 eb=0.0279 ve=0.0000 vn=0.4660 vl=0.000 db=0.53
G1 E43.3106 F2400                       ; retract de=-2.2205@-40.0 r=1.08
;00:01:21.606: pe=-1.5008 eb=0.0288 ve=-40.0000 vn=0.0000 vl=0.000 db=0.54
G1 Z0.500 F420                          ; hopup dz=0.20@7 h=0.5 r=0.84
;00:01:21.634: pe=-1.5008 eb=0.0288 ve=0.0000 vn=0.0000 vl=0.000 db=0.42
G1 X40.15 Y57.34 F6000                  ; move dl=6.4@100(0<40>0) de=0.000@0.0(0.0<0.0>0.0) l=0.50x0.50x0.00 r=0.00
;00:01:21.873: pe=-1.5008 eb=0.0000 ve=0.0000 vn=0.0000 vl=0.000 db=0.00
G1 Z0.300 F420                          ; hopdn dz=-0.20@7 h=0.3 r=0.00
;00:01:21.902: pe=-1.5008 eb=0.0000 ve=0.0000 vn=0.0000 vl=0.000 db=0.00
G1 E45.5560 F1800                       ; restore de=2.2454@30.0 r=0.72
;00:01:21.977: pe=0.7319 eb=0.0127 ve=30.0000 vn=0.9306 vl=0.000 db=0.36
G1 X41.01 Y58.57 E45.6495 F600          ; draw dl=1.5@10(0<10>0) de=0.094@0.55(0.0<0.62>0.0) l=0.30x0.50x1.00 r=1.12
;00:01:22.147: pe=0.7205 eb=0.0279 ve=0.0000 vn=0.4660 vl=0.000 db=0.53
G1 E43.4291 F2400                       ; retract de=-2.2205@-40.0 r=1.08
;00:01:22.202: pe=-1.5008 eb=0.0288 ve=-40.0000 vn=0.0000 vl=0.000 db=0.54
G1 Z0.500 F420                          ; hopup dz=0.20@7 h=0.5 r=0.84
;00:01:22.231: pe=-1.5008 eb=0.0288 ve=0.0000 vn=0.0000 vl=0.000 db=0.42
G1 X35.00 Y60.62 F6000                  ; move dl=6.4@100(0<40>0) de=0.000@0.0(0.0<0.0>0.0) l=0.50x0.50x0.00 r=0.00
;00:01:22.470: pe=-1.5008 eb=0.0000 ve=0.0000 vn=0.0000 vl=0.000 db=0.00
G1 Z0.300 F420                          ; hopdn dz=-0.20@7 h=0.3 r=0.00
;00:01:22.498: pe=-1.5008 eb=0.0000 ve=0.0000 vn=0.0000 vl=0.000 db=0.00
G1 E45.6882 F1800                       ; restore de=2.2592@30.0 r=0.73
;00:01:22.574: pe=0.7452 eb=0.0131 ve=30.0000 vn=0.9481 vl=0.000 db=0.37
G1 X36.50 Y63.22 E45.8753 F600          ; draw dl=3.0@10(0<10>0) de=0.187@0.58(0.0<0.62>0.0) l=0.30x0.50x1.00 r=1.06
;00:01:22.894: pe=0.7333 eb=0.0289 ve=0.0000 vn=0.4757 vl=0.000 db=0.54
G1 E43.6420 F2400                       ; retract de=-2.2333@-40.0 r=1.10
;00:01:22.950: pe=-1.5009 eb=0.0297 ve=-40.0000 vn=0.0000 vl=0.000 db=0.55
G1 Z0.500 F420                          ; hopup dz=0.20@7 h=0.5 r=0.85
;00:01:22.978: pe=-1.5009 eb=0.0297 ve=0.0000 vn=0.0000 vl=0.000 db=0.43
G1 X29.58 Y63.44 F6000                  ; move dl=6.9@100(0<42>0) de=0.000@0.0(0.0<0.0>0.0) l=0.50x0.50x0.00 r=0.00
;00:01:23.228: pe=-1.5009 eb=0.0000 ve=0.0000 vn=0.0000 vl=0.000 db=0.00
G1 Z0.300 F420                          ; hopdn dz=-0.20@7 h=0.3 r=0.00
;00:01:23.256: pe=-1.5009 eb=0.0000 ve=0.0000 vn=0.0000 vl=0.000 db=0.00
G1 E45.8875 F1800                       ; restore de=2.2454@30.0 r=0.72
;00:01:23.331: pe=0.7319 eb=0.0127 ve=30.0000 vn=0.9306 vl=0.000 db=0.36
G1 X30.22 Y64.80 E45.9810 F600          ; draw dl=1.5@10(0<10>0) de=0.094@0.55(0.0<0.62>0.0) l=0.30x0.50x1.00 r=1.12
;00:01:23.501: pe=0.7205 eb=0.0279 ve=0.0000 vn=0.4660 vl=0.000 db=0.53
G1 E43.7605 F2400                       ; retract de=-2.2205@-40.0 r=1.08
;00:01:23.557: pe=-1.5008 eb=0.0288 ve=-40.0000 vn=0.0000 vl=0.000 db=0.54
G1 Z0.500 F420                          ; hopup dz=0.20@7 h=0.5 r=0.84
;00:01:23.585: pe=-1.5008 eb=0.0288 ve=0.0000 vn=0.0000 vl=0.000 db=0.42
G1 X23.94 Y65.78 F6000                  ; move dl=6.4@100(0<40>0) de=0.000@0.0(0.0<0.0>0.0) l=0.50x0.50x0.00 r=0.00
;00:01:23.824: pe=-1.5008 eb=0.0000 ve=0.0000 vn=0.0000 vl=0.000 db=0.00
G1 Z0.300 F420                          ; hopdn dz=-0.20@7 h=0.3 r=0.00
;00:01:23.853: pe=-1.5008 eb=0.0000 ve=0.0000 vn=0.0000 vl=0.000 db=0.00
G1 E46.0059 F1800                       ; restore de=2.2454@30.0 r=0.72
;00:01:23.928: pe=0.7319 eb=0.0127 ve=30.0000 vn=0.9306 vl=0.000 db=0.36
G1 X24.45 Y67.19 E46.0995 F600          ; draw dl=1.5@10(0<10>0) de=0.094@0.55(0.0<0.62>0.0) l=0.30x0.50x1.00 r=1.12
;00:01:24.098: pe=0.7205 eb=0.0279 ve=0.0000 vn=0.4660 vl=0.000 db=0.53
G1 E43.8790 F2400                       ; retract de=-2.2205@-40.0 r=1.08
;00:01:24.153: pe=-1.5008 eb=0.0288 ve=-40.0000 vn=0.0000 vl=0.000 db=0.54
G1 Z0.500 F420                          ; hopup dz=0.20@7 h=0.5 r=0.84
;00:01:24.182: pe=-1.5008 eb=0.0288 ve=0.0000 vn=0.0000 vl=0.000 db=0.42
G1 X18.12 Y67.61 F6000                  ; move dl=6.4@100(0<40>0) de=0.000@0.0(0.0<0.0>0.0) l=0.50x0.50x0.00 r=0.00
;00:01:24.421: pe=-1.5008 eb=0.0000 ve=0.0000 vn=0.0000 vl=0.000 db=0.00
G1 Z0.300 F420                          ; hopdn dz=-0.20@7 h=0.3 r=0.00
;00:01:24.449: pe=-1.5008 eb=0.0000 ve=0.0000 vn=0.0000 vl=0.000 db=0.00
G1 E46.1244 F1800                       ; restore de=2.2454@30.0 r=0.72
;00:01:24.524: pe=0.7319 eb=0.0127 ve=30.0000 vn=0.9306 vl=0.000 db=0.36
G1 X18.51 Y69.06 E46.2180 F600          ; draw dl=1.5@10(0<10>0) de=0.094@0.55(0.0<0.62>0.0) l=0.30x0.50x1.00 r=1.12
;00:01:24.694: pe=0.7205 eb=0.0279 ve=0.0000 vn=0.4660 vl=0.000 db=0.53
G1 E43.9975 F2400                       ; retract de=-2.2205@-40.0 r=1.08
;00:01:24.750: pe=-1.5008 eb=0.0288 ve=-40.0000 vn=0.0000 vl=0.000 db=0.54
G1 Z0.500 F420                          ; hopup dz=0.20@7 h=0.5 r=0.84
;00:01:24.778: pe=-1.5008 eb=0.0288 ve=0.0000 vn=0.0000 vl=0.000 db=0.42
G1 X12.16 Y68.94 F6000                  ; move dl=6.4@100(0<40>0) de=0.000@0.0(0.0<0.0>0.0) l=0.50x0.50x0.00 r=0.00
;00:01:25.017: pe=-1.5008 eb=0.0000 ve=0.0000 vn=0.0000 vl=0.000 db=0.00
G1 Z0.300 F420                          ; hopdn dz=-0.20@7 h=0.3 r=0.00
;00:01:25.046: pe=-1.5008 eb=0.0000 ve=0.0000 vn=0.0000 vl=0.000 db=0.00
G1 E46.2429 F1800                       ; restore de=2.2454@30.0 r=0.72
;00:01:25.121: pe=0.7319 eb=0.0127 ve=30.0000 vn=0.9306 vl=0.000 db=0.36
G1 X12.42 Y70.41 E46.3364 F600          ; draw dl=1.5@10(0<10>0) de=0.094@0.55(0.0<0.62>0.0) l=0.30x0.50x1.00 r=1.12
;00:01:25.291: pe=0.7205 eb=0.0279 ve=0.0000 vn=0.4660 vl=0.000 db=0.53
G1 E44.1159 F2400                       ; retract de=-2.2205@-40.0 r=1.08
;00:01:25.346: pe=-1.5008 eb=0.0288 ve=-40.0000 vn=0.0000 vl=0.000 db=0.54
G1 Z0.500 F420                          ; hopup dz=0.20@7 h=0.5 r=0.84
;00:01:25.375: pe=-1.5008 eb=0.0288 ve=0.0000 vn=0.0000 vl=0.000 db=0.42
G1 X6.10 Y69.73 F6000                   ; move dl=6.4@100(0<40>0) de=0.000@0.0(0.0<0.0>0.0) l=0.50x0.50x0.00 r=0.00
;00:01:25.614: pe=-1.5008 eb=0.0000 ve=0.0000 vn=0.0000 vl=0.000 db=0.00
G1 Z0.300 F420                          ; hopdn dz=-0.20@7 h=0.3 r=0.00
;00:01:25.643: pe=-1.5008 eb=0.0000 ve=0.0000 vn=0.0000 vl=0.000 db=0.00
G1 E46.3613 F1800                       ; restore de=2.2454@30.0 r=0.72
;00:01:25.717: pe=0.7319 eb=0.0127 ve=30.0000 vn=0.9306 vl=0.000 db=0.36
G1 X6.23 Y71.23 E46.4549 F600           ; draw dl=1.5@10(0<10>0) de=0.094@0.55(0.0<0.62>0.0) l=0.30x0.50x1.00 r=1.12
;00:01:25.887: pe=0.7205 eb=0.0279 ve=0.0000 vn=0.4660 vl=0.000 db=0.53
G1 E44.2344 F2400                       ; retract de=-2.2205@-40.0 r=1.08
;00:01:25.943: pe=-1.5008 eb=0.0288 ve=-40.0000 vn=0.0000 vl=0.000 db=0.54
G1 Z0.500 F420                          ; hopup dz=0.20@7 h=0.5 r=0.84
;00:01:25.972: pe=-1.5008 eb=0.0288 ve=0.0000 vn=0.0000 vl=0.000 db=0.42
G1 X0.00 Y70.00 F6000                   ; move dl=6.4@100(0<40>0) de=0.000@0.0(0.0<0.0>0.0) l=0.50x0.50x0.00 r=0.00
;00:01:26.211: pe=-1.5008 eb=0.0000 ve=0.0000 vn=0.0000 vl=0.000 db=0.00
G1 Z0.300 F420                          ; hopdn dz=-0.20@7 h=0.3 r=0.00
;00:01:26.239: pe=-1.5008 eb=0.0000 ve=0.0000 vn=0.0000 vl=0.000 db=0.00
G1 E46.4936 F1800                       ; restore de=2.2592@30.0 r=0.73
;00:01:26.315: pe=0.7452 eb=0.0131 ve=30.0000 vn=0.9481 vl=0.000 db=0.37
G1 X0.00 Y73.00 E46.6807 F600           ; draw dl=3.0@10(0<10>0) de=0.187@0.58(0.0<0.62>0.0) l=0.30x0.50x1.00 r=1.06
;00:01:26.635: pe=0.7333 eb=0.0289 ve=0.0000 vn=0.4757 vl=0.000 db=0.54
G1 E44.4474 F2400                       ; retract de=-2.2333@-40.0 r=1.10
;00:01:26.690: pe=-1.5009 eb=0.0297 ve=-40.0000 vn=0.0000 vl=0.000 db=0.55
G1 Z0.500 F420                          ; hopup dz=0.20@7 h=0.5 r=0.85
;00:01:26.719: pe=-1.5009 eb=0.0297 ve=0.0000 vn=0.0000 vl=0.000 db=0.43
G1 X-6.10 Y69.73 F6000                  ; move dl=6.9@100(0<42>0) de=0.000@0.0(0.0<0.0>0.0) l=0.50x0.50x0.00 r=0.00
;00:01:26.968: pe=-1.5009 eb=0.0000 ve=0.0000 vn=0.0000 vl=0.000 db=0.00
G1 Z0.300 F420                          ; hopdn dz=-0.20@7 h=0.3 r=0.00
;00:01:26.997: pe=-1.5009 eb=0.0000 ve=0.0000 vn=0.0000 vl=0.000 db=0.00
G1 E46.6928 F1800                       ; restore de=2.2454@30.0 r=0.72
;00:01:27.072: pe=0.7319 eb=0.0127 ve=30.0000 vn=0.9306 vl=0.000 db=0.36
G1 X-6.23 Y71.23 E46.7864 F600          ; draw dl=1.5@10(0<10>0) de=0.094@0.55(0.0<0.62>0.0) l=0.30x0.50x1.00 r=1.12
;00:01:27.242: pe=0.7205 eb=0.0279 ve=0.0000 vn=0.4660 vl=0.000 db=0.53
G1 E44.5659 F2400                       ; retract de=-2.2205@-40.0 r=1.08
;00:01:27.297: pe=-1.5008 eb=0.0288 ve=-40.0000 vn=0.0000 vl=0.000 db=0.54
G1 Z0.500 F420                          ; hopup dz=0.20@7 h=0.5 r=0.84
;00:01:27.326: pe=-1.5008 eb=0.0288 ve=0.0000 vn=0.0000 vl=0.000 db=0.42
G1 X-12.16 Y68.94 F6000                 ; move dl=6.4@100(0<40>0) de=0.000@0.0(0.0<0.0>0.0) l=0.50x0.50x0.00 r=0.00
;00:01:27.565: pe=-1.5008 eb=0.0000 ve=0.0000 vn=0.0000 vl=0.000 db=0.00
G1 Z0.300 F420                          ; hopdn dz=-0.20@7 h=0.3 r=0.00
;00:01:27.594: pe=-1.5008 eb=0.0000 ve=0.0000 vn=0.0000 vl=0.000 db=0.00
G1 E46.8113 F1800                       ; restore de=2.2454@30.0 r=0.72
;00:01:27.668: pe=0.7319 eb=0.0127 ve=30.0000 vn=0.9306 vl=0.000 db=0.36
G1 X-12.42 Y70.41 E46.9048 F600         ; draw dl=1.5@10(0<10>0) de=0.094@0.55(0.0<0.62>0.0) l=0.30x0.50x1.00 r=1.12
;00:01:27.838: pe=0.7205 eb=0.0279 ve=0.0000 vn=0.4660 vl=0.000 db=0.53
G1 E44.6843 F2400                       ; retract de=-2.2205@-40.0 r=1.08
;00:01:27.894: pe=-1.5008 eb=0.0288 ve=-40.0000 vn=0.0000 vl=0.000 db=0.54
G1 Z0.500 F420                          ; hopup dz=0.20@7 h=0.5 r=0.84
;00:01:27.923: pe=-1.5008 eb=0.0288 ve=0.0000 vn=0.0000 vl=0.000 db=0.42
G1 X-18.12 Y67.61 F6000                 ; move dl=6.4@100(0<40>0) de=0.000@0.0(0.0<0.0>0.0) l=0.50x0.50x0.00 r=0.00
;00:01:28.162: pe=-1.5008 eb=0.0000 ve=0.0000 vn=0.0000 vl=0.000 db=0.00
G1 Z0.300 F420                          ; hopdn dz=-0.20@7 h=0.3 r=0.00
;00:01:28.190: pe=-1.5008 eb=0.0000 ve=0.0000 vn=0.0000 vl=0.000 db=0.00
G1 E46.9298 F1800                       ; restore de=2.2454@30.0 r=0.72
;00:01:28.265: pe=0.7319 eb=0.0127 ve=30.0000 vn=0.9306 vl=0.000 db=0.36
G1 X-18.51 Y69.06 E47.0233 F600         ; draw dl=1.5@10(0<10>0) de=0.094@0.55(0.0<0.62>0.0) l=0.30x0.50x1.00 r=1.12
;00:01:28.435: pe=0.7205 eb=0.0279 ve=0.0000 vn=0.4660 vl=0.000 db=0.53
G1 E44.8028 F2400                       ; retract de=-2.2205@-40.0 r=1.08
;00:01:28.491: pe=-1.5008 eb=0.0288 ve=-40.0000 vn=0.0000 vl=0.000 db=0.54
G1 Z0.500 F420                          ; hopup dz=0.20@7 h=0.5 r=0.84
;00:01:28.519: pe=-1.5008 eb=0.0288 ve=0.0000 vn=0.0000 vl=0.000 db=0.42
G1 X-23.94 Y65.78 F6000                 ; move dl=6.4@100(0<40>0) de=0.000@0.0(0.0<0.0>0.0) l=0.50x0.50x0.00 r=0.00
;00:01:28.758: pe=-1.5008 eb=0.0000 ve=0.0000 vn=0.0000 vl=0.000 db=0.00
G1 Z0.300 F420                          ; hopdn dz=-0.20@7 h=0.3 r=0.00
;00:01:28.787: pe=-1.5008 eb=0.0000 ve=0.0000 vn=0.0000 vl=0.000 db=0.00
G1 E47.0482 F1800                       ; restore de=2.2454@30.0 r=0.72
;00:01:28.862: pe=0.7319 eb=0.0127 ve=30.0000 vn=0.9306 vl=0.000 db=0.36
G1 X-24.45 Y67.19 E47.1418 F600         ; draw dl=1.5@10(0<10>0) de=0.094@0.55(0.0<0.62>0.0) l=0.30x0.50x1.00 r=1.12
;00:01:29.032: pe=0.7205 eb=0.0279 ve=0.0000 vn=0.4660 vl=0.000 db=0.53
G1 E44.9213 F2400                       ; retract de=-2.2205@-40.0 r=1.08
;00:01:29.087: pe=-1.5008 eb=0.0288 ve=-40.0000 vn=0.0000 vl=0.000 db=0.54
G1 Z0.500 F420                          ; hopup dz=0.20@7 h=0.5 r=0.84
;00:01:29.116: pe=-1.5008 eb=0.0288 ve=0.0000 vn=0.0000 vl=0.000 db=0.42
G1 X-29.58 Y63.44 F6000                 ; move dl=6.4@100(0<40>0) de=0.000@0.0(0.0<0.0>0.0) l=0.50x0.50x0.00 r=0.00
;00:01:29.355: pe=-1.5008 eb=0.0000 ve=0.0000 vn=0.0000 vl=0.000 db=0.00
G1 Z0.300 F420                          ; hopdn dz=-0.20@7 h=0.3 r=0.00
;00:01:29.383: pe=-1.5008 eb=0.0000 ve=0.0000 vn=0.0000 vl=0.000 db=0.00
G1 E47.1667 F1800                       ; restore de=2.2454@30.0 r=0.72
;00:01:29.458: pe=0.7319 eb=0.0127 ve=30.0000 vn=0.9306 vl=0.000 db=0.36
G1 X-30.22 Y64.80 E47.2602 F600         ; draw dl=1.5@10(0<10>0) de=0.094@0.55(0.0<0.62>0.0) l=0.30x0.50x1.00 r=1.12
;00:01:29.628: pe=0.7205 eb=0.0279 ve=0.0000 vn=0.4660 vl=0.000 db=0.53
G1 E45.0398 F2400                       ; retract de=-2.2205@-40.0 r=1.08
;00:01:29.684: pe=-1.5008 eb=0.0288 ve=-40.0000 vn=0.0000 vl=0.000 db=0.54
G1 Z0.500 F420                          ; hopup dz=0.20@7 h=0.5 r=0.84
;00:01:29.712: pe=-1.5008 eb=0.0288 ve=0.0000 vn=0.0000 vl=0.000 db=0.42
G1 X-35.00 Y60.62 F6000                 ; move dl=6.4@100(0<40>0) de=0.000@0.0(0.0<0.0>0.0) l=0.50x0.50x0.00 r=0.00
;00:01:29.951: pe=-1.5008 eb=0.0000 ve=0.0000 vn=0.0000 vl=0.000 db=0.00
G1 Z0.300 F420                          ; hopdn dz=-0.20@7 h=0.3 r=0.00
;00:01:29.980: pe=-1.5008 eb=0.0000 ve=0.0000 vn=0.0000 vl=0.000 db=0.00
G1 E47.2989 F1800                       ; restore de=2.2592@30.0 r=0.73
;00:01:30.055: pe=0.7452 eb=0.0131 ve=30.0000 vn=0.9481 vl=0.000 db=0.37
G1 X-36.50 Y63.22 E47.4860 F600         ; draw dl=3.0@10(0<10>0) de=0.187@0.58(0.0<0.62>0.0) l=0.30x0.50x1.00 r=1.06
;00:01:30.375: pe=0.7333 eb=0.0289 ve=0.0000 vn=0.4757 vl=0.000 db=0.54
G1 E45.2527 F2400                       ; retract de=-2.2333@-40.0 r=1.10
;00:01:30.431: pe=-1.5009 eb=0.0297 ve=-40.0000 vn=0.0000 vl=0.000 db=0.55
G1 Z0.500 F420                          ; hopup dz=0.20@7 h=0.5 r=0.85
;00:01:30.460: pe=-1.5009 eb=0.0297 ve=0.0000 vn=0.0000 vl=0.000 db=0.43
G1 X-40.15 Y57.34 F6000                 ; move dl=6.9@100(0<42>0) de=0.000@0.0(0.0<0.0>0.0) l=0.50x0.50x0.00 r=0.00
;00:01:30.709: pe=-1.5009 eb=0.0000 ve=0.0000 vn=0.0000 vl=0.000 db=0.00
G1 Z0.300 F420                          ; hopdn dz=-0.20@7 h=0.3 r=0.00
;00:01:30.738: pe=-1.5009 eb=0.0000 ve=0.0000 vn=0.0000 vl=0.000 db=0.00
G1 E47.4982 F1800                       ; restore de=2.2454@30.0 r=0.72
;00:01:30.813: pe=0.7319 eb=0.0127 ve=30.0000 vn=0.9306 vl=0.000 db=0.36
G1 X-41.01 Y58.57 E47.5917 F600         ; draw dl=1.5@10(0<10>0) de=0.094@0.55(0.0<0.62>0.0) l=0.30x0.50x1.00 r=1.12
;00:01:30.983: pe=0.7205 eb=0.0279 ve=0.0000 vn=0.4660 vl=0.000 db=0.53
