;gcode_flavor: flashforge
;machine_type: Adventurer 3 Series
;filament_diameter0: 1.75
;right_extruder_temperature: 210
;platform_temperature: 50
;extruder_fan: 100%
;case_fan: 100%
;base_print_speed: 60
;travel_speed: 100
;vertical_speed: 7
;retract_speed: 40
;restore_speed: 30
;layer_height: 0.30
;line_width: 0.50
;extrusion_ratio: 1.00
;command_line: ./gcodetest.py -Te 210 -Tp 50 -Fe 1.0 -Fc 1.0 -Kf=0.0 -Kb=0.0 -Re=4.0 -v
;start gcode
M118 X75.00 Y75.00 Z150.00 T0
M140 S50 T0
M104 S210 T0
M104 S0 T1
M107
M900 K0.000 T0
G90
G28
M132 X Y Z A B
G1 Z50.000 F420
G161 X Y F3300
M7 T0
M6 T0
M652 S255
M108 T0
M106
;preExtrude:0.20
;00:00:00.000: layer=0 h=0.20 w=0.50 r=1.00
;structure:pre-extrude
G1 X-55.00 Y-65.00 F6000                ; move dl=85.1@100(0<100>0) de=0.000@0.0(0.0<0.0>0.0) l=0.00x0.50x0.00 r=0.00
;00:00:01.051: pe=0.0000 eb=0.0000 ve=0.0000 vn=0.0000 vl=0.000 db=0.00
G1 Z0.200 F420                          ; hopup dz=0.20@7 h=0.2 r=0.00
;00:00:01.080: pe=0.0000 eb=0.0000 ve=0.0000 vn=0.0000 vl=0.000 db=0.00
;00:00:01.080: skipping empty move move dl=0.0@7(0<0>0) de=0.000@0.0(0.0<0.0>0.0) l=0.20x0.50x0.00
G1 X-55.00 Y55.00 E19.9561 F1200        ; draw dl=120.0@20(0<20>0) de=19.956@3.3(0.0<3.33>0.0) l=0.20x0.50x4.00 r=4.00
;00:00:07.120: pe=0.0000 eb=0.2612 ve=0.0000 vn=0.0000 vl=0.000 db=2.00
G1 E15.9561 F2400                       ; retract de=-4.0000@-40.0 r=4.00
;00:00:07.220: pe=-4.0000 eb=0.2612 ve=-40.0000 vn=0.0000 vl=0.000 db=2.00
G1 Z0.400 F420                          ; hopup dz=0.20@7 h=0.4 r=2.83
;00:00:07.249: pe=-4.0000 eb=0.2612 ve=0.0000 vn=0.0000 vl=0.000 db=1.41
;layer:0.30
;00:00:07.249: layer=1 h=0.30 w=0.50 r=1.00
;structure:brim
;structure:shell-outer
;00:00:07.249: text [(-43.0, 60), (None, None)] fsize=5 angle=0 'Kf=0.0 Kb=0.0 Re=4.0'
G1 X-42.50 Y59.88 F6000                 ; move dl=13.4@100(0<58>0) de=0.000@0.0(0.0<0.0>0.0) l=0.40x0.50x0.00 r=0.00
;00:00:07.596: pe=-4.0000 eb=0.0000 ve=0.0000 vn=0.0000 vl=0.000 db=0.00
G1 Z0.300 F420                          ; hopdn dz=-0.10@7 h=0.3 r=0.00
;00:00:07.610: pe=-4.0000 eb=0.0000 ve=0.0000 vn=0.0000 vl=0.000 db=0.00
G1 E19.9561 F1800                       ; restore de=4.0000@30.0 r=0.00
;00:00:07.744: pe=-0.0000 eb=0.0000 ve=30.0000 vn=0.0000 vl=0.000 db=0.00
G1 X-42.50 Y56.48 E20.1681 F600         ; draw dl=3.4@10(0<10>0) de=0.212@0.59(0.0<0.62>0.0) l=0.30x0.50x1.00 r=1.00
;00:00:08.104: pe=0.0000 eb=0.0243 ve=0.0000 vn=0.0000 vl=0.000 db=0.50
G1 E16.1681 F2400                       ; retract de=-4.0000@-40.0 r=1.00
;00:00:08.204: pe=-4.0000 eb=0.0243 ve=-40.0000 vn=0.0000 vl=0.000 db=0.50
G1 Z0.500 F420                          ; hopup dz=0.20@7 h=0.5 r=0.77
;00:00:08.232: pe=-4.0000 eb=0.0243 ve=0.0000 vn=0.0000 vl=0.000 db=0.39
G1 X-40.04 Y56.48 F6000                 ; move dl=2.5@100(0<25>0) de=0.000@0.0(0.0<0.0>0.0) l=0.50x0.50x0.00 r=0.00
;00:00:08.381: pe=-4.0000 eb=0.0000 ve=0.0000 vn=0.0000 vl=0.000 db=0.00
G1 Z0.300 F420                          ; hopdn dz=-0.20@7 h=0.3 r=0.00
;00:00:08.410: pe=-4.0000 eb=0.0000 ve=0.0000 vn=0.0000 vl=0.000 db=0.00
G1 E20.1681 F1800                       ; restore de=4.0000@30.0 r=0.00
;00:00:08.543: pe=-0.0000 eb=0.0000 ve=30.0000 vn=0.0000 vl=0.000 db=0.00
G1 X-41.53 Y58.51 E20.3252 F600         ; draw dl=2.5@10(0<10>0) de=0.157@0.58(0.0<0.62>0.0) l=0.30x0.50x1.00 r=1.00
;00:00:08.815: pe=0.0000 eb=0.0238 ve=0.0000 vn=0.0000 vl=0.000 db=0.49
G1 E16.3252 F2400                       ; retract de=-4.0000@-40.0 r=0.99
;00:00:08.915: pe=-4.0000 eb=0.0238 ve=-40.0000 vn=0.0000 vl=0.000 db=0.49
G1 Z0.500 F420                          ; hopup dz=0.20@7 h=0.5 r=0.76
;00:00:08.943: pe=-4.0000 eb=0.0238 ve=0.0000 vn=0.0000 vl=0.000 db=0.38
G1 X-42.50 Y57.67 F6000                 ; move dl=1.3@100(0<18>0) de=0.000@0.0(0.0<0.0>0.0) l=0.50x0.50x0.00 r=0.00
;00:00:09.051: pe=-4.0000 eb=0.0000 ve=0.0000 vn=0.0000 vl=0.000 db=0.00
G1 Z0.300 F420                          ; hopdn dz=-0.20@7 h=0.3 r=0.00
;00:00:09.079: pe=-4.0000 eb=0.0000 ve=0.0000 vn=0.0000 vl=0.000 db=0.00
G1 E20.3252 F1800                       ; restore de=4.0000@30.0 r=0.00
;00:00:09.213: pe=-0.0000 eb=0.0000 ve=30.0000 vn=0.0000 vl=0.000 db=0.00
G1 X-39.98 Y59.88 E20.5342 F600         ; draw dl=3.4@10(0<10>0) de=0.209@0.59(0.0<0.62>0.0) l=0.30x0.50x1.00 r=1.00
;00:00:09.568: pe=0.0000 eb=0.0242 ve=0.0000 vn=0.0000 vl=0.000 db=0.50
G1 E16.5342 F2400                       ; retract de=-4.0000@-40.0 r=0.99
;00:00:09.668: pe=-4.0000 eb=0.0242 ve=-40.0000 vn=0.0000 vl=0.000 db=0.50
G1 Z0.500 F420                          ; hopup dz=0.20@7 h=0.5 r=0.77
;00:00:09.697: pe=-4.0000 eb=0.0242 ve=0.0000 vn=0.0000 vl=0.000 db=0.39
G1 X-37.73 Y59.90 F6000                 ; move dl=2.3@100(0<24>0) de=0.000@0.0(0.0<0.0>0.0) l=0.50x0.50x0.00 r=0.00
;00:00:09.839: pe=-4.0000 eb=0.0000 ve=0.0000 vn=0.0000 vl=0.000 db=0.00
G1 Z0.300 F420                          ; hopdn dz=-0.20@7 h=0.3 r=0.00
;00:00:09.867: pe=-4.0000 eb=0.0000 ve=0.0000 vn=0.0000 vl=0.000 db=0.00
G1 E20.5342 F1800                       ; restore de=4.0000@30.0 r=0.00
;00:00:10.001: pe=-0.0000 eb=0.0000 ve=30.0000 vn=0.0000 vl=0.000 db=0.00
G1 X-37.88 Y59.90 E20.5435 F600         ; draw dl=0.1@10(0<10>10) de=0.009@0.37(0.0<0.62>0.62) l=0.30x0.50x1.00 r=1.00
;00:00:10.026: pe=0.0000 eb=0.0061 ve=0.6236 vn=0.6236 vl=10.000 db=0.25
G1 X-38.06 Y59.86 E20.5550              ; draw dl=0.2@10(10<10>10) de=0.011@0.62(0.62<0.62>0.62) l=0.30x0.50x1.00 r=1.00
;00:00:10.044: pe=0.0000 eb=0.0109 ve=0.6236 vn=0.6236 vl=10.000 db=0.33
G1 X-38.22 Y59.73 E20.5679              ; draw dl=0.2@10(10<10>10) de=0.013@0.62(0.62<0.62>0.62) l=0.30x0.50x1.00 r=1.00
;00:00:10.065: pe=0.0000 eb=0.0145 ve=0.6236 vn=0.6236 vl=10.000 db=0.38
G1 X-38.34 Y59.54 E20.5819              ; draw dl=0.2@10(10<10>10) de=0.014@0.62(0.62<0.62>0.62) l=0.30x0.50x1.00 r=1.00
;00:00:10.087: pe=0.0000 eb=0.0172 ve=0.6236 vn=0.6236 vl=10.000 db=0.42
G1 X-38.42 Y59.17 E20.6055              ; draw dl=0.4@10(10<10>10) de=0.024@0.62(0.62<0.62>0.62) l=0.30x0.50x1.00 r=1.00
;00:00:10.125: pe=0.0000 eb=0.0202 ve=0.6236 vn=0.6236 vl=10.000 db=0.45
G1 X-38.42 Y56.48 E20.7733              ; draw dl=2.7@10(10<10>0) de=0.168@0.6(0.62<0.62>0.0) l=0.30x0.50x1.00 r=1.00
;00:00:10.404: pe=0.0000 eb=0.0244 ve=0.0000 vn=0.0000 vl=0.000 db=0.50
G1 E16.7733 F2400                       ; retract de=-4.0000@-40.0 r=1.00
;00:00:10.504: pe=-4.0000 eb=0.0244 ve=-40.0000 vn=0.0000 vl=0.000 db=0.50
G1 Z0.500 F420                          ; hopup dz=0.20@7 h=0.5 r=0.77
;00:00:10.533: pe=-4.0000 eb=0.0244 ve=0.0000 vn=0.0000 vl=0.000 db=0.39
G1 X-38.92 Y58.76 F6000                 ; move dl=2.3@100(0<24>0) de=0.000@0.0(0.0<0.0>0.0) l=0.50x0.50x0.00 r=0.00
;00:00:10.678: pe=-4.0000 eb=0.0000 ve=0.0000 vn=0.0000 vl=0.000 db=0.00
G1 Z0.300 F420                          ; hopdn dz=-0.20@7 h=0.3 r=0.00
;00:00:10.706: pe=-4.0000 eb=0.0000 ve=0.0000 vn=0.0000 vl=0.000 db=0.00
G1 E20.7733 F1800                       ; restore de=4.0000@30.0 r=0.00
;00:00:10.840: pe=-0.0000 eb=0.0000 ve=30.0000 vn=0.0000 vl=0.000 db=0.00
G1 X-37.84 Y58.76 E20.8406 F600         ; draw dl=1.1@10(0<10>0) de=0.067@0.53(0.0<0.62>0.0) l=0.30x0.50x1.00 r=1.00
;00:00:10.968: pe=0.0000 eb=0.0198 ve=0.0000 vn=0.0000 vl=0.000 db=0.45
G1 E16.8406 F2400                       ; retract de=-4.0000@-40.0 r=0.90
;00:00:11.068: pe=-4.0000 eb=0.0198 ve=-40.0000 vn=0.0000 vl=0.000 db=0.45
G1 Z0.500 F420                          ; hopup dz=0.20@7 h=0.5 r=0.70
;00:00:11.096: pe=-4.0000 eb=0.0198 ve=0.0000 vn=0.0000 vl=0.000 db=0.35
G1 X-36.66 Y58.26 F6000                 ; move dl=1.3@100(0<18>0) de=0.000@0.0(0.0<0.0>0.0) l=0.50x0.50x0.00 r=0.00
;00:00:11.204: pe=-4.0000 eb=0.0000 ve=0.0000 vn=0.0000 vl=0.000 db=0.00
G1 Z0.300 F420                          ; hopdn dz=-0.20@7 h=0.3 r=0.00
;00:00:11.232: pe=-4.0000 eb=0.0000 ve=0.0000 vn=0.0000 vl=0.000 db=0.00
G1 E20.8406 F1800                       ; restore de=4.0000@30.0 r=0.00
;00:00:11.365: pe=-0.0000 eb=0.0000 ve=30.0000 vn=0.0000 vl=0.000 db=0.00
G1 X-34.97 Y58.26 E20.9460 F600         ; draw dl=1.7@10(0<10>0) de=0.105@0.56(0.0<0.62>0.0) l=0.30x0.50x1.00 r=1.00
;00:00:11.554: pe=0.0000 eb=0.0224 ve=0.0000 vn=0.0000 vl=0.000 db=0.48
G1 E16.9460 F2400                       ; retract de=-4.0000@-40.0 r=0.96
;00:00:11.654: pe=-4.0000 eb=0.0224 ve=-40.0000 vn=0.0000 vl=0.000 db=0.48
G1 Z0.500 F420                          ; hopup dz=0.20@7 h=0.5 r=0.74
;00:00:11.683: pe=-4.0000 eb=0.0224 ve=0.0000 vn=0.0000 vl=0.000 db=0.37
G1 X-34.97 Y57.55 F6000                 ; move dl=0.7@100(0<13>0) de=0.000@0.0(0.0<0.0>0.0) l=0.50x0.50x0.00 r=0.00
;00:00:11.763: pe=-4.0000 eb=0.0000 ve=0.0000 vn=0.0000 vl=0.000 db=0.00
G1 Z0.300 F420                          ; hopdn dz=-0.20@7 h=0.3 r=0.00
;00:00:11.791: pe=-4.0000 eb=0.0000 ve=0.0000 vn=0.0000 vl=0.000 db=0.00
G1 E20.9460 F1800                       ; restore de=4.0000@30.0 r=0.00
;00:00:11.925: pe=-0.0000 eb=0.0000 ve=30.0000 vn=0.0000 vl=0.000 db=0.00
G1 X-36.66 Y57.55 E21.0514 F600         ; draw dl=1.7@10(0<10>0) de=0.105@0.56(0.0<0.62>0.0) l=0.30x0.50x1.00 r=1.00
;00:00:12.114: pe=0.0000 eb=0.0224 ve=0.0000 vn=0.0000 vl=0.000 db=0.48
G1 E17.0514 F2400                       ; retract de=-4.0000@-40.0 r=0.96
;00:00:12.214: pe=-4.0000 eb=0.0224 ve=-40.0000 vn=0.0000 vl=0.000 db=0.48
G1 Z0.500 F420                          ; hopup dz=0.20@7 h=0.5 r=0.74
;00:00:12.242: pe=-4.0000 eb=0.0224 ve=0.0000 vn=0.0000 vl=0.000 db=0.37
G1 X-32.69 Y59.94 F6000                 ; move dl=4.6@100(0<34>0) de=0.000@0.0(0.0<0.0>0.0) l=0.50x0.50x0.00 r=0.00
;00:00:12.447: pe=-4.0000 eb=0.0000 ve=0.0000 vn=0.0000 vl=0.000 db=0.00
G1 Z0.300 F420                          ; hopdn dz=-0.20@7 h=0.3 r=0.00
;00:00:12.475: pe=-4.0000 eb=0.0000 ve=0.0000 vn=0.0000 vl=0.000 db=0.00
G1 E21.0514 F1800                       ; restore de=4.0000@30.0 r=0.00
;00:00:12.609: pe=-0.0000 eb=0.0000 ve=30.0000 vn=0.0000 vl=0.000 db=0.00
G1 X-32.18 Y59.80 E21.0844 F600         ; draw dl=0.5@10(0<10>10) de=0.033@0.52(0.0<0.62>0.62) l=0.30x0.50x1.00 r=1.00
;00:00:12.671: pe=0.0000 eb=0.0143 ve=0.6236 vn=0.6236 vl=10.000 db=0.38
G1 X-31.79 Y59.42 E21.1183              ; draw dl=0.5@10(10<10>10) de=0.034@0.62(0.62<0.62>0.62) l=0.30x0.50x1.00 r=1.00
;00:00:12.726: pe=0.0000 eb=0.0197 ve=0.6236 vn=0.6236 vl=10.000 db=0.45
G1 X-31.55 Y58.86 E21.1563              ; draw dl=0.6@10(10<10>10) de=0.038@0.62(0.62<0.62>0.62) l=0.30x0.50x1.00 r=1.00
;00:00:12.787: pe=0.0000 eb=0.0224 ve=0.6236 vn=0.6236 vl=10.000 db=0.48
G1 X-31.47 Y58.18 E21.1990              ; draw dl=0.7@10(10<10>10) de=0.043@0.62(0.62<0.62>0.62) l=0.30x0.50x1.00 r=1.00
;00:00:12.855: pe=0.0000 eb=0.0236 ve=0.6236 vn=0.6236 vl=10.000 db=0.49
G1 X-31.55 Y57.51 E21.2411              ; draw dl=0.7@10(10<10>10) de=0.042@0.62(0.62<0.62>0.62) l=0.30x0.50x1.00 r=1.00
;00:00:12.923: pe=0.0000 eb=0.0241 ve=0.6236 vn=0.6236 vl=10.000 db=0.50
G1 X-31.79 Y56.95 E21.2791              ; draw dl=0.6@10(10<10>10) de=0.038@0.62(0.62<0.62>0.62) l=0.30x0.50x1.00 r=1.00
;00:00:12.984: pe=0.0000 eb=0.0243 ve=0.6236 vn=0.6236 vl=10.000 db=0.50
G1 X-32.18 Y56.56 E21.3135              ; draw dl=0.6@10(10<10>10) de=0.034@0.62(0.62<0.62>0.62) l=0.30x0.50x1.00 r=1.00
;00:00:13.039: pe=0.0000 eb=0.0244 ve=0.6236 vn=0.6236 vl=10.000 db=0.50
G1 X-32.69 Y56.42 E21.3465              ; draw dl=0.5@10(10<10>10) de=0.033@0.62(0.62<0.62>0.62) l=0.30x0.50x1.00 r=1.00
;00:00:13.092: pe=0.0000 eb=0.0244 ve=0.6236 vn=0.6236 vl=10.000 db=0.50
G1 X-33.21 Y56.56 E21.3801              ; draw dl=0.5@10(10<10>10) de=0.034@0.62(0.62<0.62>0.62) l=0.30x0.50x1.00 r=1.00
;00:00:13.146: pe=0.0000 eb=0.0245 ve=0.6236 vn=0.6236 vl=10.000 db=0.50
G1 X-33.59 Y56.95 E21.4140              ; draw dl=0.5@10(10<10>10) de=0.034@0.62(0.62<0.62>0.62) l=0.30x0.50x1.00 r=1.00
;00:00:13.200: pe=-0.0000 eb=0.0245 ve=0.6236 vn=0.0000 vl=10.000 db=0.50
G1 X-33.83 Y57.51 E21.4520              ; draw dl=0.6@10(10<10>10) de=0.038@0.62(0.62<0.62>0.62) l=0.30x0.50x1.00 r=1.00
;00:00:13.261: pe=0.0000 eb=0.0245 ve=0.6236 vn=0.6236 vl=10.000 db=0.50
G1 X-33.91 Y58.18 E21.4941              ; draw dl=0.7@10(10<10>10) de=0.042@0.62(0.62<0.62>0.62) l=0.30x0.50x1.00 r=1.00
;00:00:13.328: pe=0.0000 eb=0.0245 ve=0.6236 vn=0.6236 vl=10.000 db=0.50
G1 X-33.83 Y58.85 E21.5362              ; draw dl=0.7@10(10<10>10) de=0.042@0.62(0.62<0.62>0.62) l=0.30x0.50x1.00 r=1.00
;00:00:13.396: pe=0.0000 eb=0.0245 ve=0.6236 vn=0.6236 vl=10.000 db=0.50
G1 X-33.59 Y59.42 E21.5748              ; draw dl=0.6@10(10<10>10) de=0.039@0.62(0.62<0.62>0.62) l=0.30x0.50x1.00 r=1.00
;00:00:13.458: pe=0.0000 eb=0.0245 ve=0.6236 vn=0.6236 vl=10.000 db=0.50
G1 X-33.21 Y59.80 E21.6083              ; draw dl=0.5@10(10<10>10) de=0.034@0.62(0.62<0.62>0.62) l=0.30x0.50x1.00 r=1.00
;00:00:13.511: pe=0.0000 eb=0.0245 ve=0.6236 vn=0.6236 vl=10.000 db=0.50
G1 X-32.69 Y59.94 E21.6418              ; draw dl=0.5@10(10<10>0) de=0.034@0.53(0.62<0.62>0.0) l=0.30x0.50x1.00 r=1.00
;00:00:13.575: pe=0.0000 eb=0.0245 ve=0.0000 vn=0.0000 vl=0.000 db=0.50
G1 E17.6418 F2400                       ; retract de=-4.0000@-40.0 r=1.00
;00:00:13.675: pe=-4.0000 eb=0.0245 ve=-40.0000 vn=0.0000 vl=0.000 db=0.50
G1 Z0.500 F420                          ; hopup dz=0.20@7 h=0.5 r=0.77
;00:00:13.704: pe=-4.0000 eb=0.0245 ve=0.0000 vn=0.0000 vl=0.000 db=0.39
G1 X-30.41 Y56.71 F6000                 ; move dl=4.0@100(0<31>0) de=0.000@0.0(0.0<0.0>0.0) l=0.50x0.50x0.00 r=0.00
;00:00:13.893: pe=-4.0000 eb=0.0000 ve=0.0000 vn=0.0000 vl=0.000 db=0.00
G1 Z0.300 F420                          ; hopdn dz=-0.20@7 h=0.3 r=0.00
;00:00:13.921: pe=-4.0000 eb=0.0000 ve=0.0000 vn=0.0000 vl=0.000 db=0.00
G1 E21.6418 F1800                       ; restore de=4.0000@30.0 r=0.00
;00:00:14.054: pe=-0.0000 eb=0.0000 ve=30.0000 vn=0.0000 vl=0.000 db=0.00
G1 X-30.41 Y56.65 E21.6456 F600         ; draw dl=0.1@10(0<4>0) de=0.004@0.16(0.0<0.24>0.0) l=0.30x0.50x1.00 r=1.00
;00:00:14.078: pe=0.0000 eb=0.0029 ve=0.0000 vn=0.0000 vl=0.000 db=0.17
G1 E17.6456 F2400                       ; retract de=-4.0000@-40.0 r=0.34
;00:00:14.178: pe=-4.0000 eb=0.0029 ve=-40.0000 vn=0.0000 vl=0.000 db=0.17
G1 Z0.500 F420                          ; hopup dz=0.20@7 h=0.5 r=0.27
;00:00:14.206: pe=-4.0000 eb=0.0029 ve=0.0000 vn=0.0000 vl=0.000 db=0.13
G1 X-28.13 Y59.94 F6000                 ; move dl=4.0@100(0<32>0) de=0.000@0.0(0.0<0.0>0.0) l=0.50x0.50x0.00 r=0.00
;00:00:14.396: pe=-4.0000 eb=0.0000 ve=0.0000 vn=0.0000 vl=0.000 db=0.00
G1 Z0.300 F420                          ; hopdn dz=-0.20@7 h=0.3 r=0.00
;00:00:14.425: pe=-4.0000 eb=0.0000 ve=0.0000 vn=0.0000 vl=0.000 db=0.00
G1 E21.6456 F1800                       ; restore de=4.0000@30.0 r=0.00
;00:00:14.558: pe=-0.0000 eb=0.0000 ve=30.0000 vn=0.0000 vl=0.000 db=0.00
G1 X-27.62 Y59.80 E21.6786 F600         ; draw dl=0.5@10(0<10>10) de=0.033@0.52(0.0<0.62>0.62) l=0.30x0.50x1.00 r=1.00
;00:00:14.621: pe=0.0000 eb=0.0143 ve=0.6237 vn=0.6237 vl=10.000 db=0.38
G1 X-27.23 Y59.42 E21.7125              ; draw dl=0.5@10(10<10>10) de=0.034@0.62(0.62<0.62>0.62) l=0.30x0.50x1.00 r=1.00
;00:00:14.675: pe=0.0000 eb=0.0197 ve=0.6237 vn=0.6237 vl=10.000 db=0.45
G1 X-26.99 Y58.86 E21.7505              ; draw dl=0.6@10(10<10>10) de=0.038@0.62(0.62<0.62>0.62) l=0.30x0.50x1.00 r=1.00
;00:00:14.736: pe=0.0000 eb=0.0224 ve=0.6237 vn=0.6237 vl=10.000 db=0.48
G1 X-26.91 Y58.18 E21.7932              ; draw dl=0.7@10(10<10>10) de=0.043@0.62(0.62<0.62>0.62) l=0.30x0.50x1.00 r=1.00
;00:00:14.805: pe=0.0000 eb=0.0236 ve=0.6237 vn=0.6237 vl=10.000 db=0.49
G1 X-26.99 Y57.51 E21.8353              ; draw dl=0.7@10(10<10>10) de=0.042@0.62(0.62<0.62>0.62) l=0.30x0.50x1.00 r=1.00
;00:00:14.872: pe=0.0000 eb=0.0241 ve=0.6237 vn=0.6237 vl=10.000 db=0.50
G1 X-27.23 Y56.95 E21.8733              ; draw dl=0.6@10(10<10>10) de=0.038@0.62(0.62<0.62>0.62) l=0.30x0.50x1.00 r=1.00
;00:00:14.933: pe=0.0000 eb=0.0243 ve=0.6237 vn=0.6237 vl=10.000 db=0.50
G1 X-27.62 Y56.56 E21.9077              ; draw dl=0.6@10(10<10>10) de=0.034@0.62(0.62<0.62>0.62) l=0.30x0.50x1.00 r=1.00
;00:00:14.988: pe=0.0000 eb=0.0244 ve=0.6237 vn=0.6237 vl=10.000 db=0.50
G1 X-28.13 Y56.42 E21.9407              ; draw dl=0.5@10(10<10>10) de=0.033@0.62(0.62<0.62>0.62) l=0.30x0.50x1.00 r=1.00
;00:00:15.041: pe=0.0000 eb=0.0245 ve=0.6237 vn=0.6237 vl=10.000 db=0.50
G1 X-28.65 Y56.56 E21.9743              ; draw dl=0.5@10(10<10>10) de=0.034@0.62(0.62<0.62>0.62) l=0.30x0.50x1.00 r=1.00
;00:00:15.095: pe=0.0000 eb=0.0245 ve=0.6237 vn=0.6237 vl=10.000 db=0.50
G1 X-29.03 Y56.95 E22.0082              ; draw dl=0.5@10(10<10>10) de=0.034@0.62(0.62<0.62>0.62) l=0.30x0.50x1.00 r=1.00
;00:00:15.149: pe=0.0000 eb=0.0245 ve=0.6237 vn=0.6237 vl=10.000 db=0.50
G1 X-29.27 Y57.51 E22.0462              ; draw dl=0.6@10(10<10>10) de=0.038@0.62(0.62<0.62>0.62) l=0.30x0.50x1.00 r=1.00
;00:00:15.210: pe=0.0000 eb=0.0245 ve=0.6237 vn=0.6237 vl=10.000 db=0.50
G1 X-29.35 Y58.18 E22.0883              ; draw dl=0.7@10(10<10>10) de=0.042@0.62(0.62<0.62>0.62) l=0.30x0.50x1.00 r=1.00
;00:00:15.278: pe=0.0000 eb=0.0245 ve=0.6237 vn=0.6237 vl=10.000 db=0.50
G1 X-29.27 Y58.85 E22.1304              ; draw dl=0.7@10(10<10>10) de=0.042@0.62(0.62<0.62>0.62) l=0.30x0.50x1.00 r=1.00
;00:00:15.345: pe=0.0000 eb=0.0245 ve=0.6237 vn=0.6237 vl=10.000 db=0.50
G1 X-29.03 Y59.42 E22.1690              ; draw dl=0.6@10(10<10>10) de=0.039@0.62(0.62<0.62>0.62) l=0.30x0.50x1.00 r=1.00
;00:00:15.407: pe=0.0000 eb=0.0245 ve=0.6237 vn=0.6237 vl=10.000 db=0.50
G1 X-28.65 Y59.80 E22.2025              ; draw dl=0.5@10(10<10>10) de=0.034@0.62(0.62<0.62>0.62) l=0.30x0.50x1.00 r=1.00
;00:00:15.461: pe=0.0000 eb=0.0245 ve=0.6237 vn=0.6237 vl=10.000 db=0.50
G1 X-28.13 Y59.94 E22.2361              ; draw dl=0.5@10(10<10>0) de=0.034@0.53(0.62<0.62>0.0) l=0.30x0.50x1.00 r=1.00
;00:00:15.525: pe=0.0000 eb=0.0245 ve=0.0000 vn=0.0000 vl=0.000 db=0.50
G1 E18.2361 F2400                       ; retract de=-4.0000@-40.0 r=1.00
;00:00:15.625: pe=-4.0000 eb=0.0245 ve=-40.0000 vn=0.0000 vl=0.000 db=0.50
G1 Z0.500 F420                          ; hopup dz=0.20@7 h=0.5 r=0.77
;00:00:15.653: pe=-4.0000 eb=0.0245 ve=0.0000 vn=0.0000 vl=0.000 db=0.39
G1 X-22.53 Y59.88 F6000                 ; move dl=5.6@100(0<37>0) de=0.000@0.0(0.0<0.0>0.0) l=0.50x0.50x0.00 r=0.00
;00:00:15.878: pe=-4.0000 eb=0.0000 ve=0.0000 vn=0.0000 vl=0.000 db=0.00
G1 Z0.300 F420                          ; hopdn dz=-0.20@7 h=0.3 r=0.00
;00:00:15.906: pe=-4.0000 eb=0.0000 ve=0.0000 vn=0.0000 vl=0.000 db=0.00
G1 E22.2361 F1800                       ; restore de=4.0000@30.0 r=0.00
;00:00:16.040: pe=-0.0000 eb=0.0000 ve=30.0000 vn=0.0000 vl=0.000 db=0.00
G1 X-22.53 Y56.48 E22.4481 F600         ; draw dl=3.4@10(0<10>0) de=0.212@0.59(0.0<0.62>0.0) l=0.30x0.50x1.00 r=1.00
;00:00:16.400: pe=0.0000 eb=0.0243 ve=0.0000 vn=0.0000 vl=0.000 db=0.50
G1 E18.4481 F2400                       ; retract de=-4.0000@-40.0 r=1.00
;00:00:16.500: pe=-4.0000 eb=0.0243 ve=-40.0000 vn=0.0000 vl=0.000 db=0.50
G1 Z0.500 F420                          ; hopup dz=0.20@7 h=0.5 r=0.77
;00:00:16.528: pe=-4.0000 eb=0.0243 ve=0.0000 vn=0.0000 vl=0.000 db=0.39
G1 X-20.07 Y56.48 F6000                 ; move dl=2.5@100(0<25>0) de=0.000@0.0(0.0<0.0>0.0) l=0.50x0.50x0.00 r=0.00
;00:00:16.677: pe=-4.0000 eb=0.0000 ve=0.0000 vn=0.0000 vl=0.000 db=0.00
G1 Z0.300 F420                          ; hopdn dz=-0.20@7 h=0.3 r=0.00
;00:00:16.706: pe=-4.0000 eb=0.0000 ve=0.0000 vn=0.0000 vl=0.000 db=0.00
G1 E22.4481 F1800                       ; restore de=4.0000@30.0 r=0.00
;00:00:16.839: pe=-0.0000 eb=0.0000 ve=30.0000 vn=0.0000 vl=0.000 db=0.00
G1 X-21.56 Y58.51 E22.6052 F600         ; draw dl=2.5@10(0<10>0) de=0.157@0.58(0.0<0.62>0.0) l=0.30x0.50x1.00 r=1.00
;00:00:17.111: pe=0.0000 eb=0.0238 ve=0.0000 vn=0.0000 vl=0.000 db=0.49
G1 E18.6052 F2400                       ; retract de=-4.0000@-40.0 r=0.99
;00:00:17.211: pe=-4.0000 eb=0.0238 ve=-40.0000 vn=0.0000 vl=0.000 db=0.49
G1 Z0.500 F420                          ; hopup dz=0.20@7 h=0.5 r=0.76
;00:00:17.239: pe=-4.0000 eb=0.0238 ve=0.0000 vn=0.0000 vl=0.000 db=0.38
G1 X-22.53 Y57.67 F6000                 ; move dl=1.3@100(0<18>0) de=0.000@0.0(0.0<0.0>0.0) l=0.50x0.50x0.00 r=0.00
;00:00:17.347: pe=-4.0000 eb=0.0000 ve=0.0000 vn=0.0000 vl=0.000 db=0.00
G1 Z0.300 F420                          ; hopdn dz=-0.20@7 h=0.3 r=0.00
;00:00:17.375: pe=-4.0000 eb=0.0000 ve=0.0000 vn=0.0000 vl=0.000 db=0.00
G1 E22.6052 F1800                       ; restore de=4.0000@30.0 r=0.00
;00:00:17.509: pe=-0.0000 eb=0.0000 ve=30.0000 vn=0.0000 vl=0.000 db=0.00
G1 X-20.01 Y59.88 E22.8142 F600         ; draw dl=3.4@10(0<10>0) de=0.209@0.59(0.0<0.62>0.0) l=0.30x0.50x1.00 r=1.00
;00:00:17.864: pe=0.0000 eb=0.0242 ve=0.0000 vn=0.0000 vl=0.000 db=0.50
G1 E18.8142 F2400                       ; retract de=-4.0000@-40.0 r=1.00
;00:00:17.964: pe=-4.0000 eb=0.0242 ve=-40.0000 vn=0.0000 vl=0.000 db=0.50
G1 Z0.500 F420                          ; hopup dz=0.20@7 h=0.5 r=0.77
;00:00:17.992: pe=-4.0000 eb=0.0242 ve=0.0000 vn=0.0000 vl=0.000 db=0.39
G1 X-18.95 Y59.88 F6000                 ; move dl=1.1@100(0<16>0) de=0.000@0.0(0.0<0.0>0.0) l=0.50x0.50x0.00 r=0.00
;00:00:18.090: pe=-4.0000 eb=0.0000 ve=0.0000 vn=0.0000 vl=0.000 db=0.00
G1 Z0.300 F420                          ; hopdn dz=-0.20@7 h=0.3 r=0.00
;00:00:18.119: pe=-4.0000 eb=0.0000 ve=0.0000 vn=0.0000 vl=0.000 db=0.00
G1 E22.8142 F1800                       ; restore de=4.0000@30.0 r=0.00
;00:00:18.252: pe=-0.0000 eb=0.0000 ve=30.0000 vn=0.0000 vl=0.000 db=0.00
G1 X-18.95 Y56.48 E23.0263 F600         ; draw dl=3.4@10(0<10>0) de=0.212@0.59(0.0<0.62>0.0) l=0.30x0.50x1.00 r=1.00
;00:00:18.612: pe=0.0000 eb=0.0243 ve=0.0000 vn=0.0000 vl=0.000 db=0.50
G1 E19.0263 F2400                       ; retract de=-4.0000@-40.0 r=1.00
;00:00:18.712: pe=-4.0000 eb=0.0243 ve=-40.0000 vn=0.0000 vl=0.000 db=0.50
G1 Z0.500 F420                          ; hopup dz=0.20@7 h=0.5 r=0.77
;00:00:18.741: pe=-4.0000 eb=0.0243 ve=0.0000 vn=0.0000 vl=0.000 db=0.39
G1 X-18.95 Y56.98 F6000                 ; move dl=0.5@100(0<11>0) de=0.000@0.0(0.0<0.0>0.0) l=0.50x0.50x0.00 r=0.00
;00:00:18.808: pe=-4.0000 eb=0.0006 ve=0.0000 vn=0.0000 vl=0.000 db=0.06
G1 Z0.300 F420                          ; hopdn dz=-0.20@7 h=0.3 r=0.16
;00:00:18.836: pe=-4.0000 eb=0.0006 ve=0.0000 vn=0.0000 vl=0.000 db=0.08
G1 E23.0263 F1800                       ; restore de=4.0000@30.0 r=0.16
;00:00:18.970: pe=-0.0000 eb=0.0006 ve=30.0000 vn=0.0000 vl=0.000 db=0.08
G1 X-18.70 Y56.74 E23.0479 F600         ; draw dl=0.3@10(0<10>10) de=0.022@0.48(0.0<0.62>0.62) l=0.30x0.50x1.00 r=1.00
;00:00:19.014: pe=0.0000 eb=0.0113 ve=0.6237 vn=0.6237 vl=10.000 db=0.34
G1 X-18.31 Y56.49 E23.0768              ; draw dl=0.5@10(10<10>10) de=0.029@0.62(0.62<0.62>0.62) l=0.30x0.50x1.00 r=1.00
;00:00:19.061: pe=0.0000 eb=0.0178 ve=0.6237 vn=0.6237 vl=10.000 db=0.43
G1 X-17.93 Y56.42 E23.1009              ; draw dl=0.4@10(10<10>10) de=0.024@0.62(0.62<0.62>0.62) l=0.30x0.50x1.00 r=1.00
;00:00:19.099: pe=-0.0000 eb=0.0205 ve=0.6237 vn=0.0000 vl=10.000 db=0.46
G1 X-17.55 Y56.51 E23.1252              ; draw dl=0.4@10(10<10>10) de=0.024@0.62(0.62<0.62>0.62) l=0.30x0.50x1.00 r=1.00
;00:00:19.138: pe=0.0000 eb=0.0221 ve=0.6237 vn=0.6237 vl=10.000 db=0.48
G1 X-17.24 Y56.77 E23.1505              ; draw dl=0.4@10(10<10>10) de=0.025@0.62(0.62<0.62>0.62) l=0.30x0.50x1.00 r=1.00
;00:00:19.179: pe=0.0000 eb=0.0231 ve=0.6237 vn=0.6237 vl=10.000 db=0.49
G1 X-17.04 Y57.18 E23.1789              ; draw dl=0.5@10(10<10>10) de=0.028@0.62(0.62<0.62>0.62) l=0.30x0.50x1.00 r=1.00
;00:00:19.224: pe=0.0000 eb=0.0237 ve=0.6237 vn=0.6237 vl=10.000 db=0.49
G1 X-16.97 Y57.71 E23.2123              ; draw dl=0.5@10(10<10>10) de=0.033@0.62(0.62<0.62>0.62) l=0.30x0.50x1.00 r=1.00
;00:00:19.278: pe=0.0000 eb=0.0241 ve=0.6237 vn=0.6237 vl=10.000 db=0.50
G1 X-17.03 Y58.22 E23.2443              ; draw dl=0.5@10(10<10>10) de=0.032@0.62(0.62<0.62>0.62) l=0.30x0.50x1.00 r=1.00
;00:00:19.329: pe=0.0000 eb=0.0243 ve=0.6237 vn=0.6237 vl=10.000 db=0.50
G1 X-17.21 Y58.61 E23.2711              ; draw dl=0.4@10(10<10>10) de=0.027@0.62(0.62<0.62>0.62) l=0.30x0.50x1.00 r=1.00
;00:00:19.372: pe=0.0000 eb=0.0244 ve=0.6237 vn=0.6237 vl=10.000 db=0.50
G1 X-17.50 Y58.86 E23.2950              ; draw dl=0.4@10(10<10>10) de=0.024@0.62(0.62<0.62>0.62) l=0.30x0.50x1.00 r=1.00
;00:00:19.410: pe=0.0000 eb=0.0244 ve=0.6237 vn=0.6237 vl=10.000 db=0.50
G1 X-17.90 Y58.95 E23.3205              ; draw dl=0.4@10(10<10>10) de=0.026@0.62(0.62<0.62>0.62) l=0.30x0.50x1.00 r=1.00
;00:00:19.451: pe=0.0000 eb=0.0245 ve=0.6237 vn=0.6237 vl=10.000 db=0.50
G1 X-18.09 Y58.93 E23.3324              ; draw dl=0.2@10(10<10>10) de=0.012@0.62(0.62<0.62>0.62) l=0.30x0.50x1.00 r=1.00
;00:00:19.471: pe=0.0000 eb=0.0245 ve=0.6237 vn=0.6237 vl=10.000 db=0.50
G1 X-18.29 Y58.85 E23.3459              ; draw dl=0.2@10(10<10>10) de=0.013@0.62(0.62<0.62>0.62) l=0.30x0.50x1.00 r=1.00
;00:00:19.492: pe=0.0000 eb=0.0245 ve=0.6237 vn=0.6237 vl=10.000 db=0.50
G1 X-18.50 Y58.72 E23.3613              ; draw dl=0.2@10(10<10>10) de=0.015@0.62(0.62<0.62>0.62) l=0.30x0.50x1.00 r=1.00
;00:00:19.517: pe=0.0000 eb=0.0245 ve=0.6236 vn=0.6236 vl=10.000 db=0.50
G1 X-18.70 Y58.50 E23.3798              ; draw dl=0.3@10(10<10>10) de=0.019@0.62(0.62<0.62>0.62) l=0.30x0.50x1.00 r=1.00
;00:00:19.547: pe=0.0000 eb=0.0245 ve=0.6236 vn=0.6236 vl=10.000 db=0.50
G1 X-18.95 Y58.03 E23.4130              ; draw dl=0.5@10(10<10>0) de=0.033@0.53(0.62<0.62>0.0) l=0.30x0.50x1.00 r=1.00
;00:00:19.610: pe=0.0000 eb=0.0245 ve=0.0000 vn=0.0000 vl=0.000 db=0.50
G1 E19.4130 F2400                       ; retract de=-4.0000@-40.0 r=1.00
;00:00:19.710: pe=-4.0000 eb=0.0245 ve=-40.0000 vn=0.0000 vl=0.000 db=0.50
G1 Z0.500 F420                          ; hopup dz=0.20@7 h=0.5 r=0.77
;00:00:19.738: pe=-4.0000 eb=0.0245 ve=0.0000 vn=0.0000 vl=0.000 db=0.39
G1 X-15.91 Y58.26 F6000                 ; move dl=3.0@100(0<28>0) de=0.000@0.0(0.0<0.0>0.0) l=0.50x0.50x0.00 r=0.00
;00:00:19.904: pe=-4.0000 eb=0.0000 ve=0.0000 vn=0.0000 vl=0.000 db=0.00
G1 Z0.300 F420                          ; hopdn dz=-0.20@7 h=0.3 r=0.00
;00:00:19.933: pe=-4.0000 eb=0.0000 ve=0.0000 vn=0.0000 vl=0.000 db=0.00
G1 E23.4130 F1800                       ; restore de=4.0000@30.0 r=0.00
;00:00:20.066: pe=-0.0000 eb=0.0000 ve=30.0000 vn=0.0000 vl=0.000 db=0.00
G1 X-14.21 Y58.26 E23.5190 F600         ; draw dl=1.7@10(0<10>0) de=0.106@0.56(0.0<0.62>0.0) l=0.30x0.50x1.00 r=1.00
;00:00:20.256: pe=0.0000 eb=0.0224 ve=0.0000 vn=0.0000 vl=0.000 db=0.48
G1 E19.5190 F2400                       ; retract de=-4.0000@-40.0 r=0.96
;00:00:20.356: pe=-4.0000 eb=0.0224 ve=-40.0000 vn=0.0000 vl=0.000 db=0.48
G1 Z0.500 F420                          ; hopup dz=0.20@7 h=0.5 r=0.74
;00:00:20.384: pe=-4.0000 eb=0.0224 ve=0.0000 vn=0.0000 vl=0.000 db=0.37
G1 X-14.21 Y57.55 F6000                 ; move dl=0.7@100(0<13>0) de=0.000@0.0(0.0<0.0>0.0) l=0.50x0.50x0.00 r=0.00
;00:00:20.464: pe=-4.0000 eb=0.0000 ve=0.0000 vn=0.0000 vl=0.000 db=0.00
G1 Z0.300 F420                          ; hopdn dz=-0.20@7 h=0.3 r=0.00
;00:00:20.493: pe=-4.0000 eb=0.0000 ve=0.0000 vn=0.0000 vl=0.000 db=0.00
G1 E23.5190 F1800                       ; restore de=4.0000@30.0 r=0.00
;00:00:20.626: pe=-0.0000 eb=0.0000 ve=30.0000 vn=0.0000 vl=0.000 db=0.00
G1 X-15.91 Y57.55 E23.6251 F600         ; draw dl=1.7@10(0<10>0) de=0.106@0.56(0.0<0.62>0.0) l=0.30x0.50x1.00 r=1.00
;00:00:20.816: pe=0.0000 eb=0.0224 ve=0.0000 vn=0.0000 vl=0.000 db=0.48
G1 E19.6251 F2400                       ; retract de=-4.0000@-40.0 r=0.96
;00:00:20.916: pe=-4.0000 eb=0.0224 ve=-40.0000 vn=0.0000 vl=0.000 db=0.48
G1 Z0.500 F420                          ; hopup dz=0.20@7 h=0.5 r=0.74
;00:00:20.945: pe=-4.0000 eb=0.0224 ve=0.0000 vn=0.0000 vl=0.000 db=0.37
G1 X-11.94 Y59.94 F6000                 ; move dl=4.6@100(0<34>0) de=0.000@0.0(0.0<0.0>0.0) l=0.50x0.50x0.00 r=0.00
;00:00:21.149: pe=-4.0000 eb=0.0000 ve=0.0000 vn=0.0000 vl=0.000 db=0.00
G1 Z0.300 F420                          ; hopdn dz=-0.20@7 h=0.3 r=0.00
;00:00:21.178: pe=-4.0000 eb=0.0000 ve=0.0000 vn=0.0000 vl=0.000 db=0.00
G1 E23.6251 F1800                       ; restore de=4.0000@30.0 r=0.00
;00:00:21.311: pe=-0.0000 eb=0.0000 ve=30.0000 vn=0.0000 vl=0.000 db=0.00
G1 X-11.43 Y59.80 E23.6580 F600         ; draw dl=0.5@10(0<10>10) de=0.033@0.52(0.0<0.62>0.62) l=0.30x0.50x1.00 r=1.00
;00:00:21.374: pe=-0.0000 eb=0.0143 ve=0.6236 vn=0.0000 vl=10.000 db=0.38
G1 X-11.04 Y59.42 E23.6920              ; draw dl=0.5@10(10<10>10) de=0.034@0.62(0.62<0.62>0.62) l=0.30x0.50x1.00 r=1.00
;00:00:21.428: pe=-0.0000 eb=0.0197 ve=0.6236 vn=0.0000 vl=10.000 db=0.45
G1 X-10.80 Y58.86 E23.7300              ; draw dl=0.6@10(10<10>10) de=0.038@0.62(0.62<0.62>0.62) l=0.30x0.50x1.00 r=1.00
;00:00:21.489: pe=0.0000 eb=0.0224 ve=0.6236 vn=0.6236 vl=10.000 db=0.48
G1 X-10.72 Y58.18 E23.7727              ; draw dl=0.7@10(10<10>10) de=0.043@0.62(0.62<0.62>0.62) l=0.30x0.50x1.00 r=1.00
;00:00:21.558: pe=0.0000 eb=0.0236 ve=0.6236 vn=0.6236 vl=10.000 db=0.49
G1 X-10.80 Y57.51 E23.8148              ; draw dl=0.7@10(10<10>10) de=0.042@0.62(0.62<0.62>0.62) l=0.30x0.50x1.00 r=1.00
;00:00:21.625: pe=0.0000 eb=0.0241 ve=0.6236 vn=0.6236 vl=10.000 db=0.50
G1 X-11.04 Y56.95 E23.8528              ; draw dl=0.6@10(10<10>10) de=0.038@0.62(0.62<0.62>0.62) l=0.30x0.50x1.00 r=1.00
;00:00:21.686: pe=0.0000 eb=0.0243 ve=0.6236 vn=0.6236 vl=10.000 db=0.50
G1 X-11.43 Y56.56 E23.8872              ; draw dl=0.6@10(10<10>10) de=0.034@0.62(0.62<0.62>0.62) l=0.30x0.50x1.00 r=1.00
;00:00:21.741: pe=0.0000 eb=0.0244 ve=0.6236 vn=0.6236 vl=10.000 db=0.50
G1 X-11.94 Y56.42 E23.9202              ; draw dl=0.5@10(10<10>10) de=0.033@0.62(0.62<0.62>0.62) l=0.30x0.50x1.00 r=1.00
;00:00:21.794: pe=0.0000 eb=0.0244 ve=0.6236 vn=0.6236 vl=10.000 db=0.50
G1 X-12.46 Y56.56 E23.9537              ; draw dl=0.5@10(10<10>10) de=0.034@0.62(0.62<0.62>0.62) l=0.30x0.50x1.00 r=1.00
;00:00:21.848: pe=0.0000 eb=0.0245 ve=0.6236 vn=0.6236 vl=10.000 db=0.50
G1 X-12.84 Y56.95 E23.9877              ; draw dl=0.5@10(10<10>10) de=0.034@0.62(0.62<0.62>0.62) l=0.30x0.50x1.00 r=1.00
;00:00:21.902: pe=-0.0000 eb=0.0245 ve=0.6236 vn=0.0000 vl=10.000 db=0.50
G1 X-13.08 Y57.51 E24.0257              ; draw dl=0.6@10(10<10>10) de=0.038@0.62(0.62<0.62>0.62) l=0.30x0.50x1.00 r=1.00
;00:00:21.963: pe=0.0000 eb=0.0245 ve=0.6236 vn=0.6236 vl=10.000 db=0.50
G1 X-13.16 Y58.18 E24.0678              ; draw dl=0.7@10(10<10>10) de=0.042@0.62(0.62<0.62>0.62) l=0.30x0.50x1.00 r=1.00
;00:00:22.031: pe=0.0000 eb=0.0245 ve=0.6236 vn=0.6236 vl=10.000 db=0.50
G1 X-13.08 Y58.85 E24.1099              ; draw dl=0.7@10(10<10>10) de=0.042@0.62(0.62<0.62>0.62) l=0.30x0.50x1.00 r=1.00
;00:00:22.098: pe=0.0000 eb=0.0245 ve=0.6236 vn=0.6236 vl=10.000 db=0.50
G1 X-12.84 Y59.42 E24.1484              ; draw dl=0.6@10(10<10>10) de=0.039@0.62(0.62<0.62>0.62) l=0.30x0.50x1.00 r=1.00
;00:00:22.160: pe=0.0000 eb=0.0245 ve=0.6236 vn=0.6236 vl=10.000 db=0.50
G1 X-12.46 Y59.80 E24.1819              ; draw dl=0.5@10(10<10>10) de=0.034@0.62(0.62<0.62>0.62) l=0.30x0.50x1.00 r=1.00
;00:00:22.214: pe=0.0000 eb=0.0245 ve=0.6236 vn=0.6236 vl=10.000 db=0.50
G1 X-11.94 Y59.94 E24.2155              ; draw dl=0.5@10(10<10>0) de=0.034@0.53(0.62<0.62>0.0) l=0.30x0.50x1.00 r=1.00
;00:00:22.278: pe=0.0000 eb=0.0245 ve=0.0000 vn=0.0000 vl=0.000 db=0.50
G1 E20.2155 F2400                       ; retract de=-4.0000@-40.0 r=1.00
;00:00:22.378: pe=-4.0000 eb=0.0245 ve=-40.0000 vn=0.0000 vl=0.000 db=0.50
G1 Z0.500 F420                          ; hopup dz=0.20@7 h=0.5 r=0.77
;00:00:22.406: pe=-4.0000 eb=0.0245 ve=0.0000 vn=0.0000 vl=0.000 db=0.39
G1 X-9.65 Y56.71 F6000                  ; move dl=4.0@100(0<31>0) de=0.000@0.0(0.0<0.0>0.0) l=0.50x0.50x0.00 r=0.00
;00:00:22.595: pe=-4.0000 eb=0.0000 ve=0.0000 vn=0.0000 vl=0.000 db=0.00
G1 Z0.300 F420                          ; hopdn dz=-0.20@7 h=0.3 r=0.00
;00:00:22.624: pe=-4.0000 eb=0.0000 ve=0.0000 vn=0.0000 vl=0.000 db=0.00
G1 E24.2155 F1800                       ; restore de=4.0000@30.0 r=0.00
;00:00:22.757: pe=-0.0000 eb=0.0000 ve=30.0000 vn=0.0000 vl=0.000 db=0.00
G1 X-9.65 Y56.65 E24.2193 F600          ; draw dl=0.1@10(0<4>0) de=0.004@0.16(0.0<0.24>0.0) l=0.30x0.50x1.00 r=1.00
;00:00:22.780: pe=0.0000 eb=0.0029 ve=0.0000 vn=0.0000 vl=0.000 db=0.17
G1 E20.2193 F2400                       ; retract de=-4.0000@-40.0 r=0.34
;00:00:22.880: pe=-4.0000 eb=0.0029 ve=-40.0000 vn=0.0000 vl=0.000 db=0.17
G1 Z0.500 F420                          ; hopup dz=0.20@7 h=0.5 r=0.27
;00:00:22.909: pe=-4.0000 eb=0.0029 ve=0.0000 vn=0.0000 vl=0.000 db=0.13
G1 X-7.37 Y59.94 F6000                  ; move dl=4.0@100(0<32>0) de=0.000@0.0(0.0<0.0>0.0) l=0.50x0.50x0.00 r=0.00
;00:00:23.099: pe=-4.0000 eb=0.0000 ve=0.0000 vn=0.0000 vl=0.000 db=0.00
G1 Z0.300 F420                          ; hopdn dz=-0.20@7 h=0.3 r=0.00
;00:00:23.127: pe=-4.0000 eb=0.0000 ve=0.0000 vn=0.0000 vl=0.000 db=0.00
G1 E24.2193 F1800                       ; restore de=4.0000@30.0 r=0.00
;00:00:23.261: pe=-0.0000 eb=0.0000 ve=30.0000 vn=0.0000 vl=0.000 db=0.00
G1 X-6.86 Y59.80 E24.2522 F600          ; draw dl=0.5@10(0<10>10) de=0.033@0.52(0.0<0.62>0.62) l=0.30x0.50x1.00 r=1.00
;00:00:23.323: pe=0.0000 eb=0.0143 ve=0.6237 vn=0.6237 vl=10.000 db=0.38
G1 X-6.47 Y59.42 E24.2862               ; draw dl=0.5@10(10<10>10) de=0.034@0.62(0.62<0.62>0.62) l=0.30x0.50x1.00 r=1.00
;00:00:23.378: pe=0.0000 eb=0.0197 ve=0.6237 vn=0.6237 vl=10.000 db=0.45
G1 X-6.23 Y58.86 E24.3242               ; draw dl=0.6@10(10<10>10) de=0.038@0.62(0.62<0.62>0.62) l=0.30x0.50x1.00 r=1.00
;00:00:23.439: pe=0.0000 eb=0.0224 ve=0.6237 vn=0.6237 vl=10.000 db=0.48
G1 X-6.15 Y58.18 E24.3669               ; draw dl=0.7@10(10<10>10) de=0.043@0.62(0.62<0.62>0.62) l=0.30x0.50x1.00 r=1.00
;00:00:23.507: pe=0.0000 eb=0.0236 ve=0.6237 vn=0.6237 vl=10.000 db=0.49
G1 X-6.23 Y57.51 E24.4090               ; draw dl=0.7@10(10<10>10) de=0.042@0.62(0.62<0.62>0.62) l=0.30x0.50x1.00 r=1.00
;00:00:23.575: pe=0.0000 eb=0.0241 ve=0.6237 vn=0.6237 vl=10.000 db=0.50
G1 X-6.47 Y56.95 E24.4470               ; draw dl=0.6@10(10<10>10) de=0.038@0.62(0.62<0.62>0.62) l=0.30x0.50x1.00 r=1.00
;00:00:23.636: pe=0.0000 eb=0.0243 ve=0.6237 vn=0.6237 vl=10.000 db=0.50
G1 X-6.86 Y56.56 E24.4814               ; draw dl=0.6@10(10<10>10) de=0.034@0.62(0.62<0.62>0.62) l=0.30x0.50x1.00 r=1.00
;00:00:23.691: pe=0.0000 eb=0.0244 ve=0.6237 vn=0.6237 vl=10.000 db=0.50
G1 X-7.37 Y56.42 E24.5144               ; draw dl=0.5@10(10<10>10) de=0.033@0.62(0.62<0.62>0.62) l=0.30x0.50x1.00 r=1.00
;00:00:23.744: pe=0.0000 eb=0.0245 ve=0.6237 vn=0.6237 vl=10.000 db=0.50
G1 X-7.89 Y56.56 E24.5480               ; draw dl=0.5@10(10<10>10) de=0.034@0.62(0.62<0.62>0.62) l=0.30x0.50x1.00 r=1.00
;00:00:23.798: pe=0.0000 eb=0.0245 ve=0.6237 vn=0.6237 vl=10.000 db=0.50
G1 X-8.27 Y56.95 E24.5819               ; draw dl=0.5@10(10<10>10) de=0.034@0.62(0.62<0.62>0.62) l=0.30x0.50x1.00 r=1.00
;00:00:23.852: pe=0.0000 eb=0.0245 ve=0.6237 vn=0.6237 vl=10.000 db=0.50
G1 X-8.51 Y57.51 E24.6199               ; draw dl=0.6@10(10<10>10) de=0.038@0.62(0.62<0.62>0.62) l=0.30x0.50x1.00 r=1.00
;00:00:23.913: pe=0.0000 eb=0.0245 ve=0.6237 vn=0.6237 vl=10.000 db=0.50
G1 X-8.59 Y58.18 E24.6620               ; draw dl=0.7@10(10<10>10) de=0.042@0.62(0.62<0.62>0.62) l=0.30x0.50x1.00 r=1.00
;00:00:23.980: pe=0.0000 eb=0.0245 ve=0.6237 vn=0.6237 vl=10.000 db=0.50
G1 X-8.51 Y58.85 E24.7041               ; draw dl=0.7@10(10<10>10) de=0.042@0.62(0.62<0.62>0.62) l=0.30x0.50x1.00 r=1.00
;00:00:24.048: pe=0.0000 eb=0.0245 ve=0.6237 vn=0.6237 vl=10.000 db=0.50
G1 X-8.27 Y59.42 E24.7427               ; draw dl=0.6@10(10<10>10) de=0.039@0.62(0.62<0.62>0.62) l=0.30x0.50x1.00 r=1.00
;00:00:24.110: pe=0.0000 eb=0.0245 ve=0.6237 vn=0.6237 vl=10.000 db=0.50
G1 X-7.89 Y59.80 E24.7762               ; draw dl=0.5@10(10<10>10) de=0.034@0.62(0.62<0.62>0.62) l=0.30x0.50x1.00 r=1.00
;00:00:24.163: pe=0.0000 eb=0.0245 ve=0.6237 vn=0.6237 vl=10.000 db=0.50
G1 X-7.37 Y59.94 E24.8098               ; draw dl=0.5@10(10<10>0) de=0.034@0.53(0.62<0.62>0.0) l=0.30x0.50x1.00 r=1.00
;00:00:24.227: pe=0.0000 eb=0.0245 ve=0.0000 vn=0.0000 vl=0.000 db=0.50
G1 E20.8098 F2400                       ; retract de=-4.0000@-40.0 r=1.00
;00:00:24.327: pe=-4.0000 eb=0.0245 ve=-40.0000 vn=0.0000 vl=0.000 db=0.50
G1 Z0.500 F420                          ; hopup dz=0.20@7 h=0.5 r=0.77
;00:00:24.356: pe=-4.0000 eb=0.0245 ve=0.0000 vn=0.0000 vl=0.000 db=0.39
G1 X-1.77 Y56.48 F6000                  ; move dl=6.6@100(0<41>0) de=0.000@0.0(0.0<0.0>0.0) l=0.50x0.50x0.00 r=0.00
;00:00:24.599: pe=-4.0000 eb=0.0000 ve=0.0000 vn=0.0000 vl=0.000 db=0.00
G1 Z0.300 F420                          ; hopdn dz=-0.20@7 h=0.3 r=0.00
;00:00:24.628: pe=-4.0000 eb=0.0000 ve=0.0000 vn=0.0000 vl=0.000 db=0.00
G1 E24.8098 F1800                       ; restore de=4.0000@30.0 r=0.00
;00:00:24.761: pe=-0.0000 eb=0.0000 ve=30.0000 vn=0.0000 vl=0.000 db=0.00
G1 X-1.77 Y59.88 E25.0218 F600          ; draw dl=3.4@10(0<10>10) de=0.212@0.61(0.0<0.62>0.62) l=0.30x0.50x1.00 r=1.00
;00:00:25.111: pe=0.0000 eb=0.0243 ve=0.6237 vn=0.6237 vl=10.000 db=0.50
;00:00:25.111: skipping empty move move dl=0.0@7(0<0>0) de=0.000@0.0(0.0<0.0>0.0) l=0.30x0.50x0.00
G1 X-0.54 Y59.88 E25.0985               ; draw dl=1.2@10(10<10>10) de=0.077@0.62(0.62<0.62>0.62) l=0.30x0.50x1.00 r=1.00
;00:00:25.234: pe=0.0000 eb=0.0244 ve=0.6237 vn=0.6237 vl=10.000 db=0.50
G1 X-0.15 Y59.78 E25.1236               ; draw dl=0.4@10(10<10>10) de=0.025@0.62(0.62<0.62>0.62) l=0.30x0.50x1.00 r=1.00
;00:00:25.274: pe=0.0000 eb=0.0245 ve=0.6237 vn=0.6237 vl=10.000 db=0.50
G1 X0.16 Y59.58 E25.1466                ; draw dl=0.4@10(10<10>10) de=0.023@0.62(0.62<0.62>0.62) l=0.30x0.50x1.00 r=1.00
;00:00:25.311: pe=0.0000 eb=0.0245 ve=0.6237 vn=0.6237 vl=10.000 db=0.50
G1 X0.26 Y59.45 E25.1569                ; draw dl=0.2@10(10<10>10) de=0.010@0.62(0.62<0.62>0.62) l=0.30x0.50x1.00 r=1.00
;00:00:25.328: pe=0.0000 eb=0.0245 ve=0.6237 vn=0.6237 vl=10.000 db=0.50
G1 X0.39 Y59.04 E25.1837                ; draw dl=0.4@10(10<10>10) de=0.027@0.62(0.62<0.62>0.62) l=0.30x0.50x1.00 r=1.00
;00:00:25.371: pe=0.0000 eb=0.0245 ve=0.6237 vn=0.6237 vl=10.000 db=0.50
G1 X0.34 Y58.80 E25.1990                ; draw dl=0.2@10(10<10>10) de=0.015@0.62(0.62<0.62>0.62) l=0.30x0.50x1.00 r=1.00
;00:00:25.395: pe=0.0000 eb=0.0245 ve=0.6237 vn=0.6237 vl=10.000 db=0.50
G1 X0.23 Y58.56 E25.2154                ; draw dl=0.3@10(10<10>10) de=0.016@0.62(0.62<0.62>0.62) l=0.30x0.50x1.00 r=1.00
;00:00:25.422: pe=0.0000 eb=0.0245 ve=0.6237 vn=0.6237 vl=10.000 db=0.50
G1 X0.01 Y58.36 E25.2340                ; draw dl=0.3@10(10<10>10) de=0.019@0.62(0.62<0.62>0.62) l=0.30x0.50x1.00 r=1.00
;00:00:25.451: pe=0.0000 eb=0.0245 ve=0.6237 vn=0.6237 vl=10.000 db=0.50
G1 X-0.76 Y58.18 E25.2833               ; draw dl=0.8@10(10<10>0) de=0.049@0.55(0.62<0.62>0.0) l=0.30x0.50x1.00 r=1.00
;00:00:25.540: pe=0.0000 eb=0.0245 ve=0.0000 vn=0.0000 vl=0.000 db=0.50
G1 E21.2833 F2400                       ; retract de=-4.0000@-40.0 r=1.00
;00:00:25.640: pe=-4.0000 eb=0.0245 ve=-40.0000 vn=0.0000 vl=0.000 db=0.50
G1 Z0.500 F420                          ; hopup dz=0.20@7 h=0.5 r=0.77
;00:00:25.669: pe=-4.0000 eb=0.0245 ve=0.0000 vn=0.0000 vl=0.000 db=0.39
G1 X-1.77 Y58.18 F6000                  ; move dl=1.0@100(0<16>0) de=0.000@0.0(0.0<0.0>0.0) l=0.50x0.50x0.00 r=0.00
;00:00:25.764: pe=-4.0000 eb=0.0000 ve=0.0000 vn=0.0000 vl=0.000 db=0.00
G1 Z0.300 F420                          ; hopdn dz=-0.20@7 h=0.3 r=0.00
;00:00:25.793: pe=-4.0000 eb=0.0000 ve=0.0000 vn=0.0000 vl=0.000 db=0.00
G1 E25.2833 F1800                       ; restore de=4.0000@30.0 r=0.00
;00:00:25.926: pe=-0.0000 eb=0.0000 ve=30.0000 vn=0.0000 vl=0.000 db=0.00
G1 X-0.76 Y58.18 E25.3463 F600          ; draw dl=1.0@10(0<10>10) de=0.063@0.57(0.0<0.62>0.62) l=0.30x0.50x1.00 r=1.00
;00:00:26.037: pe=0.0000 eb=0.0193 ve=0.6237 vn=0.6237 vl=10.000 db=0.44
G1 X-0.25 Y58.00 E25.3800               ; draw dl=0.5@10(10<10>10) de=0.034@0.62(0.62<0.62>0.62) l=0.30x0.50x1.00 r=1.00
;00:00:26.091: pe=0.0000 eb=0.0220 ve=0.6237 vn=0.6237 vl=10.000 db=0.47
G1 X0.14 Y57.38 E25.4257                ; draw dl=0.7@10(10<10>10) de=0.046@0.62(0.62<0.62>0.62) l=0.30x0.50x1.00 r=1.00
;00:00:26.165: pe=0.0000 eb=0.0235 ve=0.6237 vn=0.6237 vl=10.000 db=0.49
G1 X0.39 Y56.48 E25.4840                ; draw dl=0.9@10(10<10>0) de=0.058@0.56(0.62<0.62>0.0) l=0.30x0.50x1.00 r=1.00
;00:00:26.268: pe=0.0000 eb=0.0242 ve=0.0000 vn=0.0000 vl=0.000 db=0.50
G1 E21.4840 F2400                       ; retract de=-4.0000@-40.0 r=0.99
;00:00:26.368: pe=-4.0000 eb=0.0242 ve=-40.0000 vn=0.0000 vl=0.000 db=0.50
G1 Z0.500 F420                          ; hopup dz=0.20@7 h=0.5 r=0.77
;00:00:26.397: pe=-4.0000 eb=0.0242 ve=0.0000 vn=0.0000 vl=0.000 db=0.39
G1 X1.45 Y57.69 F6000                   ; move dl=1.6@100(0<20>0) de=0.000@0.0(0.0<0.0>0.0) l=0.50x0.50x0.00 r=0.00
;00:00:26.517: pe=-4.0000 eb=0.0000 ve=0.0000 vn=0.0000 vl=0.000 db=0.00
G1 Z0.300 F420                          ; hopdn dz=-0.20@7 h=0.3 r=0.00
;00:00:26.546: pe=-4.0000 eb=0.0000 ve=0.0000 vn=0.0000 vl=0.000 db=0.00
G1 E25.4840 F1800                       ; restore de=4.0000@30.0 r=0.00
;00:00:26.679: pe=-0.0000 eb=0.0000 ve=30.0000 vn=0.0000 vl=0.000 db=0.00
G1 X3.59 Y57.69 E25.6174 F600           ; draw dl=2.1@10(0<10>10) de=0.133@0.6(0.0<0.62>0.6) l=0.30x0.50x1.00 r=1.00
;00:00:26.903: pe=0.0000 eb=0.0233 ve=0.6039 vn=0.6039 vl=9.683 db=0.49
G1 X3.51 Y58.22 E25.6509                ; draw dl=0.5@10(10<10>10) de=0.033@0.62(0.6<0.62>0.62) l=0.30x0.50x1.00 r=1.00
;00:00:26.956: pe=0.0000 eb=0.0239 ve=0.6237 vn=0.6237 vl=10.000 db=0.49
G1 X3.30 Y58.61 E25.6785                ; draw dl=0.4@10(10<10>10) de=0.028@0.62(0.62<0.62>0.62) l=0.30x0.50x1.00 r=1.00
;00:00:27.001: pe=0.0000 eb=0.0242 ve=0.6237 vn=0.6237 vl=10.000 db=0.50
G1 X2.96 Y58.86 E25.7048                ; draw dl=0.4@10(10<10>10) de=0.026@0.62(0.62<0.62>0.62) l=0.30x0.50x1.00 r=1.00
;00:00:27.043: pe=0.0000 eb=0.0243 ve=0.6237 vn=0.6237 vl=10.000 db=0.50
G1 X2.52 Y58.95 E25.7328                ; draw dl=0.4@10(10<10>10) de=0.028@0.62(0.62<0.62>0.62) l=0.30x0.50x1.00 r=1.00
;00:00:27.088: pe=0.0000 eb=0.0244 ve=0.6237 vn=0.6237 vl=10.000 db=0.50
G1 X2.09 Y58.86 E25.7602                ; draw dl=0.4@10(10<10>10) de=0.027@0.62(0.62<0.62>0.62) l=0.30x0.50x1.00 r=1.00
;00:00:27.132: pe=0.0000 eb=0.0244 ve=0.6237 vn=0.6237 vl=10.000 db=0.50
G1 X1.75 Y58.61 E25.7865                ; draw dl=0.4@10(10<10>10) de=0.026@0.62(0.62<0.62>0.62) l=0.30x0.50x1.00 r=1.00
;00:00:27.174: pe=0.0000 eb=0.0245 ve=0.6237 vn=0.6237 vl=10.000 db=0.50
G1 X1.53 Y58.22 E25.8145                ; draw dl=0.4@10(10<10>10) de=0.028@0.62(0.62<0.62>0.62) l=0.30x0.50x1.00 r=1.00
;00:00:27.219: pe=0.0000 eb=0.0245 ve=0.6237 vn=0.6237 vl=10.000 db=0.50
G1 X1.45 Y57.69 E25.8479                ; draw dl=0.5@10(10<10>10) de=0.033@0.62(0.62<0.62>0.62) l=0.30x0.50x1.00 r=1.00
;00:00:27.272: pe=0.0000 eb=0.0245 ve=0.6237 vn=0.6237 vl=10.000 db=0.50
G1 X1.53 Y57.15 E25.8819                ; draw dl=0.5@10(10<10>10) de=0.034@0.62(0.62<0.62>0.62) l=0.30x0.50x1.00 r=1.00
;00:00:27.327: pe=0.0000 eb=0.0245 ve=0.6237 vn=0.6237 vl=10.000 db=0.50
G1 X1.76 Y56.75 E25.9107                ; draw dl=0.5@10(10<10>10) de=0.029@0.62(0.62<0.62>0.62) l=0.30x0.50x1.00 r=1.00
;00:00:27.373: pe=0.0000 eb=0.0245 ve=0.6237 vn=0.6237 vl=10.000 db=0.50
G1 X2.11 Y56.51 E25.9372                ; draw dl=0.4@10(10<10>10) de=0.026@0.62(0.62<0.62>0.62) l=0.30x0.50x1.00 r=1.00
;00:00:27.416: pe=0.0000 eb=0.0245 ve=0.6237 vn=0.6237 vl=10.000 db=0.50
G1 X2.57 Y56.42 E25.9664                ; draw dl=0.5@10(10<10>10) de=0.029@0.62(0.62<0.62>0.62) l=0.30x0.50x1.00 r=1.00
;00:00:27.462: pe=0.0000 eb=0.0245 ve=0.6237 vn=0.6237 vl=10.000 db=0.50
G1 X2.91 Y56.47 E25.9878                ; draw dl=0.3@10(10<10>10) de=0.021@0.62(0.62<0.62>0.62) l=0.30x0.50x1.00 r=1.00
;00:00:27.497: pe=0.0000 eb=0.0245 ve=0.6237 vn=0.6237 vl=10.000 db=0.50
G1 X3.20 Y56.61 E26.0079                ; draw dl=0.3@10(10<10>10) de=0.020@0.62(0.62<0.62>0.62) l=0.30x0.50x1.00 r=1.00
;00:00:27.529: pe=0.0000 eb=0.0245 ve=0.6237 vn=0.6237 vl=10.000 db=0.50
G1 X3.41 Y56.83 E26.0269                ; draw dl=0.3@10(10<10>10) de=0.019@0.62(0.62<0.62>0.62) l=0.30x0.50x1.00 r=1.00
;00:00:27.559: pe=0.0000 eb=0.0245 ve=0.6237 vn=0.6237 vl=10.000 db=0.50
G1 X3.53 Y57.13 E26.0470                ; draw dl=0.3@10(10<10>0) de=0.020@0.48(0.62<0.62>0.0) l=0.30x0.50x1.00 r=1.00
;00:00:27.602: pe=0.0000 eb=0.0245 ve=0.0000 vn=0.0000 vl=0.000 db=0.50
G1 E22.0470 F2400                       ; retract de=-4.0000@-40.0 r=1.00
;00:00:27.702: pe=-4.0000 eb=0.0245 ve=-40.0000 vn=0.0000 vl=0.000 db=0.50
G1 Z0.500 F420                          ; hopup dz=0.20@7 h=0.5 r=0.77
;00:00:27.730: pe=-4.0000 eb=0.0245 ve=0.0000 vn=0.0000 vl=0.000 db=0.39
G1 X4.65 Y58.26 F6000                   ; move dl=1.6@100(0<20>0) de=0.000@0.0(0.0<0.0>0.0) l=0.50x0.50x0.00 r=0.00
;00:00:27.850: pe=-4.0000 eb=0.0000 ve=0.0000 vn=0.0000 vl=0.000 db=0.00
G1 Z0.300 F420                          ; hopdn dz=-0.20@7 h=0.3 r=0.00
;00:00:27.879: pe=-4.0000 eb=0.0000 ve=0.0000 vn=0.0000 vl=0.000 db=0.00
G1 E26.0470 F1800                       ; restore de=4.0000@30.0 r=0.00
;00:00:28.012: pe=-0.0000 eb=0.0000 ve=30.0000 vn=0.0000 vl=0.000 db=0.00
G1 X6.34 Y58.26 E26.1524 F600           ; draw dl=1.7@10(0<10>0) de=0.105@0.56(0.0<0.62>0.0) l=0.30x0.50x1.00 r=1.00
;00:00:28.201: pe=0.0000 eb=0.0224 ve=0.0000 vn=0.0000 vl=0.000 db=0.48
G1 E22.1524 F2400                       ; retract de=-4.0000@-40.0 r=0.96
;00:00:28.301: pe=-4.0000 eb=0.0224 ve=-40.0000 vn=0.0000 vl=0.000 db=0.48
G1 Z0.500 F420                          ; hopup dz=0.20@7 h=0.5 r=0.74
;00:00:28.329: pe=-4.0000 eb=0.0224 ve=0.0000 vn=0.0000 vl=0.000 db=0.37
G1 X6.34 Y57.55 F6000                   ; move dl=0.7@100(0<13>0) de=0.000@0.0(0.0<0.0>0.0) l=0.50x0.50x0.00 r=0.00
;00:00:28.409: pe=-4.0000 eb=0.0000 ve=0.0000 vn=0.0000 vl=0.000 db=0.00
G1 Z0.300 F420                          ; hopdn dz=-0.20@7 h=0.3 r=0.00
;00:00:28.438: pe=-4.0000 eb=0.0000 ve=0.0000 vn=0.0000 vl=0.000 db=0.00
G1 E26.1524 F1800                       ; restore de=4.0000@30.0 r=0.00
;00:00:28.571: pe=-0.0000 eb=0.0000 ve=30.0000 vn=0.0000 vl=0.000 db=0.00
G1 X4.65 Y57.55 E26.2578 F600           ; draw dl=1.7@10(0<10>0) de=0.105@0.56(0.0<0.62>0.0) l=0.30x0.50x1.00 r=1.00
;00:00:28.760: pe=0.0000 eb=0.0224 ve=0.0000 vn=0.0000 vl=0.000 db=0.48
G1 E22.2578 F2400                       ; retract de=-4.0000@-40.0 r=0.96
;00:00:28.860: pe=-4.0000 eb=0.0224 ve=-40.0000 vn=0.0000 vl=0.000 db=0.48
G1 Z0.500 F420                          ; hopup dz=0.20@7 h=0.5 r=0.74
;00:00:28.889: pe=-4.0000 eb=0.0224 ve=0.0000 vn=0.0000 vl=0.000 db=0.37
G1 X9.11 Y56.48 F6000                   ; move dl=4.6@100(0<34>0) de=0.000@0.0(0.0<0.0>0.0) l=0.50x0.50x0.00 r=0.00
;00:00:29.092: pe=-4.0000 eb=0.0000 ve=0.0000 vn=0.0000 vl=0.000 db=0.00
G1 Z0.300 F420                          ; hopdn dz=-0.20@7 h=0.3 r=0.00
;00:00:29.121: pe=-4.0000 eb=0.0000 ve=0.0000 vn=0.0000 vl=0.000 db=0.00
G1 E26.2578 F1800                       ; restore de=4.0000@30.0 r=0.00
;00:00:29.254: pe=-0.0000 eb=0.0000 ve=30.0000 vn=0.0000 vl=0.000 db=0.00
G1 X9.11 Y59.88 E26.4699 F600           ; draw dl=3.4@10(0<10>5) de=0.212@0.6(0.0<0.62>0.3) l=0.30x0.50x1.00 r=1.00
;00:00:29.607: pe=0.0000 eb=0.0243 ve=0.3034 vn=0.3034 vl=4.865 db=0.50
G1 X7.40 Y57.65 E26.6451                ; draw dl=2.8@10(5<10>6) de=0.175@0.61(0.3<0.62>0.39) l=0.30x0.50x1.00 r=1.00
;00:00:29.892: pe=0.0000 eb=0.0245 ve=0.3928 vn=0.3928 vl=6.299 db=0.50
G1 X9.71 Y57.65 E26.7892                ; draw dl=2.3@10(6<10>0) de=0.144@0.59(0.39<0.62>0.0) l=0.30x0.50x1.00 r=1.00
;00:00:30.134: pe=0.0000 eb=0.0245 ve=0.0000 vn=0.0000 vl=0.000 db=0.50
G1 E22.7892 F2400                       ; retract de=-4.0000@-40.0 r=1.00
;00:00:30.234: pe=-4.0000 eb=0.0245 ve=-40.0000 vn=0.0000 vl=0.000 db=0.50
G1 Z0.500 F420                          ; hopup dz=0.20@7 h=0.5 r=0.77
;00:00:30.263: pe=-4.0000 eb=0.0245 ve=0.0000 vn=0.0000 vl=0.000 db=0.39
G1 X10.77 Y56.71 F6000                  ; move dl=1.4@100(0<19>0) de=0.000@0.0(0.0<0.0>0.0) l=0.50x0.50x0.00 r=0.00
;00:00:30.375: pe=-4.0000 eb=0.0000 ve=0.0000 vn=0.0000 vl=0.000 db=0.00
G1 Z0.300 F420                          ; hopdn dz=-0.20@7 h=0.3 r=0.00
;00:00:30.404: pe=-4.0000 eb=0.0000 ve=0.0000 vn=0.0000 vl=0.000 db=0.00
G1 E26.7892 F1800                       ; restore de=4.0000@30.0 r=0.00
;00:00:30.537: pe=-0.0000 eb=0.0000 ve=30.0000 vn=0.0000 vl=0.000 db=0.00
G1 X10.77 Y56.65 E26.7929 F600          ; draw dl=0.1@10(0<4>0) de=0.004@0.16(0.0<0.24>0.0) l=0.30x0.50x1.00 r=1.00
;00:00:30.561: pe=0.0000 eb=0.0029 ve=0.0000 vn=0.0000 vl=0.000 db=0.17
G1 E22.7929 F2400                       ; retract de=-4.0000@-40.0 r=0.34
;00:00:30.661: pe=-4.0000 eb=0.0029 ve=-40.0000 vn=0.0000 vl=0.000 db=0.17
G1 Z0.500 F420                          ; hopup dz=0.20@7 h=0.5 r=0.27
;00:00:30.689: pe=-4.0000 eb=0.0029 ve=0.0000 vn=0.0000 vl=0.000 db=0.13
G1 X13.06 Y59.94 F6000                  ; move dl=4.0@100(0<32>0) de=0.000@0.0(0.0<0.0>0.0) l=0.50x0.50x0.00 r=0.00
;00:00:30.879: pe=-4.0000 eb=0.0000 ve=0.0000 vn=0.0000 vl=0.000 db=0.00
G1 Z0.300 F420                          ; hopdn dz=-0.20@7 h=0.3 r=0.00
;00:00:30.908: pe=-4.0000 eb=0.0000 ve=0.0000 vn=0.0000 vl=0.000 db=0.00
G1 E26.7929 F1800                       ; restore de=4.0000@30.0 r=0.00
;00:00:31.041: pe=-0.0000 eb=0.0000 ve=30.0000 vn=0.0000 vl=0.000 db=0.00
G1 X13.57 Y59.80 E26.8259 F600          ; draw dl=0.5@10(0<10>10) de=0.033@0.52(0.0<0.62>0.62) l=0.30x0.50x1.00 r=1.00
;00:00:31.104: pe=0.0000 eb=0.0143 ve=0.6237 vn=0.6237 vl=10.000 db=0.38
G1 X13.96 Y59.42 E26.8599               ; draw dl=0.5@10(10<10>10) de=0.034@0.62(0.62<0.62>0.62) l=0.30x0.50x1.00 r=1.00
;00:00:31.158: pe=0.0000 eb=0.0197 ve=0.6237 vn=0.6237 vl=10.000 db=0.45
G1 X14.20 Y58.86 E26.8979               ; draw dl=0.6@10(10<10>10) de=0.038@0.62(0.62<0.62>0.62) l=0.30x0.50x1.00 r=1.00
;00:00:31.219: pe=0.0000 eb=0.0224 ve=0.6237 vn=0.6237 vl=10.000 db=0.48
G1 X14.28 Y58.18 E26.9406               ; draw dl=0.7@10(10<10>10) de=0.043@0.62(0.62<0.62>0.62) l=0.30x0.50x1.00 r=1.00
;00:00:31.288: pe=0.0000 eb=0.0236 ve=0.6237 vn=0.6237 vl=10.000 db=0.49
G1 X14.20 Y57.51 E26.9827               ; draw dl=0.7@10(10<10>10) de=0.042@0.62(0.62<0.62>0.62) l=0.30x0.50x1.00 r=1.00
;00:00:31.355: pe=0.0000 eb=0.0241 ve=0.6237 vn=0.6237 vl=10.000 db=0.50
G1 X13.96 Y56.95 E27.0207               ; draw dl=0.6@10(10<10>10) de=0.038@0.62(0.62<0.62>0.62) l=0.30x0.50x1.00 r=1.00
;00:00:31.416: pe=0.0000 eb=0.0243 ve=0.6237 vn=0.6237 vl=10.000 db=0.50
G1 X13.57 Y56.56 E27.0551               ; draw dl=0.6@10(10<10>10) de=0.034@0.62(0.62<0.62>0.62) l=0.30x0.50x1.00 r=1.00
;00:00:31.471: pe=0.0000 eb=0.0244 ve=0.6237 vn=0.6237 vl=10.000 db=0.50
G1 X13.06 Y56.42 E27.0880               ; draw dl=0.5@10(10<10>10) de=0.033@0.62(0.62<0.62>0.62) l=0.30x0.50x1.00 r=1.00
;00:00:31.524: pe=0.0000 eb=0.0245 ve=0.6237 vn=0.6237 vl=10.000 db=0.50
G1 X12.54 Y56.56 E27.1216               ; draw dl=0.5@10(10<10>10) de=0.034@0.62(0.62<0.62>0.62) l=0.30x0.50x1.00 r=1.00
;00:00:31.578: pe=0.0000 eb=0.0245 ve=0.6237 vn=0.6237 vl=10.000 db=0.50
G1 X12.16 Y56.95 E27.1556               ; draw dl=0.5@10(10<10>10) de=0.034@0.62(0.62<0.62>0.62) l=0.30x0.50x1.00 r=1.00
;00:00:31.632: pe=0.0000 eb=0.0245 ve=0.6237 vn=0.6237 vl=10.000 db=0.50
G1 X11.92 Y57.51 E27.1936               ; draw dl=0.6@10(10<10>10) de=0.038@0.62(0.62<0.62>0.62) l=0.30x0.50x1.00 r=1.00
;00:00:31.693: pe=0.0000 eb=0.0245 ve=0.6237 vn=0.6237 vl=10.000 db=0.50
G1 X11.84 Y58.18 E27.2357               ; draw dl=0.7@10(10<10>10) de=0.042@0.62(0.62<0.62>0.62) l=0.30x0.50x1.00 r=1.00
;00:00:31.761: pe=0.0000 eb=0.0245 ve=0.6237 vn=0.6237 vl=10.000 db=0.50
G1 X11.92 Y58.85 E27.2778               ; draw dl=0.7@10(10<10>10) de=0.042@0.62(0.62<0.62>0.62) l=0.30x0.50x1.00 r=1.00
;00:00:31.828: pe=0.0000 eb=0.0245 ve=0.6237 vn=0.6237 vl=10.000 db=0.50
G1 X12.16 Y59.42 E27.3163               ; draw dl=0.6@10(10<10>10) de=0.039@0.62(0.62<0.62>0.62) l=0.30x0.50x1.00 r=1.00
;00:00:31.890: pe=0.0000 eb=0.0245 ve=0.6237 vn=0.6237 vl=10.000 db=0.50
G1 X12.54 Y59.80 E27.3498               ; draw dl=0.5@10(10<10>10) de=0.034@0.62(0.62<0.62>0.62) l=0.30x0.50x1.00 r=1.00
;00:00:31.944: pe=0.0000 eb=0.0245 ve=0.6237 vn=0.6237 vl=10.000 db=0.50
G1 X13.06 Y59.94 E27.3834               ; draw dl=0.5@10(10<10>0) de=0.034@0.53(0.62<0.62>0.0) l=0.30x0.50x1.00 r=1.00
;00:00:32.008: pe=0.0000 eb=0.0245 ve=0.0000 vn=0.0000 vl=0.000 db=0.50
G1 E23.3834 F2400                       ; retract de=-4.0000@-40.0 r=1.00
;00:00:32.108: pe=-4.0000 eb=0.0245 ve=-40.0000 vn=0.0000 vl=0.000 db=0.50
G1 Z0.500 F420                          ; hopup dz=0.20@7 h=0.5 r=0.77
;00:00:32.136: pe=-4.0000 eb=0.0245 ve=0.0000 vn=0.0000 vl=0.000 db=0.39
;structure:brim
G1 X-45.00 Y60.00 F6000                 ; move dl=58.1@100(0<100>0) de=0.000@0.0(0.0<0.0>0.0) l=0.50x0.50x0.00 r=0.00
;00:00:32.917: pe=-4.0000 eb=0.0000 ve=0.0000 vn=0.0000 vl=0.000 db=0.00
G1 Z0.300 F420                          ; hopdn dz=-0.20@7 h=0.3 r=0.00
;00:00:32.946: pe=-4.0000 eb=0.0000 ve=0.0000 vn=0.0000 vl=0.000 db=0.00
G1 E27.3834 F1800                       ; restore de=4.0000@30.0 r=0.00
;00:00:33.079: pe=-0.0000 eb=0.0000 ve=30.0000 vn=0.0000 vl=0.000 db=0.00
G1 X-45.00 Y-61.00 E34.9299 F600        ; draw dl=121.0@10(0<10>10) de=7.546@0.62(0.0<0.62>0.62) l=0.30x0.50x1.00 r=1.00
;00:00:45.189: pe=0.0000 eb=0.0245 ve=0.6237 vn=0.6237 vl=10.000 db=0.50
G1 X-45.50 Y-61.00 E34.9611             ; draw dl=0.5@10(10<10>10) de=0.031@0.62(0.62<0.62>0.62) l=0.30x0.50x1.00 r=1.00
;00:00:45.239: pe=0.0000 eb=0.0245 ve=0.6237 vn=0.6237 vl=10.000 db=0.50
G1 X-45.50 Y60.00 E42.5076              ; draw dl=121.0@10(10<10>0) de=7.547@0.62(0.62<0.62>0.0) l=0.30x0.50x1.00 r=1.00
;00:00:57.349: pe=0.0000 eb=0.0245 ve=0.0000 vn=0.0000 vl=0.000 db=0.50
G1 E38.5076 F2400                       ; retract de=-4.0000@-40.0 r=1.00
;00:00:57.449: pe=-4.0000 eb=0.0245 ve=-40.0000 vn=0.0000 vl=0.000 db=0.50
G1 Z0.500 F420                          ; hopup dz=0.20@7 h=0.5 r=0.77
;00:00:57.477: pe=-4.0000 eb=0.0245 ve=0.0000 vn=0.0000 vl=0.000 db=0.39
G1 X45.00 Y60.00 F6000                  ; move dl=90.5@100(0<100>0) de=0.000@0.0(0.0<0.0>0.0) l=0.50x0.50x0.00 r=0.00
;00:00:58.582: pe=-4.0000 eb=0.0000 ve=0.0000 vn=0.0000 vl=0.000 db=0.00
G1 Z0.300 F420                          ; hopdn dz=-0.20@7 h=0.3 r=0.00
;00:00:58.611: pe=-4.0000 eb=0.0000 ve=0.0000 vn=0.0000 vl=0.000 db=0.00
G1 E42.5076 F1800                       ; restore de=4.0000@30.0 r=0.00
;00:00:58.744: pe=-0.0000 eb=0.0000 ve=30.0000 vn=0.0000 vl=0.000 db=0.00
G1 X45.00 Y-61.00 E50.0542 F600         ; draw dl=121.0@10(0<10>10) de=7.547@0.62(0.0<0.62>0.62) l=0.30x0.50x1.00 r=1.00
;00:01:10.854: pe=0.0000 eb=0.0245 ve=0.6237 vn=0.6237 vl=10.000 db=0.50
G1 X45.50 Y-61.00 E50.0853              ; draw dl=0.5@10(10<10>10) de=0.031@0.62(0.62<0.62>0.62) l=0.30x0.50x1.00 r=1.00
;00:01:10.904: pe=0.0000 eb=0.0245 ve=0.6237 vn=0.6237 vl=10.000 db=0.50
G1 X45.50 Y60.00 E57.6319               ; draw dl=121.0@10(10<10>0) de=7.547@0.62(0.62<0.62>0.0) l=0.30x0.50x1.00 r=1.00
;00:01:23.014: pe=0.0000 eb=0.0245 ve=0.0000 vn=0.0000 vl=0.000 db=0.50
G1 E53.6319 F2400                       ; retract de=-4.0000@-40.0 r=1.00
;00:01:23.114: pe=-4.0000 eb=0.0245 ve=-40.0000 vn=0.0000 vl=0.000 db=0.50
G1 Z0.500 F420                          ; hopup dz=0.20@7 h=0.5 r=0.77
;00:01:23.143: pe=-4.0000 eb=0.0245 ve=0.0000 vn=0.0000 vl=0.000 db=0.39
;00:01:23.143: Test Backlash ve=1.0 h=0.3 w=0.3-0.8 r0=0.0 re=4.0
;structure:shell-outer
G1 X-45.00 Y55.00 F6000                 ; move dl=90.6@100(0<100>0) de=0.000@0.0(0.0<0.0>0.0) l=0.50x0.50x0.00 r=0.00
;00:01:24.249: pe=-4.0000 eb=0.0000 ve=0.0000 vn=0.0000 vl=0.000 db=0.00
G1 Z0.300 F420                          ; hopdn dz=-0.20@7 h=0.3 r=0.00
;00:01:24.278: pe=-4.0000 eb=0.0000 ve=0.0000 vn=0.0000 vl=0.000 db=0.00
G1 E57.6319 F1800                       ; restore de=4.0000@30.0 r=0.00
;00:01:24.411: pe=-0.0000 eb=0.0000 ve=30.0000 vn=0.0000 vl=0.000 db=0.00
G1 X45.00 Y55.00 E63.2450 F600          ; draw dl=90.0@10(0<10>0) de=5.613@0.62(0.0<0.62>0.0) l=0.30x0.50x1.00 r=1.00
;00:01:33.431: pe=0.0000 eb=0.0245 ve=0.0000 vn=0.0000 vl=0.000 db=0.50
G1 E59.2450 F2400                       ; retract de=-4.0000@-40.0 r=1.00
;00:01:33.531: pe=-4.0000 eb=0.0245 ve=-40.0000 vn=0.0000 vl=0.000 db=0.50
G1 Z0.500 F420                          ; hopup dz=0.20@7 h=0.5 r=0.77
;00:01:33.560: pe=-4.0000 eb=0.0245 ve=0.0000 vn=0.0000 vl=0.000 db=0.39
G1 X-42.00 Y55.00 F6000                 ; move dl=87.0@100(0<100>0) de=0.000@0.0(0.0<0.0>0.0) l=0.50x0.50x0.00 r=0.00
;00:01:34.630: pe=-4.0000 eb=0.0000 ve=0.0000 vn=0.0000 vl=0.000 db=0.00
G1 X-40.00 Y55.00                       ; move dl=2.0@100(0<22>0) de=0.000@0.0(0.0<0.0>0.0) l=0.50x0.50x0.00 r=0.00
;00:01:34.764: pe=-4.0000 eb=0.0000 ve=0.0000 vn=0.0000 vl=0.000 db=0.00
G1 Z0.300 F420                          ; hopdn dz=-0.20@7 h=0.3 r=0.00
;00:01:34.793: pe=-4.0000 eb=0.0000 ve=0.0000 vn=0.0000 vl=0.000 db=0.00
G1 E63.2450 F1800                       ; restore de=4.0000@30.0 r=0.00
;00:01:34.926: pe=-0.0000 eb=0.0000 ve=30.0000 vn=0.0000 vl=0.000 db=0.00
G1 X-40.00 Y52.00 E63.4321 F600         ; draw dl=3.0@10(0<10>0) de=0.187@0.58(0.0<0.62>0.0) l=0.30x0.50x1.00 r=1.00
;00:01:35.246: pe=0.0000 eb=0.0241 ve=0.0000 vn=0.0000 vl=0.000 db=0.50
G1 E59.4321 F2400                       ; retract de=-4.0000@-40.0 r=0.99
;00:01:35.346: pe=-4.0000 eb=0.0241 ve=-40.0000 vn=0.0000 vl=0.000 db=0.50
G1 Z0.500 F420                          ; hopup dz=0.20@7 h=0.5 r=0.77
;00:01:35.374: pe=-4.0000 eb=0.0241 ve=0.0000 vn=0.0000 vl=0.000 db=0.38
G1 X-38.00 Y55.00 F6000                 ; move dl=3.6@100(0<30>0) de=0.000@0.0(0.0<0.0>0.0) l=0.50x0.50x0.00 r=0.00
;00:01:35.555: pe=-4.0000 eb=0.0000 ve=0.0000 vn=0.0000 vl=0.000 db=0.00
G1 Z0.300 F420                          ; hopdn dz=-0.20@7 h=0.3 r=0.00
;00:01:35.583: pe=-4.0000 eb=0.0000 ve=0.0000 vn=0.0000 vl=0.000 db=0.00
G1 E63.4321 F1800                       ; restore de=4.0000@30.0 r=0.00
;00:01:35.716: pe=-0.0000 eb=0.0000 ve=30.0000 vn=0.0000 vl=0.000 db=0.00
G1 X-38.00 Y53.50 E63.5256 F600         ; draw dl=1.5@10(0<10>0) de=0.094@0.55(0.0<0.62>0.0) l=0.30x0.50x1.00 r=1.00
;00:01:35.886: pe=0.0000 eb=0.0218 ve=0.0000 vn=0.0000 vl=0.000 db=0.47
G1 E59.5256 F2400                       ; retract de=-4.0000@-40.0 r=0.94
;00:01:35.986: pe=-4.0000 eb=0.0218 ve=-40.0000 vn=0.0000 vl=0.000 db=0.47
G1 Z0.500 F420                          ; hopup dz=0.20@7 h=0.5 r=0.73
;00:01:36.015: pe=-4.0000 eb=0.0218 ve=0.0000 vn=0.0000 vl=0.000 db=0.37
G1 X-36.00 Y55.00 F6000                 ; move dl=2.5@100(0<25>0) de=0.000@0.0(0.0<0.0>0.0) l=0.50x0.50x0.00 r=0.00
;00:01:36.165: pe=-4.0000 eb=0.0000 ve=0.0000 vn=0.0000 vl=0.000 db=0.00
G1 Z0.300 F420                          ; hopdn dz=-0.20@7 h=0.3 r=0.00
;00:01:36.194: pe=-4.0000 eb=0.0000 ve=0.0000 vn=0.0000 vl=0.000 db=0.00
G1 E63.5256 F1800                       ; restore de=4.0000@30.0 r=0.00
;00:01:36.327: pe=-0.0000 eb=0.0000 ve=30.0000 vn=0.0000 vl=0.000 db=0.00
G1 X-36.00 Y53.50 E63.6192 F600         ; draw dl=1.5@10(0<10>0) de=0.094@0.55(0.0<0.62>0.0) l=0.30x0.50x1.00 r=1.00
;00:01:36.497: pe=0.0000 eb=0.0218 ve=0.0000 vn=0.0000 vl=0.000 db=0.47
G1 E59.6192 F2400                       ; retract de=-4.0000@-40.0 r=0.94
;00:01:36.597: pe=-4.0000 eb=0.0218 ve=-40.0000 vn=0.0000 vl=0.000 db=0.47
G1 Z0.500 F420                          ; hopup dz=0.20@7 h=0.5 r=0.73
;00:01:36.626: pe=-4.0000 eb=0.0218 ve=0.0000 vn=0.0000 vl=0.000 db=0.37
G1 X-34.00 Y55.00 F6000                 ; move dl=2.5@100(0<25>0) de=0.000@0.0(0.0<0.0>0.0) l=0.50x0.50x0.00 r=0.00
;00:01:36.776: pe=-4.0000 eb=0.0000 ve=0.0000 vn=0.0000 vl=0.000 db=0.00
G1 Z0.300 F420                          ; hopdn dz=-0.20@7 h=0.3 r=0.00
;00:01:36.804: pe=-4.0000 eb=0.0000 ve=0.0000 vn=0.0000 vl=0.000 db=0.00
G1 E63.6192 F1800                       ; restore de=4.0000@30.0 r=0.00
;00:01:36.937: pe=-0.0000 eb=0.0000 ve=30.0000 vn=0.0000 vl=0.000 db=0.00
G1 X-34.00 Y53.50 E63.7127 F600         ; draw dl=1.5@10(0<10>0) de=0.094@0.55(0.0<0.62>0.0) l=0.30x0.50x1.00 r=1.00
;00:01:37.107: pe=0.0000 eb=0.0218 ve=0.0000 vn=0.0000 vl=0.000 db=0.47
G1 E59.7127 F2400                       ; retract de=-4.0000@-40.0 r=0.94
;00:01:37.207: pe=-4.0000 eb=0.0218 ve=-40.0000 vn=0.0000 vl=0.000 db=0.47
G1 Z0.500 F420                          ; hopup dz=0.20@7 h=0.5 r=0.73
;00:01:37.236: pe=-4.0000 eb=0.0218 ve=0.0000 vn=0.0000 vl=0.000 db=0.37
G1 X-32.00 Y55.00 F6000                 ; move dl=2.5@100(0<25>0) de=0.000@0.0(0.0<0.0>0.0) l=0.50x0.50x0.00 r=0.00
;00:01:37.386: pe=-4.0000 eb=0.0000 ve=0.0000 vn=0.0000 vl=0.000 db=0.00
G1 Z0.300 F420                          ; hopdn dz=-0.20@7 h=0.3 r=0.00
;00:01:37.415: pe=-4.0000 eb=0.0000 ve=0.0000 vn=0.0000 vl=0.000 db=0.00
G1 E63.7127 F1800                       ; restore de=4.0000@30.0 r=0.00
;00:01:37.548: pe=-0.0000 eb=0.0000 ve=30.0000 vn=0.0000 vl=0.000 db=0.00
G1 X-32.00 Y53.50 E63.8063 F600         ; draw dl=1.5@10(0<10>0) de=0.094@0.55(0.0<0.62>0.0) l=0.30x0.50x1.00 r=1.00
;00:01:37.718: pe=0.0000 eb=0.0218 ve=0.0000 vn=0.0000 vl=0.000 db=0.47
G1 E59.8063 F2400                       ; retract de=-4.0000@-40.0 r=0.94
;00:01:37.818: pe=-4.0000 eb=0.0218 ve=-40.0000 vn=0.0000 vl=0.000 db=0.47
G1 Z0.500 F420                          ; hopup dz=0.20@7 h=0.5 r=0.73
;00:01:37.846: pe=-4.0000 eb=0.0218 ve=0.0000 vn=0.0000 vl=0.000 db=0.37
G1 X-30.00 Y55.00 F6000                 ; move dl=2.5@100(0<25>0) de=0.000@0.0(0.0<0.0>0.0) l=0.50x0.50x0.00 r=0.00
;00:01:37.996: pe=-4.0000 eb=0.0000 ve=0.0000 vn=0.0000 vl=0.000 db=0.00
G1 Z0.300 F420                          ; hopdn dz=-0.20@7 h=0.3 r=0.00
;00:01:38.025: pe=-4.0000 eb=0.0000 ve=0.0000 vn=0.0000 vl=0.000 db=0.00
G1 E63.8063 F1800                       ; restore de=4.0000@30.0 r=0.00
;00:01:38.158: pe=-0.0000 eb=0.0000 ve=30.0000 vn=0.0000 vl=0.000 db=0.00
G1 X-30.00 Y52.00 E63.9934 F600         ; draw dl=3.0@10(0<10>0) de=0.187@0.58(0.0<0.62>0.0) l=0.30x0.50x1.00 r=1.00
;00:01:38.478: pe=0.0000 eb=0.0241 ve=0.0000 vn=0.0000 vl=0.000 db=0.50
G1 E59.9934 F2400                       ; retract de=-4.0000@-40.0 r=0.99
;00:01:38.578: pe=-4.0000 eb=0.0241 ve=-40.0000 vn=0.0000 vl=0.000 db=0.50
G1 Z0.500 F420                          ; hopup dz=0.20@7 h=0.5 r=0.77
;00:01:38.607: pe=-4.0000 eb=0.0241 ve=0.0000 vn=0.0000 vl=0.000 db=0.38
G1 X-28.00 Y55.00 F6000                 ; move dl=3.6@100(0<30>0) de=0.000@0.0(0.0<0.0>0.0) l=0.50x0.50x0.00 r=0.00
;00:01:38.787: pe=-4.0000 eb=0.0000 ve=0.0000 vn=0.0000 vl=0.000 db=0.00
G1 Z0.300 F420                          ; hopdn dz=-0.20@7 h=0.3 r=0.00
;00:01:38.816: pe=-4.0000 eb=0.0000 ve=0.0000 vn=0.0000 vl=0.000 db=0.00
G1 E63.9934 F1800                       ; restore de=4.0000@30.0 r=0.00
;00:01:38.949: pe=-0.0000 eb=0.0000 ve=30.0000 vn=0.0000 vl=0.000 db=0.00
G1 X-28.00 Y53.50 E64.0870 F600         ; draw dl=1.5@10(0<10>0) de=0.094@0.55(0.0<0.62>0.0) l=0.30x0.50x1.00 r=1.00
;00:01:39.119: pe=0.0000 eb=0.0218 ve=0.0000 vn=0.0000 vl=0.000 db=0.47
G1 E60.0870 F2400                       ; retract de=-4.0000@-40.0 r=0.94
;00:01:39.219: pe=-4.0000 eb=0.0218 ve=-40.0000 vn=0.0000 vl=0.000 db=0.47
G1 Z0.500 F420                          ; hopup dz=0.20@7 h=0.5 r=0.73
;00:01:39.248: pe=-4.0000 eb=0.0218 ve=0.0000 vn=0.0000 vl=0.000 db=0.37
G1 X-26.00 Y55.00 F6000                 ; move dl=2.5@100(0<25>0) de=0.000@0.0(0.0<0.0>0.0) l=0.50x0.50x0.00 r=0.00
;00:01:39.398: pe=-4.0000 eb=0.0000 ve=0.0000 vn=0.0000 vl=0.000 db=0.00
G1 Z0.300 F420                          ; hopdn dz=-0.20@7 h=0.3 r=0.00
;00:01:39.426: pe=-4.0000 eb=0.0000 ve=0.0000 vn=0.0000 vl=0.000 db=0.00
G1 E64.0870 F1800                       ; restore de=4.0000@30.0 r=0.00
;00:01:39.559: pe=-0.0000 eb=0.0000 ve=30.0000 vn=0.0000 vl=0.000 db=0.00
G1 X-26.00 Y53.50 E64.1805 F600         ; draw dl=1.5@10(0<10>0) de=0.094@0.55(0.0<0.62>0.0) l=0.30x0.50x1.00 r=1.00
;00:01:39.729: pe=0.0000 eb=0.0218 ve=0.0000 vn=0.0000 vl=0.000 db=0.47
G1 E60.1805 F2400                       ; retract de=-4.0000@-40.0 r=0.94
;00:01:39.829: pe=-4.0000 eb=0.0218 ve=-40.0000 vn=0.0000 vl=0.000 db=0.47
G1 Z0.500 F420                          ; hopup dz=0.20@7 h=0.5 r=0.73
;00:01:39.858: pe=-4.0000 eb=0.0218 ve=0.0000 vn=0.0000 vl=0.000 db=0.37
G1 X-24.00 Y55.00 F6000                 ; move dl=2.5@100(0<25>0) de=0.000@0.0(0.0<0.0>0.0) l=0.50x0.50x0.00 r=0.00
;00:01:40.008: pe=-4.0000 eb=0.0000 ve=0.0000 vn=0.0000 vl=0.000 db=0.00
G1 Z0.300 F420                          ; hopdn dz=-0.20@7 h=0.3 r=0.00
;00:01:40.037: pe=-4.0000 eb=0.0000 ve=0.0000 vn=0.0000 vl=0.000 db=0.00
G1 E64.1805 F1800                       ; restore de=4.0000@30.0 r=0.00
;00:01:40.170: pe=-0.0000 eb=0.0000 ve=30.0000 vn=0.0000 vl=0.000 db=0.00
G1 X-24.00 Y53.50 E64.2741 F600         ; draw dl=1.5@10(0<10>0) de=0.094@0.55(0.0<0.62>0.0) l=0.30x0.50x1.00 r=1.00
;00:01:40.340: pe=0.0000 eb=0.0218 ve=0.0000 vn=0.0000 vl=0.000 db=0.47
G1 E60.2741 F2400                       ; retract de=-4.0000@-40.0 r=0.94
;00:01:40.440: pe=-4.0000 eb=0.0218 ve=-40.0000 vn=0.0000 vl=0.000 db=0.47
G1 Z0.500 F420                          ; hopup dz=0.20@7 h=0.5 r=0.73
;00:01:40.469: pe=-4.0000 eb=0.0218 ve=0.0000 vn=0.0000 vl=0.000 db=0.37
G1 X-22.00 Y55.00 F6000                 ; move dl=2.5@100(0<25>0) de=0.000@0.0(0.0<0.0>0.0) l=0.50x0.50x0.00 r=0.00
;00:01:40.619: pe=-4.0000 eb=0.0000 ve=0.0000 vn=0.0000 vl=0.000 db=0.00
G1 Z0.300 F420                          ; hopdn dz=-0.20@7 h=0.3 r=0.00
;00:01:40.647: pe=-4.0000 eb=0.0000 ve=0.0000 vn=0.0000 vl=0.000 db=0.00
G1 E64.2741 F1800                       ; restore de=4.0000@30.0 r=0.00
;00:01:40.780: pe=-0.0000 eb=0.0000 ve=30.0000 vn=0.0000 vl=0.000 db=0.00
G1 X-22.00 Y53.50 E64.3676 F600         ; draw dl=1.5@10(0<10>0) de=0.094@0.55(0.0<0.62>0.0) l=0.30x0.50x1.00 r=1.00
;00:01:40.950: pe=0.0000 eb=0.0218 ve=0.0000 vn=0.0000 vl=0.000 db=0.47
G1 E60.3676 F2400                       ; retract de=-4.0000@-40.0 r=0.94
;00:01:41.050: pe=-4.0000 eb=0.0218 ve=-40.0000 vn=0.0000 vl=0.000 db=0.47
G1 Z0.500 F420                          ; hopup dz=0.20@7 h=0.5 r=0.73
;00:01:41.079: pe=-4.0000 eb=0.0218 ve=0.0000 vn=0.0000 vl=0.000 db=0.37
G1 X-20.00 Y55.00 F6000                 ; move dl=2.5@100(0<25>0) de=0.000@0.0(0.0<0.0>0.0) l=0.50x0.50x0.00 r=0.00
;00:01:41.229: pe=-4.0000 eb=0.0000 ve=0.0000 vn=0.0000 vl=0.000 db=0.00
G1 Z0.300 F420                          ; hopdn dz=-0.20@7 h=0.3 r=0.00
;00:01:41.258: pe=-4.0000 eb=0.0000 ve=0.0000 vn=0.0000 vl=0.000 db=0.00
G1 E64.3676 F1800                       ; restore de=4.0000@30.0 r=0.00
;00:01:41.391: pe=-0.0000 eb=0.0000 ve=30.0000 vn=0.0000 vl=0.000 db=0.00
G1 X-20.00 Y52.00 E64.5547 F600         ; draw dl=3.0@10(0<10>0) de=0.187@0.58(0.0<0.62>0.0) l=0.30x0.50x1.00 r=1.00
;00:01:41.711: pe=0.0000 eb=0.0241 ve=0.0000 vn=0.0000 vl=0.000 db=0.50
G1 E60.5547 F2400                       ; retract de=-4.0000@-40.0 r=0.99
;00:01:41.811: pe=-4.0000 eb=0.0241 ve=-40.0000 vn=0.0000 vl=0.000 db=0.50
G1 Z0.500 F420                          ; hopup dz=0.20@7 h=0.5 r=0.77
;00:01:41.839: pe=-4.0000 eb=0.0241 ve=0.0000 vn=0.0000 vl=0.000 db=0.38
G1 X-18.00 Y55.00 F6000                 ; move dl=3.6@100(0<30>0) de=0.000@0.0(0.0<0.0>0.0) l=0.50x0.50x0.00 r=0.00
;00:01:42.020: pe=-4.0000 eb=0.0000 ve=0.0000 vn=0.0000 vl=0.000 db=0.00
G1 Z0.300 F420                          ; hopdn dz=-0.20@7 h=0.3 r=0.00
;00:01:42.048: pe=-4.0000 eb=0.0000 ve=0.0000 vn=0.0000 vl=0.000 db=0.00
G1 E64.5547 F1800                       ; restore de=4.0000@30.0 r=0.00
;00:01:42.182: pe=-0.0000 eb=0.0000 ve=30.0000 vn=0.0000 vl=0.000 db=0.00
G1 X-18.00 Y53.50 E64.6483 F600         ; draw dl=1.5@10(0<10>0) de=0.094@0.55(0.0<0.62>0.0) l=0.30x0.50x1.00 r=1.00
;00:01:42.352: pe=0.0000 eb=0.0218 ve=0.0000 vn=0.0000 vl=0.000 db=0.47
G1 E60.6483 F2400                       ; retract de=-4.0000@-40.0 r=0.94
;00:01:42.452: pe=-4.0000 eb=0.0218 ve=-40.0000 vn=0.0000 vl=0.000 db=0.47
G1 Z0.500 F420                          ; hopup dz=0.20@7 h=0.5 r=0.73
;00:01:42.480: pe=-4.0000 eb=0.0218 ve=0.0000 vn=0.0000 vl=0.000 db=0.37
G1 X-16.00 Y55.00 F6000                 ; move dl=2.5@100(0<25>0) de=0.000@0.0(0.0<0.0>0.0) l=0.50x0.50x0.00 r=0.00
;00:01:42.630: pe=-4.0000 eb=0.0000 ve=0.0000 vn=0.0000 vl=0.000 db=0.00
G1 Z0.300 F420                          ; hopdn dz=-0.20@7 h=0.3 r=0.00
;00:01:42.659: pe=-4.0000 eb=0.0000 ve=0.0000 vn=0.0000 vl=0.000 db=0.00
G1 E64.6483 F1800                       ; restore de=4.0000@30.0 r=0.00
;00:01:42.792: pe=-0.0000 eb=0.0000 ve=30.0000 vn=0.0000 vl=0.000 db=0.00
G1 X-16.00 Y53.50 E64.7418 F600         ; draw dl=1.5@10(0<10>0) de=0.094@0.55(0.0<0.62>0.0) l=0.30x0.50x1.00 r=1.00
;00:01:42.962: pe=0.0000 eb=0.0218 ve=0.0000 vn=0.0000 vl=0.000 db=0.47
G1 E60.7418 F2400                       ; retract de=-4.0000@-40.0 r=0.94
;00:01:43.062: pe=-4.0000 eb=0.0218 ve=-40.0000 vn=0.0000 vl=0.000 db=0.47
G1 Z0.500 F420                          ; hopup dz=0.20@7 h=0.5 r=0.73
;00:01:43.091: pe=-4.0000 eb=0.0218 ve=0.0000 vn=0.0000 vl=0.000 db=0.37
G1 X-14.00 Y55.00 F6000                 ; move dl=2.5@100(0<25>0) de=0.000@0.0(0.0<0.0>0.0) l=0.50x0.50x0.00 r=0.00
;00:01:43.241: pe=-4.0000 eb=0.0000 ve=0.0000 vn=0.0000 vl=0.000 db=0.00
G1 Z0.300 F420                          ; hopdn dz=-0.20@7 h=0.3 r=0.00
;00:01:43.269: pe=-4.0000 eb=0.0000 ve=0.0000 vn=0.0000 vl=0.000 db=0.00
G1 E64.7418 F1800                       ; restore de=4.0000@30.0 r=0.00
;00:01:43.402: pe=-0.0000 eb=0.0000 ve=30.0000 vn=0.0000 vl=0.000 db=0.00
G1 X-14.00 Y53.50 E64.8354 F600         ; draw dl=1.5@10(0<10>0) de=0.094@0.55(0.0<0.62>0.0) l=0.30x0.50x1.00 r=1.00
;00:01:43.572: pe=0.0000 eb=0.0218 ve=0.0000 vn=0.0000 vl=0.000 db=0.47
G1 E60.8354 F2400                       ; retract de=-4.0000@-40.0 r=0.94
;00:01:43.672: pe=-4.0000 eb=0.0218 ve=-40.0000 vn=0.0000 vl=0.000 db=0.47
G1 Z0.500 F420                          ; hopup dz=0.20@7 h=0.5 r=0.73
;00:01:43.701: pe=-4.0000 eb=0.0218 ve=0.0000 vn=0.0000 vl=0.000 db=0.37
G1 X-12.00 Y55.00 F6000                 ; move dl=2.5@100(0<25>0) de=0.000@0.0(0.0<0.0>0.0) l=0.50x0.50x0.00 r=0.00
;00:01:43.851: pe=-4.0000 eb=0.0000 ve=0.0000 vn=0.0000 vl=0.000 db=0.00
G1 Z0.300 F420                          ; hopdn dz=-0.20@7 h=0.3 r=0.00
;00:01:43.880: pe=-4.0000 eb=0.0000 ve=0.0000 vn=0.0000 vl=0.000 db=0.00
G1 E64.8354 F1800                       ; restore de=4.0000@30.0 r=0.00
;00:01:44.013: pe=-0.0000 eb=0.0000 ve=30.0000 vn=0.0000 vl=0.000 db=0.00
G1 X-12.00 Y53.50 E64.9289 F600         ; draw dl=1.5@10(0<10>0) de=0.094@0.55(0.0<0.62>0.0) l=0.30x0.50x1.00 r=1.00
;00:01:44.183: pe=0.0000 eb=0.0218 ve=0.0000 vn=0.0000 vl=0.000 db=0.47
G1 E60.9289 F2400                       ; retract de=-4.0000@-40.0 r=0.94
;00:01:44.283: pe=-4.0000 eb=0.0218 ve=-40.0000 vn=0.0000 vl=0.000 db=0.47
G1 Z0.500 F420                          ; hopup dz=0.20@7 h=0.5 r=0.73
;00:01:44.312: pe=-4.0000 eb=0.0218 ve=0.0000 vn=0.0000 vl=0.000 db=0.37
G1 X-10.00 Y55.00 F6000                 ; move dl=2.5@100(0<25>0) de=0.000@0.0(0.0<0.0>0.0) l=0.50x0.50x0.00 r=0.00
;00:01:44.462: pe=-4.0000 eb=0.0000 ve=0.0000 vn=0.0000 vl=0.000 db=0.00
G1 Z0.300 F420                          ; hopdn dz=-0.20@7 h=0.3 r=0.00
;00:01:44.490: pe=-4.0000 eb=0.0000 ve=0.0000 vn=0.0000 vl=0.000 db=0.00
G1 E64.9289 F1800                       ; restore de=4.0000@30.0 r=0.00
;00:01:44.623: pe=-0.0000 eb=0.0000 ve=30.0000 vn=0.0000 vl=0.000 db=0.00
G1 X-10.00 Y52.00 E65.1160 F600         ; draw dl=3.0@10(0<10>0) de=0.187@0.58(0.0<0.62>0.0) l=0.30x0.50x1.00 r=1.00
;00:01:44.943: pe=0.0000 eb=0.0241 ve=0.0000 vn=0.0000 vl=0.000 db=0.50
G1 E61.1160 F2400                       ; retract de=-4.0000@-40.0 r=0.99
;00:01:45.043: pe=-4.0000 eb=0.0241 ve=-40.0000 vn=0.0000 vl=0.000 db=0.50
G1 Z0.500 F420                          ; hopup dz=0.20@7 h=0.5 r=0.77
;00:01:45.072: pe=-4.0000 eb=0.0241 ve=0.0000 vn=0.0000 vl=0.000 db=0.38
G1 X-8.00 Y55.00 F6000                  ; move dl=3.6@100(0<30>0) de=0.000@0.0(0.0<0.0>0.0) l=0.50x0.50x0.00 r=0.00
;00:01:45.252: pe=-4.0000 eb=0.0000 ve=0.0000 vn=0.0000 vl=0.000 db=0.00
G1 Z0.300 F420                          ; hopdn dz=-0.20@7 h=0.3 r=0.00
;00:01:45.281: pe=-4.0000 eb=0.0000 ve=0.0000 vn=0.0000 vl=0.000 db=0.00
G1 E65.1160 F1800                       ; restore de=4.0000@30.0 r=0.00
;00:01:45.414: pe=-0.0000 eb=0.0000 ve=30.0000 vn=0.0000 vl=0.000 db=0.00
G1 X-8.00 Y53.50 E65.2096 F600          ; draw dl=1.5@10(0<10>0) de=0.094@0.55(0.0<0.62>0.0) l=0.30x0.50x1.00 r=1.00
;00:01:45.584: pe=0.0000 eb=0.0218 ve=0.0000 vn=0.0000 vl=0.000 db=0.47
G1 E61.2096 F2400                       ; retract de=-4.0000@-40.0 r=0.94
;00:01:45.684: pe=-4.0000 eb=0.0218 ve=-40.0000 vn=0.0000 vl=0.000 db=0.47
G1 Z0.500 F420                          ; hopup dz=0.20@7 h=0.5 r=0.73
;00:01:45.713: pe=-4.0000 eb=0.0218 ve=0.0000 vn=0.0000 vl=0.000 db=0.37
G1 X-6.00 Y55.00 F6000                  ; move dl=2.5@100(0<25>0) de=0.000@0.0(0.0<0.0>0.0) l=0.50x0.50x0.00 r=0.00
;00:01:45.863: pe=-4.0000 eb=0.0000 ve=0.0000 vn=0.0000 vl=0.000 db=0.00
G1 Z0.300 F420                          ; hopdn dz=-0.20@7 h=0.3 r=0.00
;00:01:45.891: pe=-4.0000 eb=0.0000 ve=0.0000 vn=0.0000 vl=0.000 db=0.00
G1 E65.2096 F1800                       ; restore de=4.0000@30.0 r=0.00
;00:01:46.024: pe=-0.0000 eb=0.0000 ve=30.0000 vn=0.0000 vl=0.000 db=0.00
G1 X-6.00 Y53.50 E65.3031 F600          ; draw dl=1.5@10(0<10>0) de=0.094@0.55(0.0<0.62>0.0) l=0.30x0.50x1.00 r=1.00
;00:01:46.194: pe=0.0000 eb=0.0218 ve=0.0000 vn=0.0000 vl=0.000 db=0.47
G1 E61.3031 F2400                       ; retract de=-4.0000@-40.0 r=0.94
;00:01:46.294: pe=-4.0000 eb=0.0218 ve=-40.0000 vn=0.0000 vl=0.000 db=0.47
G1 Z0.500 F420                          ; hopup dz=0.20@7 h=0.5 r=0.73
;00:01:46.323: pe=-4.0000 eb=0.0218 ve=0.0000 vn=0.0000 vl=0.000 db=0.37
G1 X-4.00 Y55.00 F6000                  ; move dl=2.5@100(0<25>0) de=0.000@0.0(0.0<0.0>0.0) l=0.50x0.50x0.00 r=0.00
;00:01:46.473: pe=-4.0000 eb=0.0000 ve=0.0000 vn=0.0000 vl=0.000 db=0.00
G1 Z0.300 F420                          ; hopdn dz=-0.20@7 h=0.3 r=0.00
;00:01:46.502: pe=-4.0000 eb=0.0000 ve=0.0000 vn=0.0000 vl=0.000 db=0.00
G1 E65.3031 F1800                       ; restore de=4.0000@30.0 r=0.00
;00:01:46.635: pe=-0.0000 eb=0.0000 ve=30.0000 vn=0.0000 vl=0.000 db=0.00
G1 X-4.00 Y53.50 E65.3967 F600          ; draw dl=1.5@10(0<10>0) de=0.094@0.55(0.0<0.62>0.0) l=0.30x0.50x1.00 r=1.00
;00:01:46.805: pe=0.0000 eb=0.0218 ve=0.0000 vn=0.0000 vl=0.000 db=0.47
G1 E61.3967 F2400                       ; retract de=-4.0000@-40.0 r=0.94
;00:01:46.905: pe=-4.0000 eb=0.0218 ve=-40.0000 vn=0.0000 vl=0.000 db=0.47
G1 Z0.500 F420                          ; hopup dz=0.20@7 h=0.5 r=0.73
;00:01:46.934: pe=-4.0000 eb=0.0218 ve=0.0000 vn=0.0000 vl=0.000 db=0.37
G1 X-2.00 Y55.00 F6000                  ; move dl=2.5@100(0<25>0) de=0.000@0.0(0.0<0.0>0.0) l=0.50x0.50x0.00 r=0.00
;00:01:47.084: pe=-4.0000 eb=0.0000 ve=0.0000 vn=0.0000 vl=0.000 db=0.00
G1 Z0.300 F420                          ; hopdn dz=-0.20@7 h=0.3 r=0.00
;00:01:47.112: pe=-4.0000 eb=0.0000 ve=0.0000 vn=0.0000 vl=0.000 db=0.00
G1 E65.3967 F1800                       ; restore de=4.0000@30.0 r=0.00
;00:01:47.245: pe=-0.0000 eb=0.0000 ve=30.0000 vn=0.0000 vl=0.000 db=0.00
G1 X-2.00 Y53.50 E65.4902 F600          ; draw dl=1.5@10(0<10>0) de=0.094@0.55(0.0<0.62>0.0) l=0.30x0.50x1.00 r=1.00
;00:01:47.415: pe=0.0000 eb=0.0218 ve=0.0000 vn=0.0000 vl=0.000 db=0.47
G1 E61.4902 F2400                       ; retract de=-4.0000@-40.0 r=0.94
;00:01:47.515: pe=-4.0000 eb=0.0218 ve=-40.0000 vn=0.0000 vl=0.000 db=0.47
G1 Z0.500 F420                          ; hopup dz=0.20@7 h=0.5 r=0.73
;00:01:47.544: pe=-4.0000 eb=0.0218 ve=0.0000 vn=0.0000 vl=0.000 db=0.37
G1 X0.00 Y55.00 F6000                   ; move dl=2.5@100(0<25>0) de=0.000@0.0(0.0<0.0>0.0) l=0.50x0.50x0.00 r=0.00
;00:01:47.694: pe=-4.0000 eb=0.0000 ve=0.0000 vn=0.0000 vl=0.000 db=0.00
G1 Z0.300 F420                          ; hopdn dz=-0.20@7 h=0.3 r=0.00
;00:01:47.723: pe=-4.0000 eb=0.0000 ve=0.0000 vn=0.0000 vl=0.000 db=0.00
G1 E65.4902 F1800                       ; restore de=4.0000@30.0 r=0.00
;00:01:47.856: pe=-0.0000 eb=0.0000 ve=30.0000 vn=0.0000 vl=0.000 db=0.00
G1 X0.00 Y52.00 E65.6773 F600           ; draw dl=3.0@10(0<10>0) de=0.187@0.58(0.0<0.62>0.0) l=0.30x0.50x1.00 r=1.00
;00:01:48.176: pe=0.0000 eb=0.0241 ve=0.0000 vn=0.0000 vl=0.000 db=0.50
G1 E61.6773 F2400                       ; retract de=-4.0000@-40.0 r=0.99
;00:01:48.276: pe=-4.0000 eb=0.0241 ve=-40.0000 vn=0.0000 vl=0.000 db=0.50
G1 Z0.500 F420                          ; hopup dz=0.20@7 h=0.5 r=0.77
;00:01:48.304: pe=-4.0000 eb=0.0241 ve=0.0000 vn=0.0000 vl=0.000 db=0.38
G1 X2.00 Y55.00 F6000                   ; move dl=3.6@100(0<30>0) de=0.000@0.0(0.0<0.0>0.0) l=0.50x0.50x0.00 r=0.00
;00:01:48.485: pe=-4.0000 eb=0.0000 ve=0.0000 vn=0.0000 vl=0.000 db=0.00
G1 Z0.300 F420                          ; hopdn dz=-0.20@7 h=0.3 r=0.00
;00:01:48.513: pe=-4.0000 eb=0.0000 ve=0.0000 vn=0.0000 vl=0.000 db=0.00
G1 E65.6773 F1800                       ; restore de=4.0000@30.0 r=0.00
;00:01:48.647: pe=-0.0000 eb=0.0000 ve=30.0000 vn=0.0000 vl=0.000 db=0.00
G1 X2.00 Y53.50 E65.7709 F600           ; draw dl=1.5@10(0<10>0) de=0.094@0.55(0.0<0.62>0.0) l=0.30x0.50x1.00 r=1.00
;00:01:48.817: pe=0.0000 eb=0.0218 ve=0.0000 vn=0.0000 vl=0.000 db=0.47
G1 E61.7709 F2400                       ; retract de=-4.0000@-40.0 r=0.94
;00:01:48.917: pe=-4.0000 eb=0.0218 ve=-40.0000 vn=0.0000 vl=0.000 db=0.47
G1 Z0.500 F420                          ; hopup dz=0.20@7 h=0.5 r=0.73
;00:01:48.945: pe=-4.0000 eb=0.0218 ve=0.0000 vn=0.0000 vl=0.000 db=0.37
G1 X4.00 Y55.00 F6000                   ; move dl=2.5@100(0<25>0) de=0.000@0.0(0.0<0.0>0.0) l=0.50x0.50x0.00 r=0.00
;00:01:49.095: pe=-4.0000 eb=0.0000 ve=0.0000 vn=0.0000 vl=0.000 db=0.00
G1 Z0.300 F420                          ; hopdn dz=-0.20@7 h=0.3 r=0.00
;00:01:49.124: pe=-4.0000 eb=0.0000 ve=0.0000 vn=0.0000 vl=0.000 db=0.00
G1 E65.7709 F1800                       ; restore de=4.0000@30.0 r=0.00
;00:01:49.257: pe=-0.0000 eb=0.0000 ve=30.0000 vn=0.0000 vl=0.000 db=0.00
G1 X4.00 Y53.50 E65.8644 F600           ; draw dl=1.5@10(0<10>0) de=0.094@0.55(0.0<0.62>0.0) l=0.30x0.50x1.00 r=1.00
;00:01:49.427: pe=0.0000 eb=0.0218 ve=0.0000 vn=0.0000 vl=0.000 db=0.47
G1 E61.8644 F2400                       ; retract de=-4.0000@-40.0 r=0.94
;00:01:49.527: pe=-4.0000 eb=0.0218 ve=-40.0000 vn=0.0000 vl=0.000 db=0.47
G1 Z0.500 F420                          ; hopup dz=0.20@7 h=0.5 r=0.73
;00:01:49.556: pe=-4.0000 eb=0.0218 ve=0.0000 vn=0.0000 vl=0.000 db=0.37
G1 X6.00 Y55.00 F6000                   ; move dl=2.5@100(0<25>0) de=0.000@0.0(0.0<0.0>0.0) l=0.50x0.50x0.00 r=0.00
;00:01:49.706: pe=-4.0000 eb=0.0000 ve=0.0000 vn=0.0000 vl=0.000 db=0.00
G1 Z0.300 F420                          ; hopdn dz=-0.20@7 h=0.3 r=0.00
;00:01:49.734: pe=-4.0000 eb=0.0000 ve=0.0000 vn=0.0000 vl=0.000 db=0.00
G1 E65.8644 F1800                       ; restore de=4.0000@30.0 r=0.00
;00:01:49.867: pe=-0.0000 eb=0.0000 ve=30.0000 vn=0.0000 vl=0.000 db=0.00
G1 X6.00 Y53.50 E65.9580 F600           ; draw dl=1.5@10(0<10>0) de=0.094@0.55(0.0<0.62>0.0) l=0.30x0.50x1.00 r=1.00
;00:01:50.037: pe=0.0000 eb=0.0218 ve=0.0000 vn=0.0000 vl=0.000 db=0.47
G1 E61.9580 F2400                       ; retract de=-4.0000@-40.0 r=0.94
;00:01:50.137: pe=-4.0000 eb=0.0218 ve=-40.0000 vn=0.0000 vl=0.000 db=0.47
G1 Z0.500 F420                          ; hopup dz=0.20@7 h=0.5 r=0.73
;00:01:50.166: pe=-4.0000 eb=0.0218 ve=0.0000 vn=0.0000 vl=0.000 db=0.37
G1 X8.00 Y55.00 F6000                   ; move dl=2.5@100(0<25>0) de=0.000@0.0(0.0<0.0>0.0) l=0.50x0.50x0.00 r=0.00
;00:01:50.316: pe=-4.0000 eb=0.0000 ve=0.0000 vn=0.0000 vl=0.000 db=0.00
G1 Z0.300 F420                          ; hopdn dz=-0.20@7 h=0.3 r=0.00
;00:01:50.345: pe=-4.0000 eb=0.0000 ve=0.0000 vn=0.0000 vl=0.000 db=0.00
G1 E65.9580 F1800                       ; restore de=4.0000@30.0 r=0.00
;00:01:50.478: pe=-0.0000 eb=0.0000 ve=30.0000 vn=0.0000 vl=0.000 db=0.00
G1 X8.00 Y53.50 E66.0515 F600           ; draw dl=1.5@10(0<10>0) de=0.094@0.55(0.0<0.62>0.0) l=0.30x0.50x1.00 r=1.00
;00:01:50.648: pe=0.0000 eb=0.0218 ve=0.0000 vn=0.0000 vl=0.000 db=0.47
G1 E62.0515 F2400                       ; retract de=-4.0000@-40.0 r=0.94
;00:01:50.748: pe=-4.0000 eb=0.0218 ve=-40.0000 vn=0.0000 vl=0.000 db=0.47
G1 Z0.500 F420                          ; hopup dz=0.20@7 h=0.5 r=0.73
;00:01:50.777: pe=-4.0000 eb=0.0218 ve=0.0000 vn=0.0000 vl=0.000 db=0.37
G1 X10.00 Y55.00 F6000                  ; move dl=2.5@100(0<25>0) de=0.000@0.0(0.0<0.0>0.0) l=0.50x0.50x0.00 r=0.00
;00:01:50.927: pe=-4.0000 eb=0.0000 ve=0.0000 vn=0.0000 vl=0.000 db=0.00
G1 Z0.300 F420                          ; hopdn dz=-0.20@7 h=0.3 r=0.00
;00:01:50.955: pe=-4.0000 eb=0.0000 ve=0.0000 vn=0.0000 vl=0.000 db=0.00
G1 E66.0515 F1800                       ; restore de=4.0000@30.0 r=0.00
;00:01:51.088: pe=-0.0000 eb=0.0000 ve=30.0000 vn=0.0000 vl=0.000 db=0.00
G1 X10.00 Y52.00 E66.2386 F600          ; draw dl=3.0@10(0<10>0) de=0.187@0.58(0.0<0.62>0.0) l=0.30x0.50x1.00 r=1.00
;00:01:51.408: pe=0.0000 eb=0.0241 ve=0.0000 vn=0.0000 vl=0.000 db=0.50
G1 E62.2386 F2400                       ; retract de=-4.0000@-40.0 r=0.99
;00:01:51.508: pe=-4.0000 eb=0.0241 ve=-40.0000 vn=0.0000 vl=0.000 db=0.50
G1 Z0.500 F420                          ; hopup dz=0.20@7 h=0.5 r=0.77
;00:01:51.537: pe=-4.0000 eb=0.0241 ve=0.0000 vn=0.0000 vl=0.000 db=0.38
G1 X12.00 Y55.00 F6000                  ; move dl=3.6@100(0<30>0) de=0.000@0.0(0.0<0.0>0.0) l=0.50x0.50x0.00 r=0.00
;00:01:51.717: pe=-4.0000 eb=0.0000 ve=0.0000 vn=0.0000 vl=0.000 db=0.00
G1 Z0.300 F420                          ; hopdn dz=-0.20@7 h=0.3 r=0.00
;00:01:51.746: pe=-4.0000 eb=0.0000 ve=0.0000 vn=0.0000 vl=0.000 db=0.00
G1 E66.2386 F1800                       ; restore de=4.0000@30.0 r=0.00
;00:01:51.879: pe=-0.0000 eb=0.0000 ve=30.0000 vn=0.0000 vl=0.000 db=0.00
G1 X12.00 Y53.50 E66.3322 F600          ; draw dl=1.5@10(0<10>0) de=0.094@0.55(0.0<0.62>0.0) l=0.30x0.50x1.00 r=1.00
;00:01:52.049: pe=0.0000 eb=0.0218 ve=0.0000 vn=0.0000 vl=0.000 db=0.47
G1 E62.3322 F2400                       ; retract de=-4.0000@-40.0 r=0.94
;00:01:52.149: pe=-4.0000 eb=0.0218 ve=-40.0000 vn=0.0000 vl=0.000 db=0.47
G1 Z0.500 F420                          ; hopup dz=0.20@7 h=0.5 r=0.73
;00:01:52.178: pe=-4.0000 eb=0.0218 ve=0.0000 vn=0.0000 vl=0.000 db=0.37
G1 X14.00 Y55.00 F6000                  ; move dl=2.5@100(0<25>0) de=0.000@0.0(0.0<0.0>0.0) l=0.50x0.50x0.00 r=0.00
;00:01:52.328: pe=-4.0000 eb=0.0000 ve=0.0000 vn=0.0000 vl=0.000 db=0.00
G1 Z0.300 F420                          ; hopdn dz=-0.20@7 h=0.3 r=0.00
;00:01:52.356: pe=-4.0000 eb=0.0000 ve=0.0000 vn=0.0000 vl=0.000 db=0.00
G1 E66.3322 F1800                       ; restore de=4.0000@30.0 r=0.00
;00:01:52.490: pe=-0.0000 eb=0.0000 ve=30.0000 vn=0.0000 vl=0.000 db=0.00
G1 X14.00 Y53.50 E66.4258 F600          ; draw dl=1.5@10(0<10>0) de=0.094@0.55(0.0<0.62>0.0) l=0.30x0.50x1.00 r=1.00
;00:01:52.660: pe=0.0000 eb=0.0218 ve=0.0000 vn=0.0000 vl=0.000 db=0.47
G1 E62.4257 F2400                       ; retract de=-4.0000@-40.0 r=0.94
;00:01:52.760: pe=-4.0000 eb=0.0218 ve=-40.0000 vn=0.0000 vl=0.000 db=0.47
G1 Z0.500 F420                          ; hopup dz=0.20@7 h=0.5 r=0.73
;00:01:52.788: pe=-4.0000 eb=0.0218 ve=0.0000 vn=0.0000 vl=0.000 db=0.37
G1 X16.00 Y55.00 F6000                  ; move dl=2.5@100(0<25>0) de=0.000@0.0(0.0<0.0>0.0) l=0.50x0.50x0.00 r=0.00
;00:01:52.938: pe=-4.0000 eb=0.0000 ve=0.0000 vn=0.0000 vl=0.000 db=0.00
G1 Z0.300 F420                          ; hopdn dz=-0.20@7 h=0.3 r=0.00
;00:01:52.967: pe=-4.0000 eb=0.0000 ve=0.0000 vn=0.0000 vl=0.000 db=0.00
G1 E66.4257 F1800                       ; restore de=4.0000@30.0 r=0.00
;00:01:53.100: pe=-0.0000 eb=0.0000 ve=30.0000 vn=0.0000 vl=0.000 db=0.00
G1 X16.00 Y53.50 E66.5193 F600          ; draw dl=1.5@10(0<10>0) de=0.094@0.55(0.0<0.62>0.0) l=0.30x0.50x1.00 r=1.00
;00:01:53.270: pe=0.0000 eb=0.0218 ve=0.0000 vn=0.0000 vl=0.000 db=0.47
G1 E62.5193 F2400                       ; retract de=-4.0000@-40.0 r=0.94
;00:01:53.370: pe=-4.0000 eb=0.0218 ve=-40.0000 vn=0.0000 vl=0.000 db=0.47
G1 Z0.500 F420                          ; hopup dz=0.20@7 h=0.5 r=0.73
;00:01:53.399: pe=-4.0000 eb=0.0218 ve=0.0000 vn=0.0000 vl=0.000 db=0.37
G1 X18.00 Y55.00 F6000                  ; move dl=2.5@100(0<25>0) de=0.000@0.0(0.0<0.0>0.0) l=0.50x0.50x0.00 r=0.00
;00:01:53.549: pe=-4.0000 eb=0.0000 ve=0.0000 vn=0.0000 vl=0.000 db=0.00
G1 Z0.300 F420                          ; hopdn dz=-0.20@7 h=0.3 r=0.00
;00:01:53.577: pe=-4.0000 eb=0.0000 ve=0.0000 vn=0.0000 vl=0.000 db=0.00
G1 E66.5193 F1800                       ; restore de=4.0000@30.0 r=0.00
;00:01:53.710: pe=-0.0000 eb=0.0000 ve=30.0000 vn=0.0000 vl=0.000 db=0.00
G1 X18.00 Y53.50 E66.6129 F600          ; draw dl=1.5@10(0<10>0) de=0.094@0.55(0.0<0.62>0.0) l=0.30x0.50x1.00 r=1.00
;00:01:53.880: pe=0.0000 eb=0.0218 ve=0.0000 vn=0.0000 vl=0.000 db=0.47
G1 E62.6129 F2400                       ; retract de=-4.0000@-40.0 r=0.94
;00:01:53.980: pe=-4.0000 eb=0.0218 ve=-40.0000 vn=0.0000 vl=0.000 db=0.47
G1 Z0.500 F420                          ; hopup dz=0.20@7 h=0.5 r=0.73
;00:01:54.009: pe=-4.0000 eb=0.0218 ve=0.0000 vn=0.0000 vl=0.000 db=0.37
G1 X20.00 Y55.00 F6000                  ; move dl=2.5@100(0<25>0) de=0.000@0.0(0.0<0.0>0.0) l=0.50x0.50x0.00 r=0.00
;00:01:54.159: pe=-4.0000 eb=0.0000 ve=0.0000 vn=0.0000 vl=0.000 db=0.00
G1 Z0.300 F420                          ; hopdn dz=-0.20@7 h=0.3 r=0.00
;00:01:54.188: pe=-4.0000 eb=0.0000 ve=0.0000 vn=0.0000 vl=0.000 db=0.00
G1 E66.6129 F1800                       ; restore de=4.0000@30.0 r=0.00
;00:01:54.321: pe=-0.0000 eb=0.0000 ve=30.0000 vn=0.0000 vl=0.000 db=0.00
G1 X20.00 Y52.00 E66.8000 F600          ; draw dl=3.0@10(0<10>0) de=0.187@0.58(0.0<0.62>0.0) l=0.30x0.50x1.00 r=1.00
;00:01:54.641: pe=0.0000 eb=0.0241 ve=0.0000 vn=0.0000 vl=0.000 db=0.50
G1 E62.8000 F2400                       ; retract de=-4.0000@-40.0 r=0.99
;00:01:54.741: pe=-4.0000 eb=0.0241 ve=-40.0000 vn=0.0000 vl=0.000 db=0.50
G1 Z0.500 F420                          ; hopup dz=0.20@7 h=0.5 r=0.77
;00:01:54.770: pe=-4.0000 eb=0.0241 ve=0.0000 vn=0.0000 vl=0.000 db=0.38
G1 X22.00 Y55.00 F6000                  ; move dl=3.6@100(0<30>0) de=0.000@0.0(0.0<0.0>0.0) l=0.50x0.50x0.00 r=0.00
;00:01:54.950: pe=-4.0000 eb=0.0000 ve=0.0000 vn=0.0000 vl=0.000 db=0.00
G1 Z0.300 F420                          ; hopdn dz=-0.20@7 h=0.3 r=0.00
;00:01:54.978: pe=-4.0000 eb=0.0000 ve=0.0000 vn=0.0000 vl=0.000 db=0.00
G1 E66.8000 F1800                       ; restore de=4.0000@30.0 r=0.00
;00:01:55.112: pe=-0.0000 eb=0.0000 ve=30.0000 vn=0.0000 vl=0.000 db=0.00
G1 X22.00 Y53.50 E66.8935 F600          ; draw dl=1.5@10(0<10>0) de=0.094@0.55(0.0<0.62>0.0) l=0.30x0.50x1.00 r=1.00
;00:01:55.282: pe=0.0000 eb=0.0218 ve=0.0000 vn=0.0000 vl=0.000 db=0.47
G1 E62.8935 F2400                       ; retract de=-4.0000@-40.0 r=0.94
;00:01:55.382: pe=-4.0000 eb=0.0218 ve=-40.0000 vn=0.0000 vl=0.000 db=0.47
G1 Z0.500 F420                          ; hopup dz=0.20@7 h=0.5 r=0.73
;00:01:55.410: pe=-4.0000 eb=0.0218 ve=0.0000 vn=0.0000 vl=0.000 db=0.37
G1 X24.00 Y55.00 F6000                  ; move dl=2.5@100(0<25>0) de=0.000@0.0(0.0<0.0>0.0) l=0.50x0.50x0.00 r=0.00
;00:01:55.560: pe=-4.0000 eb=0.0000 ve=0.0000 vn=0.0000 vl=0.000 db=0.00
G1 Z0.300 F420                          ; hopdn dz=-0.20@7 h=0.3 r=0.00
;00:01:55.589: pe=-4.0000 eb=0.0000 ve=0.0000 vn=0.0000 vl=0.000 db=0.00
G1 E66.8935 F1800                       ; restore de=4.0000@30.0 r=0.00
;00:01:55.722: pe=-0.0000 eb=0.0000 ve=30.0000 vn=0.0000 vl=0.000 db=0.00
G1 X24.00 Y53.50 E66.9871 F600          ; draw dl=1.5@10(0<10>0) de=0.094@0.55(0.0<0.62>0.0) l=0.30x0.50x1.00 r=1.00
;00:01:55.892: pe=0.0000 eb=0.0218 ve=0.0000 vn=0.0000 vl=0.000 db=0.47
G1 E62.9871 F2400                       ; retract de=-4.0000@-40.0 r=0.94
;00:01:55.992: pe=-4.0000 eb=0.0218 ve=-40.0000 vn=0.0000 vl=0.000 db=0.47
G1 Z0.500 F420                          ; hopup dz=0.20@7 h=0.5 r=0.73
;00:01:56.021: pe=-4.0000 eb=0.0218 ve=0.0000 vn=0.0000 vl=0.000 db=0.37
G1 X26.00 Y55.00 F6000                  ; move dl=2.5@100(0<25>0) de=0.000@0.0(0.0<0.0>0.0) l=0.50x0.50x0.00 r=0.00
;00:01:56.171: pe=-4.0000 eb=0.0000 ve=0.0000 vn=0.0000 vl=0.000 db=0.00
G1 Z0.300 F420                          ; hopdn dz=-0.20@7 h=0.3 r=0.00
;00:01:56.199: pe=-4.0000 eb=0.0000 ve=0.0000 vn=0.0000 vl=0.000 db=0.00
G1 E66.9871 F1800                       ; restore de=4.0000@30.0 r=0.00
;00:01:56.333: pe=-0.0000 eb=0.0000 ve=30.0000 vn=0.0000 vl=0.000 db=0.00
G1 X26.00 Y53.50 E67.0806 F600          ; draw dl=1.5@10(0<10>0) de=0.094@0.55(0.0<0.62>0.0) l=0.30x0.50x1.00 r=1.00
;00:01:56.503: pe=0.0000 eb=0.0218 ve=0.0000 vn=0.0000 vl=0.000 db=0.47
G1 E63.0806 F2400                       ; retract de=-4.0000@-40.0 r=0.94
;00:01:56.603: pe=-4.0000 eb=0.0218 ve=-40.0000 vn=0.0000 vl=0.000 db=0.47
G1 Z0.500 F420                          ; hopup dz=0.20@7 h=0.5 r=0.73
;00:01:56.631: pe=-4.0000 eb=0.0218 ve=0.0000 vn=0.0000 vl=0.000 db=0.37
G1 X28.00 Y55.00 F6000                  ; move dl=2.5@100(0<25>0) de=0.000@0.0(0.0<0.0>0.0) l=0.50x0.50x0.00 r=0.00
;00:01:56.781: pe=-4.0000 eb=0.0000 ve=0.0000 vn=0.0000 vl=0.000 db=0.00
G1 Z0.300 F420                          ; hopdn dz=-0.20@7 h=0.3 r=0.00
;00:01:56.810: pe=-4.0000 eb=0.0000 ve=0.0000 vn=0.0000 vl=0.000 db=0.00
G1 E67.0806 F1800                       ; restore de=4.0000@30.0 r=0.00
;00:01:56.943: pe=-0.0000 eb=0.0000 ve=30.0000 vn=0.0000 vl=0.000 db=0.00
G1 X28.00 Y53.50 E67.1742 F600          ; draw dl=1.5@10(0<10>0) de=0.094@0.55(0.0<0.62>0.0) l=0.30x0.50x1.00 r=1.00
;00:01:57.113: pe=0.0000 eb=0.0218 ve=0.0000 vn=0.0000 vl=0.000 db=0.47
G1 E63.1742 F2400                       ; retract de=-4.0000@-40.0 r=0.94
;00:01:57.213: pe=-4.0000 eb=0.0218 ve=-40.0000 vn=0.0000 vl=0.000 db=0.47
G1 Z0.500 F420                          ; hopup dz=0.20@7 h=0.5 r=0.73
;00:01:57.242: pe=-4.0000 eb=0.0218 ve=0.0000 vn=0.0000 vl=0.000 db=0.37
G1 X30.00 Y55.00 F6000                  ; move dl=2.5@100(0<25>0) de=0.000@0.0(0.0<0.0>0.0) l=0.50x0.50x0.00 r=0.00
;00:01:57.392: pe=-4.0000 eb=0.0000 ve=0.0000 vn=0.0000 vl=0.000 db=0.00
G1 Z0.300 F420                          ; hopdn dz=-0.20@7 h=0.3 r=0.00
;00:01:57.420: pe=-4.0000 eb=0.0000 ve=0.0000 vn=0.0000 vl=0.000 db=0.00
G1 E67.1742 F1800                       ; restore de=4.0000@30.0 r=0.00
;00:01:57.553: pe=-0.0000 eb=0.0000 ve=30.0000 vn=0.0000 vl=0.000 db=0.00
G1 X30.00 Y52.00 E67.3613 F600          ; draw dl=3.0@10(0<10>0) de=0.187@0.58(0.0<0.62>0.0) l=0.30x0.50x1.00 r=1.00
;00:01:57.873: pe=0.0000 eb=0.0241 ve=0.0000 vn=0.0000 vl=0.000 db=0.50
G1 E63.3613 F2400                       ; retract de=-4.0000@-40.0 r=0.99
;00:01:57.973: pe=-4.0000 eb=0.0241 ve=-40.0000 vn=0.0000 vl=0.000 db=0.50
G1 Z0.500 F420                          ; hopup dz=0.20@7 h=0.5 r=0.77
;00:01:58.002: pe=-4.0000 eb=0.0241 ve=0.0000 vn=0.0000 vl=0.000 db=0.38
G1 X32.00 Y55.00 F6000                  ; move dl=3.6@100(0<30>0) de=0.000@0.0(0.0<0.0>0.0) l=0.50x0.50x0.00 r=0.00
;00:01:58.182: pe=-4.0000 eb=0.0000 ve=0.0000 vn=0.0000 vl=0.000 db=0.00
G1 Z0.300 F420                          ; hopdn dz=-0.20@7 h=0.3 r=0.00
;00:01:58.211: pe=-4.0000 eb=0.0000 ve=0.0000 vn=0.0000 vl=0.000 db=0.00
G1 E67.3613 F1800                       ; restore de=4.0000@30.0 r=0.00
;00:01:58.344: pe=-0.0000 eb=0.0000 ve=30.0000 vn=0.0000 vl=0.000 db=0.00
G1 X32.00 Y53.50 E67.4548 F600          ; draw dl=1.5@10(0<10>0) de=0.094@0.55(0.0<0.62>0.0) l=0.30x0.50x1.00 r=1.00
;00:01:58.514: pe=0.0000 eb=0.0218 ve=0.0000 vn=0.0000 vl=0.000 db=0.47
G1 E63.4548 F2400                       ; retract de=-4.0000@-40.0 r=0.94
;00:01:58.614: pe=-4.0000 eb=0.0218 ve=-40.0000 vn=0.0000 vl=0.000 db=0.47
G1 Z0.500 F420                          ; hopup dz=0.20@7 h=0.5 r=0.73
;00:01:58.643: pe=-4.0000 eb=0.0218 ve=0.0000 vn=0.0000 vl=0.000 db=0.37
G1 X34.00 Y55.00 F6000                  ; move dl=2.5@100(0<25>0) de=0.000@0.0(0.0<0.0>0.0) l=0.50x0.50x0.00 r=0.00
;00:01:58.793: pe=-4.0000 eb=0.0000 ve=0.0000 vn=0.0000 vl=0.000 db=0.00
G1 Z0.300 F420                          ; hopdn dz=-0.20@7 h=0.3 r=0.00
;00:01:58.821: pe=-4.0000 eb=0.0000 ve=0.0000 vn=0.0000 vl=0.000 db=0.00
G1 E67.4548 F1800                       ; restore de=4.0000@30.0 r=0.00
;00:01:58.955: pe=-0.0000 eb=0.0000 ve=30.0000 vn=0.0000 vl=0.000 db=0.00
G1 X34.00 Y53.50 E67.5484 F600          ; draw dl=1.5@10(0<10>0) de=0.094@0.55(0.0<0.62>0.0) l=0.30x0.50x1.00 r=1.00
;00:01:59.125: pe=0.0000 eb=0.0218 ve=0.0000 vn=0.0000 vl=0.000 db=0.47
G1 E63.5484 F2400                       ; retract de=-4.0000@-40.0 r=0.94
;00:01:59.225: pe=-4.0000 eb=0.0218 ve=-40.0000 vn=0.0000 vl=0.000 db=0.47
G1 Z0.500 F420                          ; hopup dz=0.20@7 h=0.5 r=0.73
;00:01:59.253: pe=-4.0000 eb=0.0218 ve=0.0000 vn=0.0000 vl=0.000 db=0.37
G1 X36.00 Y55.00 F6000                  ; move dl=2.5@100(0<25>0) de=0.000@0.0(0.0<0.0>0.0) l=0.50x0.50x0.00 r=0.00
;00:01:59.403: pe=-4.0000 eb=0.0000 ve=0.0000 vn=0.0000 vl=0.000 db=0.00
G1 Z0.300 F420                          ; hopdn dz=-0.20@7 h=0.3 r=0.00
;00:01:59.432: pe=-4.0000 eb=0.0000 ve=0.0000 vn=0.0000 vl=0.000 db=0.00
G1 E67.5484 F1800                       ; restore de=4.0000@30.0 r=0.00
;00:01:59.565: pe=-0.0000 eb=0.0000 ve=30.0000 vn=0.0000 vl=0.000 db=0.00
G1 X36.00 Y53.50 E67.6419 F600          ; draw dl=1.5@10(0<10>0) de=0.094@0.55(0.0<0.62>0.0) l=0.30x0.50x1.00 r=1.00
;00:01:59.735: pe=0.0000 eb=0.0218 ve=0.0000 vn=0.0000 vl=0.000 db=0.47
G1 E63.6419 F2400                       ; retract de=-4.0000@-40.0 r=0.94
;00:01:59.835: pe=-4.0000 eb=0.0218 ve=-40.0000 vn=0.0000 vl=0.000 db=0.47
G1 Z0.500 F420                          ; hopup dz=0.20@7 h=0.5 r=0.73
;00:01:59.864: pe=-4.0000 eb=0.0218 ve=0.0000 vn=0.0000 vl=0.000 db=0.37
G1 X38.00 Y55.00 F6000                  ; move dl=2.5@100(0<25>0) de=0.000@0.0(0.0<0.0>0.0) l=0.50x0.50x0.00 r=0.00
;00:02:00.014: pe=-4.0000 eb=0.0000 ve=0.0000 vn=0.0000 vl=0.000 db=0.00
G1 Z0.300 F420                          ; hopdn dz=-0.20@7 h=0.3 r=0.00
;00:02:00.042: pe=-4.0000 eb=0.0000 ve=0.0000 vn=0.0000 vl=0.000 db=0.00
G1 E67.6419 F1800                       ; restore de=4.0000@30.0 r=0.00
;00:02:00.176: pe=-0.0000 eb=0.0000 ve=30.0000 vn=0.0000 vl=0.000 db=0.00
G1 X38.00 Y53.50 E67.7355 F600          ; draw dl=1.5@10(0<10>0) de=0.094@0.55(0.0<0.62>0.0) l=0.30x0.50x1.00 r=1.00
;00:02:00.346: pe=0.0000 eb=0.0218 ve=0.0000 vn=0.0000 vl=0.000 db=0.47
G1 E63.7355 F2400                       ; retract de=-4.0000@-40.0 r=0.94
;00:02:00.446: pe=-4.0000 eb=0.0218 ve=-40.0000 vn=0.0000 vl=0.000 db=0.47
G1 Z0.500 F420                          ; hopup dz=0.20@7 h=0.5 r=0.73
;00:02:00.474: pe=-4.0000 eb=0.0218 ve=0.0000 vn=0.0000 vl=0.000 db=0.37
G1 X40.00 Y55.00 F6000                  ; move dl=2.5@100(0<25>0) de=0.000@0.0(0.0<0.0>0.0) l=0.50x0.50x0.00 r=0.00
;00:02:00.624: pe=-4.0000 eb=0.0000 ve=0.0000 vn=0.0000 vl=0.000 db=0.00
G1 Z0.300 F420                          ; hopdn dz=-0.20@7 h=0.3 r=0.00
;00:02:00.653: pe=-4.0000 eb=0.0000 ve=0.0000 vn=0.0000 vl=0.000 db=0.00
G1 E67.7355 F1800                       ; restore de=4.0000@30.0 r=0.00
;00:02:00.786: pe=-0.0000 eb=0.0000 ve=30.0000 vn=0.0000 vl=0.000 db=0.00
G1 X40.00 Y52.00 E67.9226 F600          ; draw dl=3.0@10(0<10>0) de=0.187@0.58(0.0<0.62>0.0) l=0.30x0.50x1.00 r=1.00
;00:02:01.106: pe=0.0000 eb=0.0241 ve=0.0000 vn=0.0000 vl=0.000 db=0.50
G1 E63.9226 F2400                       ; retract de=-4.0000@-40.0 r=0.99
;00:02:01.206: pe=-4.0000 eb=0.0241 ve=-40.0000 vn=0.0000 vl=0.000 db=0.50
G1 Z0.500 F420                          ; hopup dz=0.20@7 h=0.5 r=0.77
;00:02:01.235: pe=-4.0000 eb=0.0241 ve=0.0000 vn=0.0000 vl=0.000 db=0.38
;structure:brim
;structure:shell-outer
;00:02:01.235: text [(46.0, 55), (None, None)] fsize=5 angle=0 've=1.0\nh=0.3\nw=0.3-0.8\nr0=0.0\nre=4.0'
G1 X46.50 Y53.89 F6000                  ; move dl=6.8@100(0<41>0) de=0.000@0.0(0.0<0.0>0.0) l=0.50x0.50x0.00 r=0.00
;00:02:01.481: pe=-4.0000 eb=0.0000 ve=0.0000 vn=0.0000 vl=0.000 db=0.00
G1 Z0.300 F420                          ; hopdn dz=-0.20@7 h=0.3 r=0.00
;00:02:01.510: pe=-4.0000 eb=0.0000 ve=0.0000 vn=0.0000 vl=0.000 db=0.00
G1 E67.9226 F1800                       ; restore de=4.0000@30.0 r=0.00
;00:02:01.643: pe=-0.0000 eb=0.0000 ve=30.0000 vn=0.0000 vl=0.000 db=0.00
G1 X47.52 Y51.48 E68.0858 F600          ; draw dl=2.6@10(0<10>6) de=0.163@0.6(0.0<0.62>0.35) l=0.30x0.50x1.00 r=1.00
;00:02:01.917: pe=0.0000 eb=0.0239 ve=0.3525 vn=0.3525 vl=5.651 db=0.49
G1 X48.54 Y53.89 E68.2490               ; draw dl=2.6@10(6<10>0) de=0.163@0.6(0.35<0.62>0.0) l=0.30x0.50x1.00 r=1.00
;00:02:02.190: pe=0.0000 eb=0.0245 ve=0.0000 vn=0.0000 vl=0.000 db=0.50
G1 E64.2490 F2400                       ; retract de=-4.0000@-40.0 r=1.00
;00:02:02.290: pe=-4.0000 eb=0.0245 ve=-40.0000 vn=0.0000 vl=0.000 db=0.50
G1 Z0.500 F420                          ; hopup dz=0.20@7 h=0.5 r=0.77
;00:02:02.319: pe=-4.0000 eb=0.0245 ve=0.0000 vn=0.0000 vl=0.000 db=0.39
G1 X49.60 Y52.69 F6000                  ; move dl=1.6@100(0<20>0) de=0.000@0.0(0.0<0.0>0.0) l=0.50x0.50x0.00 r=0.00
;00:02:02.439: pe=-4.0000 eb=0.0000 ve=0.0000 vn=0.0000 vl=0.000 db=0.00
G1 Z0.300 F420                          ; hopdn dz=-0.20@7 h=0.3 r=0.00
;00:02:02.468: pe=-4.0000 eb=0.0000 ve=0.0000 vn=0.0000 vl=0.000 db=0.00
G1 E68.2490 F1800                       ; restore de=4.0000@30.0 r=0.00
;00:02:02.601: pe=-0.0000 eb=0.0000 ve=30.0000 vn=0.0000 vl=0.000 db=0.00
G1 X51.74 Y52.69 E68.3825 F600          ; draw dl=2.1@10(0<10>10) de=0.133@0.6(0.0<0.62>0.6) l=0.30x0.50x1.00 r=1.00
;00:02:02.825: pe=0.0000 eb=0.0233 ve=0.6039 vn=0.6039 vl=9.683 db=0.49
G1 X51.66 Y53.22 E68.4159               ; draw dl=0.5@10(10<10>10) de=0.033@0.62(0.6<0.62>0.62) l=0.30x0.50x1.00 r=1.00
;00:02:02.879: pe=0.0000 eb=0.0239 ve=0.6237 vn=0.6237 vl=10.000 db=0.49
G1 X51.45 Y53.61 E68.4435               ; draw dl=0.4@10(10<10>10) de=0.028@0.62(0.62<0.62>0.62) l=0.30x0.50x1.00 r=1.00
;00:02:02.923: pe=0.0000 eb=0.0242 ve=0.6237 vn=0.6237 vl=10.000 db=0.50
G1 X51.11 Y53.86 E68.4699               ; draw dl=0.4@10(10<10>10) de=0.026@0.62(0.62<0.62>0.62) l=0.30x0.50x1.00 r=1.00
;00:02:02.965: pe=0.0000 eb=0.0243 ve=0.6237 vn=0.6237 vl=10.000 db=0.50
G1 X50.67 Y53.95 E68.4979               ; draw dl=0.4@10(10<10>10) de=0.028@0.62(0.62<0.62>0.62) l=0.30x0.50x1.00 r=1.00
;00:02:03.010: pe=0.0000 eb=0.0244 ve=0.6237 vn=0.6237 vl=10.000 db=0.50
G1 X50.24 Y53.86 E68.5253               ; draw dl=0.4@10(10<10>10) de=0.027@0.62(0.62<0.62>0.62) l=0.30x0.50x1.00 r=1.00
;00:02:03.054: pe=0.0000 eb=0.0244 ve=0.6237 vn=0.6237 vl=10.000 db=0.50
G1 X49.90 Y53.61 E68.5516               ; draw dl=0.4@10(10<10>10) de=0.026@0.62(0.62<0.62>0.62) l=0.30x0.50x1.00 r=1.00
;00:02:03.096: pe=0.0000 eb=0.0245 ve=0.6237 vn=0.6237 vl=10.000 db=0.50
G1 X49.68 Y53.22 E68.5795               ; draw dl=0.4@10(10<10>10) de=0.028@0.62(0.62<0.62>0.62) l=0.30x0.50x1.00 r=1.00
;00:02:03.141: pe=-0.0000 eb=0.0245 ve=0.6237 vn=0.0000 vl=10.000 db=0.50
G1 X49.60 Y52.69 E68.6129               ; draw dl=0.5@10(10<10>10) de=0.033@0.62(0.62<0.62>0.62) l=0.30x0.50x1.00 r=1.00
