;gcode_flavor: flashforge
;machine_type: Adventurer 3 Series
;filament_diameter0: 1.75
;right_extruder_temperature: 210
;platform_temperature: 50
;extruder_fan: 100%
;case_fan: 100%
;base_print_speed: 60
;travel_speed: 100
;vertical_speed: 7
;retract_speed: 40
;restore_speed: 30
;layer_height: 0.30
;line_width: 0.50
;extrusion_ratio: 1.00
;command_line: ./gcodetest.py -Te=210 -Tp=50 -Fe=1.0 -Fc=1.0 -Kf=1.0 -Kb=1.0 -Re=1.0 -R -v
;start gcode
M118 X75.00 Y75.00 Z150.00 T0
M140 S50 T0
M104 S210 T0
M104 S0 T1
M107
M900 K0.000 T0
G90
G28
M132 X Y Z A B
G1 Z50.000 F420
G161 X Y F3300
M7 T0
M6 T0
M652 S255
M108 T0
M106
;preExtrude:0.20
;00:00:00.000: layer=0 h=0.20 w=0.50 r=1.00
;structure:pre-extrude
G1 X-55.00 Y-65.00 F6000                ; move dl=85.1@100(0<100>0) de=0.000@0.0(0.0<0.0>0.0) l=0.00x0.50x0.00 r=0.00
;00:00:01.051: pe=0.0000 eb=0.0000 ve=0.0000 vn=0.0000 vl=0.000 db=0.00
G1 Z0.200 F420                          ; hopup dz=0.20@7 h=0.2 r=0.00
;00:00:01.080: pe=0.0000 eb=0.0000 ve=0.0000 vn=0.0000 vl=0.000 db=0.00
G1 E4.5044 F1800                        ; restore de=4.5044@30.0 r=3.49
;00:00:01.230: pe=4.3058 eb=0.1987 ve=30.0000 vn=2.5616 vl=0.000 db=1.74
G1 X-55.00 Y55.00 E24.4605 F1200        ; draw dl=120.0@20(0<20>0) de=19.956@3.3(0.0<3.33>0.0) l=0.20x0.50x4.00 r=3.81
;00:00:07.270: pe=5.2357 eb=0.3194 ve=0.0000 vn=3.0241 vl=0.000 db=2.21
G1 E18.2248 F2400                       ; retract de=-6.2357@-40.0 r=5.03
;00:00:07.426: pe=-1.0934 eb=0.4128 ve=-40.0000 vn=0.0000 vl=0.000 db=2.51
G1 Z0.400 F420                          ; hopup dz=0.20@7 h=0.4 r=3.56
;00:00:07.455: pe=-1.0934 eb=0.4128 ve=0.0000 vn=0.0000 vl=0.000 db=1.78
;layer:0.30
;00:00:07.455: layer=1 h=0.30 w=0.50 r=1.00
;structure:brim
;structure:shell-outer
;00:00:07.455: text [(-43.0, 60), (None, None)] fsize=5 angle=0 'Kf=1.0 Kb=1.0 Re=1.0'
G1 X-42.50 Y59.88 F6000                 ; move dl=13.4@100(0<58>0) de=0.000@0.0(0.0<0.0>0.0) l=0.40x0.50x0.00 r=0.00
;00:00:07.802: pe=-1.0934 eb=0.0000 ve=0.0000 vn=0.0000 vl=0.000 db=0.00
G1 Z0.300 F420                          ; hopdn dz=-0.10@7 h=0.3 r=0.00
;00:00:07.816: pe=-1.0934 eb=0.0000 ve=0.0000 vn=0.0000 vl=0.000 db=0.00
G1 E20.2138 F1800                       ; restore de=1.9890@30.0 r=0.61
;00:00:07.883: pe=0.8865 eb=0.0092 ve=30.0000 vn=0.5802 vl=0.000 db=0.31
G1 X-42.50 Y56.48 E20.4259 F600         ; draw dl=3.4@10(0<10>0) de=0.212@0.59(0.0<0.62>0.0) l=0.30x0.50x1.00 r=0.85
;00:00:08.243: pe=0.9173 eb=0.0210 ve=0.0000 vn=0.4544 vl=0.000 db=0.46
G1 E18.5085 F2400                       ; retract de=-1.9173@-40.0 r=0.97
;00:00:08.291: pe=-1.0022 eb=0.0232 ve=-40.0000 vn=0.0000 vl=0.000 db=0.49
G1 Z0.500 F420                          ; hopup dz=0.20@7 h=0.5 r=0.75
;00:00:08.319: pe=-1.0022 eb=0.0232 ve=0.0000 vn=0.0000 vl=0.000 db=0.38
G1 X-40.04 Y56.48 F6000                 ; move dl=2.5@100(0<25>0) de=0.000@0.0(0.0<0.0>0.0) l=0.50x0.50x0.00 r=0.00
;00:00:08.468: pe=-1.0022 eb=0.0000 ve=0.0000 vn=0.0000 vl=0.000 db=0.00
G1 Z0.300 F420                          ; hopdn dz=-0.20@7 h=0.3 r=0.00
;00:00:08.497: pe=-1.0022 eb=0.0000 ve=0.0000 vn=0.0000 vl=0.000 db=0.00
G1 E20.3974 F1800                       ; restore de=1.8889@30.0 r=0.61
;00:00:08.560: pe=0.8777 eb=0.0090 ve=30.0000 vn=0.5743 vl=0.000 db=0.30
G1 X-41.53 Y58.51 E20.5544 F600         ; draw dl=2.5@10(0<10>0) de=0.157@0.58(0.0<0.62>0.0) l=0.30x0.50x1.00 r=0.86
;00:00:08.831: pe=0.8999 eb=0.0203 ve=0.0000 vn=0.4450 vl=0.000 db=0.45
G1 E18.6545 F2400                       ; retract de=-1.8999@-40.0 r=0.96
;00:00:08.879: pe=-1.0021 eb=0.0224 ve=-40.0000 vn=0.0000 vl=0.000 db=0.48
G1 Z0.500 F420                          ; hopup dz=0.20@7 h=0.5 r=0.74
;00:00:08.907: pe=-1.0021 eb=0.0224 ve=0.0000 vn=0.0000 vl=0.000 db=0.37
G1 X-42.50 Y57.67 F6000                 ; move dl=1.3@100(0<18>0) de=0.000@0.0(0.0<0.0>0.0) l=0.50x0.50x0.00 r=0.00
;00:00:09.015: pe=-1.0021 eb=0.0000 ve=0.0000 vn=0.0000 vl=0.000 db=0.00
G1 Z0.300 F420                          ; hopdn dz=-0.20@7 h=0.3 r=0.00
;00:00:09.044: pe=-1.0021 eb=0.0000 ve=0.0000 vn=0.0000 vl=0.000 db=0.00
G1 E20.5519 F1800                       ; restore de=1.8974@30.0 r=0.61
;00:00:09.107: pe=0.8861 eb=0.0092 ve=30.0000 vn=0.5799 vl=0.000 db=0.31
G1 X-39.98 Y59.88 E20.7609 F600         ; draw dl=3.4@10(0<10>0) de=0.209@0.59(0.0<0.62>0.0) l=0.30x0.50x1.00 r=0.85
;00:00:09.462: pe=0.9165 eb=0.0210 ve=0.0000 vn=0.4540 vl=0.000 db=0.46
G1 E18.8444 F2400                       ; retract de=-1.9165@-40.0 r=0.97
;00:00:09.510: pe=-1.0022 eb=0.0231 ve=-40.0000 vn=0.0000 vl=0.000 db=0.49
G1 Z0.500 F420                          ; hopup dz=0.20@7 h=0.5 r=0.75
;00:00:09.538: pe=-1.0022 eb=0.0231 ve=0.0000 vn=0.0000 vl=0.000 db=0.38
G1 X-37.73 Y59.90 F6000                 ; move dl=2.3@100(0<24>0) de=0.000@0.0(0.0<0.0>0.0) l=0.50x0.50x0.00 r=0.00
;00:00:09.681: pe=-1.0022 eb=0.0000 ve=0.0000 vn=0.0000 vl=0.000 db=0.00
G1 Z0.300 F420                          ; hopdn dz=-0.20@7 h=0.3 r=0.00
;00:00:09.709: pe=-1.0022 eb=0.0000 ve=0.0000 vn=0.0000 vl=0.000 db=0.00
G1 E20.7496 F1800                       ; restore de=1.9052@30.0 r=0.62
;00:00:09.773: pe=0.8937 eb=0.0093 ve=30.0000 vn=0.5850 vl=0.000 db=0.31
G1 X-37.88 Y59.90 E20.7590 F600         ; draw dl=0.1@10(0<10>10) de=0.009@0.37(0.0<0.62>0.62) l=0.30x0.50x1.00 r=1.39
;00:00:09.798: pe=0.8900 eb=0.0152 ve=0.6236 vn=0.4966 vl=10.000 db=0.39
G1 X-38.06 Y59.86 E20.7705              ; draw dl=0.2@10(10<10>10) de=0.011@0.62(0.62<0.62>0.62) l=0.30x0.50x1.00 r=0.80
;00:00:09.816: pe=0.8924 eb=0.0153 ve=0.6236 vn=0.4976 vl=10.000 db=0.39
G1 X-38.22 Y59.73 E20.7833              ; draw dl=0.2@10(10<10>10) de=0.013@0.62(0.62<0.62>0.62) l=0.30x0.50x1.00 r=0.80
;00:00:09.837: pe=0.8949 eb=0.0154 ve=0.6236 vn=0.4988 vl=10.000 db=0.40
G1 X-38.34 Y59.54 E20.7974              ; draw dl=0.2@10(10<10>10) de=0.014@0.62(0.62<0.62>0.62) l=0.30x0.50x1.00 r=0.80
;00:00:09.859: pe=0.8977 eb=0.0155 ve=0.6236 vn=0.5002 vl=10.000 db=0.40
G1 X-38.42 Y59.17 E20.8210              ; draw dl=0.4@10(10<10>10) de=0.024@0.62(0.62<0.62>0.62) l=0.30x0.50x1.00 r=0.80
;00:00:09.897: pe=0.9024 eb=0.0156 ve=0.6236 vn=0.5027 vl=10.000 db=0.40
G1 X-38.42 Y56.48 E20.9887              ; draw dl=2.7@10(10<10>0) de=0.168@0.6(0.62<0.62>0.0) l=0.30x0.50x1.00 r=0.85
;00:00:10.176: pe=0.9278 eb=0.0214 ve=0.0000 vn=0.4600 vl=0.000 db=0.47
G1 E19.0609 F2400                       ; retract de=-1.9278@-40.0 r=0.98
;00:00:10.224: pe=-1.0022 eb=0.0237 ve=-40.0000 vn=0.0000 vl=0.000 db=0.49
G1 Z0.500 F420                          ; hopup dz=0.20@7 h=0.5 r=0.76
;00:00:10.253: pe=-1.0022 eb=0.0237 ve=0.0000 vn=0.0000 vl=0.000 db=0.38
G1 X-38.92 Y58.76 F6000                 ; move dl=2.3@100(0<24>0) de=0.000@0.0(0.0<0.0>0.0) l=0.50x0.50x0.00 r=0.00
;00:00:10.398: pe=-1.0022 eb=0.0000 ve=0.0000 vn=0.0000 vl=0.000 db=0.00
G1 Z0.300 F420                          ; hopdn dz=-0.20@7 h=0.3 r=0.00
;00:00:10.426: pe=-1.0022 eb=0.0000 ve=0.0000 vn=0.0000 vl=0.000 db=0.00
G1 E20.9086 F1800                       ; restore de=1.8477@30.0 r=0.58
;00:00:10.488: pe=0.8372 eb=0.0082 ve=30.0000 vn=0.5477 vl=0.000 db=0.29
G1 X-37.84 Y58.76 E20.9760 F600         ; draw dl=1.1@10(0<10>0) de=0.067@0.53(0.0<0.62>0.0) l=0.30x0.50x1.00 r=0.89
;00:00:10.616: pe=0.8445 eb=0.0181 ve=0.0000 vn=0.4150 vl=0.000 db=0.43
G1 E19.1314 F2400                       ; retract de=-1.8445@-40.0 r=0.90
;00:00:10.662: pe=-1.0018 eb=0.0199 ve=-40.0000 vn=0.0000 vl=0.000 db=0.45
G1 Z0.500 F420                          ; hopup dz=0.20@7 h=0.5 r=0.70
;00:00:10.691: pe=-1.0018 eb=0.0199 ve=0.0000 vn=0.0000 vl=0.000 db=0.35
G1 X-36.66 Y58.26 F6000                 ; move dl=1.3@100(0<18>0) de=0.000@0.0(0.0<0.0>0.0) l=0.50x0.50x0.00 r=0.00
;00:00:10.798: pe=-1.0018 eb=0.0000 ve=0.0000 vn=0.0000 vl=0.000 db=0.00
G1 Z0.300 F420                          ; hopdn dz=-0.20@7 h=0.3 r=0.00
;00:00:10.827: pe=-1.0018 eb=0.0000 ve=0.0000 vn=0.0000 vl=0.000 db=0.00
G1 E21.0038 F1800                       ; restore de=1.8724@30.0 r=0.60
;00:00:10.889: pe=0.8619 eb=0.0087 ve=30.0000 vn=0.5640 vl=0.000 db=0.30
G1 X-34.97 Y58.26 E21.1092 F600         ; draw dl=1.7@10(0<10>0) de=0.105@0.56(0.0<0.62>0.0) l=0.30x0.50x1.00 r=0.87
;00:00:11.078: pe=0.8756 eb=0.0193 ve=0.0000 vn=0.4319 vl=0.000 db=0.44
G1 E19.2336 F2400                       ; retract de=-1.8756@-40.0 r=0.93
;00:00:11.125: pe=-1.0020 eb=0.0213 ve=-40.0000 vn=0.0000 vl=0.000 db=0.47
G1 Z0.500 F420                          ; hopup dz=0.20@7 h=0.5 r=0.72
;00:00:11.154: pe=-1.0020 eb=0.0213 ve=0.0000 vn=0.0000 vl=0.000 db=0.36
G1 X-34.97 Y57.55 F6000                 ; move dl=0.7@100(0<13>0) de=0.000@0.0(0.0<0.0>0.0) l=0.50x0.50x0.00 r=0.00
;00:00:11.234: pe=-1.0020 eb=0.0000 ve=0.0000 vn=0.0000 vl=0.000 db=0.00
G1 Z0.300 F420                          ; hopdn dz=-0.20@7 h=0.3 r=0.00
;00:00:11.262: pe=-1.0020 eb=0.0000 ve=0.0000 vn=0.0000 vl=0.000 db=0.00
G1 E21.1061 F1800                       ; restore de=1.8726@30.0 r=0.60
;00:00:11.325: pe=0.8619 eb=0.0087 ve=30.0000 vn=0.5640 vl=0.000 db=0.30
G1 X-36.66 Y57.55 E21.2115 F600         ; draw dl=1.7@10(0<10>0) de=0.105@0.56(0.0<0.62>0.0) l=0.30x0.50x1.00 r=0.87
;00:00:11.514: pe=0.8756 eb=0.0193 ve=0.0000 vn=0.4319 vl=0.000 db=0.44
G1 E19.3359 F2400                       ; retract de=-1.8756@-40.0 r=0.93
;00:00:11.560: pe=-1.0020 eb=0.0213 ve=-40.0000 vn=0.0000 vl=0.000 db=0.47
G1 Z0.500 F420                          ; hopup dz=0.20@7 h=0.5 r=0.72
;00:00:11.589: pe=-1.0020 eb=0.0213 ve=0.0000 vn=0.0000 vl=0.000 db=0.36
G1 X-33.91 Y59.00 F6000                 ; move dl=3.1@100(0<28>0) de=0.000@0.0(0.0<0.0>0.0) l=0.50x0.50x0.00 r=0.00
;00:00:11.756: pe=-1.0020 eb=0.0000 ve=0.0000 vn=0.0000 vl=0.000 db=0.00
G1 Z0.300 F420                          ; hopdn dz=-0.20@7 h=0.3 r=0.00
;00:00:11.785: pe=-1.0020 eb=0.0000 ve=0.0000 vn=0.0000 vl=0.000 db=0.00
G1 E21.2373 F1800                       ; restore de=1.9014@30.0 r=0.62
;00:00:11.848: pe=0.8902 eb=0.0093 ve=30.0000 vn=0.5826 vl=0.000 db=0.31
G1 X-33.44 Y59.24 E21.2702 F600         ; draw dl=0.5@10(0<10>10) de=0.033@0.52(0.0<0.62>0.62) l=0.30x0.50x1.00 r=0.96
;00:00:11.911: pe=0.8914 eb=0.0153 ve=0.6236 vn=0.4968 vl=10.000 db=0.39
G1 X-33.07 Y59.55 E21.3003              ; draw dl=0.5@10(10<10>10) de=0.030@0.62(0.62<0.62>0.62) l=0.30x0.50x1.00 r=0.80
;00:00:11.959: pe=0.8975 eb=0.0155 ve=0.6236 vn=0.5000 vl=10.000 db=0.40
G1 X-32.82 Y59.88 E21.3261              ; draw dl=0.4@10(10<10>5) de=0.026@0.59(0.62<0.62>0.3) l=0.30x0.50x1.00 r=0.85
;00:00:12.003: pe=0.9012 eb=0.0169 ve=0.3015 vn=0.4858 vl=4.834 db=0.42
G1 X-32.82 Y56.48 E21.5382              ; draw dl=3.4@10(5<10>0) de=0.212@0.6(0.3<0.62>0.0) l=0.30x0.50x1.00 r=0.85
;00:00:12.356: pe=0.9340 eb=0.0217 ve=0.0000 vn=0.4634 vl=0.000 db=0.47
G1 E19.6042 F2400                       ; retract de=-1.9340@-40.0 r=0.99
;00:00:12.404: pe=-1.0023 eb=0.0240 ve=-40.0000 vn=0.0000 vl=0.000 db=0.49
G1 Z0.500 F420                          ; hopup dz=0.20@7 h=0.5 r=0.77
;00:00:12.433: pe=-1.0023 eb=0.0240 ve=0.0000 vn=0.0000 vl=0.000 db=0.38
G1 X-31.76 Y56.71 F6000                 ; move dl=1.1@100(0<16>0) de=0.000@0.0(0.0<0.0>0.0) l=0.50x0.50x0.00 r=0.00
;00:00:12.532: pe=-1.0023 eb=0.0000 ve=0.0000 vn=0.0000 vl=0.000 db=0.00
G1 Z0.300 F420                          ; hopdn dz=-0.20@7 h=0.3 r=0.00
;00:00:12.560: pe=-1.0023 eb=0.0000 ve=0.0000 vn=0.0000 vl=0.000 db=0.00
G1 E21.1598 F1800                       ; restore de=1.5556@30.0 r=0.38
;00:00:12.612: pe=0.5497 eb=0.0036 ve=30.0000 vn=0.3576 vl=0.000 db=0.19
G1 X-31.76 Y56.65 E21.1635 F600         ; draw dl=0.1@10(0<4>0) de=0.004@0.16(0.0<0.24>0.0) l=0.30x0.50x1.00 r=1.85
;00:00:12.635: pe=0.5466 eb=0.0086 ve=0.0000 vn=0.2498 vl=0.000 db=0.30
G1 E19.6170 F2400                       ; retract de=-1.5466@-40.0 r=0.61
;00:00:12.674: pe=-1.0006 eb=0.0092 ve=-40.0000 vn=0.0000 vl=0.000 db=0.31
G1 Z0.500 F420                          ; hopup dz=0.20@7 h=0.5 r=0.48
;00:00:12.703: pe=-1.0006 eb=0.0092 ve=0.0000 vn=0.0000 vl=0.000 db=0.24
G1 X-29.48 Y59.94 F6000                 ; move dl=4.0@100(0<32>0) de=0.000@0.0(0.0<0.0>0.0) l=0.50x0.50x0.00 r=0.00
;00:00:12.892: pe=-1.0006 eb=0.0000 ve=0.0000 vn=0.0000 vl=0.000 db=0.00
G1 Z0.300 F420                          ; hopdn dz=-0.20@7 h=0.3 r=0.00
;00:00:12.921: pe=-1.0006 eb=0.0000 ve=0.0000 vn=0.0000 vl=0.000 db=0.00
G1 E21.5322 F1800                       ; restore de=1.9152@30.0 r=0.63
;00:00:12.985: pe=0.9050 eb=0.0096 ve=30.0000 vn=0.5924 vl=0.000 db=0.31
G1 X-28.97 Y59.80 E21.5651 F600         ; draw dl=0.5@10(0<10>10) de=0.033@0.52(0.0<0.62>0.62) l=0.30x0.50x1.00 r=0.98
;00:00:13.048: pe=0.9057 eb=0.0157 ve=0.6237 vn=0.5050 vl=10.000 db=0.40
G1 X-28.58 Y59.42 E21.5991              ; draw dl=0.5@10(10<10>10) de=0.034@0.62(0.62<0.62>0.62) l=0.30x0.50x1.00 r=0.81
;00:00:13.102: pe=0.9121 eb=0.0160 ve=0.6237 vn=0.5081 vl=10.000 db=0.40
G1 X-28.34 Y58.86 E21.6371              ; draw dl=0.6@10(10<10>10) de=0.038@0.62(0.62<0.62>0.62) l=0.30x0.50x1.00 r=0.82
;00:00:13.163: pe=0.9190 eb=0.0162 ve=0.6237 vn=0.5118 vl=10.000 db=0.41
G1 X-28.26 Y58.18 E21.6798              ; draw dl=0.7@10(10<10>10) de=0.043@0.62(0.62<0.62>0.62) l=0.30x0.50x1.00 r=0.82
;00:00:13.232: pe=0.9265 eb=0.0165 ve=0.6237 vn=0.5159 vl=10.000 db=0.41
G1 X-28.34 Y57.51 E21.7219              ; draw dl=0.7@10(10<10>10) de=0.042@0.62(0.62<0.62>0.62) l=0.30x0.50x1.00 r=0.83
;00:00:13.299: pe=0.9337 eb=0.0168 ve=0.6237 vn=0.5198 vl=10.000 db=0.41
G1 X-28.58 Y56.95 E21.7599              ; draw dl=0.6@10(10<10>10) de=0.038@0.62(0.62<0.62>0.62) l=0.30x0.50x1.00 r=0.84
;00:00:13.360: pe=0.9399 eb=0.0170 ve=0.6237 vn=0.5232 vl=10.000 db=0.42
G1 X-28.97 Y56.56 E21.7943              ; draw dl=0.6@10(10<10>10) de=0.034@0.62(0.62<0.62>0.62) l=0.30x0.50x1.00 r=0.84
;00:00:13.415: pe=0.9453 eb=0.0172 ve=0.6237 vn=0.5262 vl=10.000 db=0.42
G1 X-29.48 Y56.42 E21.8273              ; draw dl=0.5@10(10<10>10) de=0.033@0.62(0.62<0.62>0.62) l=0.30x0.50x1.00 r=0.85
;00:00:13.468: pe=0.9504 eb=0.0174 ve=0.6237 vn=0.5290 vl=10.000 db=0.42
G1 X-30.00 Y56.56 E21.8609              ; draw dl=0.5@10(10<10>10) de=0.034@0.62(0.62<0.62>0.62) l=0.30x0.50x1.00 r=0.85
;00:00:13.522: pe=0.9554 eb=0.0176 ve=0.6237 vn=0.5318 vl=10.000 db=0.42
G1 X-30.38 Y56.95 E21.8948              ; draw dl=0.5@10(10<10>10) de=0.034@0.62(0.62<0.62>0.62) l=0.30x0.50x1.00 r=0.85
;00:00:13.576: pe=0.9603 eb=0.0178 ve=0.6237 vn=0.5345 vl=10.000 db=0.43
G1 X-30.62 Y57.51 E21.9328              ; draw dl=0.6@10(10<10>10) de=0.038@0.62(0.62<0.62>0.62) l=0.30x0.50x1.00 r=0.86
;00:00:13.637: pe=0.9657 eb=0.0180 ve=0.6237 vn=0.5374 vl=10.000 db=0.43
G1 X-30.70 Y58.18 E21.9749              ; draw dl=0.7@10(10<10>10) de=0.042@0.62(0.62<0.62>0.62) l=0.30x0.50x1.00 r=0.86
;00:00:13.705: pe=0.9714 eb=0.0182 ve=0.6237 vn=0.5405 vl=10.000 db=0.43
G1 X-30.62 Y58.85 E22.0170              ; draw dl=0.7@10(10<10>10) de=0.042@0.62(0.62<0.62>0.62) l=0.30x0.50x1.00 r=0.87
;00:00:13.772: pe=0.9769 eb=0.0184 ve=0.6237 vn=0.5435 vl=10.000 db=0.43
G1 X-30.38 Y59.42 E22.0556              ; draw dl=0.6@10(10<10>10) de=0.039@0.62(0.62<0.62>0.62) l=0.30x0.50x1.00 r=0.87
;00:00:13.834: pe=0.9818 eb=0.0186 ve=0.6237 vn=0.5462 vl=10.000 db=0.44
G1 X-30.00 Y59.80 E22.0891              ; draw dl=0.5@10(10<10>10) de=0.034@0.62(0.62<0.62>0.62) l=0.30x0.50x1.00 r=0.88
;00:00:13.888: pe=0.9859 eb=0.0187 ve=0.6237 vn=0.5484 vl=10.000 db=0.44
G1 X-29.48 Y59.94 E22.1227              ; draw dl=0.5@10(10<10>0) de=0.034@0.53(0.62<0.62>0.0) l=0.30x0.50x1.00 r=1.03
;00:00:13.952: pe=0.9848 eb=0.0239 ve=0.0000 vn=0.4907 vl=0.000 db=0.49
G1 E20.1379 F2400                       ; retract de=-1.9848@-40.0 r=1.04
;00:00:14.001: pe=-1.0026 eb=0.0265 ve=-40.0000 vn=0.0000 vl=0.000 db=0.52
G1 Z0.500 F420                          ; hopup dz=0.20@7 h=0.5 r=0.81
;00:00:14.030: pe=-1.0026 eb=0.0265 ve=0.0000 vn=0.0000 vl=0.000 db=0.40
G1 X-23.89 Y59.88 F6000                 ; move dl=5.6@100(0<37>0) de=0.000@0.0(0.0<0.0>0.0) l=0.50x0.50x0.00 r=0.00
;00:00:14.254: pe=-1.0026 eb=0.0000 ve=0.0000 vn=0.0000 vl=0.000 db=0.00
G1 Z0.300 F420                          ; hopdn dz=-0.20@7 h=0.3 r=0.00
;00:00:14.283: pe=-1.0026 eb=0.0000 ve=0.0000 vn=0.0000 vl=0.000 db=0.00
G1 E22.0362 F1800                       ; restore de=1.8983@30.0 r=0.61
;00:00:14.346: pe=0.8866 eb=0.0092 ve=30.0000 vn=0.5802 vl=0.000 db=0.31
G1 X-23.89 Y56.48 E22.2483 F600         ; draw dl=3.4@10(0<10>0) de=0.212@0.59(0.0<0.62>0.0) l=0.30x0.50x1.00 r=0.85
;00:00:14.706: pe=0.9174 eb=0.0210 ve=0.0000 vn=0.4544 vl=0.000 db=0.46
G1 E20.3308 F2400                       ; retract de=-1.9174@-40.0 r=0.97
;00:00:14.754: pe=-1.0022 eb=0.0232 ve=-40.0000 vn=0.0000 vl=0.000 db=0.49
G1 Z0.500 F420                          ; hopup dz=0.20@7 h=0.5 r=0.75
;00:00:14.782: pe=-1.0022 eb=0.0232 ve=0.0000 vn=0.0000 vl=0.000 db=0.38
G1 X-21.43 Y56.48 F6000                 ; move dl=2.5@100(0<25>0) de=0.000@0.0(0.0<0.0>0.0) l=0.50x0.50x0.00 r=0.00
;00:00:14.931: pe=-1.0022 eb=0.0000 ve=0.0000 vn=0.0000 vl=0.000 db=0.00
G1 Z0.300 F420                          ; hopdn dz=-0.20@7 h=0.3 r=0.00
;00:00:14.960: pe=-1.0022 eb=0.0000 ve=0.0000 vn=0.0000 vl=0.000 db=0.00
G1 E22.2198 F1800                       ; restore de=1.8889@30.0 r=0.61
;00:00:15.023: pe=0.8777 eb=0.0090 ve=30.0000 vn=0.5744 vl=0.000 db=0.30
G1 X-22.92 Y58.51 E22.3768 F600         ; draw dl=2.5@10(0<10>0) de=0.157@0.58(0.0<0.62>0.0) l=0.30x0.50x1.00 r=0.86
;00:00:15.295: pe=0.9000 eb=0.0203 ve=0.0000 vn=0.4450 vl=0.000 db=0.45
G1 E20.4769 F2400                       ; retract de=-1.9000@-40.0 r=0.96
;00:00:15.342: pe=-1.0021 eb=0.0224 ve=-40.0000 vn=0.0000 vl=0.000 db=0.48
G1 Z0.500 F420                          ; hopup dz=0.20@7 h=0.5 r=0.74
;00:00:15.371: pe=-1.0021 eb=0.0224 ve=0.0000 vn=0.0000 vl=0.000 db=0.37
G1 X-23.89 Y57.67 F6000                 ; move dl=1.3@100(0<18>0) de=0.000@0.0(0.0<0.0>0.0) l=0.50x0.50x0.00 r=0.00
;00:00:15.478: pe=-1.0021 eb=0.0000 ve=0.0000 vn=0.0000 vl=0.000 db=0.00
G1 Z0.300 F420                          ; hopdn dz=-0.20@7 h=0.3 r=0.00
;00:00:15.507: pe=-1.0021 eb=0.0000 ve=0.0000 vn=0.0000 vl=0.000 db=0.00
G1 E22.3743 F1800                       ; restore de=1.8975@30.0 r=0.61
;00:00:15.570: pe=0.8862 eb=0.0092 ve=30.0000 vn=0.5800 vl=0.000 db=0.31
G1 X-21.37 Y59.88 E22.5834 F600         ; draw dl=3.4@10(0<10>0) de=0.209@0.59(0.0<0.62>0.0) l=0.30x0.50x1.00 r=0.85
;00:00:15.925: pe=0.9166 eb=0.0210 ve=0.0000 vn=0.4540 vl=0.000 db=0.46
G1 E20.6668 F2400                       ; retract de=-1.9166@-40.0 r=0.97
;00:00:15.973: pe=-1.0022 eb=0.0231 ve=-40.0000 vn=0.0000 vl=0.000 db=0.49
G1 Z0.500 F420                          ; hopup dz=0.20@7 h=0.5 r=0.75
;00:00:16.002: pe=-1.0022 eb=0.0231 ve=0.0000 vn=0.0000 vl=0.000 db=0.38
G1 X-20.30 Y59.88 F6000                 ; move dl=1.1@100(0<16>0) de=0.000@0.0(0.0<0.0>0.0) l=0.50x0.50x0.00 r=0.00
;00:00:16.100: pe=-1.0022 eb=0.0000 ve=0.0000 vn=0.0000 vl=0.000 db=0.00
G1 Z0.300 F420                          ; hopdn dz=-0.20@7 h=0.3 r=0.00
;00:00:16.128: pe=-1.0022 eb=0.0000 ve=0.0000 vn=0.0000 vl=0.000 db=0.00
G1 E22.5647 F1800                       ; restore de=1.8979@30.0 r=0.61
;00:00:16.192: pe=0.8866 eb=0.0092 ve=30.0000 vn=0.5802 vl=0.000 db=0.31
G1 X-20.30 Y56.48 E22.7768 F600         ; draw dl=3.4@10(0<10>0) de=0.212@0.59(0.0<0.62>0.0) l=0.30x0.50x1.00 r=0.85
;00:00:16.552: pe=0.9174 eb=0.0210 ve=0.0000 vn=0.4544 vl=0.000 db=0.46
G1 E20.8593 F2400                       ; retract de=-1.9174@-40.0 r=0.97
;00:00:16.600: pe=-1.0022 eb=0.0232 ve=-40.0000 vn=0.0000 vl=0.000 db=0.49
G1 Z0.500 F420                          ; hopup dz=0.20@7 h=0.5 r=0.75
;00:00:16.628: pe=-1.0022 eb=0.0232 ve=0.0000 vn=0.0000 vl=0.000 db=0.38
G1 X-20.30 Y56.98 F6000                 ; move dl=0.5@100(0<11>0) de=0.000@0.0(0.0<0.0>0.0) l=0.50x0.50x0.00 r=0.00
;00:00:16.695: pe=-1.0022 eb=0.0005 ve=0.0000 vn=0.0000 vl=0.000 db=0.05
G1 Z0.300 F420                          ; hopdn dz=-0.20@7 h=0.3 r=0.14
;00:00:16.724: pe=-1.0022 eb=0.0005 ve=0.0000 vn=0.0000 vl=0.000 db=0.07
G1 E22.7720 F1800                       ; restore de=1.9126@30.0 r=0.63
;00:00:16.788: pe=0.9013 eb=0.0096 ve=30.0000 vn=0.5880 vl=0.000 db=0.31
G1 X-20.05 Y56.74 E22.7936 F600         ; draw dl=0.3@10(0<10>10) de=0.022@0.48(0.0<0.62>0.62) l=0.30x0.50x1.00 r=1.06
;00:00:16.832: pe=0.9000 eb=0.0156 ve=0.6237 vn=0.5015 vl=10.000 db=0.40
G1 X-19.66 Y56.49 E22.8225              ; draw dl=0.5@10(10<10>10) de=0.029@0.62(0.62<0.62>0.62) l=0.30x0.50x1.00 r=0.81
;00:00:16.878: pe=0.9056 eb=0.0158 ve=0.6237 vn=0.5045 vl=10.000 db=0.40
G1 X-19.28 Y56.42 E22.8466              ; draw dl=0.4@10(10<10>10) de=0.024@0.62(0.62<0.62>0.62) l=0.30x0.50x1.00 r=0.81
;00:00:16.917: pe=0.9101 eb=0.0159 ve=0.6237 vn=0.5069 vl=10.000 db=0.40
G1 X-18.90 Y56.51 E22.8709              ; draw dl=0.4@10(10<10>10) de=0.024@0.62(0.62<0.62>0.62) l=0.30x0.50x1.00 r=0.82
;00:00:16.956: pe=0.9146 eb=0.0161 ve=0.6237 vn=0.5094 vl=10.000 db=0.41
G1 X-18.59 Y56.77 E22.8962              ; draw dl=0.4@10(10<10>10) de=0.025@0.62(0.62<0.62>0.62) l=0.30x0.50x1.00 r=0.82
;00:00:16.997: pe=0.9192 eb=0.0162 ve=0.6237 vn=0.5119 vl=10.000 db=0.41
G1 X-18.39 Y57.18 E22.9246              ; draw dl=0.5@10(10<10>10) de=0.028@0.62(0.62<0.62>0.62) l=0.30x0.50x1.00 r=0.82
;00:00:17.042: pe=0.9242 eb=0.0164 ve=0.6237 vn=0.5147 vl=10.000 db=0.41
G1 X-18.32 Y57.71 E22.9580              ; draw dl=0.5@10(10<10>10) de=0.033@0.62(0.62<0.62>0.62) l=0.30x0.50x1.00 r=0.83
;00:00:17.096: pe=0.9300 eb=0.0166 ve=0.6237 vn=0.5178 vl=10.000 db=0.41
G1 X-18.38 Y58.22 E22.9900              ; draw dl=0.5@10(10<10>10) de=0.032@0.62(0.62<0.62>0.62) l=0.30x0.50x1.00 r=0.83
;00:00:17.147: pe=0.9353 eb=0.0168 ve=0.6237 vn=0.5208 vl=10.000 db=0.41
G1 X-18.56 Y58.61 E23.0168              ; draw dl=0.4@10(10<10>10) de=0.027@0.62(0.62<0.62>0.62) l=0.30x0.50x1.00 r=0.84
;00:00:17.190: pe=0.9397 eb=0.0170 ve=0.6237 vn=0.5231 vl=10.000 db=0.42
G1 X-18.85 Y58.86 E23.0407              ; draw dl=0.4@10(10<10>10) de=0.024@0.62(0.62<0.62>0.62) l=0.30x0.50x1.00 r=0.84
;00:00:17.228: pe=0.9435 eb=0.0171 ve=0.6237 vn=0.5252 vl=10.000 db=0.42
G1 X-19.25 Y58.95 E23.0662              ; draw dl=0.4@10(10<10>10) de=0.026@0.62(0.62<0.62>0.62) l=0.30x0.50x1.00 r=0.84
;00:00:17.269: pe=0.9475 eb=0.0173 ve=0.6237 vn=0.5274 vl=10.000 db=0.42
G1 X-19.44 Y58.93 E23.0782              ; draw dl=0.2@10(10<10>10) de=0.012@0.62(0.62<0.62>0.62) l=0.30x0.50x1.00 r=0.85
;00:00:17.288: pe=0.9493 eb=0.0174 ve=0.6237 vn=0.5284 vl=10.000 db=0.42
G1 X-19.64 Y58.85 E23.0916              ; draw dl=0.2@10(10<10>10) de=0.013@0.62(0.62<0.62>0.62) l=0.30x0.50x1.00 r=0.85
;00:00:17.310: pe=0.9514 eb=0.0174 ve=0.6237 vn=0.5295 vl=10.000 db=0.42
G1 X-19.85 Y58.72 E23.1070              ; draw dl=0.2@10(10<10>10) de=0.015@0.62(0.62<0.62>0.62) l=0.30x0.50x1.00 r=0.85
;00:00:17.335: pe=0.9537 eb=0.0175 ve=0.6236 vn=0.5308 vl=10.000 db=0.42
G1 X-20.05 Y58.50 E23.1255              ; draw dl=0.3@10(10<10>10) de=0.019@0.62(0.62<0.62>0.62) l=0.30x0.50x1.00 r=0.85
;00:00:17.364: pe=0.9564 eb=0.0176 ve=0.6236 vn=0.5323 vl=10.000 db=0.42
G1 X-20.30 Y58.03 E23.1587              ; draw dl=0.5@10(10<10>0) de=0.033@0.53(0.62<0.62>0.0) l=0.30x0.50x1.00 r=1.01
;00:00:17.428: pe=0.9562 eb=0.0227 ve=0.0000 vn=0.4754 vl=0.000 db=0.48
G1 E21.2025 F2400                       ; retract de=-1.9562@-40.0 r=1.01
;00:00:17.477: pe=-1.0024 eb=0.0250 ve=-40.0000 vn=0.0000 vl=0.000 db=0.51
G1 Z0.500 F420                          ; hopup dz=0.20@7 h=0.5 r=0.78
;00:00:17.505: pe=-1.0024 eb=0.0250 ve=0.0000 vn=0.0000 vl=0.000 db=0.39
G1 X-17.26 Y58.26 F6000                 ; move dl=3.0@100(0<28>0) de=0.000@0.0(0.0<0.0>0.0) l=0.50x0.50x0.00 r=0.00
;00:00:17.671: pe=-1.0024 eb=0.0000 ve=0.0000 vn=0.0000 vl=0.000 db=0.00
G1 Z0.300 F420                          ; hopdn dz=-0.20@7 h=0.3 r=0.00
;00:00:17.699: pe=-1.0024 eb=0.0000 ve=0.0000 vn=0.0000 vl=0.000 db=0.00
G1 E23.0755 F1800                       ; restore de=1.8730@30.0 r=0.60
;00:00:17.762: pe=0.8619 eb=0.0087 ve=30.0000 vn=0.5640 vl=0.000 db=0.30
G1 X-15.57 Y58.26 E23.1809 F600         ; draw dl=1.7@10(0<10>0) de=0.105@0.56(0.0<0.62>0.0) l=0.30x0.50x1.00 r=0.87
;00:00:17.951: pe=0.8757 eb=0.0193 ve=0.0000 vn=0.4319 vl=0.000 db=0.44
G1 E21.3052 F2400                       ; retract de=-1.8757@-40.0 r=0.93
;00:00:17.998: pe=-1.0020 eb=0.0213 ve=-40.0000 vn=0.0000 vl=0.000 db=0.47
G1 Z0.500 F420                          ; hopup dz=0.20@7 h=0.5 r=0.72
;00:00:18.026: pe=-1.0020 eb=0.0213 ve=0.0000 vn=0.0000 vl=0.000 db=0.36
G1 X-15.57 Y57.55 F6000                 ; move dl=0.7@100(0<13>0) de=0.000@0.0(0.0<0.0>0.0) l=0.50x0.50x0.00 r=0.00
;00:00:18.106: pe=-1.0020 eb=0.0000 ve=0.0000 vn=0.0000 vl=0.000 db=0.00
G1 Z0.300 F420                          ; hopdn dz=-0.20@7 h=0.3 r=0.00
;00:00:18.135: pe=-1.0020 eb=0.0000 ve=0.0000 vn=0.0000 vl=0.000 db=0.00
G1 E23.1778 F1800                       ; restore de=1.8726@30.0 r=0.60
;00:00:18.197: pe=0.8619 eb=0.0087 ve=30.0000 vn=0.5640 vl=0.000 db=0.30
G1 X-17.26 Y57.55 E23.2832 F600         ; draw dl=1.7@10(0<10>0) de=0.105@0.56(0.0<0.62>0.0) l=0.30x0.50x1.00 r=0.87
;00:00:18.386: pe=0.8757 eb=0.0193 ve=0.0000 vn=0.4319 vl=0.000 db=0.44
G1 E21.4075 F2400                       ; retract de=-1.8757@-40.0 r=0.93
;00:00:18.433: pe=-1.0020 eb=0.0213 ve=-40.0000 vn=0.0000 vl=0.000 db=0.47
G1 Z0.500 F420                          ; hopup dz=0.20@7 h=0.5 r=0.72
;00:00:18.462: pe=-1.0020 eb=0.0213 ve=0.0000 vn=0.0000 vl=0.000 db=0.36
G1 X-14.51 Y59.00 F6000                 ; move dl=3.1@100(0<28>0) de=0.000@0.0(0.0<0.0>0.0) l=0.50x0.50x0.00 r=0.00
;00:00:18.629: pe=-1.0020 eb=0.0000 ve=0.0000 vn=0.0000 vl=0.000 db=0.00
G1 Z0.300 F420                          ; hopdn dz=-0.20@7 h=0.3 r=0.00
;00:00:18.657: pe=-1.0020 eb=0.0000 ve=0.0000 vn=0.0000 vl=0.000 db=0.00
G1 E23.3090 F1800                       ; restore de=1.9015@30.0 r=0.62
;00:00:18.721: pe=0.8902 eb=0.0093 ve=30.0000 vn=0.5827 vl=0.000 db=0.31
G1 X-14.04 Y59.24 E23.3419 F600         ; draw dl=0.5@10(0<10>10) de=0.033@0.52(0.0<0.62>0.62) l=0.30x0.50x1.00 r=0.96
;00:00:18.784: pe=0.8915 eb=0.0153 ve=0.6236 vn=0.4968 vl=10.000 db=0.39
G1 X-13.67 Y59.55 E23.3720              ; draw dl=0.5@10(10<10>10) de=0.030@0.62(0.62<0.62>0.62) l=0.30x0.50x1.00 r=0.80
;00:00:18.832: pe=0.8975 eb=0.0155 ve=0.6236 vn=0.5000 vl=10.000 db=0.40
G1 X-13.42 Y59.88 E23.3978              ; draw dl=0.4@10(10<10>5) de=0.026@0.59(0.62<0.62>0.3) l=0.30x0.50x1.00 r=0.85
;00:00:18.876: pe=0.9013 eb=0.0169 ve=0.3015 vn=0.4858 vl=4.834 db=0.42
G1 X-13.42 Y56.48 E23.6099              ; draw dl=3.4@10(5<10>0) de=0.212@0.6(0.3<0.62>0.0) l=0.30x0.50x1.00 r=0.85
;00:00:19.229: pe=0.9340 eb=0.0217 ve=0.0000 vn=0.4634 vl=0.000 db=0.47
G1 E21.6758 F2400                       ; retract de=-1.9340@-40.0 r=0.99
;00:00:19.277: pe=-1.0023 eb=0.0240 ve=-40.0000 vn=0.0000 vl=0.000 db=0.49
G1 Z0.500 F420                          ; hopup dz=0.20@7 h=0.5 r=0.77
;00:00:19.306: pe=-1.0023 eb=0.0240 ve=0.0000 vn=0.0000 vl=0.000 db=0.38
G1 X-12.36 Y56.71 F6000                 ; move dl=1.1@100(0<16>0) de=0.000@0.0(0.0<0.0>0.0) l=0.50x0.50x0.00 r=0.00
;00:00:19.404: pe=-1.0023 eb=0.0000 ve=0.0000 vn=0.0000 vl=0.000 db=0.00
G1 Z0.300 F420                          ; hopdn dz=-0.20@7 h=0.3 r=0.00
;00:00:19.433: pe=-1.0023 eb=0.0000 ve=0.0000 vn=0.0000 vl=0.000 db=0.00
G1 E23.2315 F1800                       ; restore de=1.5556@30.0 r=0.38
;00:00:19.485: pe=0.5497 eb=0.0036 ve=30.0000 vn=0.3576 vl=0.000 db=0.19
G1 X-12.36 Y56.65 E23.2352 F600         ; draw dl=0.1@10(0<4>0) de=0.004@0.16(0.0<0.24>0.0) l=0.30x0.50x1.00 r=1.85
;00:00:19.508: pe=0.5466 eb=0.0086 ve=0.0000 vn=0.2498 vl=0.000 db=0.30
G1 E21.6886 F2400                       ; retract de=-1.5466@-40.0 r=0.61
;00:00:19.547: pe=-1.0006 eb=0.0092 ve=-40.0000 vn=0.0000 vl=0.000 db=0.31
G1 Z0.500 F420                          ; hopup dz=0.20@7 h=0.5 r=0.48
;00:00:19.575: pe=-1.0006 eb=0.0092 ve=0.0000 vn=0.0000 vl=0.000 db=0.24
G1 X-10.08 Y59.94 F6000                 ; move dl=4.0@100(0<32>0) de=0.000@0.0(0.0<0.0>0.0) l=0.50x0.50x0.00 r=0.00
;00:00:19.765: pe=-1.0006 eb=0.0000 ve=0.0000 vn=0.0000 vl=0.000 db=0.00
G1 Z0.300 F420                          ; hopdn dz=-0.20@7 h=0.3 r=0.00
;00:00:19.794: pe=-1.0006 eb=0.0000 ve=0.0000 vn=0.0000 vl=0.000 db=0.00
G1 E23.6038 F1800                       ; restore de=1.9152@30.0 r=0.63
;00:00:19.857: pe=0.9050 eb=0.0096 ve=30.0000 vn=0.5924 vl=0.000 db=0.31
G1 X-9.57 Y59.80 E23.6368 F600          ; draw dl=0.5@10(0<10>10) de=0.033@0.52(0.0<0.62>0.62) l=0.30x0.50x1.00 r=0.98
;00:00:19.920: pe=0.9057 eb=0.0157 ve=0.6237 vn=0.5050 vl=10.000 db=0.40
G1 X-9.18 Y59.42 E23.6708               ; draw dl=0.5@10(10<10>10) de=0.034@0.62(0.62<0.62>0.62) l=0.30x0.50x1.00 r=0.81
;00:00:19.975: pe=0.9121 eb=0.0160 ve=0.6237 vn=0.5081 vl=10.000 db=0.40
G1 X-8.94 Y58.86 E23.7088               ; draw dl=0.6@10(10<10>10) de=0.038@0.62(0.62<0.62>0.62) l=0.30x0.50x1.00 r=0.82
;00:00:20.036: pe=0.9190 eb=0.0162 ve=0.6237 vn=0.5118 vl=10.000 db=0.41
G1 X-8.86 Y58.18 E23.7515               ; draw dl=0.7@10(10<10>10) de=0.043@0.62(0.62<0.62>0.62) l=0.30x0.50x1.00 r=0.82
;00:00:20.104: pe=0.9265 eb=0.0165 ve=0.6237 vn=0.5159 vl=10.000 db=0.41
G1 X-8.94 Y57.51 E23.7936               ; draw dl=0.7@10(10<10>10) de=0.042@0.62(0.62<0.62>0.62) l=0.30x0.50x1.00 r=0.83
;00:00:20.172: pe=0.9337 eb=0.0168 ve=0.6237 vn=0.5198 vl=10.000 db=0.41
G1 X-9.18 Y56.95 E23.8316               ; draw dl=0.6@10(10<10>10) de=0.038@0.62(0.62<0.62>0.62) l=0.30x0.50x1.00 r=0.84
;00:00:20.233: pe=0.9399 eb=0.0170 ve=0.6237 vn=0.5232 vl=10.000 db=0.42
G1 X-9.57 Y56.56 E23.8660               ; draw dl=0.6@10(10<10>10) de=0.034@0.62(0.62<0.62>0.62) l=0.30x0.50x1.00 r=0.84
;00:00:20.288: pe=0.9453 eb=0.0172 ve=0.6237 vn=0.5262 vl=10.000 db=0.42
G1 X-10.08 Y56.42 E23.8989              ; draw dl=0.5@10(10<10>10) de=0.033@0.62(0.62<0.62>0.62) l=0.30x0.50x1.00 r=0.85
;00:00:20.341: pe=0.9504 eb=0.0174 ve=0.6237 vn=0.5290 vl=10.000 db=0.42
G1 X-10.60 Y56.56 E23.9325              ; draw dl=0.5@10(10<10>10) de=0.034@0.62(0.62<0.62>0.62) l=0.30x0.50x1.00 r=0.85
;00:00:20.394: pe=0.9554 eb=0.0176 ve=0.6237 vn=0.5318 vl=10.000 db=0.42
G1 X-10.98 Y56.95 E23.9665              ; draw dl=0.5@10(10<10>10) de=0.034@0.62(0.62<0.62>0.62) l=0.30x0.50x1.00 r=0.85
;00:00:20.449: pe=0.9603 eb=0.0178 ve=0.6237 vn=0.5345 vl=10.000 db=0.43
G1 X-11.22 Y57.51 E24.0045              ; draw dl=0.6@10(10<10>10) de=0.038@0.62(0.62<0.62>0.62) l=0.30x0.50x1.00 r=0.86
;00:00:20.510: pe=0.9657 eb=0.0180 ve=0.6237 vn=0.5374 vl=10.000 db=0.43
G1 X-11.30 Y58.18 E24.0466              ; draw dl=0.7@10(10<10>10) de=0.042@0.62(0.62<0.62>0.62) l=0.30x0.50x1.00 r=0.86
;00:00:20.577: pe=0.9714 eb=0.0182 ve=0.6237 vn=0.5405 vl=10.000 db=0.43
G1 X-11.22 Y58.85 E24.0887              ; draw dl=0.7@10(10<10>10) de=0.042@0.62(0.62<0.62>0.62) l=0.30x0.50x1.00 r=0.87
;00:00:20.645: pe=0.9769 eb=0.0184 ve=0.6237 vn=0.5435 vl=10.000 db=0.43
G1 X-10.98 Y59.42 E24.1272              ; draw dl=0.6@10(10<10>10) de=0.039@0.62(0.62<0.62>0.62) l=0.30x0.50x1.00 r=0.87
;00:00:20.707: pe=0.9818 eb=0.0186 ve=0.6237 vn=0.5462 vl=10.000 db=0.44
G1 X-10.60 Y59.80 E24.1607              ; draw dl=0.5@10(10<10>10) de=0.034@0.62(0.62<0.62>0.62) l=0.30x0.50x1.00 r=0.88
;00:00:20.760: pe=0.9859 eb=0.0187 ve=0.6237 vn=0.5484 vl=10.000 db=0.44
G1 X-10.08 Y59.94 E24.1943              ; draw dl=0.5@10(10<10>0) de=0.034@0.53(0.62<0.62>0.0) l=0.30x0.50x1.00 r=1.03
;00:00:20.824: pe=0.9848 eb=0.0239 ve=0.0000 vn=0.4907 vl=0.000 db=0.49
G1 E22.2096 F2400                       ; retract de=-1.9848@-40.0 r=1.04
;00:00:20.874: pe=-1.0026 eb=0.0265 ve=-40.0000 vn=0.0000 vl=0.000 db=0.52
G1 Z0.500 F420                          ; hopup dz=0.20@7 h=0.5 r=0.81
;00:00:20.902: pe=-1.0026 eb=0.0265 ve=0.0000 vn=0.0000 vl=0.000 db=0.40
G1 X-4.48 Y56.48 F6000                  ; move dl=6.6@100(0<41>0) de=0.000@0.0(0.0<0.0>0.0) l=0.50x0.50x0.00 r=0.00
;00:00:21.146: pe=-1.0026 eb=0.0000 ve=0.0000 vn=0.0000 vl=0.000 db=0.00
G1 Z0.300 F420                          ; hopdn dz=-0.20@7 h=0.3 r=0.00
;00:00:21.174: pe=-1.0026 eb=0.0000 ve=0.0000 vn=0.0000 vl=0.000 db=0.00
G1 E24.1234 F1800                       ; restore de=1.9138@30.0 r=0.62
;00:00:21.238: pe=0.9017 eb=0.0095 ve=30.0000 vn=0.5902 vl=0.000 db=0.31
G1 X-4.48 Y59.88 E24.3354 F600          ; draw dl=3.4@10(0<10>10) de=0.212@0.61(0.0<0.62>0.62) l=0.30x0.50x1.00 r=0.84
;00:00:21.588: pe=0.9346 eb=0.0168 ve=0.6237 vn=0.5204 vl=10.000 db=0.41
;00:00:21.588: skipping empty move move dl=0.0@7(0<0>0) de=0.000@0.0(0.0<0.0>0.0) l=0.30x0.50x0.00
G1 X-3.25 Y59.88 E24.4121               ; draw dl=1.2@10(10<10>10) de=0.077@0.62(0.62<0.62>0.62) l=0.30x0.50x1.00 r=0.84
;00:00:21.711: pe=0.9469 eb=0.0173 ve=0.6237 vn=0.5271 vl=10.000 db=0.42
G1 X-2.86 Y59.78 E24.4373               ; draw dl=0.4@10(10<10>10) de=0.025@0.62(0.62<0.62>0.62) l=0.30x0.50x1.00 r=0.85
;00:00:21.751: pe=0.9508 eb=0.0174 ve=0.6237 vn=0.5292 vl=10.000 db=0.42
G1 X-2.55 Y59.58 E24.4603               ; draw dl=0.4@10(10<10>10) de=0.023@0.62(0.62<0.62>0.62) l=0.30x0.50x1.00 r=0.85
;00:00:21.788: pe=0.9542 eb=0.0175 ve=0.6237 vn=0.5311 vl=10.000 db=0.42
G1 X-2.45 Y59.45 E24.4705               ; draw dl=0.2@10(10<10>10) de=0.010@0.62(0.62<0.62>0.62) l=0.30x0.50x1.00 r=0.85
;00:00:21.805: pe=0.9557 eb=0.0176 ve=0.6237 vn=0.5319 vl=10.000 db=0.42
G1 X-2.32 Y59.04 E24.4973               ; draw dl=0.4@10(10<10>10) de=0.027@0.62(0.62<0.62>0.62) l=0.30x0.50x1.00 r=0.85
;00:00:21.848: pe=0.9596 eb=0.0177 ve=0.6237 vn=0.5341 vl=10.000 db=0.43
G1 X-2.37 Y58.80 E24.5126               ; draw dl=0.2@10(10<10>10) de=0.015@0.62(0.62<0.62>0.62) l=0.30x0.50x1.00 r=0.86
;00:00:21.872: pe=0.9618 eb=0.0178 ve=0.6237 vn=0.5353 vl=10.000 db=0.43
G1 X-2.48 Y58.56 E24.5291               ; draw dl=0.3@10(10<10>10) de=0.016@0.62(0.62<0.62>0.62) l=0.30x0.50x1.00 r=0.86
;00:00:21.899: pe=0.9641 eb=0.0179 ve=0.6237 vn=0.5365 vl=10.000 db=0.43
G1 X-2.70 Y58.36 E24.5476               ; draw dl=0.3@10(10<10>10) de=0.019@0.62(0.62<0.62>0.62) l=0.30x0.50x1.00 r=0.86
;00:00:21.928: pe=0.9667 eb=0.0180 ve=0.6237 vn=0.5379 vl=10.000 db=0.43
G1 X-3.47 Y58.18 E24.5969               ; draw dl=0.8@10(10<10>0) de=0.049@0.55(0.62<0.62>0.0) l=0.30x0.50x1.00 r=0.97
;00:00:22.017: pe=0.9683 eb=0.0232 ve=0.0000 vn=0.4819 vl=0.000 db=0.49
G1 E22.6286 F2400                       ; retract de=-1.9683@-40.0 r=1.02
;00:00:22.067: pe=-1.0025 eb=0.0256 ve=-40.0000 vn=0.0000 vl=0.000 db=0.51
G1 Z0.500 F420                          ; hopup dz=0.20@7 h=0.5 r=0.79
;00:00:22.095: pe=-1.0025 eb=0.0256 ve=0.0000 vn=0.0000 vl=0.000 db=0.40
G1 X-4.48 Y58.18 F6000                  ; move dl=1.0@100(0<16>0) de=0.000@0.0(0.0<0.0>0.0) l=0.50x0.50x0.00 r=0.00
;00:00:22.191: pe=-1.0025 eb=0.0000 ve=0.0000 vn=0.0000 vl=0.000 db=0.00
G1 Z0.300 F420                          ; hopdn dz=-0.20@7 h=0.3 r=0.00
;00:00:22.219: pe=-1.0025 eb=0.0000 ve=0.0000 vn=0.0000 vl=0.000 db=0.00
G1 E24.5264 F1800                       ; restore de=1.8978@30.0 r=0.61
;00:00:22.282: pe=0.8861 eb=0.0092 ve=30.0000 vn=0.5800 vl=0.000 db=0.31
G1 X-3.47 Y58.18 E24.5894 F600          ; draw dl=1.0@10(0<10>10) de=0.063@0.57(0.0<0.62>0.62) l=0.30x0.50x1.00 r=0.88
;00:00:22.393: pe=0.8937 eb=0.0153 ve=0.6237 vn=0.4979 vl=10.000 db=0.40
G1 X-2.96 Y58.00 E24.6232               ; draw dl=0.5@10(10<10>10) de=0.034@0.62(0.62<0.62>0.62) l=0.30x0.50x1.00 r=0.80
;00:00:22.448: pe=0.9004 eb=0.0156 ve=0.6237 vn=0.5016 vl=10.000 db=0.40
G1 X-2.57 Y57.38 E24.6688               ; draw dl=0.7@10(10<10>10) de=0.046@0.62(0.62<0.62>0.62) l=0.30x0.50x1.00 r=0.81
;00:00:22.521: pe=0.9091 eb=0.0159 ve=0.6237 vn=0.5064 vl=10.000 db=0.40
G1 X-2.32 Y56.48 E24.7271               ; draw dl=0.9@10(10<10>0) de=0.058@0.56(0.62<0.62>0.0) l=0.30x0.50x1.00 r=0.90
;00:00:22.624: pe=0.9151 eb=0.0209 ve=0.0000 vn=0.4532 vl=0.000 db=0.46
G1 E22.8120 F2400                       ; retract de=-1.9151@-40.0 r=0.97
;00:00:22.672: pe=-1.0022 eb=0.0231 ve=-40.0000 vn=0.0000 vl=0.000 db=0.49
G1 Z0.500 F420                          ; hopup dz=0.20@7 h=0.5 r=0.75
;00:00:22.701: pe=-1.0022 eb=0.0231 ve=0.0000 vn=0.0000 vl=0.000 db=0.38
G1 X-1.26 Y57.69 F6000                  ; move dl=1.6@100(0<20>0) de=0.000@0.0(0.0<0.0>0.0) l=0.50x0.50x0.00 r=0.00
;00:00:22.821: pe=-1.0022 eb=0.0000 ve=0.0000 vn=0.0000 vl=0.000 db=0.00
G1 Z0.300 F420                          ; hopdn dz=-0.20@7 h=0.3 r=0.00
;00:00:22.850: pe=-1.0022 eb=0.0000 ve=0.0000 vn=0.0000 vl=0.000 db=0.00
G1 E24.7281 F1800                       ; restore de=1.9161@30.0 r=0.62
;00:00:22.913: pe=0.9044 eb=0.0096 ve=30.0000 vn=0.5920 vl=0.000 db=0.31
G1 X0.88 Y57.69 E24.8616 F600           ; draw dl=2.1@10(0<10>10) de=0.133@0.6(0.0<0.62>0.6) l=0.30x0.50x1.00 r=0.86
;00:00:23.137: pe=0.9235 eb=0.0164 ve=0.6039 vn=0.5142 vl=9.683 db=0.41
G1 X0.80 Y58.22 E24.8950                ; draw dl=0.5@10(10<10>10) de=0.033@0.62(0.6<0.62>0.62) l=0.30x0.50x1.00 r=0.83
;00:00:23.191: pe=0.9293 eb=0.0166 ve=0.6237 vn=0.5174 vl=10.000 db=0.41
G1 X0.59 Y58.61 E24.9227                ; draw dl=0.4@10(10<10>10) de=0.028@0.62(0.62<0.62>0.62) l=0.30x0.50x1.00 r=0.83
;00:00:23.235: pe=0.9339 eb=0.0168 ve=0.6237 vn=0.5200 vl=10.000 db=0.41
G1 X0.25 Y58.86 E24.9490                ; draw dl=0.4@10(10<10>10) de=0.026@0.62(0.62<0.62>0.62) l=0.30x0.50x1.00 r=0.84
;00:00:23.278: pe=0.9382 eb=0.0169 ve=0.6237 vn=0.5223 vl=10.000 db=0.42
G1 X-0.19 Y58.95 E24.9770               ; draw dl=0.4@10(10<10>10) de=0.028@0.62(0.62<0.62>0.62) l=0.30x0.50x1.00 r=0.84
;00:00:23.322: pe=0.9427 eb=0.0171 ve=0.6237 vn=0.5248 vl=10.000 db=0.42
G1 X-0.62 Y58.86 E25.0044               ; draw dl=0.4@10(10<10>10) de=0.027@0.62(0.62<0.62>0.62) l=0.30x0.50x1.00 r=0.84
;00:00:23.366: pe=0.9470 eb=0.0173 ve=0.6237 vn=0.5272 vl=10.000 db=0.42
G1 X-0.96 Y58.61 E25.0307               ; draw dl=0.4@10(10<10>10) de=0.026@0.62(0.62<0.62>0.62) l=0.30x0.50x1.00 r=0.85
;00:00:23.409: pe=0.9510 eb=0.0174 ve=0.6237 vn=0.5294 vl=10.000 db=0.42
G1 X-1.18 Y58.22 E25.0586               ; draw dl=0.4@10(10<10>10) de=0.028@0.62(0.62<0.62>0.62) l=0.30x0.50x1.00 r=0.85
;00:00:23.453: pe=0.9552 eb=0.0176 ve=0.6237 vn=0.5317 vl=10.000 db=0.42
G1 X-1.26 Y57.69 E25.0921               ; draw dl=0.5@10(10<10>10) de=0.033@0.62(0.62<0.62>0.62) l=0.30x0.50x1.00 r=0.85
;00:00:23.507: pe=0.9601 eb=0.0178 ve=0.6237 vn=0.5343 vl=10.000 db=0.43
G1 X-1.18 Y57.15 E25.1261               ; draw dl=0.5@10(10<10>10) de=0.034@0.62(0.62<0.62>0.62) l=0.30x0.50x1.00 r=0.86
;00:00:23.562: pe=0.9649 eb=0.0179 ve=0.6237 vn=0.5369 vl=10.000 db=0.43
G1 X-0.95 Y56.75 E25.1549               ; draw dl=0.5@10(10<10>10) de=0.029@0.62(0.62<0.62>0.62) l=0.30x0.50x1.00 r=0.86
;00:00:23.608: pe=0.9688 eb=0.0181 ve=0.6237 vn=0.5391 vl=10.000 db=0.43
G1 X-0.60 Y56.51 E25.1814               ; draw dl=0.4@10(10<10>10) de=0.026@0.62(0.62<0.62>0.62) l=0.30x0.50x1.00 r=0.87
;00:00:23.650: pe=0.9724 eb=0.0182 ve=0.6237 vn=0.5410 vl=10.000 db=0.43
G1 X-0.14 Y56.42 E25.2106               ; draw dl=0.5@10(10<10>10) de=0.029@0.62(0.62<0.62>0.62) l=0.30x0.50x1.00 r=0.87
;00:00:23.697: pe=0.9762 eb=0.0184 ve=0.6237 vn=0.5431 vl=10.000 db=0.43
G1 X0.20 Y56.47 E25.2320                ; draw dl=0.3@10(10<10>10) de=0.021@0.62(0.62<0.62>0.62) l=0.30x0.50x1.00 r=0.87
;00:00:23.731: pe=0.9789 eb=0.0185 ve=0.6237 vn=0.5446 vl=10.000 db=0.43
G1 X0.49 Y56.61 E25.2521                ; draw dl=0.3@10(10<10>10) de=0.020@0.62(0.62<0.62>0.62) l=0.30x0.50x1.00 r=0.87
;00:00:23.764: pe=0.9815 eb=0.0186 ve=0.6237 vn=0.5460 vl=10.000 db=0.44
G1 X0.70 Y56.83 E25.2711                ; draw dl=0.3@10(10<10>10) de=0.019@0.62(0.62<0.62>0.62) l=0.30x0.50x1.00 r=0.88
;00:00:23.794: pe=0.9838 eb=0.0187 ve=0.6237 vn=0.5473 vl=10.000 db=0.44
G1 X0.82 Y57.13 E25.2912                ; draw dl=0.3@10(10<10>0) de=0.020@0.48(0.62<0.62>0.0) l=0.30x0.50x1.00 r=1.13
;00:00:23.836: pe=0.9811 eb=0.0237 ve=0.0000 vn=0.4888 vl=0.000 db=0.49
G1 E23.3101 F2400                       ; retract de=-1.9811@-40.0 r=1.04
;00:00:23.886: pe=-1.0025 eb=0.0263 ve=-40.0000 vn=0.0000 vl=0.000 db=0.52
G1 Z0.500 F420                          ; hopup dz=0.20@7 h=0.5 r=0.80
;00:00:23.914: pe=-1.0025 eb=0.0263 ve=0.0000 vn=0.0000 vl=0.000 db=0.40
G1 X1.94 Y58.26 F6000                   ; move dl=1.6@100(0<20>0) de=0.000@0.0(0.0<0.0>0.0) l=0.50x0.50x0.00 r=0.00
;00:00:24.034: pe=-1.0025 eb=0.0000 ve=0.0000 vn=0.0000 vl=0.000 db=0.00
G1 Z0.300 F420                          ; hopdn dz=-0.20@7 h=0.3 r=0.00
;00:00:24.063: pe=-1.0025 eb=0.0000 ve=0.0000 vn=0.0000 vl=0.000 db=0.00
G1 E25.1833 F1800                       ; restore de=1.8732@30.0 r=0.60
;00:00:24.125: pe=0.8619 eb=0.0087 ve=30.0000 vn=0.5640 vl=0.000 db=0.30
G1 X3.63 Y58.26 E25.2887 F600           ; draw dl=1.7@10(0<10>0) de=0.105@0.56(0.0<0.62>0.0) l=0.30x0.50x1.00 r=0.87
;00:00:24.314: pe=0.8757 eb=0.0193 ve=0.0000 vn=0.4319 vl=0.000 db=0.44
G1 E23.4130 F2400                       ; retract de=-1.8757@-40.0 r=0.93
;00:00:24.361: pe=-1.0020 eb=0.0213 ve=-40.0000 vn=0.0000 vl=0.000 db=0.47
G1 Z0.500 F420                          ; hopup dz=0.20@7 h=0.5 r=0.72
;00:00:24.389: pe=-1.0020 eb=0.0213 ve=0.0000 vn=0.0000 vl=0.000 db=0.36
G1 X3.63 Y57.55 F6000                   ; move dl=0.7@100(0<13>0) de=0.000@0.0(0.0<0.0>0.0) l=0.50x0.50x0.00 r=0.00
;00:00:24.469: pe=-1.0020 eb=0.0000 ve=0.0000 vn=0.0000 vl=0.000 db=0.00
G1 Z0.300 F420                          ; hopdn dz=-0.20@7 h=0.3 r=0.00
;00:00:24.498: pe=-1.0020 eb=0.0000 ve=0.0000 vn=0.0000 vl=0.000 db=0.00
G1 E25.2856 F1800                       ; restore de=1.8726@30.0 r=0.60
;00:00:24.560: pe=0.8619 eb=0.0087 ve=30.0000 vn=0.5640 vl=0.000 db=0.30
G1 X1.94 Y57.55 E25.3910 F600           ; draw dl=1.7@10(0<10>0) de=0.105@0.56(0.0<0.62>0.0) l=0.30x0.50x1.00 r=0.87
;00:00:24.749: pe=0.8757 eb=0.0193 ve=0.0000 vn=0.4319 vl=0.000 db=0.44
G1 E23.5153 F2400                       ; retract de=-1.8757@-40.0 r=0.93
;00:00:24.796: pe=-1.0020 eb=0.0213 ve=-40.0000 vn=0.0000 vl=0.000 db=0.47
G1 Z0.500 F420                          ; hopup dz=0.20@7 h=0.5 r=0.72
;00:00:24.825: pe=-1.0020 eb=0.0213 ve=0.0000 vn=0.0000 vl=0.000 db=0.36
G1 X4.69 Y59.00 F6000                   ; move dl=3.1@100(0<28>0) de=0.000@0.0(0.0<0.0>0.0) l=0.50x0.50x0.00 r=0.00
;00:00:24.992: pe=-1.0020 eb=0.0000 ve=0.0000 vn=0.0000 vl=0.000 db=0.00
G1 Z0.300 F420                          ; hopdn dz=-0.20@7 h=0.3 r=0.00
;00:00:25.021: pe=-1.0020 eb=0.0000 ve=0.0000 vn=0.0000 vl=0.000 db=0.00
G1 E25.4168 F1800                       ; restore de=1.9015@30.0 r=0.62
;00:00:25.084: pe=0.8903 eb=0.0093 ve=30.0000 vn=0.5827 vl=0.000 db=0.31
G1 X5.16 Y59.24 E25.4497 F600           ; draw dl=0.5@10(0<10>10) de=0.033@0.52(0.0<0.62>0.62) l=0.30x0.50x1.00 r=0.96
;00:00:25.147: pe=0.8915 eb=0.0153 ve=0.6237 vn=0.4969 vl=10.000 db=0.39
G1 X5.53 Y59.55 E25.4798                ; draw dl=0.5@10(10<10>10) de=0.030@0.62(0.62<0.62>0.62) l=0.30x0.50x1.00 r=0.80
;00:00:25.195: pe=0.8975 eb=0.0155 ve=0.6237 vn=0.5001 vl=10.000 db=0.40
G1 X5.78 Y59.88 E25.5056                ; draw dl=0.4@10(10<10>5) de=0.026@0.59(0.62<0.62>0.3) l=0.30x0.50x1.00 r=0.85
;00:00:25.239: pe=0.9013 eb=0.0169 ve=0.3015 vn=0.4858 vl=4.834 db=0.42
G1 X5.78 Y56.48 E25.7176                ; draw dl=3.4@10(5<10>0) de=0.212@0.6(0.3<0.62>0.0) l=0.30x0.50x1.00 r=0.85
;00:00:25.592: pe=0.9341 eb=0.0217 ve=0.0000 vn=0.4634 vl=0.000 db=0.47
G1 E23.7836 F2400                       ; retract de=-1.9341@-40.0 r=0.99
;00:00:25.640: pe=-1.0023 eb=0.0240 ve=-40.0000 vn=0.0000 vl=0.000 db=0.49
G1 Z0.500 F420                          ; hopup dz=0.20@7 h=0.5 r=0.77
;00:00:25.669: pe=-1.0023 eb=0.0240 ve=0.0000 vn=0.0000 vl=0.000 db=0.38
G1 X6.84 Y56.71 F6000                   ; move dl=1.1@100(0<16>0) de=0.000@0.0(0.0<0.0>0.0) l=0.50x0.50x0.00 r=0.00
;00:00:25.768: pe=-1.0023 eb=0.0000 ve=0.0000 vn=0.0000 vl=0.000 db=0.00
G1 Z0.300 F420                          ; hopdn dz=-0.20@7 h=0.3 r=0.00
;00:00:25.796: pe=-1.0023 eb=0.0000 ve=0.0000 vn=0.0000 vl=0.000 db=0.00
G1 E25.3392 F1800                       ; restore de=1.5556@30.0 r=0.38
;00:00:25.848: pe=0.5497 eb=0.0036 ve=30.0000 vn=0.3576 vl=0.000 db=0.19
G1 X6.84 Y56.65 E25.3429 F600           ; draw dl=0.1@10(0<4>0) de=0.004@0.16(0.0<0.24>0.0) l=0.30x0.50x1.00 r=1.85
;00:00:25.871: pe=0.5466 eb=0.0086 ve=0.0000 vn=0.2498 vl=0.000 db=0.30
G1 E23.7964 F2400                       ; retract de=-1.5466@-40.0 r=0.61
;00:00:25.910: pe=-1.0006 eb=0.0092 ve=-40.0000 vn=0.0000 vl=0.000 db=0.31
G1 Z0.500 F420                          ; hopup dz=0.20@7 h=0.5 r=0.48
;00:00:25.939: pe=-1.0006 eb=0.0092 ve=0.0000 vn=0.0000 vl=0.000 db=0.24
G1 X9.12 Y59.94 F6000                   ; move dl=4.0@100(0<32>0) de=0.000@0.0(0.0<0.0>0.0) l=0.50x0.50x0.00 r=0.00
;00:00:26.128: pe=-1.0006 eb=0.0000 ve=0.0000 vn=0.0000 vl=0.000 db=0.00
G1 Z0.300 F420                          ; hopdn dz=-0.20@7 h=0.3 r=0.00
;00:00:26.157: pe=-1.0006 eb=0.0000 ve=0.0000 vn=0.0000 vl=0.000 db=0.00
G1 E25.7116 F1800                       ; restore de=1.9152@30.0 r=0.63
;00:00:26.221: pe=0.9050 eb=0.0096 ve=30.0000 vn=0.5924 vl=0.000 db=0.31
G1 X9.63 Y59.80 E25.7446 F600           ; draw dl=0.5@10(0<10>10) de=0.033@0.52(0.0<0.62>0.62) l=0.30x0.50x1.00 r=0.98
;00:00:26.284: pe=0.9057 eb=0.0157 ve=0.6237 vn=0.5050 vl=10.000 db=0.40
G1 X10.02 Y59.42 E25.7785               ; draw dl=0.5@10(10<10>10) de=0.034@0.62(0.62<0.62>0.62) l=0.30x0.50x1.00 r=0.81
;00:00:26.338: pe=0.9121 eb=0.0160 ve=0.6237 vn=0.5081 vl=10.000 db=0.40
G1 X10.26 Y58.86 E25.8165               ; draw dl=0.6@10(10<10>10) de=0.038@0.62(0.62<0.62>0.62) l=0.30x0.50x1.00 r=0.82
;00:00:26.399: pe=0.9190 eb=0.0162 ve=0.6237 vn=0.5118 vl=10.000 db=0.41
G1 X10.34 Y58.18 E25.8592               ; draw dl=0.7@10(10<10>10) de=0.043@0.62(0.62<0.62>0.62) l=0.30x0.50x1.00 r=0.82
;00:00:26.467: pe=0.9265 eb=0.0165 ve=0.6237 vn=0.5159 vl=10.000 db=0.41
G1 X10.26 Y57.51 E25.9013               ; draw dl=0.7@10(10<10>10) de=0.042@0.62(0.62<0.62>0.62) l=0.30x0.50x1.00 r=0.83
;00:00:26.535: pe=0.9337 eb=0.0168 ve=0.6237 vn=0.5198 vl=10.000 db=0.41
G1 X10.02 Y56.95 E25.9393               ; draw dl=0.6@10(10<10>10) de=0.038@0.62(0.62<0.62>0.62) l=0.30x0.50x1.00 r=0.84
;00:00:26.596: pe=0.9399 eb=0.0170 ve=0.6237 vn=0.5232 vl=10.000 db=0.42
G1 X9.63 Y56.56 E25.9737                ; draw dl=0.6@10(10<10>10) de=0.034@0.62(0.62<0.62>0.62) l=0.30x0.50x1.00 r=0.84
;00:00:26.651: pe=0.9453 eb=0.0172 ve=0.6237 vn=0.5262 vl=10.000 db=0.42
G1 X9.12 Y56.42 E26.0067                ; draw dl=0.5@10(10<10>10) de=0.033@0.62(0.62<0.62>0.62) l=0.30x0.50x1.00 r=0.85
;00:00:26.704: pe=0.9504 eb=0.0174 ve=0.6237 vn=0.5290 vl=10.000 db=0.42
G1 X8.60 Y56.56 E26.0403                ; draw dl=0.5@10(10<10>10) de=0.034@0.62(0.62<0.62>0.62) l=0.30x0.50x1.00 r=0.85
;00:00:26.758: pe=0.9554 eb=0.0176 ve=0.6237 vn=0.5318 vl=10.000 db=0.42
G1 X8.22 Y56.95 E26.0742                ; draw dl=0.5@10(10<10>10) de=0.034@0.62(0.62<0.62>0.62) l=0.30x0.50x1.00 r=0.85
;00:00:26.812: pe=0.9603 eb=0.0178 ve=0.6237 vn=0.5345 vl=10.000 db=0.43
G1 X7.98 Y57.51 E26.1122                ; draw dl=0.6@10(10<10>10) de=0.038@0.62(0.62<0.62>0.62) l=0.30x0.50x1.00 r=0.86
;00:00:26.873: pe=0.9657 eb=0.0180 ve=0.6237 vn=0.5374 vl=10.000 db=0.43
G1 X7.90 Y58.18 E26.1543                ; draw dl=0.7@10(10<10>10) de=0.042@0.62(0.62<0.62>0.62) l=0.30x0.50x1.00 r=0.86
;00:00:26.941: pe=0.9714 eb=0.0182 ve=0.6237 vn=0.5405 vl=10.000 db=0.43
G1 X7.98 Y58.85 E26.1964                ; draw dl=0.7@10(10<10>10) de=0.042@0.62(0.62<0.62>0.62) l=0.30x0.50x1.00 r=0.87
;00:00:27.008: pe=0.9769 eb=0.0184 ve=0.6237 vn=0.5435 vl=10.000 db=0.43
G1 X8.22 Y59.42 E26.2350                ; draw dl=0.6@10(10<10>10) de=0.039@0.62(0.62<0.62>0.62) l=0.30x0.50x1.00 r=0.87
;00:00:27.070: pe=0.9818 eb=0.0186 ve=0.6237 vn=0.5462 vl=10.000 db=0.44
G1 X8.60 Y59.80 E26.2685                ; draw dl=0.5@10(10<10>10) de=0.034@0.62(0.62<0.62>0.62) l=0.30x0.50x1.00 r=0.88
;00:00:27.124: pe=0.9859 eb=0.0187 ve=0.6237 vn=0.5484 vl=10.000 db=0.44
G1 X9.12 Y59.94 E26.3021                ; draw dl=0.5@10(10<10>0) de=0.034@0.53(0.62<0.62>0.0) l=0.30x0.50x1.00 r=1.03
;00:00:27.188: pe=0.9848 eb=0.0239 ve=0.0000 vn=0.4907 vl=0.000 db=0.49
G1 E24.3173 F2400                       ; retract de=-1.9848@-40.0 r=1.04
;00:00:27.237: pe=-1.0026 eb=0.0265 ve=-40.0000 vn=0.0000 vl=0.000 db=0.52
G1 Z0.500 F420                          ; hopup dz=0.20@7 h=0.5 r=0.81
;00:00:27.266: pe=-1.0026 eb=0.0265 ve=0.0000 vn=0.0000 vl=0.000 db=0.40
;structure:brim
G1 X-45.00 Y60.00 F6000                 ; move dl=54.1@100(0<100>0) de=0.000@0.0(0.0<0.0>0.0) l=0.50x0.50x0.00 r=0.00
;00:00:28.007: pe=-1.0026 eb=0.0000 ve=0.0000 vn=0.0000 vl=0.000 db=0.00
G1 Z0.300 F420                          ; hopdn dz=-0.20@7 h=0.3 r=0.00
;00:00:28.035: pe=-1.0026 eb=0.0000 ve=0.0000 vn=0.0000 vl=0.000 db=0.00
G1 E26.2429 F1800                       ; restore de=1.9256@30.0 r=0.63
;00:00:28.100: pe=0.9133 eb=0.0097 ve=30.0000 vn=0.5979 vl=0.000 db=0.32
G1 X-45.00 Y-61.00 E33.7894 F600        ; draw dl=121.0@10(0<10>10) de=7.546@0.62(0.0<0.62>0.62) l=0.30x0.50x1.00 r=0.97
;00:00:40.210: pe=1.1234 eb=0.0245 ve=0.6237 vn=0.6235 vl=10.000 db=0.50
G1 X-45.50 Y-61.00 E33.8206             ; draw dl=0.5@10(10<10>10) de=0.031@0.62(0.62<0.62>0.62) l=0.30x0.50x1.00 r=1.00
;00:00:40.260: pe=1.1234 eb=0.0245 ve=0.6237 vn=0.6235 vl=10.000 db=0.50
G1 X-45.50 Y60.00 E41.3671              ; draw dl=121.0@10(10<10>0) de=7.547@0.62(0.62<0.62>0.0) l=0.30x0.50x1.00 r=1.00
;00:00:52.370: pe=1.1179 eb=0.0302 ve=0.0000 vn=0.5624 vl=0.000 db=0.56
G1 E39.2492 F2400                       ; retract de=-2.1179@-40.0 r=1.17
;00:00:52.423: pe=-1.0034 eb=0.0336 ve=-40.0000 vn=0.0000 vl=0.000 db=0.59
G1 Z0.500 F420                          ; hopup dz=0.20@7 h=0.5 r=0.91
;00:00:52.451: pe=-1.0034 eb=0.0336 ve=0.0000 vn=0.0000 vl=0.000 db=0.45
G1 X45.00 Y60.00 F6000                  ; move dl=90.5@100(0<100>0) de=0.000@0.0(0.0<0.0>0.0) l=0.50x0.50x0.00 r=0.00
;00:00:53.556: pe=-1.0034 eb=0.0000 ve=0.0000 vn=0.0000 vl=0.000 db=0.00
G1 Z0.300 F420                          ; hopdn dz=-0.20@7 h=0.3 r=0.00
;00:00:53.585: pe=-1.0034 eb=0.0000 ve=0.0000 vn=0.0000 vl=0.000 db=0.00
G1 E41.1757 F1800                       ; restore de=1.9264@30.0 r=0.63
;00:00:53.649: pe=0.9133 eb=0.0097 ve=30.0000 vn=0.5979 vl=0.000 db=0.32
G1 X45.00 Y-61.00 E48.7222 F600         ; draw dl=121.0@10(0<10>10) de=7.547@0.62(0.0<0.62>0.62) l=0.30x0.50x1.00 r=0.97
;00:01:05.759: pe=1.1234 eb=0.0245 ve=0.6237 vn=0.6235 vl=10.000 db=0.50
G1 X45.50 Y-61.00 E48.7534              ; draw dl=0.5@10(10<10>10) de=0.031@0.62(0.62<0.62>0.62) l=0.30x0.50x1.00 r=1.00
;00:01:05.809: pe=1.1234 eb=0.0245 ve=0.6237 vn=0.6235 vl=10.000 db=0.50
G1 X45.50 Y60.00 E56.2999               ; draw dl=121.0@10(10<10>0) de=7.547@0.62(0.62<0.62>0.0) l=0.30x0.50x1.00 r=1.00
;00:01:17.919: pe=1.1179 eb=0.0302 ve=0.0000 vn=0.5624 vl=0.000 db=0.56
G1 E54.1820 F2400                       ; retract de=-2.1179@-40.0 r=1.17
;00:01:17.972: pe=-1.0034 eb=0.0336 ve=-40.0000 vn=0.0000 vl=0.000 db=0.59
G1 Z0.500 F420                          ; hopup dz=0.20@7 h=0.5 r=0.91
;00:01:18.001: pe=-1.0034 eb=0.0336 ve=0.0000 vn=0.0000 vl=0.000 db=0.45
;00:01:18.001: Test Backpressure1 Kb=0.0-4.0 Re=0.5 ve=1.0 h=0.2 w=0.3
;structure:shell-outer
G1 X-45.00 Y55.00 F6000                 ; move dl=90.6@100(0<100>0) de=0.000@0.0(0.0<0.0>0.0) l=0.50x0.50x0.00 r=0.00
;00:01:19.107: pe=-1.0034 eb=0.0000 ve=0.0000 vn=0.0000 vl=0.000 db=0.00
G1 Z0.300 F420                          ; hopdn dz=-0.20@7 h=0.3 r=0.00
;00:01:19.135: pe=-1.0034 eb=0.0000 ve=0.0000 vn=0.0000 vl=0.000 db=0.00
G1 E56.1078 F1800                       ; restore de=1.9258@30.0 r=0.63
;00:01:19.200: pe=0.9126 eb=0.0097 ve=30.0000 vn=0.5974 vl=0.000 db=0.32
G1 X45.00 Y55.00 E61.7209 F600          ; draw dl=90.0@10(0<10>0) de=5.613@0.62(0.0<0.62>0.0) l=0.30x0.50x1.00 r=0.96
;00:01:28.220: pe=1.1163 eb=0.0301 ve=0.0000 vn=0.5616 vl=0.000 db=0.55
G1 E59.6046 F2400                       ; retract de=-2.1163@-40.0 r=1.17
;00:01:28.273: pe=-1.0034 eb=0.0335 ve=-40.0000 vn=0.0000 vl=0.000 db=0.58
G1 Z0.500 F420                          ; hopup dz=0.20@7 h=0.5 r=0.91
;00:01:28.301: pe=-1.0034 eb=0.0335 ve=0.0000 vn=0.0000 vl=0.000 db=0.45
G1 X-42.00 Y55.00 F6000                 ; move dl=87.0@100(0<100>0) de=0.000@0.0(0.0<0.0>0.0) l=0.50x0.50x0.00 r=0.00
;00:01:29.371: pe=-1.0034 eb=0.0000 ve=0.0000 vn=0.0000 vl=0.000 db=0.00
G1 X-40.00 Y55.00                       ; move dl=2.0@100(0<22>0) de=0.000@0.0(0.0<0.0>0.0) l=0.50x0.50x0.00 r=0.00
;00:01:29.505: pe=-1.0034 eb=0.0000 ve=0.0000 vn=0.0000 vl=0.000 db=0.00
G1 Z0.300 F420                          ; hopdn dz=-0.20@7 h=0.3 r=0.00
;00:01:29.534: pe=-1.0034 eb=0.0000 ve=0.0000 vn=0.0000 vl=0.000 db=0.00
G1 E61.5003 F1800                       ; restore de=1.8957@30.0 r=0.61
;00:01:29.597: pe=0.8832 eb=0.0091 ve=30.0000 vn=0.5780 vl=0.000 db=0.31
G1 X-40.00 Y52.00 E61.6874 F600         ; draw dl=3.0@10(0<10>0) de=0.187@0.58(0.0<0.62>0.0) l=0.30x0.50x1.00 r=0.86
;00:01:29.917: pe=0.9102 eb=0.0207 ve=0.0000 vn=0.4505 vl=0.000 db=0.46
G1 E59.7772 F2400                       ; retract de=-1.9102@-40.0 r=0.97
;00:01:29.965: pe=-1.0021 eb=0.0228 ve=-40.0000 vn=0.0000 vl=0.000 db=0.48
G1 Z0.500 F420                          ; hopup dz=0.20@7 h=0.5 r=0.75
;00:01:29.993: pe=-1.0021 eb=0.0228 ve=0.0000 vn=0.0000 vl=0.000 db=0.37
G1 X-38.00 Y55.00 F6000                 ; move dl=3.6@100(0<30>0) de=0.000@0.0(0.0<0.0>0.0) l=0.50x0.50x0.00 r=0.00
;00:01:30.174: pe=-1.0021 eb=0.0000 ve=0.0000 vn=0.0000 vl=0.000 db=0.00
G1 Z0.300 F420                          ; hopdn dz=-0.20@7 h=0.3 r=0.00
;00:01:30.202: pe=-1.0021 eb=0.0000 ve=0.0000 vn=0.0000 vl=0.000 db=0.00
G1 E61.6442 F1800                       ; restore de=1.8669@30.0 r=0.59
;00:01:30.264: pe=0.8562 eb=0.0086 ve=30.0000 vn=0.5602 vl=0.000 db=0.30
G1 X-38.00 Y53.50 E61.7377 F600         ; draw dl=1.5@10(0<10>0) de=0.094@0.55(0.0<0.62>0.0) l=0.30x0.50x1.00 r=0.87
;00:01:30.434: pe=0.8680 eb=0.0190 ve=0.0000 vn=0.4278 vl=0.000 db=0.44
G1 E59.8698 F2400                       ; retract de=-1.8680@-40.0 r=0.92
;00:01:30.481: pe=-1.0019 eb=0.0209 ve=-40.0000 vn=0.0000 vl=0.000 db=0.46
G1 Z0.500 F420                          ; hopup dz=0.20@7 h=0.5 r=0.72
;00:01:30.510: pe=-1.0019 eb=0.0209 ve=0.0000 vn=0.0000 vl=0.000 db=0.36
G1 X-36.00 Y55.00 F6000                 ; move dl=2.5@100(0<25>0) de=0.000@0.0(0.0<0.0>0.0) l=0.50x0.50x0.00 r=0.00
;00:01:30.660: pe=-1.0019 eb=0.0000 ve=0.0000 vn=0.0000 vl=0.000 db=0.00
G1 Z0.300 F420                          ; hopdn dz=-0.20@7 h=0.3 r=0.00
;00:01:30.688: pe=-1.0019 eb=0.0000 ve=0.0000 vn=0.0000 vl=0.000 db=0.00
G1 E61.7365 F1800                       ; restore de=1.8667@30.0 r=0.59
;00:01:30.750: pe=0.8562 eb=0.0086 ve=30.0000 vn=0.5602 vl=0.000 db=0.30
G1 X-36.00 Y53.50 E61.8300 F600         ; draw dl=1.5@10(0<10>0) de=0.094@0.55(0.0<0.62>0.0) l=0.30x0.50x1.00 r=0.87
;00:01:30.920: pe=0.8680 eb=0.0190 ve=0.0000 vn=0.4278 vl=0.000 db=0.44
G1 E59.9621 F2400                       ; retract de=-1.8680@-40.0 r=0.92
;00:01:30.967: pe=-1.0019 eb=0.0209 ve=-40.0000 vn=0.0000 vl=0.000 db=0.46
G1 Z0.500 F420                          ; hopup dz=0.20@7 h=0.5 r=0.72
;00:01:30.996: pe=-1.0019 eb=0.0209 ve=0.0000 vn=0.0000 vl=0.000 db=0.36
G1 X-34.00 Y55.00 F6000                 ; move dl=2.5@100(0<25>0) de=0.000@0.0(0.0<0.0>0.0) l=0.50x0.50x0.00 r=0.00
;00:01:31.146: pe=-1.0019 eb=0.0000 ve=0.0000 vn=0.0000 vl=0.000 db=0.00
G1 Z0.300 F420                          ; hopdn dz=-0.20@7 h=0.3 r=0.00
;00:01:31.174: pe=-1.0019 eb=0.0000 ve=0.0000 vn=0.0000 vl=0.000 db=0.00
G1 E61.8288 F1800                       ; restore de=1.8667@30.0 r=0.59
;00:01:31.236: pe=0.8562 eb=0.0086 ve=30.0000 vn=0.5602 vl=0.000 db=0.30
G1 X-34.00 Y53.50 E61.9223 F600         ; draw dl=1.5@10(0<10>0) de=0.094@0.55(0.0<0.62>0.0) l=0.30x0.50x1.00 r=0.87
;00:01:31.406: pe=0.8680 eb=0.0190 ve=0.0000 vn=0.4278 vl=0.000 db=0.44
G1 E60.0544 F2400                       ; retract de=-1.8680@-40.0 r=0.92
;00:01:31.453: pe=-1.0019 eb=0.0209 ve=-40.0000 vn=0.0000 vl=0.000 db=0.46
G1 Z0.500 F420                          ; hopup dz=0.20@7 h=0.5 r=0.72
;00:01:31.482: pe=-1.0019 eb=0.0209 ve=0.0000 vn=0.0000 vl=0.000 db=0.36
G1 X-32.00 Y55.00 F6000                 ; move dl=2.5@100(0<25>0) de=0.000@0.0(0.0<0.0>0.0) l=0.50x0.50x0.00 r=0.00
;00:01:31.632: pe=-1.0019 eb=0.0000 ve=0.0000 vn=0.0000 vl=0.000 db=0.00
G1 Z0.300 F420                          ; hopdn dz=-0.20@7 h=0.3 r=0.00
;00:01:31.660: pe=-1.0019 eb=0.0000 ve=0.0000 vn=0.0000 vl=0.000 db=0.00
G1 E61.9211 F1800                       ; restore de=1.8667@30.0 r=0.59
;00:01:31.723: pe=0.8562 eb=0.0086 ve=30.0000 vn=0.5602 vl=0.000 db=0.30
G1 X-32.00 Y53.50 E62.0146 F600         ; draw dl=1.5@10(0<10>0) de=0.094@0.55(0.0<0.62>0.0) l=0.30x0.50x1.00 r=0.87
;00:01:31.893: pe=0.8680 eb=0.0190 ve=0.0000 vn=0.4278 vl=0.000 db=0.44
G1 E60.1467 F2400                       ; retract de=-1.8680@-40.0 r=0.92
;00:01:31.939: pe=-1.0019 eb=0.0209 ve=-40.0000 vn=0.0000 vl=0.000 db=0.46
G1 Z0.500 F420                          ; hopup dz=0.20@7 h=0.5 r=0.72
;00:01:31.968: pe=-1.0019 eb=0.0209 ve=0.0000 vn=0.0000 vl=0.000 db=0.36
G1 X-30.00 Y55.00 F6000                 ; move dl=2.5@100(0<25>0) de=0.000@0.0(0.0<0.0>0.0) l=0.50x0.50x0.00 r=0.00
;00:01:32.118: pe=-1.0019 eb=0.0000 ve=0.0000 vn=0.0000 vl=0.000 db=0.00
G1 Z0.300 F420                          ; hopdn dz=-0.20@7 h=0.3 r=0.00
;00:01:32.146: pe=-1.0019 eb=0.0000 ve=0.0000 vn=0.0000 vl=0.000 db=0.00
G1 E62.0409 F1800                       ; restore de=1.8942@30.0 r=0.61
;00:01:32.209: pe=0.8832 eb=0.0091 ve=30.0000 vn=0.5780 vl=0.000 db=0.31
G1 X-30.00 Y52.00 E62.2280 F600         ; draw dl=3.0@10(0<10>0) de=0.187@0.58(0.0<0.62>0.0) l=0.30x0.50x1.00 r=0.86
;00:01:32.529: pe=0.9102 eb=0.0207 ve=0.0000 vn=0.4505 vl=0.000 db=0.46
G1 E60.3178 F2400                       ; retract de=-1.9102@-40.0 r=0.97
;00:01:32.577: pe=-1.0021 eb=0.0228 ve=-40.0000 vn=0.0000 vl=0.000 db=0.48
G1 Z0.500 F420                          ; hopup dz=0.20@7 h=0.5 r=0.75
;00:01:32.606: pe=-1.0021 eb=0.0228 ve=0.0000 vn=0.0000 vl=0.000 db=0.37
G1 X-28.00 Y55.00 F6000                 ; move dl=3.6@100(0<30>0) de=0.000@0.0(0.0<0.0>0.0) l=0.50x0.50x0.00 r=0.00
;00:01:32.786: pe=-1.0021 eb=0.0000 ve=0.0000 vn=0.0000 vl=0.000 db=0.00
G1 Z0.300 F420                          ; hopdn dz=-0.20@7 h=0.3 r=0.00
;00:01:32.815: pe=-1.0021 eb=0.0000 ve=0.0000 vn=0.0000 vl=0.000 db=0.00
G1 E62.1847 F1800                       ; restore de=1.8669@30.0 r=0.59
;00:01:32.877: pe=0.8562 eb=0.0086 ve=30.0000 vn=0.5602 vl=0.000 db=0.30
G1 X-28.00 Y53.50 E62.2783 F600         ; draw dl=1.5@10(0<10>0) de=0.094@0.55(0.0<0.62>0.0) l=0.30x0.50x1.00 r=0.87
;00:01:33.047: pe=0.8680 eb=0.0190 ve=0.0000 vn=0.4278 vl=0.000 db=0.44
G1 E60.4103 F2400                       ; retract de=-1.8680@-40.0 r=0.92
;00:01:33.093: pe=-1.0019 eb=0.0209 ve=-40.0000 vn=0.0000 vl=0.000 db=0.46
G1 Z0.500 F420                          ; hopup dz=0.20@7 h=0.5 r=0.72
;00:01:33.122: pe=-1.0019 eb=0.0209 ve=0.0000 vn=0.0000 vl=0.000 db=0.36
G1 X-26.00 Y55.00 F6000                 ; move dl=2.5@100(0<25>0) de=0.000@0.0(0.0<0.0>0.0) l=0.50x0.50x0.00 r=0.00
;00:01:33.272: pe=-1.0019 eb=0.0000 ve=0.0000 vn=0.0000 vl=0.000 db=0.00
G1 Z0.300 F420                          ; hopdn dz=-0.20@7 h=0.3 r=0.00
;00:01:33.301: pe=-1.0019 eb=0.0000 ve=0.0000 vn=0.0000 vl=0.000 db=0.00
G1 E62.2770 F1800                       ; restore de=1.8667@30.0 r=0.59
;00:01:33.363: pe=0.8562 eb=0.0086 ve=30.0000 vn=0.5602 vl=0.000 db=0.30
G1 X-26.00 Y53.50 E62.3706 F600         ; draw dl=1.5@10(0<10>0) de=0.094@0.55(0.0<0.62>0.0) l=0.30x0.50x1.00 r=0.87
;00:01:33.533: pe=0.8680 eb=0.0190 ve=0.0000 vn=0.4278 vl=0.000 db=0.44
G1 E60.5026 F2400                       ; retract de=-1.8680@-40.0 r=0.92
;00:01:33.580: pe=-1.0019 eb=0.0209 ve=-40.0000 vn=0.0000 vl=0.000 db=0.46
G1 Z0.500 F420                          ; hopup dz=0.20@7 h=0.5 r=0.72
;00:01:33.608: pe=-1.0019 eb=0.0209 ve=0.0000 vn=0.0000 vl=0.000 db=0.36
G1 X-24.00 Y55.00 F6000                 ; move dl=2.5@100(0<25>0) de=0.000@0.0(0.0<0.0>0.0) l=0.50x0.50x0.00 r=0.00
;00:01:33.758: pe=-1.0019 eb=0.0000 ve=0.0000 vn=0.0000 vl=0.000 db=0.00
G1 Z0.300 F420                          ; hopdn dz=-0.20@7 h=0.3 r=0.00
;00:01:33.787: pe=-1.0019 eb=0.0000 ve=0.0000 vn=0.0000 vl=0.000 db=0.00
G1 E62.3693 F1800                       ; restore de=1.8667@30.0 r=0.59
;00:01:33.849: pe=0.8562 eb=0.0086 ve=30.0000 vn=0.5602 vl=0.000 db=0.30
G1 X-24.00 Y53.50 E62.4629 F600         ; draw dl=1.5@10(0<10>0) de=0.094@0.55(0.0<0.62>0.0) l=0.30x0.50x1.00 r=0.87
;00:01:34.019: pe=0.8680 eb=0.0190 ve=0.0000 vn=0.4278 vl=0.000 db=0.44
G1 E60.5949 F2400                       ; retract de=-1.8680@-40.0 r=0.92
;00:01:34.066: pe=-1.0019 eb=0.0209 ve=-40.0000 vn=0.0000 vl=0.000 db=0.46
G1 Z0.500 F420                          ; hopup dz=0.20@7 h=0.5 r=0.72
;00:01:34.094: pe=-1.0019 eb=0.0209 ve=0.0000 vn=0.0000 vl=0.000 db=0.36
G1 X-22.00 Y55.00 F6000                 ; move dl=2.5@100(0<25>0) de=0.000@0.0(0.0<0.0>0.0) l=0.50x0.50x0.00 r=0.00
;00:01:34.244: pe=-1.0019 eb=0.0000 ve=0.0000 vn=0.0000 vl=0.000 db=0.00
G1 Z0.300 F420                          ; hopdn dz=-0.20@7 h=0.3 r=0.00
;00:01:34.273: pe=-1.0019 eb=0.0000 ve=0.0000 vn=0.0000 vl=0.000 db=0.00
G1 E62.4616 F1800                       ; restore de=1.8667@30.0 r=0.59
;00:01:34.335: pe=0.8562 eb=0.0086 ve=30.0000 vn=0.5602 vl=0.000 db=0.30
G1 X-22.00 Y53.50 E62.5552 F600         ; draw dl=1.5@10(0<10>0) de=0.094@0.55(0.0<0.62>0.0) l=0.30x0.50x1.00 r=0.87
;00:01:34.505: pe=0.8680 eb=0.0190 ve=0.0000 vn=0.4278 vl=0.000 db=0.44
G1 E60.6872 F2400                       ; retract de=-1.8680@-40.0 r=0.92
;00:01:34.552: pe=-1.0019 eb=0.0209 ve=-40.0000 vn=0.0000 vl=0.000 db=0.46
G1 Z0.500 F420                          ; hopup dz=0.20@7 h=0.5 r=0.72
;00:01:34.580: pe=-1.0019 eb=0.0209 ve=0.0000 vn=0.0000 vl=0.000 db=0.36
G1 X-20.00 Y55.00 F6000                 ; move dl=2.5@100(0<25>0) de=0.000@0.0(0.0<0.0>0.0) l=0.50x0.50x0.00 r=0.00
;00:01:34.730: pe=-1.0019 eb=0.0000 ve=0.0000 vn=0.0000 vl=0.000 db=0.00
G1 Z0.300 F420                          ; hopdn dz=-0.20@7 h=0.3 r=0.00
;00:01:34.759: pe=-1.0019 eb=0.0000 ve=0.0000 vn=0.0000 vl=0.000 db=0.00
G1 E62.5814 F1800                       ; restore de=1.8942@30.0 r=0.61
;00:01:34.822: pe=0.8832 eb=0.0091 ve=30.0000 vn=0.5780 vl=0.000 db=0.31
G1 X-20.00 Y52.00 E62.7685 F600         ; draw dl=3.0@10(0<10>0) de=0.187@0.58(0.0<0.62>0.0) l=0.30x0.50x1.00 r=0.86
;00:01:35.142: pe=0.9102 eb=0.0207 ve=0.0000 vn=0.4505 vl=0.000 db=0.46
G1 E60.8584 F2400                       ; retract de=-1.9102@-40.0 r=0.97
;00:01:35.190: pe=-1.0021 eb=0.0228 ve=-40.0000 vn=0.0000 vl=0.000 db=0.48
G1 Z0.500 F420                          ; hopup dz=0.20@7 h=0.5 r=0.75
;00:01:35.218: pe=-1.0021 eb=0.0228 ve=0.0000 vn=0.0000 vl=0.000 db=0.37
G1 X-18.00 Y55.00 F6000                 ; move dl=3.6@100(0<30>0) de=0.000@0.0(0.0<0.0>0.0) l=0.50x0.50x0.00 r=0.00
;00:01:35.398: pe=-1.0021 eb=0.0000 ve=0.0000 vn=0.0000 vl=0.000 db=0.00
G1 Z0.300 F420                          ; hopdn dz=-0.20@7 h=0.3 r=0.00
;00:01:35.427: pe=-1.0021 eb=0.0000 ve=0.0000 vn=0.0000 vl=0.000 db=0.00
G1 E62.7253 F1800                       ; restore de=1.8669@30.0 r=0.59
;00:01:35.489: pe=0.8562 eb=0.0086 ve=30.0000 vn=0.5602 vl=0.000 db=0.30
G1 X-18.00 Y53.50 E62.8188 F600         ; draw dl=1.5@10(0<10>0) de=0.094@0.55(0.0<0.62>0.0) l=0.30x0.50x1.00 r=0.87
;00:01:35.659: pe=0.8680 eb=0.0190 ve=0.0000 vn=0.4278 vl=0.000 db=0.44
G1 E60.9509 F2400                       ; retract de=-1.8680@-40.0 r=0.92
;00:01:35.706: pe=-1.0019 eb=0.0209 ve=-40.0000 vn=0.0000 vl=0.000 db=0.46
G1 Z0.500 F420                          ; hopup dz=0.20@7 h=0.5 r=0.72
;00:01:35.734: pe=-1.0019 eb=0.0209 ve=0.0000 vn=0.0000 vl=0.000 db=0.36
G1 X-16.00 Y55.00 F6000                 ; move dl=2.5@100(0<25>0) de=0.000@0.0(0.0<0.0>0.0) l=0.50x0.50x0.00 r=0.00
;00:01:35.884: pe=-1.0019 eb=0.0000 ve=0.0000 vn=0.0000 vl=0.000 db=0.00
G1 Z0.300 F420                          ; hopdn dz=-0.20@7 h=0.3 r=0.00
;00:01:35.913: pe=-1.0019 eb=0.0000 ve=0.0000 vn=0.0000 vl=0.000 db=0.00
G1 E62.8176 F1800                       ; restore de=1.8667@30.0 r=0.59
;00:01:35.975: pe=0.8562 eb=0.0086 ve=30.0000 vn=0.5602 vl=0.000 db=0.30
G1 X-16.00 Y53.50 E62.9111 F600         ; draw dl=1.5@10(0<10>0) de=0.094@0.55(0.0<0.62>0.0) l=0.30x0.50x1.00 r=0.87
;00:01:36.145: pe=0.8680 eb=0.0190 ve=0.0000 vn=0.4278 vl=0.000 db=0.44
G1 E61.0432 F2400                       ; retract de=-1.8680@-40.0 r=0.92
;00:01:36.192: pe=-1.0019 eb=0.0209 ve=-40.0000 vn=0.0000 vl=0.000 db=0.46
G1 Z0.500 F420                          ; hopup dz=0.20@7 h=0.5 r=0.72
;00:01:36.221: pe=-1.0019 eb=0.0209 ve=0.0000 vn=0.0000 vl=0.000 db=0.36
G1 X-14.00 Y55.00 F6000                 ; move dl=2.5@100(0<25>0) de=0.000@0.0(0.0<0.0>0.0) l=0.50x0.50x0.00 r=0.00
;00:01:36.371: pe=-1.0019 eb=0.0000 ve=0.0000 vn=0.0000 vl=0.000 db=0.00
G1 Z0.300 F420                          ; hopdn dz=-0.20@7 h=0.3 r=0.00
;00:01:36.399: pe=-1.0019 eb=0.0000 ve=0.0000 vn=0.0000 vl=0.000 db=0.00
G1 E62.9099 F1800                       ; restore de=1.8667@30.0 r=0.59
;00:01:36.461: pe=0.8562 eb=0.0086 ve=30.0000 vn=0.5602 vl=0.000 db=0.30
G1 X-14.00 Y53.50 E63.0034 F600         ; draw dl=1.5@10(0<10>0) de=0.094@0.55(0.0<0.62>0.0) l=0.30x0.50x1.00 r=0.87
;00:01:36.631: pe=0.8680 eb=0.0190 ve=0.0000 vn=0.4278 vl=0.000 db=0.44
G1 E61.1355 F2400                       ; retract de=-1.8680@-40.0 r=0.92
;00:01:36.678: pe=-1.0019 eb=0.0209 ve=-40.0000 vn=0.0000 vl=0.000 db=0.46
G1 Z0.500 F420                          ; hopup dz=0.20@7 h=0.5 r=0.72
;00:01:36.707: pe=-1.0019 eb=0.0209 ve=0.0000 vn=0.0000 vl=0.000 db=0.36
G1 X-12.00 Y55.00 F6000                 ; move dl=2.5@100(0<25>0) de=0.000@0.0(0.0<0.0>0.0) l=0.50x0.50x0.00 r=0.00
;00:01:36.857: pe=-1.0019 eb=0.0000 ve=0.0000 vn=0.0000 vl=0.000 db=0.00
G1 Z0.300 F420                          ; hopdn dz=-0.20@7 h=0.3 r=0.00
;00:01:36.885: pe=-1.0019 eb=0.0000 ve=0.0000 vn=0.0000 vl=0.000 db=0.00
G1 E63.0022 F1800                       ; restore de=1.8667@30.0 r=0.59
;00:01:36.947: pe=0.8562 eb=0.0086 ve=30.0000 vn=0.5602 vl=0.000 db=0.30
G1 X-12.00 Y53.50 E63.0957 F600         ; draw dl=1.5@10(0<10>0) de=0.094@0.55(0.0<0.62>0.0) l=0.30x0.50x1.00 r=0.87
;00:01:37.117: pe=0.8680 eb=0.0190 ve=0.0000 vn=0.4278 vl=0.000 db=0.44
G1 E61.2278 F2400                       ; retract de=-1.8680@-40.0 r=0.92
;00:01:37.164: pe=-1.0019 eb=0.0209 ve=-40.0000 vn=0.0000 vl=0.000 db=0.46
G1 Z0.500 F420                          ; hopup dz=0.20@7 h=0.5 r=0.72
;00:01:37.193: pe=-1.0019 eb=0.0209 ve=0.0000 vn=0.0000 vl=0.000 db=0.36
G1 X-10.00 Y55.00 F6000                 ; move dl=2.5@100(0<25>0) de=0.000@0.0(0.0<0.0>0.0) l=0.50x0.50x0.00 r=0.00
;00:01:37.343: pe=-1.0019 eb=0.0000 ve=0.0000 vn=0.0000 vl=0.000 db=0.00
G1 Z0.300 F420                          ; hopdn dz=-0.20@7 h=0.3 r=0.00
;00:01:37.371: pe=-1.0019 eb=0.0000 ve=0.0000 vn=0.0000 vl=0.000 db=0.00
G1 E63.1220 F1800                       ; restore de=1.8942@30.0 r=0.61
;00:01:37.434: pe=0.8832 eb=0.0091 ve=30.0000 vn=0.5780 vl=0.000 db=0.31
G1 X-10.00 Y52.00 E63.3091 F600         ; draw dl=3.0@10(0<10>0) de=0.187@0.58(0.0<0.62>0.0) l=0.30x0.50x1.00 r=0.86
;00:01:37.754: pe=0.9102 eb=0.0207 ve=0.0000 vn=0.4505 vl=0.000 db=0.46
G1 E61.3989 F2400                       ; retract de=-1.9102@-40.0 r=0.97
;00:01:37.802: pe=-1.0021 eb=0.0228 ve=-40.0000 vn=0.0000 vl=0.000 db=0.48
G1 Z0.500 F420                          ; hopup dz=0.20@7 h=0.5 r=0.75
;00:01:37.831: pe=-1.0021 eb=0.0228 ve=0.0000 vn=0.0000 vl=0.000 db=0.37
G1 X-8.00 Y55.00 F6000                  ; move dl=3.6@100(0<30>0) de=0.000@0.0(0.0<0.0>0.0) l=0.50x0.50x0.00 r=0.00
;00:01:38.011: pe=-1.0021 eb=0.0000 ve=0.0000 vn=0.0000 vl=0.000 db=0.00
G1 Z0.300 F420                          ; hopdn dz=-0.20@7 h=0.3 r=0.00
;00:01:38.039: pe=-1.0021 eb=0.0000 ve=0.0000 vn=0.0000 vl=0.000 db=0.00
G1 E63.2659 F1800                       ; restore de=1.8669@30.0 r=0.59
;00:01:38.102: pe=0.8562 eb=0.0086 ve=30.0000 vn=0.5602 vl=0.000 db=0.30
G1 X-8.00 Y53.50 E63.3594 F600          ; draw dl=1.5@10(0<10>0) de=0.094@0.55(0.0<0.62>0.0) l=0.30x0.50x1.00 r=0.87
;00:01:38.272: pe=0.8680 eb=0.0190 ve=0.0000 vn=0.4278 vl=0.000 db=0.44
G1 E61.4915 F2400                       ; retract de=-1.8680@-40.0 r=0.92
;00:01:38.318: pe=-1.0019 eb=0.0209 ve=-40.0000 vn=0.0000 vl=0.000 db=0.46
G1 Z0.500 F420                          ; hopup dz=0.20@7 h=0.5 r=0.72
;00:01:38.347: pe=-1.0019 eb=0.0209 ve=0.0000 vn=0.0000 vl=0.000 db=0.36
G1 X-6.00 Y55.00 F6000                  ; move dl=2.5@100(0<25>0) de=0.000@0.0(0.0<0.0>0.0) l=0.50x0.50x0.00 r=0.00
;00:01:38.497: pe=-1.0019 eb=0.0000 ve=0.0000 vn=0.0000 vl=0.000 db=0.00
G1 Z0.300 F420                          ; hopdn dz=-0.20@7 h=0.3 r=0.00
;00:01:38.525: pe=-1.0019 eb=0.0000 ve=0.0000 vn=0.0000 vl=0.000 db=0.00
G1 E63.3582 F1800                       ; restore de=1.8667@30.0 r=0.59
;00:01:38.588: pe=0.8562 eb=0.0086 ve=30.0000 vn=0.5602 vl=0.000 db=0.30
G1 X-6.00 Y53.50 E63.4517 F600          ; draw dl=1.5@10(0<10>0) de=0.094@0.55(0.0<0.62>0.0) l=0.30x0.50x1.00 r=0.87
;00:01:38.758: pe=0.8680 eb=0.0190 ve=0.0000 vn=0.4278 vl=0.000 db=0.44
G1 E61.5837 F2400                       ; retract de=-1.8680@-40.0 r=0.92
;00:01:38.804: pe=-1.0019 eb=0.0209 ve=-40.0000 vn=0.0000 vl=0.000 db=0.46
G1 Z0.500 F420                          ; hopup dz=0.20@7 h=0.5 r=0.72
;00:01:38.833: pe=-1.0019 eb=0.0209 ve=0.0000 vn=0.0000 vl=0.000 db=0.36
G1 X-4.00 Y55.00 F6000                  ; move dl=2.5@100(0<25>0) de=0.000@0.0(0.0<0.0>0.0) l=0.50x0.50x0.00 r=0.00
;00:01:38.983: pe=-1.0019 eb=0.0000 ve=0.0000 vn=0.0000 vl=0.000 db=0.00
G1 Z0.300 F420                          ; hopdn dz=-0.20@7 h=0.3 r=0.00
;00:01:39.012: pe=-1.0019 eb=0.0000 ve=0.0000 vn=0.0000 vl=0.000 db=0.00
G1 E63.4504 F1800                       ; restore de=1.8667@30.0 r=0.59
;00:01:39.074: pe=0.8562 eb=0.0086 ve=30.0000 vn=0.5602 vl=0.000 db=0.30
G1 X-4.00 Y53.50 E63.5440 F600          ; draw dl=1.5@10(0<10>0) de=0.094@0.55(0.0<0.62>0.0) l=0.30x0.50x1.00 r=0.87
;00:01:39.244: pe=0.8680 eb=0.0190 ve=0.0000 vn=0.4278 vl=0.000 db=0.44
G1 E61.6760 F2400                       ; retract de=-1.8680@-40.0 r=0.92
;00:01:39.290: pe=-1.0019 eb=0.0209 ve=-40.0000 vn=0.0000 vl=0.000 db=0.46
G1 Z0.500 F420                          ; hopup dz=0.20@7 h=0.5 r=0.72
;00:01:39.319: pe=-1.0019 eb=0.0209 ve=0.0000 vn=0.0000 vl=0.000 db=0.36
G1 X-2.00 Y55.00 F6000                  ; move dl=2.5@100(0<25>0) de=0.000@0.0(0.0<0.0>0.0) l=0.50x0.50x0.00 r=0.00
;00:01:39.469: pe=-1.0019 eb=0.0000 ve=0.0000 vn=0.0000 vl=0.000 db=0.00
G1 Z0.300 F420                          ; hopdn dz=-0.20@7 h=0.3 r=0.00
;00:01:39.498: pe=-1.0019 eb=0.0000 ve=0.0000 vn=0.0000 vl=0.000 db=0.00
G1 E63.5427 F1800                       ; restore de=1.8667@30.0 r=0.59
;00:01:39.560: pe=0.8562 eb=0.0086 ve=30.0000 vn=0.5602 vl=0.000 db=0.30
G1 X-2.00 Y53.50 E63.6363 F600          ; draw dl=1.5@10(0<10>0) de=0.094@0.55(0.0<0.62>0.0) l=0.30x0.50x1.00 r=0.87
;00:01:39.730: pe=0.8680 eb=0.0190 ve=0.0000 vn=0.4278 vl=0.000 db=0.44
G1 E61.7683 F2400                       ; retract de=-1.8680@-40.0 r=0.92
;00:01:39.777: pe=-1.0019 eb=0.0209 ve=-40.0000 vn=0.0000 vl=0.000 db=0.46
G1 Z0.500 F420                          ; hopup dz=0.20@7 h=0.5 r=0.72
;00:01:39.805: pe=-1.0019 eb=0.0209 ve=0.0000 vn=0.0000 vl=0.000 db=0.36
G1 X0.00 Y55.00 F6000                   ; move dl=2.5@100(0<25>0) de=0.000@0.0(0.0<0.0>0.0) l=0.50x0.50x0.00 r=0.00
;00:01:39.955: pe=-1.0019 eb=0.0000 ve=0.0000 vn=0.0000 vl=0.000 db=0.00
G1 Z0.300 F420                          ; hopdn dz=-0.20@7 h=0.3 r=0.00
;00:01:39.984: pe=-1.0019 eb=0.0000 ve=0.0000 vn=0.0000 vl=0.000 db=0.00
G1 E63.6626 F1800                       ; restore de=1.8942@30.0 r=0.61
;00:01:40.047: pe=0.8832 eb=0.0091 ve=30.0000 vn=0.5780 vl=0.000 db=0.31
G1 X0.00 Y52.00 E63.8497 F600           ; draw dl=3.0@10(0<10>0) de=0.187@0.58(0.0<0.62>0.0) l=0.30x0.50x1.00 r=0.86
;00:01:40.367: pe=0.9102 eb=0.0207 ve=0.0000 vn=0.4505 vl=0.000 db=0.46
G1 E61.9395 F2400                       ; retract de=-1.9102@-40.0 r=0.97
;00:01:40.415: pe=-1.0021 eb=0.0228 ve=-40.0000 vn=0.0000 vl=0.000 db=0.48
G1 Z0.500 F420                          ; hopup dz=0.20@7 h=0.5 r=0.75
;00:01:40.443: pe=-1.0021 eb=0.0228 ve=0.0000 vn=0.0000 vl=0.000 db=0.37
G1 X2.00 Y55.00 F6000                   ; move dl=3.6@100(0<30>0) de=0.000@0.0(0.0<0.0>0.0) l=0.50x0.50x0.00 r=0.00
;00:01:40.623: pe=-1.0021 eb=0.0000 ve=0.0000 vn=0.0000 vl=0.000 db=0.00
G1 Z0.300 F420                          ; hopdn dz=-0.20@7 h=0.3 r=0.00
;00:01:40.652: pe=-1.0021 eb=0.0000 ve=0.0000 vn=0.0000 vl=0.000 db=0.00
G1 E63.8064 F1800                       ; restore de=1.8669@30.0 r=0.59
;00:01:40.714: pe=0.8562 eb=0.0086 ve=30.0000 vn=0.5602 vl=0.000 db=0.30
G1 X2.00 Y53.50 E63.9000 F600           ; draw dl=1.5@10(0<10>0) de=0.094@0.55(0.0<0.62>0.0) l=0.30x0.50x1.00 r=0.87
;00:01:40.884: pe=0.8680 eb=0.0190 ve=0.0000 vn=0.4278 vl=0.000 db=0.44
G1 E62.0320 F2400                       ; retract de=-1.8680@-40.0 r=0.92
;00:01:40.931: pe=-1.0019 eb=0.0209 ve=-40.0000 vn=0.0000 vl=0.000 db=0.46
G1 Z0.500 F420                          ; hopup dz=0.20@7 h=0.5 r=0.72
;00:01:40.959: pe=-1.0019 eb=0.0209 ve=0.0000 vn=0.0000 vl=0.000 db=0.36
G1 X4.00 Y55.00 F6000                   ; move dl=2.5@100(0<25>0) de=0.000@0.0(0.0<0.0>0.0) l=0.50x0.50x0.00 r=0.00
;00:01:41.109: pe=-1.0019 eb=0.0000 ve=0.0000 vn=0.0000 vl=0.000 db=0.00
G1 Z0.300 F420                          ; hopdn dz=-0.20@7 h=0.3 r=0.00
;00:01:41.138: pe=-1.0019 eb=0.0000 ve=0.0000 vn=0.0000 vl=0.000 db=0.00
G1 E63.8987 F1800                       ; restore de=1.8667@30.0 r=0.59
;00:01:41.200: pe=0.8562 eb=0.0086 ve=30.0000 vn=0.5602 vl=0.000 db=0.30
G1 X4.00 Y53.50 E63.9923 F600           ; draw dl=1.5@10(0<10>0) de=0.094@0.55(0.0<0.62>0.0) l=0.30x0.50x1.00 r=0.87
;00:01:41.370: pe=0.8680 eb=0.0190 ve=0.0000 vn=0.4278 vl=0.000 db=0.44
G1 E62.1243 F2400                       ; retract de=-1.8680@-40.0 r=0.92
;00:01:41.417: pe=-1.0019 eb=0.0209 ve=-40.0000 vn=0.0000 vl=0.000 db=0.46
G1 Z0.500 F420                          ; hopup dz=0.20@7 h=0.5 r=0.72
;00:01:41.445: pe=-1.0019 eb=0.0209 ve=0.0000 vn=0.0000 vl=0.000 db=0.36
G1 X6.00 Y55.00 F6000                   ; move dl=2.5@100(0<25>0) de=0.000@0.0(0.0<0.0>0.0) l=0.50x0.50x0.00 r=0.00
;00:01:41.595: pe=-1.0019 eb=0.0000 ve=0.0000 vn=0.0000 vl=0.000 db=0.00
G1 Z0.300 F420                          ; hopdn dz=-0.20@7 h=0.3 r=0.00
;00:01:41.624: pe=-1.0019 eb=0.0000 ve=0.0000 vn=0.0000 vl=0.000 db=0.00
G1 E63.9910 F1800                       ; restore de=1.8667@30.0 r=0.59
;00:01:41.686: pe=0.8562 eb=0.0086 ve=30.0000 vn=0.5602 vl=0.000 db=0.30
G1 X6.00 Y53.50 E64.0846 F600           ; draw dl=1.5@10(0<10>0) de=0.094@0.55(0.0<0.62>0.0) l=0.30x0.50x1.00 r=0.87
;00:01:41.856: pe=0.8680 eb=0.0190 ve=0.0000 vn=0.4278 vl=0.000 db=0.44
G1 E62.2166 F2400                       ; retract de=-1.8680@-40.0 r=0.92
;00:01:41.903: pe=-1.0019 eb=0.0209 ve=-40.0000 vn=0.0000 vl=0.000 db=0.46
G1 Z0.500 F420                          ; hopup dz=0.20@7 h=0.5 r=0.72
;00:01:41.931: pe=-1.0019 eb=0.0209 ve=0.0000 vn=0.0000 vl=0.000 db=0.36
G1 X8.00 Y55.00 F6000                   ; move dl=2.5@100(0<25>0) de=0.000@0.0(0.0<0.0>0.0) l=0.50x0.50x0.00 r=0.00
;00:01:42.081: pe=-1.0019 eb=0.0000 ve=0.0000 vn=0.0000 vl=0.000 db=0.00
G1 Z0.300 F420                          ; hopdn dz=-0.20@7 h=0.3 r=0.00
;00:01:42.110: pe=-1.0019 eb=0.0000 ve=0.0000 vn=0.0000 vl=0.000 db=0.00
G1 E64.0833 F1800                       ; restore de=1.8667@30.0 r=0.59
;00:01:42.172: pe=0.8562 eb=0.0086 ve=30.0000 vn=0.5602 vl=0.000 db=0.30
G1 X8.00 Y53.50 E64.1769 F600           ; draw dl=1.5@10(0<10>0) de=0.094@0.55(0.0<0.62>0.0) l=0.30x0.50x1.00 r=0.87
;00:01:42.342: pe=0.8680 eb=0.0190 ve=0.0000 vn=0.4278 vl=0.000 db=0.44
G1 E62.3089 F2400                       ; retract de=-1.8680@-40.0 r=0.92
;00:01:42.389: pe=-1.0019 eb=0.0209 ve=-40.0000 vn=0.0000 vl=0.000 db=0.46
G1 Z0.500 F420                          ; hopup dz=0.20@7 h=0.5 r=0.72
;00:01:42.418: pe=-1.0019 eb=0.0209 ve=0.0000 vn=0.0000 vl=0.000 db=0.36
G1 X10.00 Y55.00 F6000                  ; move dl=2.5@100(0<25>0) de=0.000@0.0(0.0<0.0>0.0) l=0.50x0.50x0.00 r=0.00
;00:01:42.568: pe=-1.0019 eb=0.0000 ve=0.0000 vn=0.0000 vl=0.000 db=0.00
G1 Z0.300 F420                          ; hopdn dz=-0.20@7 h=0.3 r=0.00
;00:01:42.596: pe=-1.0019 eb=0.0000 ve=0.0000 vn=0.0000 vl=0.000 db=0.00
G1 E64.2031 F1800                       ; restore de=1.8942@30.0 r=0.61
;00:01:42.659: pe=0.8832 eb=0.0091 ve=30.0000 vn=0.5780 vl=0.000 db=0.31
G1 X10.00 Y52.00 E64.3902 F600          ; draw dl=3.0@10(0<10>0) de=0.187@0.58(0.0<0.62>0.0) l=0.30x0.50x1.00 r=0.86
;00:01:42.979: pe=0.9102 eb=0.0207 ve=0.0000 vn=0.4505 vl=0.000 db=0.46
G1 E62.4801 F2400                       ; retract de=-1.9102@-40.0 r=0.97
;00:01:43.027: pe=-1.0021 eb=0.0228 ve=-40.0000 vn=0.0000 vl=0.000 db=0.48
G1 Z0.500 F420                          ; hopup dz=0.20@7 h=0.5 r=0.75
;00:01:43.056: pe=-1.0021 eb=0.0228 ve=0.0000 vn=0.0000 vl=0.000 db=0.37
G1 X12.00 Y55.00 F6000                  ; move dl=3.6@100(0<30>0) de=0.000@0.0(0.0<0.0>0.0) l=0.50x0.50x0.00 r=0.00
;00:01:43.236: pe=-1.0021 eb=0.0000 ve=0.0000 vn=0.0000 vl=0.000 db=0.00
G1 Z0.300 F420                          ; hopdn dz=-0.20@7 h=0.3 r=0.00
;00:01:43.264: pe=-1.0021 eb=0.0000 ve=0.0000 vn=0.0000 vl=0.000 db=0.00
G1 E64.3470 F1800                       ; restore de=1.8669@30.0 r=0.59
;00:01:43.327: pe=0.8562 eb=0.0086 ve=30.0000 vn=0.5602 vl=0.000 db=0.30
G1 X12.00 Y53.50 E64.4405 F600          ; draw dl=1.5@10(0<10>0) de=0.094@0.55(0.0<0.62>0.0) l=0.30x0.50x1.00 r=0.87
;00:01:43.497: pe=0.8680 eb=0.0190 ve=0.0000 vn=0.4278 vl=0.000 db=0.44
G1 E62.5726 F2400                       ; retract de=-1.8680@-40.0 r=0.92
;00:01:43.543: pe=-1.0019 eb=0.0209 ve=-40.0000 vn=0.0000 vl=0.000 db=0.46
G1 Z0.500 F420                          ; hopup dz=0.20@7 h=0.5 r=0.72
;00:01:43.572: pe=-1.0019 eb=0.0209 ve=0.0000 vn=0.0000 vl=0.000 db=0.36
G1 X14.00 Y55.00 F6000                  ; move dl=2.5@100(0<25>0) de=0.000@0.0(0.0<0.0>0.0) l=0.50x0.50x0.00 r=0.00
;00:01:43.722: pe=-1.0019 eb=0.0000 ve=0.0000 vn=0.0000 vl=0.000 db=0.00
G1 Z0.300 F420                          ; hopdn dz=-0.20@7 h=0.3 r=0.00
;00:01:43.750: pe=-1.0019 eb=0.0000 ve=0.0000 vn=0.0000 vl=0.000 db=0.00
G1 E64.4393 F1800                       ; restore de=1.8667@30.0 r=0.59
;00:01:43.813: pe=0.8562 eb=0.0086 ve=30.0000 vn=0.5602 vl=0.000 db=0.30
G1 X14.00 Y53.50 E64.5328 F600          ; draw dl=1.5@10(0<10>0) de=0.094@0.55(0.0<0.62>0.0) l=0.30x0.50x1.00 r=0.87
;00:01:43.983: pe=0.8680 eb=0.0190 ve=0.0000 vn=0.4278 vl=0.000 db=0.44
G1 E62.6649 F2400                       ; retract de=-1.8680@-40.0 r=0.92
;00:01:44.029: pe=-1.0019 eb=0.0209 ve=-40.0000 vn=0.0000 vl=0.000 db=0.46
G1 Z0.500 F420                          ; hopup dz=0.20@7 h=0.5 r=0.72
;00:01:44.058: pe=-1.0019 eb=0.0209 ve=0.0000 vn=0.0000 vl=0.000 db=0.36
G1 X16.00 Y55.00 F6000                  ; move dl=2.5@100(0<25>0) de=0.000@0.0(0.0<0.0>0.0) l=0.50x0.50x0.00 r=0.00
;00:01:44.208: pe=-1.0019 eb=0.0000 ve=0.0000 vn=0.0000 vl=0.000 db=0.00
G1 Z0.300 F420                          ; hopdn dz=-0.20@7 h=0.3 r=0.00
;00:01:44.236: pe=-1.0019 eb=0.0000 ve=0.0000 vn=0.0000 vl=0.000 db=0.00
G1 E64.5316 F1800                       ; restore de=1.8667@30.0 r=0.59
;00:01:44.299: pe=0.8562 eb=0.0086 ve=30.0000 vn=0.5602 vl=0.000 db=0.30
G1 X16.00 Y53.50 E64.6251 F600          ; draw dl=1.5@10(0<10>0) de=0.094@0.55(0.0<0.62>0.0) l=0.30x0.50x1.00 r=0.87
;00:01:44.469: pe=0.8680 eb=0.0190 ve=0.0000 vn=0.4278 vl=0.000 db=0.44
G1 E62.7572 F2400                       ; retract de=-1.8680@-40.0 r=0.92
;00:01:44.515: pe=-1.0019 eb=0.0209 ve=-40.0000 vn=0.0000 vl=0.000 db=0.46
G1 Z0.500 F420                          ; hopup dz=0.20@7 h=0.5 r=0.72
;00:01:44.544: pe=-1.0019 eb=0.0209 ve=0.0000 vn=0.0000 vl=0.000 db=0.36
G1 X18.00 Y55.00 F6000                  ; move dl=2.5@100(0<25>0) de=0.000@0.0(0.0<0.0>0.0) l=0.50x0.50x0.00 r=0.00
;00:01:44.694: pe=-1.0019 eb=0.0000 ve=0.0000 vn=0.0000 vl=0.000 db=0.00
G1 Z0.300 F420                          ; hopdn dz=-0.20@7 h=0.3 r=0.00
;00:01:44.723: pe=-1.0019 eb=0.0000 ve=0.0000 vn=0.0000 vl=0.000 db=0.00
G1 E64.6239 F1800                       ; restore de=1.8667@30.0 r=0.59
;00:01:44.785: pe=0.8562 eb=0.0086 ve=30.0000 vn=0.5602 vl=0.000 db=0.30
G1 X18.00 Y53.50 E64.7174 F600          ; draw dl=1.5@10(0<10>0) de=0.094@0.55(0.0<0.62>0.0) l=0.30x0.50x1.00 r=0.87
;00:01:44.955: pe=0.8680 eb=0.0190 ve=0.0000 vn=0.4278 vl=0.000 db=0.44
G1 E62.8495 F2400                       ; retract de=-1.8680@-40.0 r=0.92
;00:01:45.001: pe=-1.0019 eb=0.0209 ve=-40.0000 vn=0.0000 vl=0.000 db=0.46
G1 Z0.500 F420                          ; hopup dz=0.20@7 h=0.5 r=0.72
;00:01:45.030: pe=-1.0019 eb=0.0209 ve=0.0000 vn=0.0000 vl=0.000 db=0.36
G1 X20.00 Y55.00 F6000                  ; move dl=2.5@100(0<25>0) de=0.000@0.0(0.0<0.0>0.0) l=0.50x0.50x0.00 r=0.00
;00:01:45.180: pe=-1.0019 eb=0.0000 ve=0.0000 vn=0.0000 vl=0.000 db=0.00
G1 Z0.300 F420                          ; hopdn dz=-0.20@7 h=0.3 r=0.00
;00:01:45.209: pe=-1.0019 eb=0.0000 ve=0.0000 vn=0.0000 vl=0.000 db=0.00
G1 E64.7437 F1800                       ; restore de=1.8942@30.0 r=0.61
;00:01:45.272: pe=0.8832 eb=0.0091 ve=30.0000 vn=0.5780 vl=0.000 db=0.31
G1 X20.00 Y52.00 E64.9308 F600          ; draw dl=3.0@10(0<10>0) de=0.187@0.58(0.0<0.62>0.0) l=0.30x0.50x1.00 r=0.86
;00:01:45.592: pe=0.9102 eb=0.0207 ve=0.0000 vn=0.4505 vl=0.000 db=0.46
G1 E63.0206 F2400                       ; retract de=-1.9102@-40.0 r=0.97
;00:01:45.639: pe=-1.0021 eb=0.0228 ve=-40.0000 vn=0.0000 vl=0.000 db=0.48
G1 Z0.500 F420                          ; hopup dz=0.20@7 h=0.5 r=0.75
;00:01:45.668: pe=-1.0021 eb=0.0228 ve=0.0000 vn=0.0000 vl=0.000 db=0.37
G1 X22.00 Y55.00 F6000                  ; move dl=3.6@100(0<30>0) de=0.000@0.0(0.0<0.0>0.0) l=0.50x0.50x0.00 r=0.00
;00:01:45.848: pe=-1.0021 eb=0.0000 ve=0.0000 vn=0.0000 vl=0.000 db=0.00
G1 Z0.300 F420                          ; hopdn dz=-0.20@7 h=0.3 r=0.00
;00:01:45.877: pe=-1.0021 eb=0.0000 ve=0.0000 vn=0.0000 vl=0.000 db=0.00
G1 E64.8875 F1800                       ; restore de=1.8669@30.0 r=0.59
;00:01:45.939: pe=0.8562 eb=0.0086 ve=30.0000 vn=0.5602 vl=0.000 db=0.30
G1 X22.00 Y53.50 E64.9811 F600          ; draw dl=1.5@10(0<10>0) de=0.094@0.55(0.0<0.62>0.0) l=0.30x0.50x1.00 r=0.87
;00:01:46.109: pe=0.8680 eb=0.0190 ve=0.0000 vn=0.4278 vl=0.000 db=0.44
G1 E63.1131 F2400                       ; retract de=-1.8680@-40.0 r=0.92
;00:01:46.156: pe=-1.0019 eb=0.0209 ve=-40.0000 vn=0.0000 vl=0.000 db=0.46
G1 Z0.500 F420                          ; hopup dz=0.20@7 h=0.5 r=0.72
;00:01:46.184: pe=-1.0019 eb=0.0209 ve=0.0000 vn=0.0000 vl=0.000 db=0.36
G1 X24.00 Y55.00 F6000                  ; move dl=2.5@100(0<25>0) de=0.000@0.0(0.0<0.0>0.0) l=0.50x0.50x0.00 r=0.00
;00:01:46.334: pe=-1.0019 eb=0.0000 ve=0.0000 vn=0.0000 vl=0.000 db=0.00
G1 Z0.300 F420                          ; hopdn dz=-0.20@7 h=0.3 r=0.00
;00:01:46.363: pe=-1.0019 eb=0.0000 ve=0.0000 vn=0.0000 vl=0.000 db=0.00
G1 E64.9798 F1800                       ; restore de=1.8667@30.0 r=0.59
;00:01:46.425: pe=0.8562 eb=0.0086 ve=30.0000 vn=0.5602 vl=0.000 db=0.30
G1 X24.00 Y53.50 E65.0734 F600          ; draw dl=1.5@10(0<10>0) de=0.094@0.55(0.0<0.62>0.0) l=0.30x0.50x1.00 r=0.87
;00:01:46.595: pe=0.8680 eb=0.0190 ve=0.0000 vn=0.4278 vl=0.000 db=0.44
G1 E63.2054 F2400                       ; retract de=-1.8680@-40.0 r=0.92
;00:01:46.642: pe=-1.0019 eb=0.0209 ve=-40.0000 vn=0.0000 vl=0.000 db=0.46
G1 Z0.500 F420                          ; hopup dz=0.20@7 h=0.5 r=0.72
;00:01:46.670: pe=-1.0019 eb=0.0209 ve=0.0000 vn=0.0000 vl=0.000 db=0.36
G1 X26.00 Y55.00 F6000                  ; move dl=2.5@100(0<25>0) de=0.000@0.0(0.0<0.0>0.0) l=0.50x0.50x0.00 r=0.00
;00:01:46.820: pe=-1.0019 eb=0.0000 ve=0.0000 vn=0.0000 vl=0.000 db=0.00
G1 Z0.300 F420                          ; hopdn dz=-0.20@7 h=0.3 r=0.00
;00:01:46.849: pe=-1.0019 eb=0.0000 ve=0.0000 vn=0.0000 vl=0.000 db=0.00
G1 E65.0721 F1800                       ; restore de=1.8667@30.0 r=0.59
;00:01:46.911: pe=0.8562 eb=0.0086 ve=30.0000 vn=0.5602 vl=0.000 db=0.30
G1 X26.00 Y53.50 E65.1657 F600          ; draw dl=1.5@10(0<10>0) de=0.094@0.55(0.0<0.62>0.0) l=0.30x0.50x1.00 r=0.87
;00:01:47.081: pe=0.8680 eb=0.0190 ve=0.0000 vn=0.4278 vl=0.000 db=0.44
G1 E63.2977 F2400                       ; retract de=-1.8680@-40.0 r=0.92
;00:01:47.128: pe=-1.0019 eb=0.0209 ve=-40.0000 vn=0.0000 vl=0.000 db=0.46
G1 Z0.500 F420                          ; hopup dz=0.20@7 h=0.5 r=0.72
;00:01:47.156: pe=-1.0019 eb=0.0209 ve=0.0000 vn=0.0000 vl=0.000 db=0.36
G1 X28.00 Y55.00 F6000                  ; move dl=2.5@100(0<25>0) de=0.000@0.0(0.0<0.0>0.0) l=0.50x0.50x0.00 r=0.00
;00:01:47.306: pe=-1.0019 eb=0.0000 ve=0.0000 vn=0.0000 vl=0.000 db=0.00
G1 Z0.300 F420                          ; hopdn dz=-0.20@7 h=0.3 r=0.00
;00:01:47.335: pe=-1.0019 eb=0.0000 ve=0.0000 vn=0.0000 vl=0.000 db=0.00
G1 E65.1644 F1800                       ; restore de=1.8667@30.0 r=0.59
;00:01:47.397: pe=0.8562 eb=0.0086 ve=30.0000 vn=0.5602 vl=0.000 db=0.30
G1 X28.00 Y53.50 E65.2580 F600          ; draw dl=1.5@10(0<10>0) de=0.094@0.55(0.0<0.62>0.0) l=0.30x0.50x1.00 r=0.87
;00:01:47.567: pe=0.8680 eb=0.0190 ve=0.0000 vn=0.4278 vl=0.000 db=0.44
G1 E63.3900 F2400                       ; retract de=-1.8680@-40.0 r=0.92
;00:01:47.614: pe=-1.0019 eb=0.0209 ve=-40.0000 vn=0.0000 vl=0.000 db=0.46
G1 Z0.500 F420                          ; hopup dz=0.20@7 h=0.5 r=0.72
;00:01:47.642: pe=-1.0019 eb=0.0209 ve=0.0000 vn=0.0000 vl=0.000 db=0.36
G1 X30.00 Y55.00 F6000                  ; move dl=2.5@100(0<25>0) de=0.000@0.0(0.0<0.0>0.0) l=0.50x0.50x0.00 r=0.00
;00:01:47.792: pe=-1.0019 eb=0.0000 ve=0.0000 vn=0.0000 vl=0.000 db=0.00
G1 Z0.300 F420                          ; hopdn dz=-0.20@7 h=0.3 r=0.00
;00:01:47.821: pe=-1.0019 eb=0.0000 ve=0.0000 vn=0.0000 vl=0.000 db=0.00
G1 E65.2842 F1800                       ; restore de=1.8942@30.0 r=0.61
;00:01:47.884: pe=0.8832 eb=0.0091 ve=30.0000 vn=0.5780 vl=0.000 db=0.31
G1 X30.00 Y52.00 E65.4713 F600          ; draw dl=3.0@10(0<10>0) de=0.187@0.58(0.0<0.62>0.0) l=0.30x0.50x1.00 r=0.86
;00:01:48.204: pe=0.9102 eb=0.0207 ve=0.0000 vn=0.4505 vl=0.000 db=0.46
G1 E63.5612 F2400                       ; retract de=-1.9102@-40.0 r=0.97
;00:01:48.252: pe=-1.0021 eb=0.0228 ve=-40.0000 vn=0.0000 vl=0.000 db=0.48
G1 Z0.500 F420                          ; hopup dz=0.20@7 h=0.5 r=0.75
;00:01:48.280: pe=-1.0021 eb=0.0228 ve=0.0000 vn=0.0000 vl=0.000 db=0.37
G1 X32.00 Y55.00 F6000                  ; move dl=3.6@100(0<30>0) de=0.000@0.0(0.0<0.0>0.0) l=0.50x0.50x0.00 r=0.00
;00:01:48.461: pe=-1.0021 eb=0.0000 ve=0.0000 vn=0.0000 vl=0.000 db=0.00
G1 Z0.300 F420                          ; hopdn dz=-0.20@7 h=0.3 r=0.00
;00:01:48.489: pe=-1.0021 eb=0.0000 ve=0.0000 vn=0.0000 vl=0.000 db=0.00
G1 E65.4281 F1800                       ; restore de=1.8669@30.0 r=0.59
;00:01:48.551: pe=0.8562 eb=0.0086 ve=30.0000 vn=0.5602 vl=0.000 db=0.30
G1 X32.00 Y53.50 E65.5217 F600          ; draw dl=1.5@10(0<10>0) de=0.094@0.55(0.0<0.62>0.0) l=0.30x0.50x1.00 r=0.87
;00:01:48.721: pe=0.8680 eb=0.0190 ve=0.0000 vn=0.4278 vl=0.000 db=0.44
G1 E63.6537 F2400                       ; retract de=-1.8680@-40.0 r=0.92
;00:01:48.768: pe=-1.0019 eb=0.0209 ve=-40.0000 vn=0.0000 vl=0.000 db=0.46
G1 Z0.500 F420                          ; hopup dz=0.20@7 h=0.5 r=0.72
;00:01:48.797: pe=-1.0019 eb=0.0209 ve=0.0000 vn=0.0000 vl=0.000 db=0.36
G1 X34.00 Y55.00 F6000                  ; move dl=2.5@100(0<25>0) de=0.000@0.0(0.0<0.0>0.0) l=0.50x0.50x0.00 r=0.00
;00:01:48.947: pe=-1.0019 eb=0.0000 ve=0.0000 vn=0.0000 vl=0.000 db=0.00
G1 Z0.300 F420                          ; hopdn dz=-0.20@7 h=0.3 r=0.00
;00:01:48.975: pe=-1.0019 eb=0.0000 ve=0.0000 vn=0.0000 vl=0.000 db=0.00
G1 E65.5204 F1800                       ; restore de=1.8667@30.0 r=0.59
;00:01:49.037: pe=0.8562 eb=0.0086 ve=30.0000 vn=0.5602 vl=0.000 db=0.30
G1 X34.00 Y53.50 E65.6140 F600          ; draw dl=1.5@10(0<10>0) de=0.094@0.55(0.0<0.62>0.0) l=0.30x0.50x1.00 r=0.87
;00:01:49.207: pe=0.8680 eb=0.0190 ve=0.0000 vn=0.4278 vl=0.000 db=0.44
G1 E63.7460 F2400                       ; retract de=-1.8680@-40.0 r=0.92
;00:01:49.254: pe=-1.0019 eb=0.0209 ve=-40.0000 vn=0.0000 vl=0.000 db=0.46
G1 Z0.500 F420                          ; hopup dz=0.20@7 h=0.5 r=0.72
;00:01:49.283: pe=-1.0019 eb=0.0209 ve=0.0000 vn=0.0000 vl=0.000 db=0.36
G1 X36.00 Y55.00 F6000                  ; move dl=2.5@100(0<25>0) de=0.000@0.0(0.0<0.0>0.0) l=0.50x0.50x0.00 r=0.00
;00:01:49.433: pe=-1.0019 eb=0.0000 ve=0.0000 vn=0.0000 vl=0.000 db=0.00
G1 Z0.300 F420                          ; hopdn dz=-0.20@7 h=0.3 r=0.00
;00:01:49.461: pe=-1.0019 eb=0.0000 ve=0.0000 vn=0.0000 vl=0.000 db=0.00
G1 E65.6127 F1800                       ; restore de=1.8667@30.0 r=0.59
;00:01:49.524: pe=0.8562 eb=0.0086 ve=30.0000 vn=0.5602 vl=0.000 db=0.30
G1 X36.00 Y53.50 E65.7063 F600          ; draw dl=1.5@10(0<10>0) de=0.094@0.55(0.0<0.62>0.0) l=0.30x0.50x1.00 r=0.87
;00:01:49.694: pe=0.8680 eb=0.0190 ve=0.0000 vn=0.4278 vl=0.000 db=0.44
G1 E63.8383 F2400                       ; retract de=-1.8680@-40.0 r=0.92
;00:01:49.740: pe=-1.0019 eb=0.0209 ve=-40.0000 vn=0.0000 vl=0.000 db=0.46
G1 Z0.500 F420                          ; hopup dz=0.20@7 h=0.5 r=0.72
;00:01:49.769: pe=-1.0019 eb=0.0209 ve=0.0000 vn=0.0000 vl=0.000 db=0.36
G1 X38.00 Y55.00 F6000                  ; move dl=2.5@100(0<25>0) de=0.000@0.0(0.0<0.0>0.0) l=0.50x0.50x0.00 r=0.00
;00:01:49.919: pe=-1.0019 eb=0.0000 ve=0.0000 vn=0.0000 vl=0.000 db=0.00
G1 Z0.300 F420                          ; hopdn dz=-0.20@7 h=0.3 r=0.00
;00:01:49.947: pe=-1.0019 eb=0.0000 ve=0.0000 vn=0.0000 vl=0.000 db=0.00
G1 E65.7050 F1800                       ; restore de=1.8667@30.0 r=0.59
;00:01:50.010: pe=0.8562 eb=0.0086 ve=30.0000 vn=0.5602 vl=0.000 db=0.30
G1 X38.00 Y53.50 E65.7985 F600          ; draw dl=1.5@10(0<10>0) de=0.094@0.55(0.0<0.62>0.0) l=0.30x0.50x1.00 r=0.87
;00:01:50.180: pe=0.8680 eb=0.0190 ve=0.0000 vn=0.4278 vl=0.000 db=0.44
G1 E63.9306 F2400                       ; retract de=-1.8680@-40.0 r=0.92
;00:01:50.226: pe=-1.0019 eb=0.0209 ve=-40.0000 vn=0.0000 vl=0.000 db=0.46
G1 Z0.500 F420                          ; hopup dz=0.20@7 h=0.5 r=0.72
;00:01:50.255: pe=-1.0019 eb=0.0209 ve=0.0000 vn=0.0000 vl=0.000 db=0.36
G1 X40.00 Y55.00 F6000                  ; move dl=2.5@100(0<25>0) de=0.000@0.0(0.0<0.0>0.0) l=0.50x0.50x0.00 r=0.00
;00:01:50.405: pe=-1.0019 eb=0.0000 ve=0.0000 vn=0.0000 vl=0.000 db=0.00
G1 Z0.300 F420                          ; hopdn dz=-0.20@7 h=0.3 r=0.00
;00:01:50.433: pe=-1.0019 eb=0.0000 ve=0.0000 vn=0.0000 vl=0.000 db=0.00
G1 E65.8248 F1800                       ; restore de=1.8942@30.0 r=0.61
;00:01:50.497: pe=0.8832 eb=0.0091 ve=30.0000 vn=0.5780 vl=0.000 db=0.31
G1 X40.00 Y52.00 E66.0119 F600          ; draw dl=3.0@10(0<10>0) de=0.187@0.58(0.0<0.62>0.0) l=0.30x0.50x1.00 r=0.86
;00:01:50.817: pe=0.9102 eb=0.0207 ve=0.0000 vn=0.4505 vl=0.000 db=0.46
G1 E64.1018 F2400                       ; retract de=-1.9102@-40.0 r=0.97
;00:01:50.864: pe=-1.0021 eb=0.0228 ve=-40.0000 vn=0.0000 vl=0.000 db=0.48
G1 Z0.500 F420                          ; hopup dz=0.20@7 h=0.5 r=0.75
;00:01:50.893: pe=-1.0021 eb=0.0228 ve=0.0000 vn=0.0000 vl=0.000 db=0.37
;structure:brim
;structure:shell-outer
;00:01:50.893: text [(46.0, 55), (None, None)] fsize=5 angle=0 'Kb=0.0-4.0\nRe=0.5\nve=1.0\nh=0.2\nw=0.3'
G1 X46.50 Y54.88 F6000                  ; move dl=7.1@100(0<42>0) de=0.000@0.0(0.0<0.0>0.0) l=0.50x0.50x0.00 r=0.00
;00:01:51.146: pe=-1.0021 eb=0.0000 ve=0.0000 vn=0.0000 vl=0.000 db=0.00
G1 Z0.300 F420                          ; hopdn dz=-0.20@7 h=0.3 r=0.00
;00:01:51.174: pe=-1.0021 eb=0.0000 ve=0.0000 vn=0.0000 vl=0.000 db=0.00
G1 E65.9996 F1800                       ; restore de=1.8979@30.0 r=0.61
;00:01:51.238: pe=0.8866 eb=0.0092 ve=30.0000 vn=0.5802 vl=0.000 db=0.31
G1 X46.50 Y51.48 E66.2117 F600          ; draw dl=3.4@10(0<10>0) de=0.212@0.59(0.0<0.62>0.0) l=0.30x0.50x1.00 r=0.85
;00:01:51.598: pe=0.9174 eb=0.0210 ve=0.0000 vn=0.4545 vl=0.000 db=0.46
G1 E64.2943 F2400                       ; retract de=-1.9174@-40.0 r=0.97
;00:01:51.646: pe=-1.0022 eb=0.0232 ve=-40.0000 vn=0.0000 vl=0.000 db=0.49
G1 Z0.500 F420                          ; hopup dz=0.20@7 h=0.5 r=0.75
;00:01:51.674: pe=-1.0022 eb=0.0232 ve=0.0000 vn=0.0000 vl=0.000 db=0.38
G1 X48.96 Y51.48 F6000                  ; move dl=2.5@100(0<25>0) de=0.000@0.0(0.0<0.0>0.0) l=0.50x0.50x0.00 r=0.00
;00:01:51.823: pe=-1.0022 eb=0.0000 ve=0.0000 vn=0.0000 vl=0.000 db=0.00
G1 Z0.300 F420                          ; hopdn dz=-0.20@7 h=0.3 r=0.00
;00:01:51.852: pe=-1.0022 eb=0.0000 ve=0.0000 vn=0.0000 vl=0.000 db=0.00
G1 E66.1832 F1800                       ; restore de=1.8889@30.0 r=0.61
;00:01:51.915: pe=0.8777 eb=0.0090 ve=30.0000 vn=0.5744 vl=0.000 db=0.30
G1 X47.47 Y53.51 E66.3403 F600          ; draw dl=2.5@10(0<10>0) de=0.157@0.58(0.0<0.62>0.0) l=0.30x0.50x1.00 r=0.86
;00:01:52.186: pe=0.9000 eb=0.0203 ve=0.0000 vn=0.4450 vl=0.000 db=0.45
G1 E64.4403 F2400                       ; retract de=-1.9000@-40.0 r=0.96
;00:01:52.234: pe=-1.0021 eb=0.0224 ve=-40.0000 vn=0.0000 vl=0.000 db=0.48
G1 Z0.500 F420                          ; hopup dz=0.20@7 h=0.5 r=0.74
;00:01:52.262: pe=-1.0021 eb=0.0224 ve=0.0000 vn=0.0000 vl=0.000 db=0.37
G1 X46.50 Y52.67 F6000                  ; move dl=1.3@100(0<18>0) de=0.000@0.0(0.0<0.0>0.0) l=0.50x0.50x0.00 r=0.00
;00:01:52.370: pe=-1.0021 eb=0.0000 ve=0.0000 vn=0.0000 vl=0.000 db=0.00
G1 Z0.300 F420                          ; hopdn dz=-0.20@7 h=0.3 r=0.00
;00:01:52.398: pe=-1.0021 eb=0.0000 ve=0.0000 vn=0.0000 vl=0.000 db=0.00
G1 E66.3378 F1800                       ; restore de=1.8975@30.0 r=0.61
;00:01:52.462: pe=0.8862 eb=0.0092 ve=30.0000 vn=0.5800 vl=0.000 db=0.31
G1 X49.02 Y54.88 E66.5468 F600          ; draw dl=3.4@10(0<10>0) de=0.209@0.59(0.0<0.62>0.0) l=0.30x0.50x1.00 r=0.85
;00:01:52.817: pe=0.9166 eb=0.0210 ve=0.0000 vn=0.4540 vl=0.000 db=0.46
G1 E64.6302 F2400                       ; retract de=-1.9166@-40.0 r=0.97
;00:01:52.865: pe=-1.0022 eb=0.0231 ve=-40.0000 vn=0.0000 vl=0.000 db=0.49
G1 Z0.500 F420                          ; hopup dz=0.20@7 h=0.5 r=0.75
;00:01:52.893: pe=-1.0022 eb=0.0231 ve=0.0000 vn=0.0000 vl=0.000 db=0.38
G1 X50.08 Y54.88 F6000                  ; move dl=1.1@100(0<16>0) de=0.000@0.0(0.0<0.0>0.0) l=0.50x0.50x0.00 r=0.00
;00:01:52.991: pe=-1.0022 eb=0.0000 ve=0.0000 vn=0.0000 vl=0.000 db=0.00
G1 Z0.300 F420                          ; hopdn dz=-0.20@7 h=0.3 r=0.00
;00:01:53.020: pe=-1.0022 eb=0.0000 ve=0.0000 vn=0.0000 vl=0.000 db=0.00
G1 E66.5282 F1800                       ; restore de=1.8979@30.0 r=0.61
;00:01:53.083: pe=0.8866 eb=0.0092 ve=30.0000 vn=0.5802 vl=0.000 db=0.31
G1 X50.08 Y51.48 E66.7402 F600          ; draw dl=3.4@10(0<10>0) de=0.212@0.59(0.0<0.62>0.0) l=0.30x0.50x1.00 r=0.85
;00:01:53.443: pe=0.9174 eb=0.0210 ve=0.0000 vn=0.4545 vl=0.000 db=0.46
G1 E64.8228 F2400                       ; retract de=-1.9174@-40.0 r=0.97
;00:01:53.491: pe=-1.0022 eb=0.0232 ve=-40.0000 vn=0.0000 vl=0.000 db=0.49
G1 Z0.500 F420                          ; hopup dz=0.20@7 h=0.5 r=0.75
;00:01:53.519: pe=-1.0022 eb=0.0232 ve=0.0000 vn=0.0000 vl=0.000 db=0.38
G1 X50.08 Y51.98 F6000                  ; move dl=0.5@100(0<11>0) de=0.000@0.0(0.0<0.0>0.0) l=0.50x0.50x0.00 r=0.00
;00:01:53.586: pe=-1.0022 eb=0.0005 ve=0.0000 vn=0.0000 vl=0.000 db=0.05
G1 Z0.300 F420                          ; hopdn dz=-0.20@7 h=0.3 r=0.14
;00:01:53.615: pe=-1.0022 eb=0.0005 ve=0.0000 vn=0.0000 vl=0.000 db=0.07
G1 E66.7354 F1800                       ; restore de=1.9126@30.0 r=0.63
;00:01:53.679: pe=0.9013 eb=0.0096 ve=30.0000 vn=0.5880 vl=0.000 db=0.31
G1 X50.33 Y51.74 E66.7570 F600          ; draw dl=0.3@10(0<10>10) de=0.022@0.48(0.0<0.62>0.62) l=0.30x0.50x1.00 r=1.06
;00:01:53.723: pe=0.9000 eb=0.0156 ve=0.6237 vn=0.5015 vl=10.000 db=0.40
G1 X50.72 Y51.49 E66.7859               ; draw dl=0.5@10(10<10>10) de=0.029@0.62(0.62<0.62>0.62) l=0.30x0.50x1.00 r=0.81
;00:01:53.770: pe=0.9056 eb=0.0158 ve=0.6237 vn=0.5045 vl=10.000 db=0.40
G1 X51.10 Y51.42 E66.8100               ; draw dl=0.4@10(10<10>10) de=0.024@0.62(0.62<0.62>0.62) l=0.30x0.50x1.00 r=0.81
;00:01:53.808: pe=0.9101 eb=0.0159 ve=0.6237 vn=0.5069 vl=10.000 db=0.40
G1 X51.48 Y51.51 E66.8344               ; draw dl=0.4@10(10<10>10) de=0.024@0.62(0.62<0.62>0.62) l=0.30x0.50x1.00 r=0.82
;00:01:53.847: pe=0.9146 eb=0.0161 ve=0.6237 vn=0.5094 vl=10.000 db=0.41
G1 X51.79 Y51.77 E66.8596               ; draw dl=0.4@10(10<10>10) de=0.025@0.62(0.62<0.62>0.62) l=0.30x0.50x1.00 r=0.82
;00:01:53.888: pe=0.9192 eb=0.0162 ve=0.6237 vn=0.5119 vl=10.000 db=0.41
G1 X51.99 Y52.18 E66.8881               ; draw dl=0.5@10(10<10>10) de=0.028@0.62(0.62<0.62>0.62) l=0.30x0.50x1.00 r=0.82
;00:01:53.934: pe=0.9242 eb=0.0164 ve=0.6237 vn=0.5147 vl=10.000 db=0.41
G1 X52.06 Y52.71 E66.9214               ; draw dl=0.5@10(10<10>10) de=0.033@0.62(0.62<0.62>0.62) l=0.30x0.50x1.00 r=0.83
;00:01:53.987: pe=0.9300 eb=0.0166 ve=0.6237 vn=0.5178 vl=10.000 db=0.41
G1 X52.00 Y53.22 E66.9534               ; draw dl=0.5@10(10<10>10) de=0.032@0.62(0.62<0.62>0.62) l=0.30x0.50x1.00 r=0.83
;00:01:54.038: pe=0.9353 eb=0.0168 ve=0.6237 vn=0.5208 vl=10.000 db=0.41
G1 X51.82 Y53.61 E66.9802               ; draw dl=0.4@10(10<10>10) de=0.027@0.62(0.62<0.62>0.62) l=0.30x0.50x1.00 r=0.84
;00:01:54.081: pe=0.9397 eb=0.0170 ve=0.6237 vn=0.5231 vl=10.000 db=0.42
G1 X51.53 Y53.86 E67.0041               ; draw dl=0.4@10(10<10>10) de=0.024@0.62(0.62<0.62>0.62) l=0.30x0.50x1.00 r=0.84
;00:01:54.120: pe=0.9435 eb=0.0171 ve=0.6237 vn=0.5252 vl=10.000 db=0.42
G1 X51.13 Y53.95 E67.0297               ; draw dl=0.4@10(10<10>10) de=0.026@0.62(0.62<0.62>0.62) l=0.30x0.50x1.00 r=0.84
;00:01:54.161: pe=0.9475 eb=0.0173 ve=0.6237 vn=0.5274 vl=10.000 db=0.42
G1 X50.94 Y53.93 E67.0416               ; draw dl=0.2@10(10<10>10) de=0.012@0.62(0.62<0.62>0.62) l=0.30x0.50x1.00 r=0.85
;00:01:54.180: pe=0.9493 eb=0.0174 ve=0.6237 vn=0.5284 vl=10.000 db=0.42
G1 X50.74 Y53.85 E67.0550               ; draw dl=0.2@10(10<10>10) de=0.013@0.62(0.62<0.62>0.62) l=0.30x0.50x1.00 r=0.85
;00:01:54.201: pe=0.9514 eb=0.0174 ve=0.6237 vn=0.5295 vl=10.000 db=0.42
G1 X50.53 Y53.72 E67.0704               ; draw dl=0.2@10(10<10>10) de=0.015@0.62(0.62<0.62>0.62) l=0.30x0.50x1.00 r=0.85
;00:01:54.226: pe=0.9537 eb=0.0175 ve=0.6236 vn=0.5308 vl=10.000 db=0.42
G1 X50.33 Y53.50 E67.0890               ; draw dl=0.3@10(10<10>10) de=0.019@0.62(0.62<0.62>0.62) l=0.30x0.50x1.00 r=0.85
;00:01:54.256: pe=0.9564 eb=0.0176 ve=0.6236 vn=0.5323 vl=10.000 db=0.42
G1 X50.08 Y53.03 E67.1222               ; draw dl=0.5@10(10<10>0) de=0.033@0.53(0.62<0.62>0.0) l=0.30x0.50x1.00 r=1.01
;00:01:54.319: pe=0.9562 eb=0.0227 ve=0.0000 vn=0.4754 vl=0.000 db=0.48
G1 E65.1659 F2400                       ; retract de=-1.9562@-40.0 r=1.01
;00:01:54.368: pe=-1.0024 eb=0.0250 ve=-40.0000 vn=0.0000 vl=0.000 db=0.51
G1 Z0.500 F420                          ; hopup dz=0.20@7 h=0.5 r=0.78
;00:01:54.396: pe=-1.0024 eb=0.0250 ve=0.0000 vn=0.0000 vl=0.000 db=0.39
G1 X53.12 Y53.26 F6000                  ; move dl=3.0@100(0<28>0) de=0.000@0.0(0.0<0.0>0.0) l=0.50x0.50x0.00 r=0.00
