;gcode_flavor: flashforge
;machine_type: Adventurer 3 Series
;filament_diameter0: 1.75
;right_extruder_temperature: 210
;platform_temperature: 50
;extruder_fan: 100%
;case_fan: 100%
;base_print_speed: 60
;travel_speed: 100
;vertical_speed: 7
;retract_speed: 40
;restore_speed: 30
;layer_height: 0.30
;line_width: 0.50
;extrusion_ratio: 1.00
;command_line: ./gcodetest.py -Te 210 -Tp 50 -Fe 1.0 -Fc 1.0 -Kf=0.0 -Kb=0.0 -Re=4.0
;start gcode
M118 X75.00 Y75.00 Z150.00 T0
M140 S50 T0
M104 S210 T0
M104 S0 T1
M107
M900 K0.000 T0
G90
G28
M132 X Y Z A B
G1 Z50.000 F420
G161 X Y F3300
M7 T0
M6 T0
M652 S255
M108 T0
M106
;preExtrude:0.20
;structure:pre-extrude
G1 X-55.00 Y-65.00 F6000
G1 Z0.200 F420
G1 X-55.00 Y55.00 E19.9561 F1200
G1 E15.9561 F2400
G1 Z0.400 F420
;layer:0.30
;structure:brim
;structure:shell-outer
G1 X-42.50 Y59.88 F6000
G1 Z0.300 F420
G1 E19.9561 F1800
G1 X-42.50 Y56.48 E20.1681 F600
G1 E16.1681 F2400
G1 Z0.500 F420
G1 X-40.04 Y56.48 F6000
G1 Z0.300 F420
G1 E20.1681 F1800
G1 X-41.53 Y58.51 E20.3252 F600
G1 E16.3252 F2400
G1 Z0.500 F420
G1 X-42.50 Y57.67 F6000
G1 Z0.300 F420
G1 E20.3252 F1800
G1 X-39.98 Y59.88 E20.5342 F600
G1 E16.5342 F2400
G1 Z0.500 F420
G1 X-37.73 Y59.90 F6000
G1 Z0.300 F420
G1 E20.5342 F1800
G1 X-37.88 Y59.90 E20.5435 F600
G1 X-38.06 Y59.86 E20.5550
G1 X-38.22 Y59.73 E20.5679
G1 X-38.34 Y59.54 E20.5819
G1 X-38.42 Y59.17 E20.6055
G1 X-38.42 Y56.48 E20.7733
G1 E16.7733 F2400
G1 Z0.500 F420
G1 X-38.92 Y58.76 F6000
G1 Z0.300 F420
G1 E20.7733 F1800
G1 X-37.84 Y58.76 E20.8406 F600
G1 E16.8406 F2400
G1 Z0.500 F420
G1 X-36.66 Y58.26 F6000
G1 Z0.300 F420
G1 E20.8406 F1800
G1 X-34.97 Y58.26 E20.9460 F600
G1 E16.9460 F2400
G1 Z0.500 F420
G1 X-34.97 Y57.55 F6000
G1 Z0.300 F420
G1 E20.9460 F1800
G1 X-36.66 Y57.55 E21.0514 F600
G1 E17.0514 F2400
G1 Z0.500 F420
G1 X-32.69 Y59.94 F6000
G1 Z0.300 F420
G1 E21.0514 F1800
G1 X-32.18 Y59.80 E21.0844 F600
G1 X-31.79 Y59.42 E21.1183
G1 X-31.55 Y58.86 E21.1563
G1 X-31.47 Y58.18 E21.1990
G1 X-31.55 Y57.51 E21.2411
G1 X-31.79 Y56.95 E21.2791
G1 X-32.18 Y56.56 E21.3135
G1 X-32.69 Y56.42 E21.3465
G1 X-33.21 Y56.56 E21.3801
G1 X-33.59 Y56.95 E21.4140
G1 X-33.83 Y57.51 E21.4520
G1 X-33.91 Y58.18 E21.4941
G1 X-33.83 Y58.85 E21.5362
G1 X-33.59 Y59.42 E21.5748
G1 X-33.21 Y59.80 E21.6083
G1 X-32.69 Y59.94 E21.6418
G1 E17.6418 F2400
G1 Z0.500 F420
G1 X-30.41 Y56.71 F6000
G1 Z0.300 F420
G1 E21.6418 F1800
G1 X-30.41 Y56.65 E21.6456 F600
G1 E17.6456 F2400
G1 Z0.500 F420
G1 X-28.13 Y59.94 F6000
G1 Z0.300 F420
G1 E21.6456 F1800
G1 X-27.62 Y59.80 E21.6786 F600
G1 X-27.23 Y59.42 E21.7125
G1 X-26.99 Y58.86 E21.7505
G1 X-26.91 Y58.18 E21.7932
G1 X-26.99 Y57.51 E21.8353
G1 X-27.23 Y56.95 E21.8733
G1 X-27.62 Y56.56 E21.9077
G1 X-28.13 Y56.42 E21.9407
G1 X-28.65 Y56.56 E21.9743
G1 X-29.03 Y56.95 E22.0082
G1 X-29.27 Y57.51 E22.0462
G1 X-29.35 Y58.18 E22.0883
G1 X-29.27 Y58.85 E22.1304
G1 X-29.03 Y59.42 E22.1690
G1 X-28.65 Y59.80 E22.2025
G1 X-28.13 Y59.94 E22.2361
G1 E18.2361 F2400
G1 Z0.500 F420
G1 X-22.53 Y59.88 F6000
G1 Z0.300 F420
G1 E22.2361 F1800
G1 X-22.53 Y56.48 E22.4481 F600
G1 E18.4481 F2400
G1 Z0.500 F420
G1 X-20.07 Y56.48 F6000
G1 Z0.300 F420
G1 E22.4481 F1800
G1 X-21.56 Y58.51 E22.6052 F600
G1 E18.6052 F2400
G1 Z0.500 F420
G1 X-22.53 Y57.67 F6000
G1 Z0.300 F420
G1 E22.6052 F1800
G1 X-20.01 Y59.88 E22.8142 F600
G1 E18.8142 F2400
G1 Z0.500 F420
G1 X-18.95 Y59.88 F6000
G1 Z0.300 F420
G1 E22.8142 F1800
G1 X-18.95 Y56.48 E23.0263 F600
G1 E19.0263 F2400
G1 Z0.500 F420
G1 X-18.95 Y56.98 F6000
G1 Z0.300 F420
G1 E23.0263 F1800
G1 X-18.70 Y56.74 E23.0479 F600
G1 X-18.31 Y56.49 E23.0768
G1 X-17.93 Y56.42 E23.1009
G1 X-17.55 Y56.51 E23.1252
G1 X-17.24 Y56.77 E23.1505
G1 X-17.04 Y57.18 E23.1789
G1 X-16.97 Y57.71 E23.2123
G1 X-17.03 Y58.22 E23.2443
G1 X-17.21 Y58.61 E23.2711
G1 X-17.50 Y58.86 E23.2950
G1 X-17.90 Y58.95 E23.3205
G1 X-18.09 Y58.93 E23.3324
G1 X-18.29 Y58.85 E23.3459
G1 X-18.50 Y58.72 E23.3613
G1 X-18.70 Y58.50 E23.3798
G1 X-18.95 Y58.03 E23.4130
G1 E19.4130 F2400
G1 Z0.500 F420
G1 X-15.91 Y58.26 F6000
G1 Z0.300 F420
G1 E23.4130 F1800
G1 X-14.21 Y58.26 E23.5190 F600
G1 E19.5190 F2400
G1 Z0.500 F420
G1 X-14.21 Y57.55 F6000
G1 Z0.300 F420
G1 E23.5190 F1800
G1 X-15.91 Y57.55 E23.6251 F600
G1 E19.6251 F2400
G1 Z0.500 F420
G1 X-11.94 Y59.94 F6000
G1 Z0.300 F420
G1 E23.6251 F1800
G1 X-11.43 Y59.80 E23.6580 F600
G1 X-11.04 Y59.42 E23.6920
G1 X-10.80 Y58.86 E23.7300
G1 X-10.72 Y58.18 E23.7727
G1 X-10.80 Y57.51 E23.8148
G1 X-11.04 Y56.95 E23.8528
G1 X-11.43 Y56.56 E23.8872
G1 X-11.94 Y56.42 E23.9202
G1 X-12.46 Y56.56 E23.9537
G1 X-12.84 Y56.95 E23.9877
G1 X-13.08 Y57.51 E24.0257
G1 X-13.16 Y58.18 E24.0678
G1 X-13.08 Y58.85 E24.1099
G1 X-12.84 Y59.42 E24.1484
G1 X-12.46 Y59.80 E24.1819
G1 X-11.94 Y59.94 E24.2155
G1 E20.2155 F2400
G1 Z0.500 F420
G1 X-9.65 Y56.71 F6000
G1 Z0.300 F420
G1 E24.2155 F1800
G1 X-9.65 Y56.65 E24.2193 F600
G1 E20.2193 F2400
G1 Z0.500 F420
G1 X-7.37 Y59.94 F6000
G1 Z0.300 F420
G1 E24.2193 F1800
G1 X-6.86 Y59.80 E24.2522 F600
G1 X-6.47 Y59.42 E24.2862
G1 X-6.23 Y58.86 E24.3242
G1 X-6.15 Y58.18 E24.3669
G1 X-6.23 Y57.51 E24.4090
G1 X-6.47 Y56.95 E24.4470
G1 X-6.86 Y56.56 E24.4814
G1 X-7.37 Y56.42 E24.5144
G1 X-7.89 Y56.56 E24.5480
G1 X-8.27 Y56.95 E24.5819
G1 X-8.51 Y57.51 E24.6199
G1 X-8.59 Y58.18 E24.6620
G1 X-8.51 Y58.85 E24.7041
G1 X-8.27 Y59.42 E24.7427
G1 X-7.89 Y59.80 E24.7762
G1 X-7.37 Y59.94 E24.8098
G1 E20.8098 F2400
G1 Z0.500 F420
G1 X-1.77 Y56.48 F6000
G1 Z0.300 F420
G1 E24.8098 F1800
G1 X-1.77 Y59.88 E25.0218 F600
G1 X-0.54 Y59.88 E25.0985
G1 X-0.15 Y59.78 E25.1236
G1 X0.16 Y59.58 E25.1466
G1 X0.26 Y59.45 E25.1569
G1 X0.39 Y59.04 E25.1837
G1 X0.34 Y58.80 E25.1990
G1 X0.23 Y58.56 E25.2154
G1 X0.01 Y58.36 E25.2340
G1 X-0.76 Y58.18 E25.2833
G1 E21.2833 F2400
G1 Z0.500 F420
G1 X-1.77 Y58.18 F6000
G1 Z0.300 F420
G1 E25.2833 F1800
G1 X-0.76 Y58.18 E25.3463 F600
G1 X-0.25 Y58.00 E25.3800
G1 X0.14 Y57.38 E25.4257
G1 X0.39 Y56.48 E25.4840
G1 E21.4840 F2400
G1 Z0.500 F420
G1 X1.45 Y57.69 F6000
G1 Z0.300 F420
G1 E25.4840 F1800
G1 X3.59 Y57.69 E25.6174 F600
G1 X3.51 Y58.22 E25.6509
G1 X3.30 Y58.61 E25.6785
G1 X2.96 Y58.86 E25.7048
G1 X2.52 Y58.95 E25.7328
G1 X2.09 Y58.86 E25.7602
G1 X1.75 Y58.61 E25.7865
G1 X1.53 Y58.22 E25.8145
G1 X1.45 Y57.69 E25.8479
G1 X1.53 Y57.15 E25.8819
G1 X1.76 Y56.75 E25.9107
G1 X2.11 Y56.51 E25.9372
G1 X2.57 Y56.42 E25.9664
G1 X2.91 Y56.47 E25.9878
G1 X3.20 Y56.61 E26.0079
G1 X3.41 Y56.83 E26.0269
G1 X3.53 Y57.13 E26.0470
G1 E22.0470 F2400
G1 Z0.500 F420
G1 X4.65 Y58.26 F6000
G1 Z0.300 F420
G1 E26.0470 F1800
G1 X6.34 Y58.26 E26.1524 F600
G1 E22.1524 F2400
G1 Z0.500 F420
G1 X6.34 Y57.55 F6000
G1 Z0.300 F420
G1 E26.1524 F1800
G1 X4.65 Y57.55 E26.2578 F600
G1 E22.2578 F2400
G1 Z0.500 F420
G1 X9.11 Y56.48 F6000
G1 Z0.300 F420
G1 E26.2578 F1800
G1 X9.11 Y59.88 E26.4699 F600
G1 X7.40 Y57.65 E26.6451
G1 X9.71 Y57.65 E26.7892
G1 E22.7892 F2400
G1 Z0.500 F420
G1 X10.77 Y56.71 F6000
G1 Z0.300 F420
G1 E26.7892 F1800
G1 X10.77 Y56.65 E26.7929 F600
G1 E22.7929 F2400
G1 Z0.500 F420
G1 X13.06 Y59.94 F6000
G1 Z0.300 F420
G1 E26.7929 F1800
G1 X13.57 Y59.80 E26.8259 F600
G1 X13.96 Y59.42 E26.8599
G1 X14.20 Y58.86 E26.8979
G1 X14.28 Y58.18 E26.9406
G1 X14.20 Y57.51 E26.9827
G1 X13.96 Y56.95 E27.0207
G1 X13.57 Y56.56 E27.0551
G1 X13.06 Y56.42 E27.0880
G1 X12.54 Y56.56 E27.1216
G1 X12.16 Y56.95 E27.1556
G1 X11.92 Y57.51 E27.1936
G1 X11.84 Y58.18 E27.2357
G1 X11.92 Y58.85 E27.2778
G1 X12.16 Y59.42 E27.3163
G1 X12.54 Y59.80 E27.3498
G1 X13.06 Y59.94 E27.3834
G1 E23.3834 F2400
G1 Z0.500 F420
;structure:brim
G1 X-45.00 Y60.00 F6000
G1 Z0.300 F420
G1 E27.3834 F1800
G1 X-45.00 Y-61.00 E34.9299 F600
G1 X-45.50 Y-61.00 E34.9611
G1 X-45.50 Y60.00 E42.5076
G1 E38.5076 F2400
G1 Z0.500 F420
G1 X45.00 Y60.00 F6000
G1 Z0.300 F420
G1 E42.5076 F1800
G1 X45.00 Y-61.00 E50.0542 F600
G1 X45.50 Y-61.00 E50.0853
G1 X45.50 Y60.00 E57.6319
G1 E53.6319 F2400
G1 Z0.500 F420
;structure:shell-outer
G1 X-45.00 Y55.00 F6000
G1 Z0.300 F420
G1 E57.6319 F1800
G1 X45.00 Y55.00 E63.2450 F600
G1 E59.2450 F2400
G1 Z0.500 F420
G1 X-42.00 Y55.00 F6000
G1 X-40.00 Y55.00
G1 Z0.300 F420
G1 E63.2450 F1800
G1 X-40.00 Y52.00 E63.4321 F600
G1 E59.4321 F2400
G1 Z0.500 F420
G1 X-38.00 Y55.00 F6000
G1 Z0.300 F420
G1 E63.4321 F1800
G1 X-38.00 Y53.50 E63.5256 F600
G1 E59.5256 F2400
G1 Z0.500 F420
G1 X-36.00 Y55.00 F6000
G1 Z0.300 F420
G1 E63.5256 F1800
G1 X-36.00 Y53.50 E63.6192 F600
G1 E59.6192 F2400
G1 Z0.500 F420
G1 X-34.00 Y55.00 F6000
G1 Z0.300 F420
G1 E63.6192 F1800
G1 X-34.00 Y53.50 E63.7127 F600
G1 E59.7127 F2400
G1 Z0.500 F420
G1 X-32.00 Y55.00 F6000
G1 Z0.300 F420
G1 E63.7127 F1800
G1 X-32.00 Y53.50 E63.8063 F600
G1 E59.8063 F2400
G1 Z0.500 F420
G1 X-30.00 Y55.00 F6000
G1 Z0.300 F420
G1 E63.8063 F1800
G1 X-30.00 Y52.00 E63.9934 F600
G1 E59.9934 F2400
G1 Z0.500 F420
G1 X-28.00 Y55.00 F6000
G1 Z0.300 F420
G1 E63.9934 F1800
G1 X-28.00 Y53.50 E64.0870 F600
G1 E60.0870 F2400
G1 Z0.500 F420
G1 X-26.00 Y55.00 F6000
G1 Z0.300 F420
G1 E64.0870 F1800
G1 X-26.00 Y53.50 E64.1805 F600
G1 E60.1805 F2400
G1 Z0.500 F420
G1 X-24.00 Y55.00 F6000
G1 Z0.300 F420
G1 E64.1805 F1800
G1 X-24.00 Y53.50 E64.2741 F600
G1 E60.2741 F2400
G1 Z0.500 F420
G1 X-22.00 Y55.00 F6000
G1 Z0.300 F420
G1 E64.2741 F1800
G1 X-22.00 Y53.50 E64.3676 F600
G1 E60.3676 F2400
G1 Z0.500 F420
G1 X-20.00 Y55.00 F6000
G1 Z0.300 F420
G1 E64.3676 F1800
G1 X-20.00 Y52.00 E64.5547 F600
G1 E60.5547 F2400
G1 Z0.500 F420
G1 X-18.00 Y55.00 F6000
G1 Z0.300 F420
G1 E64.5547 F1800
G1 X-18.00 Y53.50 E64.6483 F600
G1 E60.6483 F2400
G1 Z0.500 F420
G1 X-16.00 Y55.00 F6000
G1 Z0.300 F420
G1 E64.6483 F1800
G1 X-16.00 Y53.50 E64.7418 F600
G1 E60.7418 F2400
G1 Z0.500 F420
G1 X-14.00 Y55.00 F6000
G1 Z0.300 F420
G1 E64.7418 F1800
G1 X-14.00 Y53.50 E64.8354 F600
G1 E60.8354 F2400
G1 Z0.500 F420
G1 X-12.00 Y55.00 F6000
G1 Z0.300 F420
G1 E64.8354 F1800
G1 X-12.00 Y53.50 E64.9289 F600
G1 E60.9289 F2400
G1 Z0.500 F420
G1 X-10.00 Y55.00 F6000
G1 Z0.300 F420
G1 E64.9289 F1800
G1 X-10.00 Y52.00 E65.1160 F600
G1 E61.1160 F2400
G1 Z0.500 F420
G1 X-8.00 Y55.00 F6000
G1 Z0.300 F420
G1 E65.1160 F1800
G1 X-8.00 Y53.50 E65.2096 F600
G1 E61.2096 F2400
G1 Z0.500 F420
G1 X-6.00 Y55.00 F6000
G1 Z0.300 F420
G1 E65.2096 F1800
G1 X-6.00 Y53.50 E65.3031 F600
G1 E61.3031 F2400
G1 Z0.500 F420
G1 X-4.00 Y55.00 F6000
G1 Z0.300 F420
G1 E65.3031 F1800
G1 X-4.00 Y53.50 E65.3967 F600
G1 E61.3967 F2400
G1 Z0.500 F420
G1 X-2.00 Y55.00 F6000
G1 Z0.300 F420
G1 E65.3967 F1800
G1 X-2.00 Y53.50 E65.4902 F600
G1 E61.4902 F2400
G1 Z0.500 F420
G1 X0.00 Y55.00 F6000
G1 Z0.300 F420
G1 E65.4902 F1800
G1 X0.00 Y52.00 E65.6773 F600
G1 E61.6773 F2400
G1 Z0.500 F420
G1 X2.00 Y55.00 F6000
G1 Z0.300 F420
G1 E65.6773 F1800
G1 X2.00 Y53.50 E65.7709 F600
G1 E61.7709 F2400
G1 Z0.500 F420
G1 X4.00 Y55.00 F6000
G1 Z0.300 F420
G1 E65.7709 F1800
G1 X4.00 Y53.50 E65.8644 F600
G1 E61.8644 F2400
G1 Z0.500 F420
G1 X6.00 Y55.00 F6000
G1 Z0.300 F420
G1 E65.8644 F1800
G1 X6.00 Y53.50 E65.9580 F600
G1 E61.9580 F2400
G1 Z0.500 F420
G1 X8.00 Y55.00 F6000
G1 Z0.300 F420
G1 E65.9580 F1800
G1 X8.00 Y53.50 E66.0515 F600
G1 E62.0515 F2400
G1 Z0.500 F420
G1 X10.00 Y55.00 F6000
G1 Z0.300 F420
G1 E66.0515 F1800
G1 X10.00 Y52.00 E66.2386 F600
G1 E62.2386 F2400
G1 Z0.500 F420
G1 X12.00 Y55.00 F6000
G1 Z0.300 F420
G1 E66.2386 F1800
G1 X12.00 Y53.50 E66.3322 F600
G1 E62.3322 F2400
G1 Z0.500 F420
G1 X14.00 Y55.00 F6000
G1 Z0.300 F420
G1 E66.3322 F1800
G1 X14.00 Y53.50 E66.4258 F600
G1 E62.4257 F2400
G1 Z0.500 F420
G1 X16.00 Y55.00 F6000
G1 Z0.300 F420
G1 E66.4257 F1800
G1 X16.00 Y53.50 E66.5193 F600
G1 E62.5193 F2400
G1 Z0.500 F420
G1 X18.00 Y55.00 F6000
G1 Z0.300 F420
G1 E66.5193 F1800
G1 X18.00 Y53.50 E66.6129 F600
G1 E62.6129 F2400
G1 Z0.500 F420
G1 X20.00 Y55.00 F6000
G1 Z0.300 F420
G1 E66.6129 F1800
G1 X20.00 Y52.00 E66.8000 F600
G1 E62.8000 F2400
G1 Z0.500 F420
G1 X22.00 Y55.00 F6000
G1 Z0.300 F420
G1 E66.8000 F1800
G1 X22.00 Y53.50 E66.8935 F600
G1 E62.8935 F2400
G1 Z0.500 F420
G1 X24.00 Y55.00 F6000
G1 Z0.300 F420
G1 E66.8935 F1800
G1 X24.00 Y53.50 E66.9871 F600
G1 E62.9871 F2400
G1 Z0.500 F420
G1 X26.00 Y55.00 F6000
G1 Z0.300 F420
G1 E66.9871 F1800
G1 X26.00 Y53.50 E67.0806 F600
G1 E63.0806 F2400
G1 Z0.500 F420
G1 X28.00 Y55.00 F6000
G1 Z0.300 F420
G1 E67.0806 F1800
G1 X28.00 Y53.50 E67.1742 F600
G1 E63.1742 F2400
G1 Z0.500 F420
G1 X30.00 Y55.00 F6000
G1 Z0.300 F420
G1 E67.1742 F1800
G1 X30.00 Y52.00 E67.3613 F600
G1 E63.3613 F2400
G1 Z0.500 F420
G1 X32.00 Y55.00 F6000
G1 Z0.300 F420
G1 E67.3613 F1800
G1 X32.00 Y53.50 E67.4548 F600
G1 E63.4548 F2400
G1 Z0.500 F420
G1 X34.00 Y55.00 F6000
G1 Z0.300 F420
G1 E67.4548 F1800
G1 X34.00 Y53.50 E67.5484 F600
G1 E63.5484 F2400
G1 Z0.500 F420
G1 X36.00 Y55.00 F6000
G1 Z0.300 F420
G1 E67.5484 F1800
G1 X36.00 Y53.50 E67.6419 F600
G1 E63.6419 F2400
G1 Z0.500 F420
G1 X38.00 Y55.00 F6000
G1 Z0.300 F420
G1 E67.6419 F1800
G1 X38.00 Y53.50 E67.7355 F600
G1 E63.7355 F2400
G1 Z0.500 F420
G1 X40.00 Y55.00 F6000
G1 Z0.300 F420
G1 E67.7355 F1800
G1 X40.00 Y52.00 E67.9226 F600
G1 E63.9226 F2400
G1 Z0.500 F420
;structure:brim
;structure:shell-outer
G1 X46.50 Y53.89 F6000
G1 Z0.300 F420
G1 E67.9226 F1800
G1 X47.52 Y51.48 E68.0858 F600
G1 X48.54 Y53.89 E68.2490
G1 E64.2490 F2400
G1 Z0.500 F420
G1 X49.60 Y52.69 F6000
G1 Z0.300 F420
G1 E68.2490 F1800
G1 X51.74 Y52.69 E68.3825 F600
G1 X51.66 Y53.22 E68.4159
G1 X51.45 Y53.61 E68.4435
G1 X51.11 Y53.86 E68.4699
G1 X50.67 Y53.95 E68.4979
G1 X50.24 Y53.86 E68.5253
G1 X49.90 Y53.61 E68.5516
G1 X49.68 Y53.22 E68.5795
G1 X49.60 Y52.69 E68.6129
G1 X49.68 Y52.15 E68.6470
G1 X49.91 Y51.75 E68.6758
G1 X50.26 Y51.51 E68.7022
G1 X50.72 Y51.42 E68.7315
G1 X51.06 Y51.47 E68.7529
G1 X51.35 Y51.61 E68.7730
G1 X51.56 Y51.83 E68.7920
G1 X51.68 Y52.13 E68.8121
G1 E64.8121 F2400
G1 Z0.500 F420
G1 X52.80 Y53.26 F6000
G1 Z0.300 F420
G1 E68.8121 F1800
G1 X54.49 Y53.26 E68.9175 F600
G1 E64.9175 F2400
G1 Z0.500 F420
G1 X54.49 Y52.55 F6000
G1 Z0.300 F420
G1 E68.9175 F1800
G1 X52.80 Y52.55 E69.0229 F600
G1 E65.0229 F2400
G1 Z0.500 F420
G1 X55.55 Y54.00 F6000
G1 Z0.300 F420
G1 E69.0229 F1800
G1 X56.02 Y54.24 E69.0558 F600
G1 X56.39 Y54.55 E69.0859
G1 X56.64 Y54.88 E69.1118
G1 X56.64 Y51.48 E69.3238
G1 E65.3238 F2400
G1 Z0.500 F420
G1 X57.70 Y51.71 F6000
G1 Z0.300 F420
G1 E69.3238 F1800
G1 X57.70 Y51.65 E69.3276 F600
G1 E65.3276 F2400
G1 Z0.500 F420
G1 X59.99 Y54.94 F6000
G1 Z0.300 F420
G1 E69.3276 F1800
G1 X60.50 Y54.80 E69.3605 F600
G1 X60.89 Y54.42 E69.3945
G1 X61.12 Y53.86 E69.4323
G1 X61.21 Y53.18 E69.4750
G1 X61.12 Y52.51 E69.5172
G1 X60.89 Y51.95 E69.5550
G1 X60.50 Y51.56 E69.5894
G1 X59.99 Y51.42 E69.6223
G1 X59.46 Y51.56 E69.6565
G1 X59.09 Y51.95 E69.6901
G1 X58.85 Y52.51 E69.7281
G1 X58.77 Y53.18 E69.7701
G1 X58.85 Y53.85 E69.8122
G1 X59.09 Y54.42 E69.8508
G1 X59.46 Y54.80 E69.8839
G1 X59.99 Y54.94 E69.9181
G1 E65.9181 F2400
G1 Z0.500 F420
G1 X46.50 Y49.88 F6000
G1 Z0.300 F420
G1 E69.9181 F1800
G1 X46.50 Y46.48 E70.1301 F600
G1 E66.1301 F2400
G1 Z0.500 F420
G1 X46.50 Y48.23 F6000
G1 Z0.300 F420
G1 E70.1301 F1800
G1 X46.75 Y48.53 E70.1545 F600
G1 X46.98 Y48.75 E70.1743
G1 X47.20 Y48.88 E70.1902
G1 X47.40 Y48.93 E70.2031
G1 X47.59 Y48.95 E70.2150
G1 X47.91 Y48.88 E70.2354
G1 X48.14 Y48.71 E70.2533
G1 X48.24 Y48.51 E70.2672
G1 X48.33 Y48.08 E70.2946
G1 X48.33 Y46.48 E70.3944
G1 E66.3944 F2400
G1 Z0.500 F420
G1 X49.39 Y48.26 F6000
G1 Z0.300 F420
G1 E70.3944 F1800
G1 X51.08 Y48.26 E70.4998 F600
G1 E66.4998 F2400
G1 Z0.500 F420
G1 X51.08 Y47.55 F6000
G1 Z0.300 F420
G1 E70.4998 F1800
G1 X49.39 Y47.55 E70.6052 F600
G1 E66.6052 F2400
G1 Z0.500 F420
G1 X53.36 Y49.94 F6000
G1 Z0.300 F420
G1 E70.6052 F1800
G1 X53.87 Y49.80 E70.6382 F600
G1 X54.26 Y49.42 E70.6722
G1 X54.50 Y48.86 E70.7101
G1 X54.58 Y48.18 E70.7528
G1 X54.50 Y47.51 E70.7949
G1 X54.26 Y46.95 E70.8329
G1 X53.87 Y46.56 E70.8673
G1 X53.36 Y46.42 E70.9003
G1 X52.84 Y46.56 E70.9339
G1 X52.46 Y46.95 E70.9679
G1 X52.22 Y47.51 E71.0058
G1 X52.14 Y48.18 E71.0479
G1 X52.22 Y48.85 E71.0900
G1 X52.46 Y49.42 E71.1286
G1 X52.84 Y49.80 E71.1621
G1 X53.36 Y49.94 E71.1957
G1 E67.1957 F2400
G1 Z0.500 F420
G1 X55.64 Y46.71 F6000
G1 Z0.300 F420
G1 E71.1957 F1800
G1 X55.64 Y46.65 E71.1994 F600
G1 E67.1994 F2400
G1 Z0.500 F420
G1 X56.76 Y49.13 F6000
G1 Z0.300 F420
G1 E71.1994 F1800
G1 X56.87 Y49.47 E71.2217 F600
G1 X57.08 Y49.73 E71.2426
G1 X57.37 Y49.89 E71.2632
G1 X57.71 Y49.94 E71.2846
G1 X58.10 Y49.87 E71.3094
G1 X58.39 Y49.68 E71.3310
G1 X58.57 Y49.41 E71.3512
G1 X58.64 Y49.06 E71.3735
G1 X58.57 Y48.85 E71.3873
G1 X58.43 Y48.68 E71.4010
G1 X58.06 Y48.45 E71.4282
G1 X57.62 Y48.30 E71.4572
G1 X58.06 Y48.18 E71.4856
G1 X58.42 Y48.02 E71.5102
G1 X58.71 Y47.74 E71.5353
G1 X58.81 Y47.45 E71.5545
G1 X58.74 Y47.03 E71.5810
G1 X58.51 Y46.70 E71.6061
G1 X58.17 Y46.50 E71.6307
G1 X57.75 Y46.42 E71.6574
G1 X57.35 Y46.48 E71.6826
G1 X57.03 Y46.65 E71.7052
G1 X56.81 Y46.92 E71.7269
G1 X56.71 Y47.28 E71.7502
G1 E67.7502 F2400
G1 Z0.500 F420
G1 X46.50 Y43.89 F6000
G1 Z0.300 F420
G1 E71.7502 F1800
G1 X47.36 Y41.48 E71.9098 F600
G1 X48.10 Y43.89 E72.0670
G1 X48.87 Y41.48 E72.2248
G1 X49.71 Y43.89 E72.3840
G1 E68.3840 F2400
G1 Z0.500 F420
G1 X50.77 Y43.26 F6000
G1 Z0.300 F420
G1 E72.3840 F1800
G1 X52.46 Y43.26 E72.4894 F600
G1 E68.4894 F2400
G1 Z0.500 F420
G1 X52.46 Y42.55 F6000
G1 Z0.300 F420
G1 E72.4894 F1800
G1 X50.77 Y42.55 E72.5948 F600
G1 E68.5948 F2400
G1 Z0.500 F420
G1 X54.74 Y44.94 F6000
G1 Z0.300 F420
G1 E72.5948 F1800
G1 X55.25 Y44.80 E72.6278 F600
G1 X55.64 Y44.42 E72.6617
G1 X55.88 Y43.86 E72.6997
G1 X55.96 Y43.18 E72.7424
G1 X55.88 Y42.51 E72.7845
G1 X55.64 Y41.95 E72.8225
G1 X55.25 Y41.56 E72.8569
G1 X54.74 Y41.42 E72.8899
G1 X54.22 Y41.56 E72.9235
G1 X53.84 Y41.95 E72.9574
G1 X53.60 Y42.51 E72.9954
G1 X53.52 Y43.18 E73.0375
G1 X53.60 Y43.85 E73.0796
G1 X53.84 Y44.42 E73.1182
G1 X54.22 Y44.80 E73.1517
G1 X54.74 Y44.94 E73.1853
G1 E69.1853 F2400
G1 Z0.500 F420
G1 X57.02 Y41.71 F6000
G1 Z0.300 F420
G1 E73.1853 F1800
G1 X57.02 Y41.65 E73.1890 F600
G1 E69.1890 F2400
G1 Z0.500 F420
G1 X58.14 Y44.13 F6000
G1 Z0.300 F420
G1 E73.1890 F1800
G1 X58.25 Y44.47 E73.2113 F600
G1 X58.46 Y44.73 E73.2321
G1 X58.75 Y44.89 E73.2528
G1 X59.09 Y44.94 E73.2742
G1 X59.48 Y44.87 E73.2989
G1 X59.77 Y44.68 E73.3206
G1 X59.95 Y44.41 E73.3408
G1 X60.02 Y44.06 E73.3631
G1 X59.95 Y43.85 E73.3769
G1 X59.81 Y43.68 E73.3906
G1 X59.44 Y43.45 E73.4178
G1 X59.00 Y43.30 E73.4468
G1 X59.44 Y43.18 E73.4752
G1 X59.80 Y43.02 E73.4998
G1 X60.09 Y42.74 E73.5249
G1 X60.19 Y42.45 E73.5441
G1 X60.12 Y42.03 E73.5706
G1 X59.89 Y41.70 E73.5957
G1 X59.55 Y41.50 E73.6203
G1 X59.12 Y41.42 E73.6476
G1 X58.73 Y41.48 E73.6722
G1 X58.41 Y41.65 E73.6948
G1 X58.19 Y41.92 E73.7165
G1 X58.09 Y42.28 E73.7398
G1 E69.7398 F2400
G1 Z0.500 F420
G1 X61.25 Y42.90 F6000
G1 Z0.300 F420
G1 E73.7398 F1800
G1 X63.12 Y42.90 E73.8564 F600
G1 E69.8564 F2400
G1 Z0.500 F420
G1 X65.40 Y44.94 F6000
G1 Z0.300 F420
G1 E73.8564 F1800
G1 X65.91 Y44.80 E73.8894 F600
G1 X66.30 Y44.42 E73.9234
G1 X66.54 Y43.86 E73.9614
G1 X66.62 Y43.18 E74.0041
G1 X66.54 Y42.51 E74.0462
G1 X66.30 Y41.95 E74.0841
G1 X65.91 Y41.56 E74.1185
G1 X65.40 Y41.42 E74.1515
G1 X64.88 Y41.56 E74.1851
G1 X64.50 Y41.95 E74.2191
G1 X64.26 Y42.51 E74.2571
G1 X64.18 Y43.18 E74.2992
G1 X64.26 Y43.85 E74.3412
G1 X64.50 Y44.42 E74.3798
G1 X64.88 Y44.80 E74.4133
G1 X65.40 Y44.94 E74.4469
G1 E70.4469 F2400
G1 Z0.500 F420
G1 X67.69 Y41.71 F6000
G1 Z0.300 F420
G1 E74.4469 F1800
G1 X67.69 Y41.65 E74.4506 F600
G1 E70.4506 F2400
G1 Z0.500 F420
G1 X69.77 Y44.92 F6000
G1 Z0.300 F420
G1 E74.4506 F1800
G1 X70.13 Y44.86 E74.4734 F600
G1 X70.41 Y44.71 E74.4932
G1 X70.60 Y44.46 E74.5128
G1 X70.67 Y44.11 E74.5351
G1 X70.53 Y43.66 E74.5645
G1 X70.24 Y43.40 E74.5887
G1 X69.31 Y43.12 E74.6493
G1 X68.92 Y42.84 E74.6793
G1 X68.75 Y42.35 E74.7116
G1 X68.83 Y41.95 E74.7371
G1 X69.04 Y41.66 E74.7594
G1 X69.37 Y41.48 E74.7828
G1 X69.77 Y41.42 E74.8081
G1 X70.18 Y41.48 E74.8339
G1 X70.51 Y41.66 E74.8573
G1 X70.72 Y41.95 E74.8797
G1 X70.80 Y42.35 E74.9051
G1 X70.63 Y42.84 E74.9375
G1 X70.24 Y43.12 E74.9674
G1 X69.31 Y43.40 E75.0280
G1 X69.02 Y43.66 E75.0523
G1 X68.88 Y44.11 E75.0817
G1 X68.95 Y44.46 E75.1039
G1 X69.14 Y44.71 E75.1235
G1 X69.42 Y44.86 E75.1433
G1 X69.77 Y44.92 E75.1655
G1 E71.1655 F2400
G1 Z0.500 F420
G1 X46.50 Y36.48 F6000
G1 Z0.300 F420
G1 E75.1655 F1800
G1 X46.50 Y38.89 E75.3158 F600
G1 E71.3158 F2400
G1 Z0.500 F420
G1 X46.50 Y38.20 F6000
G1 Z0.300 F420
G1 E75.3158 F1800
G1 X46.75 Y38.55 E75.3426 F600
G1 X46.96 Y38.76 E75.3611
G1 X47.16 Y38.88 E75.3757
G1 X47.35 Y38.94 E75.3881
G1 X47.51 Y38.95 E75.3981
G1 X47.56 Y38.95 E75.4012
G1 X47.61 Y38.94 E75.4044
G1 E71.4044 F2400
G1 Z0.500 F420
G1 X49.89 Y39.94 F6000
G1 Z0.300 F420
G1 E75.4044 F1800
G1 X50.40 Y39.80 E75.4374 F600
G1 X50.79 Y39.42 E75.4713
G1 X51.03 Y38.86 E75.5093
G1 X51.11 Y38.18 E75.5520
G1 X51.03 Y37.51 E75.5941
G1 X50.79 Y36.95 E75.6321
G1 X50.40 Y36.56 E75.6665
G1 X49.89 Y36.42 E75.6995
G1 X49.37 Y36.56 E75.7331
G1 X48.99 Y36.95 E75.7670
G1 X48.75 Y37.51 E75.8050
G1 X48.67 Y38.18 E75.8471
G1 X48.75 Y38.85 E75.8892
G1 X48.99 Y39.42 E75.9278
G1 X49.37 Y39.80 E75.9613
G1 X49.89 Y39.94 E75.9949
G1 E71.9949 F2400
G1 Z0.500 F420
G1 X52.17 Y38.26 F6000
G1 Z0.300 F420
G1 E75.9949 F1800
G1 X53.86 Y38.26 E76.1003 F600
G1 E72.1003 F2400
G1 Z0.500 F420
G1 X53.86 Y37.55 F6000
G1 Z0.300 F420
G1 E76.1003 F1800
G1 X52.17 Y37.55 E76.2057 F600
G1 E72.2057 F2400
G1 Z0.500 F420
G1 X56.14 Y39.94 F6000
G1 Z0.300 F420
G1 E76.2057 F1800
G1 X56.65 Y39.80 E76.2386 F600
G1 X57.04 Y39.42 E76.2726
G1 X57.28 Y38.86 E76.3106
G1 X57.36 Y38.18 E76.3533
G1 X57.28 Y37.51 E76.3954
G1 X57.04 Y36.95 E76.4334
G1 X56.65 Y36.56 E76.4678
G1 X56.14 Y36.42 E76.5008
G1 X55.62 Y36.56 E76.5343
G1 X55.24 Y36.95 E76.5683
G1 X55.00 Y37.51 E76.6063
G1 X54.92 Y38.18 E76.6484
G1 X55.00 Y38.85 E76.6905
G1 X55.24 Y39.42 E76.7290
G1 X55.62 Y39.80 E76.7625
G1 X56.14 Y39.94 E76.7961
G1 E72.7961 F2400
G1 Z0.500 F420
G1 X58.43 Y36.71 F6000
G1 Z0.300 F420
G1 E76.7961 F1800
G1 X58.43 Y36.65 E76.7999 F600
G1 E72.7999 F2400
G1 Z0.500 F420
G1 X60.71 Y39.94 F6000
G1 Z0.300 F420
G1 E76.7999 F1800
G1 X61.22 Y39.80 E76.8329 F600
G1 X61.61 Y39.42 E76.8668
G1 X61.85 Y38.86 E76.9048
G1 X61.93 Y38.18 E76.9475
G1 X61.85 Y37.51 E76.9896
G1 X61.61 Y36.95 E77.0276
G1 X61.22 Y36.56 E77.0620
G1 X60.71 Y36.42 E77.0950
G1 X60.19 Y36.56 E77.1286
G1 X59.81 Y36.95 E77.1625
G1 X59.57 Y37.51 E77.2005
G1 X59.49 Y38.18 E77.2426
G1 X59.57 Y38.85 E77.2847
G1 X59.81 Y39.42 E77.3233
G1 X60.19 Y39.80 E77.3568
G1 X60.71 Y39.94 E77.3904
G1 E73.3904 F2400
G1 Z0.500 F420
G1 X46.50 Y31.48 F6000
G1 Z0.300 F420
G1 E77.3904 F1800
G1 X46.50 Y33.89 E77.5407 F600
G1 E73.5407 F2400
G1 Z0.500 F420
G1 X46.50 Y33.20 F6000
G1 Z0.300 F420
G1 E77.5407 F1800
G1 X46.75 Y33.55 E77.5675 F600
G1 X46.96 Y33.76 E77.5860
G1 X47.16 Y33.88 E77.6006
G1 X47.35 Y33.94 E77.6130
G1 X47.51 Y33.95 E77.6230
G1 X47.56 Y33.95 E77.6261
G1 X47.61 Y33.94 E77.6293
G1 E73.6293 F2400
G1 Z0.500 F420
G1 X48.67 Y32.69 F6000
G1 Z0.300 F420
G1 E77.6293 F1800
G1 X50.81 Y32.69 E77.7627 F600
G1 X50.73 Y33.22 E77.7962
G1 X50.52 Y33.61 E77.8238
G1 X50.18 Y33.86 E77.8501
G1 X49.74 Y33.95 E77.8781
G1 X49.31 Y33.86 E77.9055
G1 X48.97 Y33.61 E77.9318
G1 X48.75 Y33.22 E77.9598
G1 X48.67 Y32.69 E77.9932
G1 X48.75 Y32.15 E78.0272
G1 X48.98 Y31.75 E78.0560
G1 X49.33 Y31.51 E78.0825
G1 X49.79 Y31.42 E78.1117
G1 X50.13 Y31.47 E78.1331
G1 X50.42 Y31.61 E78.1532
G1 X50.63 Y31.83 E78.1722
G1 X50.75 Y32.13 E78.1923
G1 E74.1923 F2400
G1 Z0.500 F420
G1 X51.87 Y33.26 F6000
G1 Z0.300 F420
G1 E78.1923 F1800
G1 X53.56 Y33.26 E78.2977 F600
G1 E74.2977 F2400
G1 Z0.500 F420
G1 X53.56 Y32.55 F6000
G1 Z0.300 F420
G1 E78.2977 F1800
G1 X51.87 Y32.55 E78.4031 F600
G1 E74.4031 F2400
G1 Z0.500 F420
G1 X56.33 Y31.48 F6000
G1 Z0.300 F420
G1 E78.4031 F1800
G1 X56.33 Y34.88 E78.6152 F600
G1 X54.62 Y32.65 E78.7904
G1 X56.93 Y32.65 E78.9345
G1 E74.9345 F2400
G1 Z0.500 F420
G1 X58.00 Y31.71 F6000
G1 Z0.300 F420
G1 E78.9345 F1800
G1 X58.00 Y31.65 E78.9382 F600
G1 E74.9382 F2400
G1 Z0.500 F420
G1 X60.28 Y34.94 F6000
G1 Z0.300 F420
G1 E78.9382 F1800
G1 X60.79 Y34.80 E78.9712 F600
G1 X61.18 Y34.42 E79.0052
G1 X61.42 Y33.86 E79.0432
G1 X61.50 Y33.18 E79.0859
G1 X61.42 Y32.51 E79.1279
G1 X61.18 Y31.95 E79.1659
G1 X60.79 Y31.56 E79.2003
G1 X60.28 Y31.42 E79.2333
G1 X59.76 Y31.56 E79.2669
G1 X59.38 Y31.95 E79.3009
G1 X59.14 Y32.51 E79.3389
G1 X59.06 Y33.18 E79.3809
G1 X59.14 Y33.85 E79.4230
G1 X59.38 Y34.42 E79.4616
G1 X59.76 Y34.80 E79.4951
G1 X60.28 Y34.94 E79.5287
G1 E75.5287 F2400
G1 Z0.500 F420
;structure:shell-inner
G1 X-45.00 Y51.00 F6000
G1 Z0.200 F420
G1 E79.5287 F1800
G1 X-40.00 Y51.00 E79.7366 F300
G1 X-30.00 Y51.00 F60
G1 Z0.300 F420
G1 X0.00 Y51.00 E80.8591 F1604
G1 Z0.200 F420
G1 X20.00 Y51.00 E76.8591 F600
G1 X40.00 Y51.00 E80.8591
G1 E76.8591 F2400
G1 Z0.500 F420
G1 Z0.200
G1 E80.8591 F1800
G1 X45.00 Y51.00 E81.0670 F300
G1 E77.0670 F2400
G1 Z0.500 F420
G1 X-45.00 Y49.00 F6000
G1 Z0.200 F420
G1 E81.0670 F1800
G1 X-40.00 Y49.00 E81.2749 F300
G1 X-30.00 Y49.00 F60
G1 Z0.300 F420
G1 X0.00 Y49.00 E82.5845 F1374
G1 Z0.200 F420
G1 X20.00 Y49.00 E78.5845 F600
G1 X40.00 Y49.00 E82.5845
G1 E78.5845 F2400
G1 Z0.500 F420
G1 Z0.200
G1 E82.5845 F1800
G1 X45.00 Y49.00 E82.7924 F300
G1 E78.7924 F2400
G1 Z0.500 F420
G1 X-45.00 Y47.00 F6000
G1 Z0.200 F420
G1 E82.7924 F1800
G1 X-40.00 Y47.00 E83.0002 F300
G1 X-30.00 Y47.00 F60
G1 Z0.300 F420
G1 X0.00 Y47.00 E84.4969 F1203
G1 Z0.200 F420
G1 X20.00 Y47.00 E80.4969 F600
G1 X40.00 Y47.00 E84.4969
G1 E80.4969 F2400
G1 Z0.500 F420
G1 Z0.200
G1 E84.4969 F1800
G1 X45.00 Y47.00 E84.7048 F300
G1 E80.7048 F2400
G1 Z0.500 F420
G1 X-45.00 Y45.00 F6000
G1 Z0.200 F420
G1 E84.7048 F1800
G1 X-40.00 Y45.00 E84.9127 F300
G1 X-30.00 Y45.00 F60
G1 Z0.300 F420
G1 X0.00 Y45.00 E86.5965 F1069
G1 Z0.200 F420
G1 X20.00 Y45.00 E82.5965 F600
G1 X40.00 Y45.00 E86.5965
G1 E82.5965 F2400
G1 Z0.500 F420
G1 Z0.200
G1 E86.5965 F1800
G1 X45.00 Y45.00 E86.8044 F300
G1 E82.8044 F2400
G1 Z0.500 F420
G1 X-45.00 Y43.00 F6000
G1 Z0.200 F420
G1 E86.8044 F1800
G1 X-40.00 Y43.00 E87.0122 F300
G1 X-30.00 Y43.00 F60
G1 Z0.300 F420
G1 X0.00 Y43.00 E88.8831 F962
G1 Z0.200 F420
G1 X20.00 Y43.00 E84.8831 F600
G1 X40.00 Y43.00 E88.8831
G1 E84.8831 F2400
G1 Z0.500 F420
G1 Z0.200
G1 E88.8831 F1800
G1 X45.00 Y43.00 E89.0910 F300
G1 E85.0910 F2400
G1 Z0.500 F420
G1 X-45.00 Y41.00 F6000
G1 Z0.200 F420
G1 E89.0910 F1800
G1 X-40.00 Y41.00 E89.2989 F300
G1 X-30.00 Y41.00 F60
G1 Z0.300 F420
G1 X0.00 Y41.00 E91.3568 F875
G1 Z0.200 F420
G1 X20.00 Y41.00 E87.3568 F600
G1 X40.00 Y41.00 E91.3568
G1 E87.3568 F2400
G1 Z0.500 F420
G1 Z0.200
G1 E91.3568 F1800
G1 X45.00 Y41.00 E91.5647 F300
G1 E87.5647 F2400
G1 Z0.500 F420
G1 X-45.00 Y39.00 F6000
G1 Z0.200 F420
G1 E91.5647 F1800
G1 X-40.00 Y39.00 E91.7726 F300
G1 X-30.00 Y39.00 F60
G1 Z0.300 F420
G1 X0.00 Y39.00 E94.0177 F802
G1 Z0.200 F420
G1 X20.00 Y39.00 E90.0177 F600
G1 X40.00 Y39.00 E94.0177
G1 E90.0177 F2400
G1 Z0.500 F420
G1 Z0.200
G1 E94.0177 F1800
G1 X45.00 Y39.00 E94.2255 F300
G1 E90.2255 F2400
G1 Z0.500 F420
G1 X-45.00 Y37.00 F6000
G1 Z0.200 F420
G1 E94.2255 F1800
G1 X-40.00 Y37.00 E94.4334 F300
G1 X-30.00 Y37.00 F60
G1 Z0.300 F420
G1 X0.00 Y37.00 E96.8656 F740
G1 Z0.200 F420
G1 X20.00 Y37.00 E92.8656 F600
G1 X40.00 Y37.00 E96.8656
G1 E92.8656 F2400
G1 Z0.500 F420
G1 Z0.200
G1 E96.8656 F1800
G1 X45.00 Y37.00 E97.0734 F300
G1 E93.0734 F2400
G1 Z0.500 F420
G1 X-45.00 Y35.00 F6000
G1 Z0.200 F420
G1 E97.0734 F1800
G1 X-40.00 Y35.00 E97.2813 F300
G1 X-30.00 Y35.00 F60
G1 Z0.300 F420
G1 X0.00 Y35.00 E99.9005 F687
G1 Z0.200 F420
G1 X20.00 Y35.00 E95.9005 F600
G1 X40.00 Y35.00 E99.9005
G1 E95.9005 F2400
G1 Z0.500 F420
G1 Z0.200
G1 E99.9005 F1800
G1 X45.00 Y35.00 E100.1084 F300
G1 E96.1084 F2400
G1 Z0.500 F420
G1 X-45.00 Y33.00 F6000
G1 Z0.200 F420
G1 E100.1084 F1800
G1 X-40.00 Y33.00 E100.3163 F300
G1 X-30.00 Y33.00 F60
G1 Z0.300 F420
G1 X0.00 Y33.00 E103.1226 F641
G1 Z0.200 F420
G1 X20.00 Y33.00 E99.1226 F600
G1 X40.00 Y33.00 E103.1226
G1 E99.1226 F2400
G1 Z0.500 F420
G1 Z0.200
G1 E103.1226 F1800
G1 X45.00 Y33.00 E103.3305 F300
G1 E99.3305 F2400
G1 Z0.500 F420
G1 X-45.00 Y31.00 F6000
G1 Z0.200 F420
G1 E103.3305 F1800
G1 X-40.00 Y31.00 E103.5384 F300
G1 X-30.00 Y31.00 F60
G1 Z0.300 F420
G1 X0.00 Y31.00 E106.5318 F601
G1 Z0.200 F420
G1 X20.00 Y31.00 E102.5318 F600
G1 X40.00 Y31.00 E106.5318
G1 E102.5318 F2400
G1 Z0.500 F420
G1 Z0.200
G1 E106.5318 F1800
G1 X45.00 Y31.00 E106.7397 F300
G1 E102.7397 F2400
G1 Z0.500 F420
;structure:shell-outer
G1 X-45.00 Y26.00 F6000
G1 Z0.300 F420
G1 E106.7397 F1800
G1 X45.00 Y26.00 E112.3523 F600
G1 E108.3523 F2400
G1 Z0.500 F420
G1 X-42.00 Y26.00 F6000
G1 X-40.00 Y26.00
G1 Z0.300 F420
G1 E112.3523 F1800
G1 X-40.00 Y23.00 E112.5394 F600
G1 E108.5394 F2400
G1 Z0.500 F420
G1 X-38.00 Y26.00 F6000
G1 Z0.300 F420
G1 E112.5394 F1800
G1 X-38.00 Y24.50 E112.6329 F600
G1 E108.6329 F2400
G1 Z0.500 F420
G1 X-36.00 Y26.00 F6000
G1 Z0.300 F420
G1 E112.6329 F1800
G1 X-36.00 Y24.50 E112.7265 F600
G1 E108.7265 F2400
G1 Z0.500 F420
G1 X-34.00 Y26.00 F6000
G1 Z0.300 F420
G1 E112.7265 F1800
G1 X-34.00 Y24.50 E112.8200 F600
G1 E108.8200 F2400
G1 Z0.500 F420
G1 X-32.00 Y26.00 F6000
G1 Z0.300 F420
G1 E112.8200 F1800
G1 X-32.00 Y24.50 E112.9136 F600
G1 E108.9136 F2400
G1 Z0.500 F420
G1 X-30.00 Y26.00 F6000
G1 Z0.300 F420
G1 E112.9136 F1800
G1 X-30.00 Y23.00 E113.1007 F600
G1 E109.1007 F2400
G1 Z0.500 F420
G1 X-28.00 Y26.00 F6000
G1 Z0.300 F420
G1 E113.1007 F1800
G1 X-28.00 Y24.50 E113.1942 F600
G1 E109.1942 F2400
G1 Z0.500 F420
G1 X-26.00 Y26.00 F6000
G1 Z0.300 F420
G1 E113.1942 F1800
G1 X-26.00 Y24.50 E113.2877 F600
G1 E109.2877 F2400
G1 Z0.500 F420
G1 X-24.00 Y26.00 F6000
G1 Z0.300 F420
G1 E113.2877 F1800
G1 X-24.00 Y24.50 E113.3813 F600
G1 E109.3813 F2400
G1 Z0.500 F420
G1 X-22.00 Y26.00 F6000
G1 Z0.300 F420
G1 E113.3813 F1800
G1 X-22.00 Y24.50 E113.4748 F600
G1 E109.4748 F2400
G1 Z0.500 F420
G1 X-20.00 Y26.00 F6000
G1 Z0.300 F420
G1 E113.4748 F1800
G1 X-20.00 Y23.00 E113.6619 F600
G1 E109.6619 F2400
G1 Z0.500 F420
G1 X-18.00 Y26.00 F6000
G1 Z0.300 F420
G1 E113.6619 F1800
G1 X-18.00 Y24.50 E113.7555 F600
G1 E109.7555 F2400
G1 Z0.500 F420
G1 X-16.00 Y26.00 F6000
G1 Z0.300 F420
G1 E113.7555 F1800
G1 X-16.00 Y24.50 E113.8490 F600
G1 E109.8490 F2400
G1 Z0.500 F420
G1 X-14.00 Y26.00 F6000
G1 Z0.300 F420
G1 E113.8490 F1800
G1 X-14.00 Y24.50 E113.9426 F600
G1 E109.9426 F2400
G1 Z0.500 F420
G1 X-12.00 Y26.00 F6000
G1 Z0.300 F420
G1 E113.9426 F1800
G1 X-12.00 Y24.50 E114.0361 F600
G1 E110.0361 F2400
G1 Z0.500 F420
G1 X-10.00 Y26.00 F6000
G1 Z0.300 F420
G1 E114.0361 F1800
G1 X-10.00 Y23.00 E114.2232 F600
G1 E110.2232 F2400
G1 Z0.500 F420
G1 X-8.00 Y26.00 F6000
G1 Z0.300 F420
G1 E114.2232 F1800
G1 X-8.00 Y24.50 E114.3167 F600
G1 E110.3167 F2400
G1 Z0.500 F420
G1 X-6.00 Y26.00 F6000
G1 Z0.300 F420
G1 E114.3167 F1800
G1 X-6.00 Y24.50 E114.4103 F600
G1 E110.4103 F2400
G1 Z0.500 F420
G1 X-4.00 Y26.00 F6000
G1 Z0.300 F420
G1 E114.4103 F1800
G1 X-4.00 Y24.50 E114.5038 F600
G1 E110.5038 F2400
G1 Z0.500 F420
G1 X-2.00 Y26.00 F6000
G1 Z0.300 F420
G1 E114.5038 F1800
G1 X-2.00 Y24.50 E114.5974 F600
G1 E110.5974 F2400
G1 Z0.500 F420
G1 X0.00 Y26.00 F6000
G1 Z0.300 F420
G1 E114.5974 F1800
G1 X0.00 Y23.00 E114.7845 F600
G1 E110.7845 F2400
G1 Z0.500 F420
G1 X2.00 Y26.00 F6000
G1 Z0.300 F420
G1 E114.7845 F1800
G1 X2.00 Y24.50 E114.8780 F600
G1 E110.8780 F2400
G1 Z0.500 F420
G1 X4.00 Y26.00 F6000
G1 Z0.300 F420
G1 E114.8780 F1800
G1 X4.00 Y24.50 E114.9715 F600
G1 E110.9715 F2400
G1 Z0.500 F420
G1 X6.00 Y26.00 F6000
G1 Z0.300 F420
G1 E114.9715 F1800
G1 X6.00 Y24.50 E115.0651 F600
G1 E111.0651 F2400
G1 Z0.500 F420
G1 X8.00 Y26.00 F6000
G1 Z0.300 F420
G1 E115.0651 F1800
G1 X8.00 Y24.50 E115.1586 F600
G1 E111.1586 F2400
G1 Z0.500 F420
G1 X10.00 Y26.00 F6000
G1 Z0.300 F420
G1 E115.1586 F1800
G1 X10.00 Y23.00 E115.3457 F600
G1 E111.3457 F2400
G1 Z0.500 F420
G1 X12.00 Y26.00 F6000
G1 Z0.300 F420
G1 E115.3457 F1800
G1 X12.00 Y24.50 E115.4393 F600
G1 E111.4393 F2400
G1 Z0.500 F420
G1 X14.00 Y26.00 F6000
G1 Z0.300 F420
G1 E115.4393 F1800
G1 X14.00 Y24.50 E115.5328 F600
G1 E111.5328 F2400
G1 Z0.500 F420
G1 X16.00 Y26.00 F6000
G1 Z0.300 F420
G1 E115.5328 F1800
G1 X16.00 Y24.50 E115.6263 F600
G1 E111.6263 F2400
G1 Z0.500 F420
G1 X18.00 Y26.00 F6000
G1 Z0.300 F420
G1 E115.6263 F1800
G1 X18.00 Y24.50 E115.7199 F600
G1 E111.7199 F2400
G1 Z0.500 F420
G1 X20.00 Y26.00 F6000
G1 Z0.300 F420
G1 E115.7199 F1800
G1 X20.00 Y23.00 E115.9070 F600
G1 E111.9070 F2400
G1 Z0.500 F420
G1 X22.00 Y26.00 F6000
G1 Z0.300 F420
G1 E115.9070 F1800
G1 X22.00 Y24.50 E116.0005 F600
G1 E112.0005 F2400
G1 Z0.500 F420
G1 X24.00 Y26.00 F6000
G1 Z0.300 F420
G1 E116.0005 F1800
G1 X24.00 Y24.50 E116.0941 F600
G1 E112.0941 F2400
G1 Z0.500 F420
G1 X26.00 Y26.00 F6000
G1 Z0.300 F420
G1 E116.0941 F1800
G1 X26.00 Y24.50 E116.1876 F600
G1 E112.1876 F2400
G1 Z0.500 F420
G1 X28.00 Y26.00 F6000
G1 Z0.300 F420
G1 E116.1876 F1800
G1 X28.00 Y24.50 E116.2812 F600
G1 E112.2812 F2400
G1 Z0.500 F420
G1 X30.00 Y26.00 F6000
G1 Z0.300 F420
G1 E116.2812 F1800
G1 X30.00 Y23.00 E116.4682 F600
G1 E112.4682 F2400
G1 Z0.500 F420
G1 X32.00 Y26.00 F6000
G1 Z0.300 F420
G1 E116.4682 F1800
G1 X32.00 Y24.50 E116.5618 F600
G1 E112.5618 F2400
G1 Z0.500 F420
G1 X34.00 Y26.00 F6000
G1 Z0.300 F420
G1 E116.5618 F1800
G1 X34.00 Y24.50 E116.6553 F600
G1 E112.6553 F2400
G1 Z0.500 F420
G1 X36.00 Y26.00 F6000
G1 Z0.300 F420
G1 E116.6553 F1800
G1 X36.00 Y24.50 E116.7489 F600
G1 E112.7489 F2400
G1 Z0.500 F420
G1 X38.00 Y26.00 F6000
G1 Z0.300 F420
G1 E116.7489 F1800
G1 X38.00 Y24.50 E116.8424 F600
G1 E112.8424 F2400
G1 Z0.500 F420
G1 X40.00 Y26.00 F6000
G1 Z0.300 F420
G1 E116.8424 F1800
G1 X40.00 Y23.00 E117.0295 F600
G1 E113.0295 F2400
G1 Z0.500 F420
;structure:brim
;structure:shell-outer
G1 X46.50 Y24.89 F6000
G1 Z0.300 F420
G1 E117.0295 F1800
G1 X47.52 Y22.48 E117.1927 F600
G1 X48.54 Y24.89 E117.3559
G1 E113.3559 F2400
G1 Z0.500 F420
G1 X49.60 Y23.69 F6000
G1 Z0.300 F420
G1 E117.3559 F1800
G1 X51.74 Y23.69 E117.4894 F600
G1 X51.66 Y24.22 E117.5228
G1 X51.45 Y24.61 E117.5504
G1 X51.11 Y24.86 E117.5767
G1 X50.67 Y24.95 E117.6047
G1 X50.24 Y24.86 E117.6321
G1 X49.90 Y24.61 E117.6585
G1 X49.68 Y24.22 E117.6864
G1 X49.60 Y23.69 E117.7198
G1 X49.68 Y23.15 E117.7539
G1 X49.91 Y22.75 E117.7826
G1 X50.26 Y22.51 E117.8091
G1 X50.72 Y22.42 E117.8383
G1 X51.06 Y22.47 E117.8598
G1 X51.35 Y22.61 E117.8799
G1 X51.56 Y22.83 E117.8988
G1 X51.68 Y23.13 E117.9190
G1 E113.9190 F2400
G1 Z0.500 F420
G1 X52.80 Y24.26 F6000
G1 Z0.300 F420
G1 E117.9190 F1800
G1 X54.49 Y24.26 E118.0244 F600
G1 E114.0244 F2400
G1 Z0.500 F420
G1 X54.49 Y23.55 F6000
G1 Z0.300 F420
G1 E118.0244 F1800
G1 X52.80 Y23.55 E118.1298 F600
G1 E114.1298 F2400
G1 Z0.500 F420
G1 X55.55 Y25.00 F6000
G1 Z0.300 F420
G1 E118.1298 F1800
G1 X56.02 Y25.24 E118.1627 F600
G1 X56.39 Y25.55 E118.1928
G1 X56.64 Y25.88 E118.2186
G1 X56.64 Y22.48 E118.4306
G1 E114.4306 F2400
G1 Z0.500 F420
G1 X57.70 Y22.71 F6000
G1 Z0.300 F420
G1 E118.4306 F1800
G1 X57.70 Y22.65 E118.4344 F600
G1 E114.4344 F2400
G1 Z0.500 F420
G1 X59.99 Y25.94 F6000
G1 Z0.300 F420
G1 E118.4344 F1800
G1 X60.50 Y25.80 E118.4673 F600
G1 X60.89 Y25.42 E118.5013
G1 X61.12 Y24.86 E118.5391
G1 X61.21 Y24.18 E118.5818
G1 X61.12 Y23.51 E118.6240
G1 X60.89 Y22.95 E118.6618
G1 X60.50 Y22.56 E118.6962
G1 X59.99 Y22.42 E118.7291
G1 X59.46 Y22.56 E118.7633
G1 X59.09 Y22.95 E118.7969
G1 X58.85 Y23.51 E118.8349
G1 X58.77 Y24.18 E118.8769
G1 X58.85 Y24.85 E118.9190
G1 X59.09 Y25.42 E118.9576
G1 X59.46 Y25.80 E118.9907
G1 X59.99 Y25.94 E119.0249
G1 E115.0249 F2400
G1 Z0.500 F420
G1 X46.50 Y20.88 F6000
G1 Z0.300 F420
G1 E119.0249 F1800
G1 X46.50 Y17.48 E119.2369 F600
G1 E115.2369 F2400
G1 Z0.500 F420
G1 X46.50 Y19.23 F6000
G1 Z0.300 F420
G1 E119.2369 F1800
G1 X46.75 Y19.53 E119.2613 F600
G1 X46.98 Y19.75 E119.2811
G1 X47.20 Y19.88 E119.2971
G1 X47.40 Y19.93 E119.3099
G1 X47.59 Y19.95 E119.3218
G1 X47.91 Y19.88 E119.3423
G1 X48.14 Y19.71 E119.3601
G1 X48.24 Y19.51 E119.3740
G1 X48.33 Y19.08 E119.4014
G1 X48.33 Y17.48 E119.5012
G1 E115.5012 F2400
G1 Z0.500 F420
G1 X49.39 Y19.26 F6000
G1 Z0.300 F420
G1 E119.5012 F1800
G1 X51.08 Y19.26 E119.6066 F600
G1 E115.6066 F2400
G1 Z0.500 F420
G1 X51.08 Y18.55 F6000
G1 Z0.300 F420
G1 E119.6066 F1800
G1 X49.39 Y18.55 E119.7120 F600
G1 E115.7120 F2400
G1 Z0.500 F420
G1 X53.36 Y20.94 F6000
G1 Z0.300 F420
G1 E119.7120 F1800
G1 X53.87 Y20.80 E119.7450 F600
G1 X54.26 Y20.42 E119.7790
G1 X54.50 Y19.86 E119.8170
G1 X54.58 Y19.18 E119.8597
G1 X54.50 Y18.51 E119.9017
G1 X54.26 Y17.95 E119.9397
G1 X53.87 Y17.56 E119.9741
G1 X53.36 Y17.42 E120.0071
G1 X52.84 Y17.56 E120.0407
G1 X52.46 Y17.95 E120.0747
G1 X52.22 Y18.51 E120.1127
G1 X52.14 Y19.18 E120.1547
G1 X52.22 Y19.85 E120.1968
G1 X52.46 Y20.42 E120.2354
G1 X52.84 Y20.80 E120.2689
G1 X53.36 Y20.94 E120.3025
G1 E116.3025 F2400
G1 Z0.500 F420
G1 X55.64 Y17.71 F6000
G1 Z0.300 F420
G1 E120.3025 F1800
G1 X55.64 Y17.65 E120.3062 F600
G1 E116.3062 F2400
G1 Z0.500 F420
G1 X56.76 Y20.13 F6000
G1 Z0.300 F420
G1 E120.3062 F1800
G1 X56.87 Y20.47 E120.3285 F600
G1 X57.08 Y20.73 E120.3494
G1 X57.37 Y20.89 E120.3700
G1 X57.71 Y20.94 E120.3915
G1 X58.10 Y20.87 E120.4162
G1 X58.39 Y20.68 E120.4378
G1 X58.57 Y20.41 E120.4580
G1 X58.64 Y20.06 E120.4803
G1 X58.57 Y19.85 E120.4941
G1 X58.43 Y19.68 E120.5078
G1 X58.06 Y19.45 E120.5350
G1 X57.62 Y19.30 E120.5640
G1 X58.06 Y19.18 E120.5924
G1 X58.42 Y19.02 E120.6170
G1 X58.71 Y18.74 E120.6421
G1 X58.81 Y18.45 E120.6613
G1 X58.74 Y18.03 E120.6878
G1 X58.51 Y17.70 E120.7129
G1 X58.17 Y17.50 E120.7375
G1 X57.75 Y17.42 E120.7642
G1 X57.35 Y17.48 E120.7894
G1 X57.03 Y17.65 E120.8120
G1 X56.81 Y17.92 E120.8337
G1 X56.71 Y18.28 E120.8570
G1 E116.8570 F2400
G1 Z0.500 F420
G1 X46.50 Y14.89 F6000
G1 Z0.300 F420
G1 E120.8570 F1800
G1 X47.36 Y12.48 E121.0166 F600
G1 X48.10 Y14.89 E121.1738
G1 X48.87 Y12.48 E121.3316
G1 X49.71 Y14.89 E121.4908
G1 E117.4908 F2400
G1 Z0.500 F420
G1 X50.77 Y14.26 F6000
G1 Z0.300 F420
G1 E121.4908 F1800
G1 X52.46 Y14.26 E121.5962 F600
G1 E117.5962 F2400
G1 Z0.500 F420
G1 X52.46 Y13.55 F6000
G1 Z0.300 F420
G1 E121.5962 F1800
G1 X50.77 Y13.55 E121.7016 F600
G1 E117.7016 F2400
G1 Z0.500 F420
G1 X54.74 Y15.94 F6000
G1 Z0.300 F420
G1 E121.7016 F1800
G1 X55.25 Y15.80 E121.7346 F600
G1 X55.64 Y15.42 E121.7685
G1 X55.88 Y14.86 E121.8065
G1 X55.96 Y14.18 E121.8492
G1 X55.88 Y13.51 E121.8913
G1 X55.64 Y12.95 E121.9293
G1 X55.25 Y12.56 E121.9637
G1 X54.74 Y12.42 E121.9967
G1 X54.22 Y12.56 E122.0303
G1 X53.84 Y12.95 E122.0642
G1 X53.60 Y13.51 E122.1022
G1 X53.52 Y14.18 E122.1443
G1 X53.60 Y14.85 E122.1864
G1 X53.84 Y15.42 E122.2250
G1 X54.22 Y15.80 E122.2585
G1 X54.74 Y15.94 E122.2921
G1 E118.2921 F2400
G1 Z0.500 F420
G1 X57.02 Y12.71 F6000
G1 Z0.300 F420
G1 E122.2921 F1800
G1 X57.02 Y12.65 E122.2958 F600
G1 E118.2958 F2400
G1 Z0.500 F420
G1 X59.11 Y15.92 F6000
G1 Z0.300 F420
G1 E122.2958 F1800
G1 X59.46 Y15.86 E122.3180 F600
G1 X59.75 Y15.71 E122.3383
G1 X59.94 Y15.46 E122.3579
G1 X60.01 Y15.11 E122.3802
G1 X59.87 Y14.66 E122.4096
G1 X59.58 Y14.40 E122.4339
G1 X58.65 Y14.12 E122.4944
G1 X58.26 Y13.84 E122.5244
G1 X58.09 Y13.35 E122.5567
G1 X58.17 Y12.95 E122.5822
G1 X58.38 Y12.66 E122.6045
G1 X58.71 Y12.48 E122.6279
G1 X59.11 Y12.42 E122.6532
G1 X59.52 Y12.48 E122.6790
G1 X59.85 Y12.66 E122.7024
G1 X60.06 Y12.95 E122.7248
G1 X60.14 Y13.35 E122.7502
G1 X59.96 Y13.84 E122.7828
G1 X59.58 Y14.12 E122.8122
G1 X58.65 Y14.40 E122.8728
G1 X58.36 Y14.66 E122.8971
G1 X58.22 Y15.11 E122.9265
G1 X58.29 Y15.46 E122.9487
G1 X58.48 Y15.71 E122.9683
G1 X58.76 Y15.86 E122.9881
G1 X59.11 Y15.92 E123.0103
G1 E119.0103 F2400
G1 Z0.500 F420
G1 X61.20 Y13.90 F6000
G1 Z0.300 F420
G1 E123.0103 F1800
G1 X63.07 Y13.90 E123.1269 F600
G1 E119.1269 F2400
G1 Z0.500 F420
G1 X64.12 Y15.00 F6000
G1 Z0.300 F420
G1 E123.1269 F1800
G1 X64.59 Y15.24 E123.1598 F600
G1 X64.96 Y15.55 E123.1899
G1 X65.21 Y15.88 E123.2157
G1 X65.21 Y12.48 E123.4278
G1 E119.4278 F2400
G1 Z0.500 F420
G1 X66.27 Y12.71 F6000
G1 Z0.300 F420
G1 E123.4278 F1800
G1 X66.27 Y12.65 E123.4315 F600
G1 E119.4315 F2400
G1 Z0.500 F420
G1 X69.38 Y15.17 F6000
G1 Z0.300 F420
G1 E123.4315 F1800
G1 X69.07 Y15.74 E123.4720 F600
G1 X68.48 Y15.94 E123.5109
G1 X67.97 Y15.82 E123.5435
G1 X67.62 Y15.47 E123.5744
G1 X67.41 Y14.87 E123.6141
G1 X67.34 Y14.05 E123.6654
G1 X67.41 Y13.36 E123.7086
G1 X67.63 Y12.84 E123.7438
G1 X67.97 Y12.53 E123.7725
G1 X68.44 Y12.42 E123.8026
G1 X68.89 Y12.51 E123.8313
G1 X69.21 Y12.76 E123.8566
G1 X69.39 Y13.13 E123.8823
G1 X69.46 Y13.56 E123.9094
G1 X69.39 Y13.96 E123.9348
G1 X69.20 Y14.31 E123.9596
G1 X68.89 Y14.54 E123.9837
G1 X68.49 Y14.62 E124.0091
G1 X68.03 Y14.53 E124.0383
G1 X67.61 Y14.28 E124.0688
G1 X67.34 Y14.05 E124.0909
G1 E120.0909 F2400
G1 Z0.500 F420
G1 X46.50 Y7.48 F6000
G1 Z0.300 F420
G1 E124.0909 F1800
G1 X46.50 Y9.89 E124.2413 F600
G1 E120.2413 F2400
G1 Z0.500 F420
G1 X46.50 Y9.20 F6000
G1 Z0.300 F420
G1 E124.2413 F1800
G1 X46.75 Y9.55 E124.2681 F600
G1 X46.96 Y9.76 E124.2866
G1 X47.16 Y9.88 E124.3011
G1 X47.35 Y9.94 E124.3136
G1 X47.51 Y9.95 E124.3236
G1 X47.56 Y9.95 E124.3267
G1 X47.61 Y9.94 E124.3299
G1 E120.3299 F2400
G1 Z0.500 F420
G1 X49.89 Y10.94 F6000
G1 Z0.300 F420
G1 E124.3299 F1800
G1 X50.40 Y10.80 E124.3629 F600
G1 X50.79 Y10.42 E124.3968
G1 X51.03 Y9.86 E124.4348
G1 X51.11 Y9.18 E124.4776
G1 X51.03 Y8.51 E124.5197
G1 X50.79 Y7.95 E124.5577
G1 X50.40 Y7.56 E124.5921
G1 X49.89 Y7.42 E124.6251
G1 X49.37 Y7.56 E124.6587
G1 X48.99 Y7.95 E124.6926
G1 X48.75 Y8.51 E124.7306
G1 X48.67 Y9.18 E124.7727
G1 X48.75 Y9.85 E124.8148
G1 X48.99 Y10.42 E124.8534
G1 X49.37 Y10.80 E124.8869
G1 X49.89 Y10.94 E124.9205
G1 E120.9205 F2400
G1 Z0.500 F420
G1 X52.17 Y9.26 F6000
G1 Z0.300 F420
G1 E124.9205 F1800
G1 X53.86 Y9.26 E125.0259 F600
G1 E121.0259 F2400
G1 Z0.500 F420
G1 X53.86 Y8.55 F6000
G1 Z0.300 F420
G1 E125.0259 F1800
G1 X52.17 Y8.55 E125.1314 F600
G1 E121.1314 F2400
G1 Z0.500 F420
G1 X54.92 Y10.44 F6000
G1 Z0.300 F420
G1 E125.1314 F1800
G1 X55.11 Y10.65 E125.1490 F600
G1 X55.34 Y10.81 E125.1665
G1 X55.60 Y10.90 E125.1837
G1 X55.88 Y10.94 E125.2013
G1 X56.25 Y10.88 E125.2247
G1 X56.55 Y10.68 E125.2472
G1 X56.74 Y10.39 E125.2688
G1 X56.81 Y10.02 E125.2923
G1 X56.71 Y9.63 E125.3174
G1 X56.43 Y9.27 E125.3459
G1 X55.65 Y8.64 E125.4084
G1 X55.35 Y8.23 E125.4401
G1 X54.96 Y7.48 E125.4928
G1 X56.78 Y7.48 E125.6064
G1 E121.6064 F2400
G1 Z0.500 F420
G1 X57.88 Y7.71 F6000
G1 Z0.300 F420
G1 E125.6064 F1800
G1 X57.88 Y7.65 E125.6101 F600
G1 E121.6101 F2400
G1 Z0.500 F420
G1 X60.16 Y10.94 F6000
G1 Z0.300 F420
G1 E125.6101 F1800
G1 X60.67 Y10.80 E125.6431 F600
G1 X61.06 Y10.42 E125.6771
G1 X61.30 Y9.86 E125.7151
G1 X61.38 Y9.18 E125.7578
G1 X61.30 Y8.51 E125.7999
G1 X61.06 Y7.95 E125.8379
G1 X60.67 Y7.56 E125.8723
G1 X60.16 Y7.42 E125.9053
G1 X59.64 Y7.56 E125.9389
G1 X59.26 Y7.95 E125.9728
G1 X59.02 Y8.51 E126.0109
G1 X58.94 Y9.18 E126.0529
G1 X59.02 Y9.85 E126.0950
G1 X59.26 Y10.42 E126.1336
G1 X59.64 Y10.80 E126.1671
G1 X60.16 Y10.94 E126.2007
G1 E122.2007 F2400
G1 Z0.500 F420
G1 X46.50 Y2.48 F6000
G1 Z0.300 F420
G1 E126.2007 F1800
G1 X46.50 Y4.89 E126.3511 F600
G1 E122.3511 F2400
G1 Z0.500 F420
G1 X46.50 Y4.20 F6000
G1 Z0.300 F420
G1 E126.3511 F1800
G1 X46.75 Y4.55 E126.3779 F600
G1 X46.96 Y4.76 E126.3964
G1 X47.16 Y4.88 E126.4110
G1 X47.35 Y4.94 E126.4234
G1 X47.51 Y4.95 E126.4334
G1 X47.56 Y4.95 E126.4365
G1 X47.61 Y4.94 E126.4397
G1 E122.4397 F2400
G1 Z0.500 F420
G1 X48.67 Y3.69 F6000
G1 Z0.300 F420
G1 E126.4397 F1800
G1 X50.81 Y3.69 E126.5732 F600
G1 X50.73 Y4.22 E126.6066
G1 X50.52 Y4.61 E126.6343
G1 X50.18 Y4.86 E126.6606
G1 X49.74 Y4.95 E126.6886
G1 X49.31 Y4.86 E126.7160
G1 X48.97 Y4.61 E126.7424
G1 X48.75 Y4.22 E126.7703
G1 X48.67 Y3.69 E126.8037
G1 X48.75 Y3.15 E126.8378
G1 X48.98 Y2.75 E126.8666
G1 X49.33 Y2.51 E126.8931
G1 X49.79 Y2.42 E126.9223
G1 X50.13 Y2.47 E126.9437
G1 X50.42 Y2.61 E126.9638
G1 X50.63 Y2.83 E126.9828
G1 X50.75 Y3.13 E127.0029
G1 E123.0029 F2400
G1 Z0.500 F420
G1 X51.87 Y4.26 F6000
G1 Z0.300 F420
G1 E127.0029 F1800
G1 X53.56 Y4.26 E127.1084 F600
G1 E123.1084 F2400
G1 Z0.500 F420
G1 X53.56 Y3.55 F6000
G1 Z0.300 F420
G1 E127.1084 F1800
G1 X51.87 Y3.55 E127.2138 F600
G1 E123.2138 F2400
G1 Z0.500 F420
G1 X56.33 Y2.48 F6000
G1 Z0.300 F420
G1 E127.2138 F1800
G1 X56.33 Y5.88 E127.4259 F600
G1 X54.62 Y3.65 E127.6012
G1 X56.93 Y3.65 E127.7453
G1 E123.7453 F2400
G1 Z0.500 F420
G1 X58.00 Y2.71 F6000
G1 Z0.300 F420
G1 E127.7453 F1800
G1 X58.00 Y2.65 E127.7491 F600
G1 E123.7491 F2400
G1 Z0.500 F420
G1 X60.28 Y5.94 F6000
G1 Z0.300 F420
G1 E127.7491 F1800
G1 X60.79 Y5.80 E127.7821 F600
G1 X61.18 Y5.42 E127.8160
G1 X61.42 Y4.86 E127.8540
G1 X61.50 Y4.18 E127.8968
G1 X61.42 Y3.51 E127.9389
G1 X61.18 Y2.95 E127.9769
G1 X60.79 Y2.56 E128.0113
G1 X60.28 Y2.42 E128.0443
G1 X59.76 Y2.56 E128.0778
G1 X59.38 Y2.95 E128.1118
G1 X59.14 Y3.51 E128.1498
G1 X59.06 Y4.18 E128.1919
G1 X59.14 Y4.85 E128.2340
G1 X59.38 Y5.42 E128.2726
G1 X59.76 Y5.80 E128.3061
G1 X60.28 Y5.94 E128.3397
G1 E124.3397 F2400
G1 Z0.500 F420
;structure:shell-inner
G1 X-45.00 Y22.00 F6000
G1 Z0.200 F420
G1 E128.3397 F1800
G1 X-40.00 Y22.00 E128.5476 F300
G1 X-30.00 Y22.00 F60
G1 Z0.300 F420
G1 X0.00 Y22.00 E131.5410 F601
G1 Z0.200 F420
G1 E133.5410 F1800
G1 X20.00 Y22.00 E129.5410 F600
G1 E131.5410 F1800
G1 X40.00 Y22.00 E135.5410 F600
G1 E131.5410 F2400
G1 Z0.500 F420
G1 Z0.200
G1 E135.5410 F1800
G1 X45.00 Y22.00 E135.7489 F300
G1 E131.7489 F2400
G1 Z0.500 F420
G1 X-45.00 Y20.00 F6000
G1 Z0.200 F420
G1 E135.7489 F1800
G1 X-40.00 Y20.00 E135.9567 F300
G1 X-30.00 Y20.00 F60
G1 Z0.300 F420
G1 X0.00 Y20.00 E139.2495 F547
G1 Z0.200 F420
G1 E141.2495 F1800
G1 X20.00 Y20.00 E137.2495 F600
G1 E139.2495 F1800
G1 X40.00 Y20.00 E143.2495 F600
G1 E139.2495 F2400
G1 Z0.500 F420
G1 Z0.200
G1 E143.2495 F1800
G1 X45.00 Y20.00 E143.4574 F300
G1 E139.4574 F2400
G1 Z0.500 F420
G1 X-45.00 Y18.00 F6000
G1 Z0.200 F420
G1 E143.4574 F1800
G1 X-40.00 Y18.00 E143.6652 F300
G1 X-30.00 Y18.00 F60
G1 Z0.300 F420
G1 X0.00 Y18.00 E147.2573 F501
G1 Z0.200 F420
G1 E149.2573 F1800
G1 X20.00 Y18.00 E145.2573 F600
G1 E147.2573 F1800
G1 X40.00 Y18.00 E151.2573 F600
G1 E147.2573 F2400
G1 Z0.500 F420
G1 Z0.200
G1 E151.2573 F1800
G1 X45.00 Y18.00 E151.4652 F300
G1 E147.4652 F2400
G1 Z0.500 F420
G1 X-45.00 Y16.00 F6000
G1 Z0.200 F420
G1 E151.4652 F1800
G1 X-40.00 Y16.00 E151.6731 F300
G1 X-30.00 Y16.00 F60
G1 Z0.300 F420
G1 X0.00 Y16.00 E155.5645 F463
G1 Z0.200 F420
G1 E157.5645 F1800
G1 X20.00 Y16.00 E153.5645 F600
G1 E155.5645 F1800
G1 X40.00 Y16.00 E159.5645 F600
G1 E155.5645 F2400
G1 Z0.500 F420
G1 Z0.200
G1 E159.5645 F1800
G1 X45.00 Y16.00 E159.7724 F300
G1 E155.7724 F2400
G1 Z0.500 F420
G1 X-45.00 Y14.00 F6000
G1 Z0.200 F420
G1 E159.7724 F1800
G1 X-40.00 Y14.00 E159.9803 F300
G1 X-30.00 Y14.00 F60
G1 Z0.300 F420
G1 X0.00 Y14.00 E164.1711 F430
G1 Z0.200 F420
G1 E166.1711 F1800
G1 X20.00 Y14.00 E162.1711 F600
G1 E164.1711 F1800
G1 X40.00 Y14.00 E168.1711 F600
G1 E164.1711 F2400
G1 Z0.500 F420
G1 Z0.200
G1 E168.1711 F1800
G1 X45.00 Y14.00 E168.3789 F300
G1 E164.3789 F2400
G1 Z0.500 F420
G1 X-45.00 Y12.00 F6000
G1 Z0.200 F420
G1 E168.3789 F1800
G1 X-40.00 Y12.00 E168.5868 F300
G1 X-30.00 Y12.00 F60
G1 Z0.300 F420
G1 X0.00 Y12.00 E173.0769 F401
G1 Z0.200 F420
G1 E175.0769 F1800
G1 X20.00 Y12.00 E171.0769 F600
G1 E173.0769 F1800
G1 X40.00 Y12.00 E177.0769 F600
G1 E173.0769 F2400
G1 Z0.500 F420
G1 Z0.200
G1 E177.0769 F1800
G1 X45.00 Y12.00 E177.2848 F300
G1 E173.2848 F2400
G1 Z0.500 F420
G1 X-45.00 Y10.00 F6000
G1 Z0.200 F420
G1 E177.2848 F1800
G1 X-40.00 Y10.00 E177.4927 F300
G1 X-30.00 Y10.00 F60
G1 Z0.300 F420
G1 X0.00 Y10.00 E182.2821 F376
G1 Z0.200 F420
G1 E184.2821 F1800
G1 X20.00 Y10.00 E180.2821 F600
G1 E182.2821 F1800
G1 X40.00 Y10.00 E186.2821 F600
G1 E182.2821 F2400
G1 Z0.500 F420
G1 Z0.200
G1 E186.2821 F1800
G1 X45.00 Y10.00 E186.4900 F300
G1 E182.4900 F2400
G1 Z0.500 F420
G1 X-45.00 Y8.00 F6000
G1 Z0.200 F420
G1 E186.4900 F1800
G1 X-40.00 Y8.00 E186.6979 F300
G1 X-30.00 Y8.00 F60
G1 Z0.300 F420
G1 X0.00 Y8.00 E191.7867 F354
G1 Z0.200 F420
G1 E193.7867 F1800
G1 X20.00 Y8.00 E189.7867 F600
G1 E191.7867 F1800
G1 X40.00 Y8.00 E195.7867 F600
G1 E191.7867 F2400
G1 Z0.500 F420
G1 Z0.200
G1 E195.7867 F1800
G1 X45.00 Y8.00 E195.9946 F300
G1 E191.9946 F2400
G1 Z0.500 F420
G1 X-45.00 Y6.00 F6000
G1 Z0.200 F420
G1 E195.9946 F1800
G1 X-40.00 Y6.00 E196.2024 F300
G1 X-30.00 Y6.00 F60
G1 Z0.300 F420
G1 X0.00 Y6.00 E201.5906 F334
G1 Z0.200 F420
G1 E203.5906 F1800
G1 X20.00 Y6.00 E199.5906 F600
G1 E201.5906 F1800
G1 X40.00 Y6.00 E205.5906 F600
G1 E201.5906 F2400
G1 Z0.500 F420
G1 Z0.200
G1 E205.5906 F1800
G1 X45.00 Y6.00 E205.7985 F300
G1 E201.7985 F2400
G1 Z0.500 F420
G1 X-45.00 Y4.00 F6000
G1 Z0.200 F420
G1 E205.7985 F1800
G1 X-40.00 Y4.00 E206.0063 F300
G1 X-30.00 Y4.00 F60
G1 Z0.300 F420
G1 X0.00 Y4.00 E211.6938 F316
G1 Z0.200 F420
G1 E213.6938 F1800
G1 X20.00 Y4.00 E209.6938 F600
G1 E211.6938 F1800
G1 X40.00 Y4.00 E215.6938 F600
G1 E211.6938 F2400
G1 Z0.500 F420
G1 Z0.200
G1 E215.6938 F1800
G1 X45.00 Y4.00 E215.9017 F300
G1 E211.9017 F2400
G1 Z0.500 F420
G1 X-45.00 Y2.00 F6000
G1 Z0.200 F420
G1 E215.9017 F1800
G1 X-40.00 Y2.00 E216.1096 F300
G1 X-30.00 Y2.00 F60
G1 Z0.300 F420
G1 X0.00 Y2.00 E222.0964 F301
G1 Z0.200 F420
G1 E224.0964 F1800
G1 X20.00 Y2.00 E220.0964 F600
G1 E222.0964 F1800
G1 X40.00 Y2.00 E226.0964 F600
G1 E222.0964 F2400
G1 Z0.500 F420
G1 Z0.200
G1 E226.0964 F1800
G1 X45.00 Y2.00 E226.3043 F300
G1 E222.3043 F2400
G1 Z0.500 F420
;structure:shell-outer
G1 X-45.00 Y-3.00 F6000
G1 Z0.300 F420
G1 E226.3043 F1800
G1 X45.00 Y-3.00 E231.9169 F600
G1 E227.9169 F2400
G1 Z0.500 F420
G1 X-42.00 Y-3.00 F6000
G1 X-40.00 Y-3.00
G1 Z0.300 F420
G1 E231.9169 F1800
G1 X-40.00 Y-6.00 E232.1040 F600
G1 E228.1040 F2400
G1 Z0.500 F420
G1 X-38.00 Y-3.00 F6000
G1 Z0.300 F420
G1 E232.1040 F1800
G1 X-38.00 Y-4.50 E232.1976 F600
G1 E228.1976 F2400
G1 Z0.500 F420
G1 X-36.00 Y-3.00 F6000
G1 Z0.300 F420
G1 E232.1976 F1800
G1 X-36.00 Y-4.50 E232.2911 F600
G1 E228.2911 F2400
G1 Z0.500 F420
G1 X-34.00 Y-3.00 F6000
G1 Z0.300 F420
G1 E232.2911 F1800
G1 X-34.00 Y-4.50 E232.3846 F600
G1 E228.3846 F2400
G1 Z0.500 F420
G1 X-32.00 Y-3.00 F6000
G1 Z0.300 F420
G1 E232.3846 F1800
G1 X-32.00 Y-4.50 E232.4782 F600
G1 E228.4782 F2400
G1 Z0.500 F420
G1 X-30.00 Y-3.00 F6000
G1 Z0.300 F420
G1 E232.4782 F1800
G1 X-30.00 Y-6.00 E232.6653 F600
G1 E228.6653 F2400
G1 Z0.500 F420
G1 X-28.00 Y-3.00 F6000
G1 Z0.300 F420
G1 E232.6653 F1800
G1 X-28.00 Y-4.50 E232.7588 F600
G1 E228.7588 F2400
G1 Z0.500 F420
G1 X-26.00 Y-3.00 F6000
G1 Z0.300 F420
G1 E232.7588 F1800
G1 X-26.00 Y-4.50 E232.8524 F600
G1 E228.8524 F2400
G1 Z0.500 F420
G1 X-24.00 Y-3.00 F6000
G1 Z0.300 F420
G1 E232.8524 F1800
G1 X-24.00 Y-4.50 E232.9459 F600
G1 E228.9459 F2400
G1 Z0.500 F420
G1 X-22.00 Y-3.00 F6000
G1 Z0.300 F420
G1 E232.9459 F1800
G1 X-22.00 Y-4.50 E233.0395 F600
G1 E229.0395 F2400
G1 Z0.500 F420
G1 X-20.00 Y-3.00 F6000
G1 Z0.300 F420
G1 E233.0395 F1800
G1 X-20.00 Y-6.00 E233.2265 F600
G1 E229.2265 F2400
G1 Z0.500 F420
G1 X-18.00 Y-3.00 F6000
G1 Z0.300 F420
G1 E233.2265 F1800
G1 X-18.00 Y-4.50 E233.3201 F600
G1 E229.3201 F2400
G1 Z0.500 F420
G1 X-16.00 Y-3.00 F6000
G1 Z0.300 F420
G1 E233.3201 F1800
G1 X-16.00 Y-4.50 E233.4136 F600
G1 E229.4136 F2400
G1 Z0.500 F420
G1 X-14.00 Y-3.00 F6000
G1 Z0.300 F420
G1 E233.4136 F1800
G1 X-14.00 Y-4.50 E233.5072 F600
G1 E229.5072 F2400
G1 Z0.500 F420
G1 X-12.00 Y-3.00 F6000
G1 Z0.300 F420
G1 E233.5072 F1800
G1 X-12.00 Y-4.50 E233.6007 F600
G1 E229.6007 F2400
G1 Z0.500 F420
G1 X-10.00 Y-3.00 F6000
G1 Z0.300 F420
G1 E233.6007 F1800
G1 X-10.00 Y-6.00 E233.7878 F600
G1 E229.7878 F2400
G1 Z0.500 F420
G1 X-8.00 Y-3.00 F6000
G1 Z0.300 F420
G1 E233.7878 F1800
G1 X-8.00 Y-4.50 E233.8814 F600
G1 E229.8814 F2400
G1 Z0.500 F420
G1 X-6.00 Y-3.00 F6000
G1 Z0.300 F420
G1 E233.8814 F1800
G1 X-6.00 Y-4.50 E233.9749 F600
G1 E229.9749 F2400
G1 Z0.500 F420
G1 X-4.00 Y-3.00 F6000
G1 Z0.300 F420
G1 E233.9749 F1800
G1 X-4.00 Y-4.50 E234.0684 F600
G1 E230.0684 F2400
G1 Z0.500 F420
G1 X-2.00 Y-3.00 F6000
G1 Z0.300 F420
G1 E234.0684 F1800
G1 X-2.00 Y-4.50 E234.1620 F600
G1 E230.1620 F2400
G1 Z0.500 F420
G1 X0.00 Y-3.00 F6000
G1 Z0.300 F420
G1 E234.1620 F1800
G1 X0.00 Y-6.00 E234.3491 F600
G1 E230.3491 F2400
G1 Z0.500 F420
G1 X2.00 Y-3.00 F6000
G1 Z0.300 F420
G1 E234.3491 F1800
G1 X2.00 Y-4.50 E234.4426 F600
G1 E230.4426 F2400
G1 Z0.500 F420
G1 X4.00 Y-3.00 F6000
G1 Z0.300 F420
G1 E234.4426 F1800
G1 X4.00 Y-4.50 E234.5362 F600
G1 E230.5362 F2400
G1 Z0.500 F420
G1 X6.00 Y-3.00 F6000
G1 Z0.300 F420
G1 E234.5362 F1800
G1 X6.00 Y-4.50 E234.6297 F600
G1 E230.6297 F2400
G1 Z0.500 F420
G1 X8.00 Y-3.00 F6000
G1 Z0.300 F420
G1 E234.6297 F1800
G1 X8.00 Y-4.50 E234.7232 F600
G1 E230.7232 F2400
G1 Z0.500 F420
G1 X10.00 Y-3.00 F6000
G1 Z0.300 F420
G1 E234.7232 F1800
G1 X10.00 Y-6.00 E234.9103 F600
G1 E230.9103 F2400
G1 Z0.500 F420
G1 X12.00 Y-3.00 F6000
G1 Z0.300 F420
G1 E234.9103 F1800
G1 X12.00 Y-4.50 E235.0039 F600
G1 E231.0039 F2400
G1 Z0.500 F420
G1 X14.00 Y-3.00 F6000
G1 Z0.300 F420
G1 E235.0039 F1800
G1 X14.00 Y-4.50 E235.0974 F600
G1 E231.0974 F2400
G1 Z0.500 F420
G1 X16.00 Y-3.00 F6000
G1 Z0.300 F420
G1 E235.0974 F1800
G1 X16.00 Y-4.50 E235.1910 F600
G1 E231.1910 F2400
G1 Z0.500 F420
G1 X18.00 Y-3.00 F6000
G1 Z0.300 F420
G1 E235.1910 F1800
G1 X18.00 Y-4.50 E235.2845 F600
G1 E231.2845 F2400
G1 Z0.500 F420
G1 X20.00 Y-3.00 F6000
G1 Z0.300 F420
G1 E235.2845 F1800
G1 X20.00 Y-6.00 E235.4716 F600
G1 E231.4716 F2400
G1 Z0.500 F420
G1 X22.00 Y-3.00 F6000
G1 Z0.300 F420
G1 E235.4716 F1800
G1 X22.00 Y-4.50 E235.5651 F600
G1 E231.5651 F2400
G1 Z0.500 F420
G1 X24.00 Y-3.00 F6000
G1 Z0.300 F420
G1 E235.5651 F1800
G1 X24.00 Y-4.50 E235.6587 F600
G1 E231.6587 F2400
G1 Z0.500 F420
G1 X26.00 Y-3.00 F6000
G1 Z0.300 F420
G1 E235.6587 F1800
G1 X26.00 Y-4.50 E235.7522 F600
G1 E231.7522 F2400
G1 Z0.500 F420
G1 X28.00 Y-3.00 F6000
G1 Z0.300 F420
G1 E235.7522 F1800
G1 X28.00 Y-4.50 E235.8458 F600
G1 E231.8458 F2400
G1 Z0.500 F420
G1 X30.00 Y-3.00 F6000
G1 Z0.300 F420
G1 E235.8458 F1800
G1 X30.00 Y-6.00 E236.0329 F600
G1 E232.0329 F2400
G1 Z0.500 F420
G1 X32.00 Y-3.00 F6000
G1 Z0.300 F420
G1 E236.0329 F1800
G1 X32.00 Y-4.50 E236.1264 F600
G1 E232.1264 F2400
G1 Z0.500 F420
G1 X34.00 Y-3.00 F6000
G1 Z0.300 F420
G1 E236.1264 F1800
G1 X34.00 Y-4.50 E236.2200 F600
G1 E232.2200 F2400
G1 Z0.500 F420
G1 X36.00 Y-3.00 F6000
G1 Z0.300 F420
G1 E236.2200 F1800
G1 X36.00 Y-4.50 E236.3135 F600
G1 E232.3135 F2400
G1 Z0.500 F420
G1 X38.00 Y-3.00 F6000
G1 Z0.300 F420
G1 E236.3135 F1800
G1 X38.00 Y-4.50 E236.4070 F600
G1 E232.4070 F2400
G1 Z0.500 F420
G1 X40.00 Y-3.00 F6000
G1 Z0.300 F420
G1 E236.4070 F1800
G1 X40.00 Y-6.00 E236.5941 F600
G1 E232.5941 F2400
G1 Z0.500 F420
;structure:brim
;structure:shell-outer
G1 X46.50 Y-4.11 F6000
G1 Z0.300 F420
G1 E236.5941 F1800
G1 X47.52 Y-6.52 E236.7573 F600
G1 X48.54 Y-4.11 E236.9205
G1 E232.9205 F2400
G1 Z0.500 F420
G1 X49.60 Y-5.31 F6000
G1 Z0.300 F420
G1 E236.9205 F1800
G1 X51.74 Y-5.31 E237.0540 F600
G1 X51.66 Y-4.78 E237.0874
G1 X51.45 Y-4.39 E237.1150
G1 X51.11 Y-4.14 E237.1414
G1 X50.67 Y-4.05 E237.1694
G1 X50.24 Y-4.14 E237.1968
G1 X49.90 Y-4.39 E237.2231
G1 X49.68 Y-4.78 E237.2510
G1 X49.60 Y-5.31 E237.2844
G1 X49.68 Y-5.85 E237.3185
G1 X49.91 Y-6.25 E237.3473
G1 X50.26 Y-6.49 E237.3737
G1 X50.72 Y-6.58 E237.4030
G1 X51.06 Y-6.53 E237.4244
G1 X51.35 Y-6.39 E237.4445
G1 X51.56 Y-6.17 E237.4634
G1 X51.68 Y-5.87 E237.4836
G1 E233.4836 F2400
G1 Z0.500 F420
G1 X52.80 Y-4.74 F6000
G1 Z0.300 F420
G1 E237.4836 F1800
G1 X54.49 Y-4.74 E237.5890 F600
G1 E233.5890 F2400
G1 Z0.500 F420
G1 X54.49 Y-5.45 F6000
G1 Z0.300 F420
G1 E237.5890 F1800
G1 X52.80 Y-5.45 E237.6944 F600
G1 E233.6944 F2400
G1 Z0.500 F420
G1 X55.55 Y-4.00 F6000
G1 Z0.300 F420
G1 E237.6944 F1800
G1 X56.02 Y-3.76 E237.7273 F600
G1 X56.39 Y-3.45 E237.7574
G1 X56.64 Y-3.12 E237.7832
G1 X56.64 Y-6.52 E237.9952
G1 E233.9952 F2400
G1 Z0.500 F420
G1 X57.70 Y-6.29 F6000
G1 Z0.300 F420
G1 E237.9952 F1800
G1 X57.70 Y-6.35 E237.9990 F600
G1 E233.9990 F2400
G1 Z0.500 F420
G1 X59.99 Y-3.06 F6000
G1 Z0.300 F420
G1 E237.9990 F1800
G1 X60.50 Y-3.20 E238.0320 F600
G1 X60.89 Y-3.58 E238.0659
G1 X61.12 Y-4.14 E238.1037
G1 X61.21 Y-4.82 E238.1465
G1 X61.12 Y-5.49 E238.1886
G1 X60.89 Y-6.05 E238.2264
G1 X60.50 Y-6.44 E238.2608
G1 X59.99 Y-6.58 E238.2938
G1 X59.46 Y-6.44 E238.3280
G1 X59.09 Y-6.05 E238.3615
G1 X58.85 Y-5.49 E238.3995
G1 X58.77 Y-4.82 E238.4416
G1 X58.85 Y-4.15 E238.4836
G1 X59.09 Y-3.58 E238.5222
G1 X59.46 Y-3.20 E238.5553
G1 X59.99 Y-3.06 E238.5895
G1 E234.5895 F2400
G1 Z0.500 F420
G1 X46.50 Y-8.12 F6000
G1 Z0.300 F420
G1 E238.5895 F1800
G1 X46.50 Y-11.52 E238.8015 F600
G1 E234.8015 F2400
G1 Z0.500 F420
G1 X46.50 Y-9.77 F6000
G1 Z0.300 F420
G1 E238.8015 F1800
G1 X46.75 Y-9.47 E238.8259 F600
G1 X46.98 Y-9.25 E238.8457
G1 X47.20 Y-9.12 E238.8617
G1 X47.40 Y-9.07 E238.8745
G1 X47.59 Y-9.05 E238.8864
G1 X47.91 Y-9.12 E238.9069
G1 X48.14 Y-9.29 E238.9247
G1 X48.24 Y-9.49 E238.9387
G1 X48.33 Y-9.92 E238.9661
G1 X48.33 Y-11.52 E239.0658
G1 E235.0658 F2400
G1 Z0.500 F420
G1 X49.39 Y-9.74 F6000
G1 Z0.300 F420
G1 E239.0658 F1800
G1 X51.08 Y-9.74 E239.1712 F600
G1 E235.1712 F2400
G1 Z0.500 F420
G1 X51.08 Y-10.45 F6000
G1 Z0.300 F420
G1 E239.1712 F1800
G1 X49.39 Y-10.45 E239.2766 F600
G1 E235.2766 F2400
G1 Z0.500 F420
G1 X53.36 Y-8.06 F6000
G1 Z0.300 F420
G1 E239.2766 F1800
G1 X53.87 Y-8.20 E239.3096 F600
G1 X54.26 Y-8.58 E239.3436
G1 X54.50 Y-9.14 E239.3816
G1 X54.58 Y-9.82 E239.4243
G1 X54.50 Y-10.49 E239.4664
G1 X54.26 Y-11.05 E239.5044
G1 X53.87 Y-11.44 E239.5388
G1 X53.36 Y-11.58 E239.5717
G1 X52.84 Y-11.44 E239.6053
G1 X52.46 Y-11.05 E239.6393
G1 X52.22 Y-10.49 E239.6773
G1 X52.14 Y-9.82 E239.7194
G1 X52.22 Y-9.15 E239.7614
G1 X52.46 Y-8.58 E239.8000
G1 X52.84 Y-8.20 E239.8335
G1 X53.36 Y-8.06 E239.8671
G1 E235.8671 F2400
G1 Z0.500 F420
G1 X55.64 Y-11.29 F6000
G1 Z0.300 F420
G1 E239.8671 F1800
G1 X55.64 Y-11.35 E239.8709 F600
G1 E235.8709 F2400
G1 Z0.500 F420
G1 X56.71 Y-8.56 F6000
G1 Z0.300 F420
G1 E239.8709 F1800
G1 X56.90 Y-8.35 E239.8885 F600
G1 X57.13 Y-8.19 E239.9060
G1 X57.39 Y-8.10 E239.9231
G1 X57.67 Y-8.06 E239.9408
G1 X58.04 Y-8.12 E239.9642
G1 X58.34 Y-8.32 E239.9867
G1 X58.53 Y-8.61 E240.0083
G1 X58.60 Y-8.98 E240.0318
G1 X58.50 Y-9.37 E240.0569
G1 X58.22 Y-9.73 E240.0853
G1 X57.44 Y-10.36 E240.1479
G1 X57.14 Y-10.77 E240.1795
G1 X56.75 Y-11.52 E240.2323
G1 X58.57 Y-11.52 E240.3458
G1 E236.3458 F2400
G1 Z0.500 F420
G1 X46.50 Y-14.11 F6000
G1 Z0.300 F420
G1 E240.3458 F1800
G1 X47.36 Y-16.52 E240.5054 F600
G1 X48.10 Y-14.11 E240.6626
G1 X48.87 Y-16.52 E240.8204
G1 X49.71 Y-14.11 E240.9796
G1 E236.9796 F2400
G1 Z0.500 F420
G1 X50.77 Y-14.74 F6000
G1 Z0.300 F420
G1 E240.9796 F1800
G1 X52.46 Y-14.74 E241.0850 F600
G1 E237.0850 F2400
G1 Z0.500 F420
G1 X52.46 Y-15.45 F6000
G1 Z0.300 F420
G1 E241.0850 F1800
G1 X50.77 Y-15.45 E241.1904 F600
G1 E237.1904 F2400
G1 Z0.500 F420
G1 X54.74 Y-13.06 F6000
G1 Z0.300 F420
G1 E241.1904 F1800
G1 X55.25 Y-13.20 E241.2234 F600
G1 X55.64 Y-13.58 E241.2574
G1 X55.88 Y-14.14 E241.2954
G1 X55.96 Y-14.82 E241.3381
G1 X55.88 Y-15.49 E241.3801
G1 X55.64 Y-16.05 E241.4181
G1 X55.25 Y-16.44 E241.4525
G1 X54.74 Y-16.58 E241.4855
G1 X54.22 Y-16.44 E241.5191
G1 X53.84 Y-16.05 E241.5531
G1 X53.60 Y-15.49 E241.5911
G1 X53.52 Y-14.82 E241.6332
G1 X53.60 Y-14.15 E241.6752
G1 X53.84 Y-13.58 E241.7138
G1 X54.22 Y-13.20 E241.7473
G1 X54.74 Y-13.06 E241.7809
G1 E237.7809 F2400
G1 Z0.500 F420
G1 X57.02 Y-16.29 F6000
G1 Z0.300 F420
G1 E241.7809 F1800
G1 X57.02 Y-16.35 E241.7847 F600
G1 E237.7847 F2400
G1 Z0.500 F420
G1 X58.14 Y-13.87 F6000
G1 Z0.300 F420
G1 E241.7847 F1800
G1 X58.25 Y-13.53 E241.8070 F600
G1 X58.46 Y-13.27 E241.8278
G1 X58.75 Y-13.11 E241.8485
G1 X59.09 Y-13.06 E241.8699
G1 X59.48 Y-13.13 E241.8946
G1 X59.77 Y-13.32 E241.9162
G1 X59.95 Y-13.59 E241.9365
G1 X60.02 Y-13.94 E241.9587
G1 X59.95 Y-14.15 E241.9725
G1 X59.81 Y-14.32 E241.9863
G1 X59.44 Y-14.55 E242.0134
G1 X59.00 Y-14.70 E242.0424
G1 X59.44 Y-14.82 E242.0709
G1 X59.80 Y-14.98 E242.0954
G1 X60.09 Y-15.26 E242.1206
G1 X60.19 Y-15.55 E242.1397
G1 X60.12 Y-15.97 E242.1663
G1 X59.89 Y-16.30 E242.1914
G1 X59.55 Y-16.50 E242.2160
G1 X59.12 Y-16.58 E242.2432
G1 X58.73 Y-16.52 E242.2678
G1 X58.41 Y-16.35 E242.2904
G1 X58.19 Y-16.08 E242.3122
G1 X58.09 Y-15.72 E242.3355
G1 E238.3355 F2400
G1 Z0.500 F420
G1 X61.25 Y-15.10 F6000
G1 Z0.300 F420
G1 E242.3355 F1800
G1 X63.12 Y-15.10 E242.4521 F600
G1 E238.4521 F2400
G1 Z0.500 F420
G1 X65.40 Y-13.06 F6000
G1 Z0.300 F420
G1 E242.4521 F1800
G1 X65.91 Y-13.20 E242.4851 F600
G1 X66.30 Y-13.58 E242.5190
G1 X66.54 Y-14.14 E242.5570
G1 X66.62 Y-14.82 E242.5997
G1 X66.54 Y-15.49 E242.6418
G1 X66.30 Y-16.05 E242.6798
G1 X65.91 Y-16.44 E242.7142
G1 X65.40 Y-16.58 E242.7472
G1 X64.88 Y-16.44 E242.7808
G1 X64.50 Y-16.05 E242.8147
G1 X64.26 Y-15.49 E242.8527
G1 X64.18 Y-14.82 E242.8948
G1 X64.26 Y-14.15 E242.9369
G1 X64.50 Y-13.58 E242.9755
G1 X64.88 Y-13.20 E243.0090
G1 X65.40 Y-13.06 E243.0426
G1 E239.0426 F2400
G1 Z0.500 F420
G1 X67.69 Y-16.29 F6000
G1 Z0.300 F420
G1 E243.0426 F1800
G1 X67.69 Y-16.35 E243.0463 F600
G1 E239.0463 F2400
G1 Z0.500 F420
G1 X69.77 Y-13.08 F6000
G1 Z0.300 F420
G1 E243.0463 F1800
G1 X70.13 Y-13.14 E243.0691 F600
G1 X70.41 Y-13.29 E243.0889
G1 X70.60 Y-13.54 E243.1085
G1 X70.67 Y-13.89 E243.1307
G1 X70.53 Y-14.34 E243.1601
G1 X70.24 Y-14.60 E243.1844
G1 X69.31 Y-14.88 E243.2450
G1 X68.92 Y-15.16 E243.2749
G1 X68.75 Y-15.65 E243.3073
G1 X68.83 Y-16.05 E243.3327
G1 X69.04 Y-16.34 E243.3550
G1 X69.37 Y-16.52 E243.3785
G1 X69.77 Y-16.58 E243.4037
G1 X70.18 Y-16.52 E243.4296
G1 X70.51 Y-16.34 E243.4530
G1 X70.72 Y-16.05 E243.4753
G1 X70.80 Y-15.65 E243.5008
G1 X70.63 Y-15.16 E243.5331
G1 X70.24 Y-14.88 E243.5631
G1 X69.31 Y-14.60 E243.6236
G1 X69.02 Y-14.34 E243.6479
G1 X68.88 Y-13.89 E243.6773
G1 X68.95 Y-13.54 E243.6996
G1 X69.14 Y-13.29 E243.7192
G1 X69.42 Y-13.14 E243.7390
G1 X69.77 Y-13.08 E243.7611
G1 E239.7611 F2400
G1 Z0.500 F420
G1 X46.50 Y-21.52 F6000
G1 Z0.300 F420
G1 E243.7611 F1800
G1 X46.50 Y-19.11 E243.9114 F600
G1 E239.9114 F2400
G1 Z0.500 F420
G1 X46.50 Y-19.80 F6000
G1 Z0.300 F420
G1 E243.9114 F1800
G1 X46.75 Y-19.45 E243.9382 F600
G1 X46.96 Y-19.24 E243.9568
G1 X47.16 Y-19.12 E243.9713
G1 X47.35 Y-19.06 E243.9837
G1 X47.51 Y-19.05 E243.9937
G1 X47.56 Y-19.05 E243.9969
G1 X47.61 Y-19.06 E244.0000
G1 E240.0000 F2400
G1 Z0.500 F420
G1 X49.89 Y-18.06 F6000
G1 Z0.300 F420
G1 E244.0000 F1800
G1 X50.40 Y-18.20 E244.0330 F600
G1 X50.79 Y-18.58 E244.0670
G1 X51.03 Y-19.14 E244.1050
G1 X51.11 Y-19.82 E244.1477
G1 X51.03 Y-20.49 E244.1898
G1 X50.79 Y-21.05 E244.2278
G1 X50.40 Y-21.44 E244.2622
G1 X49.89 Y-21.58 E244.2951
G1 X49.37 Y-21.44 E244.3287
G1 X48.99 Y-21.05 E244.3627
G1 X48.75 Y-20.49 E244.4007
G1 X48.67 Y-19.82 E244.4428
G1 X48.75 Y-19.15 E244.4848
G1 X48.99 Y-18.58 E244.5234
G1 X49.37 Y-18.20 E244.5569
G1 X49.89 Y-18.06 E244.5905
G1 E240.5905 F2400
G1 Z0.500 F420
G1 X52.17 Y-19.74 F6000
G1 Z0.300 F420
G1 E244.5905 F1800
G1 X53.86 Y-19.74 E244.6959 F600
G1 E240.6959 F2400
G1 Z0.500 F420
G1 X53.86 Y-20.45 F6000
G1 Z0.300 F420
G1 E244.6959 F1800
G1 X52.17 Y-20.45 E244.8013 F600
G1 E240.8013 F2400
G1 Z0.500 F420
G1 X56.14 Y-18.06 F6000
G1 Z0.300 F420
G1 E244.8013 F1800
G1 X56.65 Y-18.20 E244.8343 F600
G1 X57.04 Y-18.58 E244.8683
G1 X57.28 Y-19.14 E244.9062
G1 X57.36 Y-19.82 E244.9489
G1 X57.28 Y-20.49 E244.9910
G1 X57.04 Y-21.05 E245.0290
G1 X56.65 Y-21.44 E245.0634
G1 X56.14 Y-21.58 E245.0964
G1 X55.62 Y-21.44 E245.1300
G1 X55.24 Y-21.05 E245.1640
G1 X55.00 Y-20.49 E245.2019
G1 X54.92 Y-19.82 E245.2440
G1 X55.00 Y-19.15 E245.2861
G1 X55.24 Y-18.58 E245.3247
G1 X55.62 Y-18.20 E245.3582
G1 X56.14 Y-18.06 E245.3918
G1 E241.3918 F2400
G1 Z0.500 F420
G1 X58.43 Y-21.29 F6000
G1 Z0.300 F420
G1 E245.3918 F1800
G1 X58.43 Y-21.35 E245.3955 F600
G1 E241.3955 F2400
G1 Z0.500 F420
G1 X60.71 Y-18.06 F6000
G1 Z0.300 F420
G1 E245.3955 F1800
G1 X61.22 Y-18.20 E245.4285 F600
G1 X61.61 Y-18.58 E245.4625
G1 X61.85 Y-19.14 E245.5005
G1 X61.93 Y-19.82 E245.5432
G1 X61.85 Y-20.49 E245.5853
G1 X61.61 Y-21.05 E245.6233
G1 X61.22 Y-21.44 E245.6577
G1 X60.71 Y-21.58 E245.6906
G1 X60.19 Y-21.44 E245.7242
G1 X59.81 Y-21.05 E245.7582
G1 X59.57 Y-20.49 E245.7962
G1 X59.49 Y-19.82 E245.8383
G1 X59.57 Y-19.15 E245.8803
G1 X59.81 Y-18.58 E245.9189
G1 X60.19 Y-18.20 E245.9524
G1 X60.71 Y-18.06 E245.9860
G1 E241.9860 F2400
G1 Z0.500 F420
G1 X46.50 Y-26.52 F6000
G1 Z0.300 F420
G1 E245.9860 F1800
G1 X46.50 Y-24.11 E246.1363 F600
G1 E242.1363 F2400
G1 Z0.500 F420
G1 X46.50 Y-24.80 F6000
G1 Z0.300 F420
G1 E246.1363 F1800
G1 X46.75 Y-24.45 E246.1631 F600
G1 X46.96 Y-24.24 E246.1817
G1 X47.16 Y-24.12 E246.1962
G1 X47.35 Y-24.06 E246.2086
G1 X47.51 Y-24.05 E246.2186
G1 X47.56 Y-24.05 E246.2218
G1 X47.61 Y-24.06 E246.2249
G1 E242.2249 F2400
G1 Z0.500 F420
G1 X48.67 Y-25.31 F6000
G1 Z0.300 F420
G1 E246.2249 F1800
G1 X50.81 Y-25.31 E246.3584 F600
G1 X50.73 Y-24.78 E246.3918
G1 X50.52 Y-24.39 E246.4195
G1 X50.18 Y-24.14 E246.4458
G1 X49.74 Y-24.05 E246.4738
G1 X49.31 Y-24.14 E246.5012
G1 X48.97 Y-24.39 E246.5275
G1 X48.75 Y-24.78 E246.5554
G1 X48.67 Y-25.31 E246.5888
G1 X48.75 Y-25.85 E246.6229
G1 X48.98 Y-26.25 E246.6517
G1 X49.33 Y-26.49 E246.6781
G1 X49.79 Y-26.58 E246.7074
G1 X50.13 Y-26.53 E246.7288
G1 X50.42 Y-26.39 E246.7489
G1 X50.63 Y-26.17 E246.7679
G1 X50.75 Y-25.87 E246.7880
G1 E242.7880 F2400
G1 Z0.500 F420
G1 X51.87 Y-24.74 F6000
G1 Z0.300 F420
G1 E246.7880 F1800
G1 X53.56 Y-24.74 E246.8934 F600
G1 E242.8934 F2400
G1 Z0.500 F420
G1 X53.56 Y-25.45 F6000
G1 Z0.300 F420
G1 E246.8934 F1800
G1 X51.87 Y-25.45 E246.9988 F600
G1 E242.9988 F2400
G1 Z0.500 F420
G1 X56.33 Y-26.52 F6000
G1 Z0.300 F420
G1 E246.9988 F1800
G1 X56.33 Y-23.12 E247.2108 F600
G1 X54.62 Y-25.35 E247.3861
G1 X56.93 Y-25.35 E247.5301
G1 E243.5301 F2400
G1 Z0.500 F420
G1 X58.00 Y-26.29 F6000
G1 Z0.300 F420
G1 E247.5301 F1800
G1 X58.00 Y-26.35 E247.5339 F600
G1 E243.5339 F2400
G1 Z0.500 F420
G1 X60.28 Y-23.06 F6000
G1 Z0.300 F420
G1 E247.5339 F1800
G1 X60.79 Y-23.20 E247.5669 F600
G1 X61.18 Y-23.58 E247.6008
G1 X61.42 Y-24.14 E247.6388
G1 X61.50 Y-24.82 E247.6815
G1 X61.42 Y-25.49 E247.7236
G1 X61.18 Y-26.05 E247.7616
G1 X60.79 Y-26.44 E247.7960
G1 X60.28 Y-26.58 E247.8290
G1 X59.76 Y-26.44 E247.8626
G1 X59.38 Y-26.05 E247.8965
G1 X59.14 Y-25.49 E247.9345
G1 X59.06 Y-24.82 E247.9766
G1 X59.14 Y-24.15 E248.0187
G1 X59.38 Y-23.58 E248.0573
G1 X59.76 Y-23.20 E248.0908
G1 X60.28 Y-23.06 E248.1244
G1 E244.1244 F2400
G1 Z0.500 F420
;structure:shell-inner
G1 X-45.00 Y-7.00 F6000
G1 Z0.200 F420
G1 E248.1244 F1800
G1 X-40.00 Y-7.00 E248.3322 F300
G1 X-30.00 Y-7.00 F60
G1 X0.00 Y-7.00 E249.0806 F2405
G1 X20.00 Y-7.00 E245.0806 F600
G1 X40.00 Y-7.00 E249.0806
G1 E245.0806 F2400
G1 Z0.500 F420
G1 Z0.200
G1 E249.0806 F1800
G1 X45.00 Y-7.00 E249.2885 F300
G1 E245.2885 F2400
G1 Z0.500 F420
G1 X-45.00 Y-9.00 F6000
G1 Z0.200 F420
G1 E249.2885 F1800
G1 X-40.00 Y-9.00 E249.4963 F300
G1 X-30.00 Y-9.00 F60
G1 X0.00 Y-9.00 E250.3694 F2062
G1 X20.00 Y-9.00 E246.3694 F600
G1 X40.00 Y-9.00 E250.3694
G1 E246.3694 F2400
G1 Z0.500 F420
G1 Z0.200
G1 E250.3694 F1800
G1 X45.00 Y-9.00 E250.5773 F300
G1 E246.5773 F2400
G1 Z0.500 F420
G1 X-45.00 Y-11.00 F6000
G1 Z0.200 F420
G1 E250.5773 F1800
G1 X-40.00 Y-11.00 E250.7852 F300
G1 X-30.00 Y-11.00 F60
G1 X0.00 Y-11.00 E251.7830 F1804
G1 X20.00 Y-11.00 E247.7830 F600
G1 X40.00 Y-11.00 E251.7830
G1 E247.7830 F2400
G1 Z0.500 F420
G1 Z0.200
G1 E251.7830 F1800
G1 X45.00 Y-11.00 E251.9909 F300
G1 E247.9909 F2400
G1 Z0.500 F420
G1 X-45.00 Y-13.00 F6000
G1 Z0.200 F420
G1 E251.9909 F1800
G1 X-40.00 Y-13.00 E252.1987 F300
G1 X-30.00 Y-13.00 F60
G1 X0.00 Y-13.00 E253.3213 F1604
G1 X20.00 Y-13.00 E249.3213 F600
G1 X40.00 Y-13.00 E253.3213
G1 E249.3213 F2400
G1 Z0.500 F420
G1 Z0.200
G1 E253.3213 F1800
G1 X45.00 Y-13.00 E253.5291 F300
G1 E249.5291 F2400
G1 Z0.500 F420
G1 X-45.00 Y-15.00 F6000
G1 Z0.200 F420
G1 E253.5291 F1800
G1 X-40.00 Y-15.00 E253.7370 F300
G1 X-30.00 Y-15.00 F60
G1 X0.00 Y-15.00 E254.9843 F1443
G1 X20.00 Y-15.00 E250.9843 F600
G1 X40.00 Y-15.00 E254.9843
G1 E250.9843 F2400
G1 Z0.500 F420
G1 Z0.200
G1 E254.9843 F1800
G1 X45.00 Y-15.00 E255.1921 F300
G1 E251.1921 F2400
G1 Z0.500 F420
G1 X-45.00 Y-17.00 F6000
G1 Z0.200 F420
G1 E255.1921 F1800
G1 X-40.00 Y-17.00 E255.4000 F300
G1 X-30.00 Y-17.00 F60
G1 X0.00 Y-17.00 E256.7720 F1312
G1 X20.00 Y-17.00 E252.7720 F600
G1 X40.00 Y-17.00 E256.7720
G1 E252.7720 F2400
G1 Z0.500 F420
G1 Z0.200
G1 E256.7720 F1800
G1 X45.00 Y-17.00 E256.9799 F300
G1 E252.9799 F2400
G1 Z0.500 F420
G1 X-45.00 Y-19.00 F6000
G1 Z0.200 F420
G1 E256.9799 F1800
G1 X-40.00 Y-19.00 E257.1878 F300
G1 X-30.00 Y-19.00 F60
G1 X0.00 Y-19.00 E258.6845 F1203
G1 X20.00 Y-19.00 E254.6845 F600
G1 X40.00 Y-19.00 E258.6845
G1 E254.6845 F2400
G1 Z0.500 F420
G1 Z0.200
G1 E258.6845 F1800
G1 X45.00 Y-19.00 E258.8923 F300
G1 E254.8923 F2400
G1 Z0.500 F420
G1 X-45.00 Y-21.00 F6000
G1 Z0.200 F420
G1 E258.8923 F1800
G1 X-40.00 Y-21.00 E259.1002 F300
G1 X-30.00 Y-21.00 F60
G1 X0.00 Y-21.00 E260.7216 F1110
G1 X20.00 Y-21.00 E256.7216 F600
G1 X40.00 Y-21.00 E260.7216
G1 E256.7216 F2400
G1 Z0.500 F420
G1 Z0.200
G1 E260.7216 F1800
G1 X45.00 Y-21.00 E260.9295 F300
G1 E256.9295 F2400
G1 Z0.500 F420
G1 X-45.00 Y-23.00 F6000
G1 Z0.200 F420
G1 E260.9295 F1800
G1 X-40.00 Y-23.00 E261.1374 F300
G1 X-30.00 Y-23.00 F60
G1 X0.00 Y-23.00 E262.8835 F1031
G1 X20.00 Y-23.00 E258.8836 F600
G1 X40.00 Y-23.00 E262.8836
G1 E258.8836 F2400
G1 Z0.500 F420
G1 Z0.200
G1 E262.8836 F1800
G1 X45.00 Y-23.00 E263.0914 F300
G1 E259.0914 F2400
G1 Z0.500 F420
G1 X-45.00 Y-25.00 F6000
G1 Z0.200 F420
G1 E263.0914 F1800
G1 X-40.00 Y-25.00 E263.2993 F300
G1 X-30.00 Y-25.00 F60
G1 X0.00 Y-25.00 E265.1702 F962
G1 X20.00 Y-25.00 E261.1702 F600
G1 X40.00 Y-25.00 E265.1702
G1 E261.1702 F2400
G1 Z0.500 F420
G1 Z0.200
G1 E265.1702 F1800
G1 X45.00 Y-25.00 E265.3781 F300
G1 E261.3781 F2400
G1 Z0.500 F420
G1 X-45.00 Y-27.00 F6000
G1 Z0.200 F420
G1 E265.3781 F1800
G1 X-40.00 Y-27.00 E265.5859 F300
G1 X-30.00 Y-27.00 F60
G1 X0.00 Y-27.00 E267.5815 F902
G1 X20.00 Y-27.00 E263.5815 F600
G1 X40.00 Y-27.00 E267.5815
G1 E263.5815 F2400
G1 Z0.500 F420
G1 Z0.200
G1 E267.5815 F1800
G1 X45.00 Y-27.00 E267.7894 F300
G1 E263.7894 F2400
G1 Z0.500 F420
;structure:shell-outer
G1 X-45.00 Y-32.00 F6000
G1 Z0.300 F420
G1 E267.7894 F1800
G1 X45.00 Y-32.00 E273.4021 F600
G1 E269.4021 F2400
G1 Z0.500 F420
G1 X-42.00 Y-32.00 F6000
G1 X-40.00 Y-32.00
G1 Z0.300 F420
G1 E273.4021 F1800
G1 X-40.00 Y-35.00 E273.5892 F600
G1 E269.5892 F2400
G1 Z0.500 F420
G1 X-38.00 Y-32.00 F6000
G1 Z0.300 F420
G1 E273.5892 F1800
G1 X-38.00 Y-33.50 E273.6827 F600
G1 E269.6827 F2400
G1 Z0.500 F420
G1 X-36.00 Y-32.00 F6000
G1 Z0.300 F420
G1 E273.6827 F1800
G1 X-36.00 Y-33.50 E273.7763 F600
G1 E269.7763 F2400
G1 Z0.500 F420
G1 X-34.00 Y-32.00 F6000
G1 Z0.300 F420
G1 E273.7763 F1800
G1 X-34.00 Y-33.50 E273.8698 F600
G1 E269.8698 F2400
G1 Z0.500 F420
G1 X-32.00 Y-32.00 F6000
G1 Z0.300 F420
G1 E273.8698 F1800
G1 X-32.00 Y-33.50 E273.9633 F600
G1 E269.9633 F2400
G1 Z0.500 F420
G1 X-30.00 Y-32.00 F6000
G1 Z0.300 F420
G1 E273.9633 F1800
G1 X-30.00 Y-35.00 E274.1504 F600
G1 E270.1504 F2400
G1 Z0.500 F420
G1 X-28.00 Y-32.00 F6000
G1 Z0.300 F420
G1 E274.1504 F1800
G1 X-28.00 Y-33.50 E274.2440 F600
G1 E270.2440 F2400
G1 Z0.500 F420
G1 X-26.00 Y-32.00 F6000
G1 Z0.300 F420
G1 E274.2440 F1800
G1 X-26.00 Y-33.50 E274.3375 F600
G1 E270.3375 F2400
G1 Z0.500 F420
G1 X-24.00 Y-32.00 F6000
G1 Z0.300 F420
G1 E274.3375 F1800
G1 X-24.00 Y-33.50 E274.4311 F600
G1 E270.4311 F2400
G1 Z0.500 F420
G1 X-22.00 Y-32.00 F6000
G1 Z0.300 F420
G1 E274.4311 F1800
G1 X-22.00 Y-33.50 E274.5246 F600
G1 E270.5246 F2400
G1 Z0.500 F420
G1 X-20.00 Y-32.00 F6000
G1 Z0.300 F420
G1 E274.5246 F1800
G1 X-20.00 Y-35.00 E274.7117 F600
G1 E270.7117 F2400
G1 Z0.500 F420
G1 X-18.00 Y-32.00 F6000
G1 Z0.300 F420
G1 E274.7117 F1800
G1 X-18.00 Y-33.50 E274.8052 F600
G1 E270.8052 F2400
G1 Z0.500 F420
G1 X-16.00 Y-32.00 F6000
G1 Z0.300 F420
G1 E274.8052 F1800
G1 X-16.00 Y-33.50 E274.8988 F600
G1 E270.8988 F2400
G1 Z0.500 F420
G1 X-14.00 Y-32.00 F6000
G1 Z0.300 F420
G1 E274.8988 F1800
G1 X-14.00 Y-33.50 E274.9923 F600
G1 E270.9923 F2400
G1 Z0.500 F420
G1 X-12.00 Y-32.00 F6000
G1 Z0.300 F420
G1 E274.9923 F1800
G1 X-12.00 Y-33.50 E275.0859 F600
G1 E271.0859 F2400
G1 Z0.500 F420
G1 X-10.00 Y-32.00 F6000
G1 Z0.300 F420
G1 E275.0859 F1800
G1 X-10.00 Y-35.00 E275.2730 F600
G1 E271.2730 F2400
G1 Z0.500 F420
G1 X-8.00 Y-32.00 F6000
G1 Z0.300 F420
G1 E275.2730 F1800
G1 X-8.00 Y-33.50 E275.3665 F600
G1 E271.3665 F2400
G1 Z0.500 F420
G1 X-6.00 Y-32.00 F6000
G1 Z0.300 F420
G1 E275.3665 F1800
G1 X-6.00 Y-33.50 E275.4600 F600
G1 E271.4600 F2400
G1 Z0.500 F420
G1 X-4.00 Y-32.00 F6000
G1 Z0.300 F420
G1 E275.4600 F1800
G1 X-4.00 Y-33.50 E275.5536 F600
G1 E271.5536 F2400
G1 Z0.500 F420
G1 X-2.00 Y-32.00 F6000
G1 Z0.300 F420
G1 E275.5536 F1800
G1 X-2.00 Y-33.50 E275.6471 F600
G1 E271.6471 F2400
G1 Z0.500 F420
G1 X0.00 Y-32.00 F6000
G1 Z0.300 F420
G1 E275.6471 F1800
G1 X0.00 Y-35.00 E275.8342 F600
G1 E271.8342 F2400
G1 Z0.500 F420
G1 X2.00 Y-32.00 F6000
G1 Z0.300 F420
G1 E275.8342 F1800
G1 X2.00 Y-33.50 E275.9278 F600
G1 E271.9278 F2400
G1 Z0.500 F420
G1 X4.00 Y-32.00 F6000
G1 Z0.300 F420
G1 E275.9278 F1800
G1 X4.00 Y-33.50 E276.0213 F600
G1 E272.0213 F2400
G1 Z0.500 F420
G1 X6.00 Y-32.00 F6000
G1 Z0.300 F420
G1 E276.0213 F1800
G1 X6.00 Y-33.50 E276.1148 F600
G1 E272.1148 F2400
G1 Z0.500 F420
G1 X8.00 Y-32.00 F6000
G1 Z0.300 F420
G1 E276.1148 F1800
G1 X8.00 Y-33.50 E276.2084 F600
G1 E272.2084 F2400
G1 Z0.500 F420
G1 X10.00 Y-32.00 F6000
G1 Z0.300 F420
G1 E276.2084 F1800
G1 X10.00 Y-35.00 E276.3955 F600
G1 E272.3955 F2400
G1 Z0.500 F420
G1 X12.00 Y-32.00 F6000
G1 Z0.300 F420
G1 E276.3955 F1800
G1 X12.00 Y-33.50 E276.4890 F600
G1 E272.4890 F2400
G1 Z0.500 F420
G1 X14.00 Y-32.00 F6000
G1 Z0.300 F420
G1 E276.4890 F1800
G1 X14.00 Y-33.50 E276.5826 F600
G1 E272.5826 F2400
G1 Z0.500 F420
G1 X16.00 Y-32.00 F6000
G1 Z0.300 F420
G1 E276.5826 F1800
G1 X16.00 Y-33.50 E276.6761 F600
G1 E272.6761 F2400
G1 Z0.500 F420
G1 X18.00 Y-32.00 F6000
G1 Z0.300 F420
G1 E276.6761 F1800
G1 X18.00 Y-33.50 E276.7697 F600
G1 E272.7697 F2400
G1 Z0.500 F420
G1 X20.00 Y-32.00 F6000
G1 Z0.300 F420
G1 E276.7697 F1800
G1 X20.00 Y-35.00 E276.9567 F600
G1 E272.9567 F2400
G1 Z0.500 F420
G1 X22.00 Y-32.00 F6000
G1 Z0.300 F420
G1 E276.9567 F1800
G1 X22.00 Y-33.50 E277.0503 F600
G1 E273.0503 F2400
G1 Z0.500 F420
G1 X24.00 Y-32.00 F6000
G1 Z0.300 F420
G1 E277.0503 F1800
G1 X24.00 Y-33.50 E277.1438 F600
G1 E273.1438 F2400
G1 Z0.500 F420
G1 X26.00 Y-32.00 F6000
G1 Z0.300 F420
G1 E277.1438 F1800
G1 X26.00 Y-33.50 E277.2374 F600
G1 E273.2374 F2400
G1 Z0.500 F420
G1 X28.00 Y-32.00 F6000
G1 Z0.300 F420
G1 E277.2374 F1800
G1 X28.00 Y-33.50 E277.3309 F600
G1 E273.3309 F2400
G1 Z0.500 F420
G1 X30.00 Y-32.00 F6000
G1 Z0.300 F420
G1 E277.3309 F1800
G1 X30.00 Y-35.00 E277.5180 F600
G1 E273.5180 F2400
G1 Z0.500 F420
G1 X32.00 Y-32.00 F6000
G1 Z0.300 F420
G1 E277.5180 F1800
G1 X32.00 Y-33.50 E277.6116 F600
G1 E273.6116 F2400
G1 Z0.500 F420
G1 X34.00 Y-32.00 F6000
G1 Z0.300 F420
G1 E277.6116 F1800
G1 X34.00 Y-33.50 E277.7051 F600
G1 E273.7051 F2400
G1 Z0.500 F420
G1 X36.00 Y-32.00 F6000
G1 Z0.300 F420
G1 E277.7051 F1800
G1 X36.00 Y-33.50 E277.7986 F600
G1 E273.7986 F2400
G1 Z0.500 F420
G1 X38.00 Y-32.00 F6000
G1 Z0.300 F420
G1 E277.7986 F1800
G1 X38.00 Y-33.50 E277.8922 F600
G1 E273.8922 F2400
G1 Z0.500 F420
G1 X40.00 Y-32.00 F6000
G1 Z0.300 F420
G1 E277.8922 F1800
G1 X40.00 Y-35.00 E278.0793 F600
G1 E274.0793 F2400
G1 Z0.500 F420
;structure:brim
;structure:shell-outer
G1 X46.50 Y-33.11 F6000
G1 Z0.300 F420
G1 E278.0793 F1800
G1 X47.52 Y-35.52 E278.2425 F600
G1 X48.54 Y-33.11 E278.4057
G1 E274.4057 F2400
G1 Z0.500 F420
G1 X49.60 Y-34.31 F6000
G1 Z0.300 F420
G1 E278.4057 F1800
G1 X51.74 Y-34.31 E278.5391 F600
G1 X51.66 Y-33.78 E278.5726
G1 X51.45 Y-33.39 E278.6002
G1 X51.11 Y-33.14 E278.6265
G1 X50.67 Y-33.05 E278.6545
G1 X50.24 Y-33.14 E278.6819
G1 X49.90 Y-33.39 E278.7082
G1 X49.68 Y-33.78 E278.7362
G1 X49.60 Y-34.31 E278.7696
G1 X49.68 Y-34.85 E278.8036
G1 X49.91 Y-35.25 E278.8324
G1 X50.26 Y-35.49 E278.8589
G1 X50.72 Y-35.58 E278.8881
G1 X51.06 Y-35.53 E278.9095
G1 X51.35 Y-35.39 E278.9296
G1 X51.56 Y-35.17 E278.9486
G1 X51.68 Y-34.87 E278.9687
G1 E274.9687 F2400
G1 Z0.500 F420
G1 X52.80 Y-33.74 F6000
G1 Z0.300 F420
G1 E278.9687 F1800
G1 X54.49 Y-33.74 E279.0741 F600
G1 E275.0741 F2400
G1 Z0.500 F420
G1 X54.49 Y-34.45 F6000
G1 Z0.300 F420
G1 E279.0741 F1800
G1 X52.80 Y-34.45 E279.1795 F600
G1 E275.1795 F2400
G1 Z0.500 F420
G1 X55.55 Y-33.00 F6000
G1 Z0.300 F420
G1 E279.1795 F1800
G1 X56.02 Y-32.76 E279.2124 F600
G1 X56.39 Y-32.45 E279.2425
G1 X56.64 Y-32.12 E279.2684
G1 X56.64 Y-35.52 E279.4804
G1 E275.4804 F2400
G1 Z0.500 F420
G1 X57.70 Y-35.29 F6000
G1 Z0.300 F420
G1 E279.4804 F1800
G1 X57.70 Y-35.35 E279.4841 F600
G1 E275.4841 F2400
G1 Z0.500 F420
G1 X59.99 Y-32.06 F6000
G1 Z0.300 F420
G1 E279.4841 F1800
G1 X60.50 Y-32.20 E279.5171 F600
G1 X60.89 Y-32.58 E279.5511
G1 X61.12 Y-33.14 E279.5888
G1 X61.21 Y-33.82 E279.6316
G1 X61.12 Y-34.49 E279.6738
G1 X60.89 Y-35.05 E279.7115
G1 X60.50 Y-35.44 E279.7459
G1 X59.99 Y-35.58 E279.7789
G1 X59.46 Y-35.44 E279.8131
G1 X59.09 Y-35.05 E279.8466
G1 X58.85 Y-34.49 E279.8846
G1 X58.77 Y-33.82 E279.9267
G1 X58.85 Y-33.15 E279.9688
G1 X59.09 Y-32.58 E280.0074
G1 X59.46 Y-32.20 E280.0404
G1 X59.99 Y-32.06 E280.0746
G1 E276.0746 F2400
G1 Z0.500 F420
G1 X46.50 Y-37.12 F6000
G1 Z0.300 F420
G1 E280.0746 F1800
G1 X46.50 Y-40.52 E280.2867 F600
G1 E276.2867 F2400
G1 Z0.500 F420
G1 X46.50 Y-38.77 F6000
G1 Z0.300 F420
G1 E280.2867 F1800
G1 X46.75 Y-38.47 E280.3110 F600
G1 X46.98 Y-38.25 E280.3309
G1 X47.20 Y-38.12 E280.3468
G1 X47.40 Y-38.07 E280.3597
G1 X47.59 Y-38.05 E280.3716
G1 X47.91 Y-38.12 E280.3920
G1 X48.14 Y-38.29 E280.4099
G1 X48.24 Y-38.49 E280.4238
G1 X48.33 Y-38.92 E280.4512
G1 X48.33 Y-40.52 E280.5510
G1 E276.5510 F2400
G1 Z0.500 F420
G1 X49.39 Y-38.74 F6000
G1 Z0.300 F420
G1 E280.5510 F1800
G1 X51.08 Y-38.74 E280.6564 F600
G1 E276.6564 F2400
G1 Z0.500 F420
G1 X51.08 Y-39.45 F6000
G1 Z0.300 F420
G1 E280.6564 F1800
G1 X49.39 Y-39.45 E280.7618 F600
G1 E276.7618 F2400
G1 Z0.500 F420
G1 X53.36 Y-37.06 F6000
G1 Z0.300 F420
G1 E280.7618 F1800
G1 X53.87 Y-37.20 E280.7948 F600
G1 X54.26 Y-37.58 E280.8287
G1 X54.50 Y-38.14 E280.8667
G1 X54.58 Y-38.82 E280.9094
G1 X54.50 Y-39.49 E280.9515
G1 X54.26 Y-40.05 E280.9895
G1 X53.87 Y-40.44 E281.0239
G1 X53.36 Y-40.58 E281.0569
G1 X52.84 Y-40.44 E281.0905
G1 X52.46 Y-40.05 E281.1244
G1 X52.22 Y-39.49 E281.1624
G1 X52.14 Y-38.82 E281.2045
G1 X52.22 Y-38.15 E281.2466
G1 X52.46 Y-37.58 E281.2852
G1 X52.84 Y-37.20 E281.3187
G1 X53.36 Y-37.06 E281.3523
G1 E277.3523 F2400
G1 Z0.500 F420
G1 X55.64 Y-40.29 F6000
G1 Z0.300 F420
G1 E281.3523 F1800
G1 X55.64 Y-40.35 E281.3560 F600
G1 E277.3560 F2400
G1 Z0.500 F420
G1 X56.71 Y-37.56 F6000
G1 Z0.300 F420
G1 E281.3560 F1800
G1 X56.90 Y-37.35 E281.3737 F600
G1 X57.13 Y-37.19 E281.3911
G1 X57.39 Y-37.10 E281.4083
G1 X57.67 Y-37.06 E281.4259
G1 X58.04 Y-37.12 E281.4493
G1 X58.34 Y-37.32 E281.4718
G1 X58.53 Y-37.61 E281.4934
G1 X58.60 Y-37.98 E281.5169
G1 X58.50 Y-38.37 E281.5420
G1 X58.22 Y-38.73 E281.5705
G1 X57.44 Y-39.36 E281.6330
G1 X57.14 Y-39.77 E281.6647
G1 X56.75 Y-40.52 E281.7174
G1 X58.57 Y-40.52 E281.8309
G1 E277.8309 F2400
G1 Z0.500 F420
G1 X46.50 Y-43.11 F6000
G1 Z0.300 F420
G1 E281.8309 F1800
G1 X47.36 Y-45.52 E281.9905 F600
G1 X48.10 Y-43.11 E282.1478
G1 X48.87 Y-45.52 E282.3056
G1 X49.71 Y-43.11 E282.4647
G1 E278.4647 F2400
G1 Z0.500 F420
G1 X50.77 Y-43.74 F6000
G1 Z0.300 F420
G1 E282.4647 F1800
G1 X52.46 Y-43.74 E282.5701 F600
G1 E278.5701 F2400
G1 Z0.500 F420
G1 X52.46 Y-44.45 F6000
G1 Z0.300 F420
G1 E282.5701 F1800
G1 X50.77 Y-44.45 E282.6756 F600
G1 E278.6756 F2400
G1 Z0.500 F420
G1 X54.74 Y-42.06 F6000
G1 Z0.300 F420
G1 E282.6756 F1800
G1 X55.25 Y-42.20 E282.7085 F600
G1 X55.64 Y-42.58 E282.7425
G1 X55.88 Y-43.14 E282.7805
G1 X55.96 Y-43.82 E282.8232
G1 X55.88 Y-44.49 E282.8653
G1 X55.64 Y-45.05 E282.9033
G1 X55.25 Y-45.44 E282.9377
G1 X54.74 Y-45.58 E282.9707
G1 X54.22 Y-45.44 E283.0043
G1 X53.84 Y-45.05 E283.0382
G1 X53.60 Y-44.49 E283.0762
G1 X53.52 Y-43.82 E283.1183
G1 X53.60 Y-43.15 E283.1604
G1 X53.84 Y-42.58 E283.1990
G1 X54.22 Y-42.20 E283.2325
G1 X54.74 Y-42.06 E283.2661
G1 E279.2661 F2400
G1 Z0.500 F420
G1 X57.02 Y-45.29 F6000
G1 Z0.300 F420
G1 E283.2661 F1800
G1 X57.02 Y-45.35 E283.2698 F600
G1 E279.2698 F2400
G1 Z0.500 F420
G1 X59.11 Y-42.08 F6000
G1 Z0.300 F420
G1 E283.2698 F1800
G1 X59.46 Y-42.14 E283.2920 F600
G1 X59.75 Y-42.29 E283.3123
G1 X59.94 Y-42.54 E283.3319
G1 X60.01 Y-42.89 E283.3542
G1 X59.87 Y-43.34 E283.3836
G1 X59.58 Y-43.60 E283.4079
G1 X58.65 Y-43.88 E283.4684
G1 X58.26 Y-44.16 E283.4984
G1 X58.09 Y-44.65 E283.5307
G1 X58.17 Y-45.05 E283.5562
G1 X58.38 Y-45.34 E283.5785
G1 X58.71 Y-45.52 E283.6019
G1 X59.11 Y-45.58 E283.6272
G1 X59.52 Y-45.52 E283.6530
G1 X59.85 Y-45.34 E283.6764
G1 X60.06 Y-45.05 E283.6988
G1 X60.14 Y-44.65 E283.7242
G1 X59.96 Y-44.16 E283.7568
G1 X59.58 Y-43.88 E283.7862
G1 X58.65 Y-43.60 E283.8468
G1 X58.36 Y-43.34 E283.8711
G1 X58.22 Y-42.89 E283.9005
G1 X58.29 Y-42.54 E283.9227
G1 X58.48 Y-42.29 E283.9423
G1 X58.76 Y-42.14 E283.9621
G1 X59.11 Y-42.08 E283.9843
G1 E279.9843 F2400
G1 Z0.500 F420
G1 X61.20 Y-44.10 F6000
G1 Z0.300 F420
G1 E283.9843 F1800
G1 X63.07 Y-44.10 E284.1009 F600
G1 E280.1009 F2400
G1 Z0.500 F420
G1 X64.12 Y-43.00 F6000
G1 Z0.300 F420
G1 E284.1009 F1800
G1 X64.59 Y-42.76 E284.1338 F600
G1 X64.96 Y-42.45 E284.1639
G1 X65.21 Y-42.12 E284.1897
G1 X65.21 Y-45.52 E284.4018
G1 E280.4018 F2400
G1 Z0.500 F420
G1 X66.27 Y-45.29 F6000
G1 Z0.300 F420
G1 E284.4018 F1800
G1 X66.27 Y-45.35 E284.4055 F600
G1 E280.4055 F2400
G1 Z0.500 F420
G1 X69.38 Y-42.83 F6000
G1 Z0.300 F420
G1 E284.4055 F1800
G1 X69.07 Y-42.26 E284.4460 F600
G1 X68.48 Y-42.06 E284.4849
G1 X67.97 Y-42.18 E284.5175
G1 X67.62 Y-42.53 E284.5484
G1 X67.41 Y-43.13 E284.5881
G1 X67.34 Y-43.95 E284.6394
G1 X67.41 Y-44.64 E284.6826
G1 X67.63 Y-45.16 E284.7178
G1 X67.97 Y-45.47 E284.7465
G1 X68.44 Y-45.58 E284.7766
G1 X68.89 Y-45.49 E284.8053
G1 X69.21 Y-45.24 E284.8306
G1 X69.39 Y-44.87 E284.8563
G1 X69.46 Y-44.44 E284.8834
G1 X69.39 Y-44.04 E284.9088
G1 X69.20 Y-43.69 E284.9336
G1 X68.89 Y-43.46 E284.9577
G1 X68.49 Y-43.38 E284.9831
G1 X68.03 Y-43.47 E285.0123
G1 X67.61 Y-43.72 E285.0428
G1 X67.34 Y-43.95 E285.0649
G1 E281.0649 F2400
G1 Z0.500 F420
G1 X46.50 Y-50.52 F6000
G1 Z0.300 F420
G1 E285.0649 F1800
G1 X46.50 Y-48.11 E285.2152 F600
G1 E281.2153 F2400
G1 Z0.500 F420
G1 X46.50 Y-48.80 F6000
G1 Z0.300 F420
G1 E285.2153 F1800
G1 X46.75 Y-48.45 E285.2421 F600
G1 X46.96 Y-48.24 E285.2606
G1 X47.16 Y-48.12 E285.2751
G1 X47.35 Y-48.06 E285.2876
G1 X47.51 Y-48.05 E285.2976
G1 X47.56 Y-48.05 E285.3007
G1 X47.61 Y-48.06 E285.3039
G1 E281.3039 F2400
G1 Z0.500 F420
G1 X49.89 Y-47.06 F6000
G1 Z0.300 F420
G1 E285.3039 F1800
G1 X50.40 Y-47.20 E285.3369 F600
G1 X50.79 Y-47.58 E285.3708
G1 X51.03 Y-48.14 E285.4088
G1 X51.11 Y-48.82 E285.4516
G1 X51.03 Y-49.49 E285.4936
G1 X50.79 Y-50.05 E285.5317
G1 X50.40 Y-50.44 E285.5661
G1 X49.89 Y-50.58 E285.5991
G1 X49.37 Y-50.44 E285.6327
G1 X48.99 Y-50.05 E285.6666
G1 X48.75 Y-49.49 E285.7046
G1 X48.67 Y-48.82 E285.7467
G1 X48.75 Y-48.15 E285.7888
G1 X48.99 Y-47.58 E285.8274
G1 X49.37 Y-47.20 E285.8609
G1 X49.89 Y-47.06 E285.8945
G1 E281.8945 F2400
G1 Z0.500 F420
G1 X52.17 Y-48.74 F6000
G1 Z0.300 F420
G1 E285.8945 F1800
G1 X53.86 Y-48.74 E285.9999 F600
G1 E281.9999 F2400
G1 Z0.500 F420
G1 X53.86 Y-49.45 F6000
G1 Z0.300 F420
G1 E285.9999 F1800
G1 X52.17 Y-49.45 E286.1054 F600
G1 E282.1054 F2400
G1 Z0.500 F420
G1 X54.92 Y-47.56 F6000
G1 Z0.300 F420
G1 E286.1054 F1800
G1 X55.11 Y-47.35 E286.1230 F600
G1 X55.34 Y-47.19 E286.1405
G1 X55.60 Y-47.10 E286.1577
G1 X55.88 Y-47.06 E286.1753
G1 X56.25 Y-47.12 E286.1987
G1 X56.55 Y-47.32 E286.2212
G1 X56.74 Y-47.61 E286.2428
G1 X56.81 Y-47.98 E286.2663
G1 X56.71 Y-48.37 E286.2914
G1 X56.43 Y-48.73 E286.3199
G1 X55.65 Y-49.36 E286.3824
G1 X55.35 Y-49.77 E286.4141
G1 X54.96 Y-50.52 E286.4668
G1 X56.78 Y-50.52 E286.5804
G1 E282.5804 F2400
G1 Z0.500 F420
G1 X57.88 Y-50.29 F6000
G1 Z0.300 F420
G1 E286.5804 F1800
G1 X57.88 Y-50.35 E286.5841 F600
G1 E282.5841 F2400
G1 Z0.500 F420
G1 X60.16 Y-47.06 F6000
G1 Z0.300 F420
G1 E286.5841 F1800
G1 X60.67 Y-47.20 E286.6171 F600
G1 X61.06 Y-47.58 E286.6511
G1 X61.30 Y-48.14 E286.6891
G1 X61.38 Y-48.82 E286.7318
G1 X61.30 Y-49.49 E286.7739
G1 X61.06 Y-50.05 E286.8119
G1 X60.67 Y-50.44 E286.8463
G1 X60.16 Y-50.58 E286.8793
G1 X59.64 Y-50.44 E286.9129
G1 X59.26 Y-50.05 E286.9468
G1 X59.02 Y-49.49 E286.9848
G1 X58.94 Y-48.82 E287.0269
G1 X59.02 Y-48.15 E287.0690
G1 X59.26 Y-47.58 E287.1076
G1 X59.64 Y-47.20 E287.1411
G1 X60.16 Y-47.06 E287.1747
G1 E283.1747 F2400
G1 Z0.500 F420
G1 X46.50 Y-55.52 F6000
G1 Z0.300 F420
G1 E287.1747 F1800
G1 X46.50 Y-53.11 E287.3251 F600
G1 E283.3251 F2400
G1 Z0.500 F420
G1 X46.50 Y-53.80 F6000
G1 Z0.300 F420
G1 E287.3251 F1800
G1 X46.75 Y-53.45 E287.3519 F600
G1 X46.96 Y-53.24 E287.3704
G1 X47.16 Y-53.12 E287.3850
G1 X47.35 Y-53.06 E287.3974
G1 X47.51 Y-53.05 E287.4074
G1 X47.56 Y-53.05 E287.4105
G1 X47.61 Y-53.06 E287.4137
G1 E283.4137 F2400
G1 Z0.500 F420
G1 X48.67 Y-54.31 F6000
G1 Z0.300 F420
G1 E287.4137 F1800
G1 X50.81 Y-54.31 E287.5472 F600
G1 X50.73 Y-53.78 E287.5806
G1 X50.52 Y-53.39 E287.6083
G1 X50.18 Y-53.14 E287.6346
G1 X49.74 Y-53.05 E287.6626
G1 X49.31 Y-53.14 E287.6900
G1 X48.97 Y-53.39 E287.7164
G1 X48.75 Y-53.78 E287.7443
G1 X48.67 Y-54.31 E287.7777
G1 X48.75 Y-54.85 E287.8118
G1 X48.98 Y-55.25 E287.8406
G1 X49.33 Y-55.49 E287.8670
G1 X49.79 Y-55.58 E287.8963
G1 X50.13 Y-55.53 E287.9177
G1 X50.42 Y-55.39 E287.9378
G1 X50.63 Y-55.17 E287.9568
G1 X50.75 Y-54.87 E287.9769
G1 E283.9769 F2400
G1 Z0.500 F420
G1 X51.87 Y-53.74 F6000
G1 Z0.300 F420
G1 E287.9769 F1800
G1 X53.56 Y-53.74 E288.0824 F600
G1 E284.0824 F2400
G1 Z0.500 F420
G1 X53.56 Y-54.45 F6000
G1 Z0.300 F420
G1 E288.0824 F1800
G1 X51.87 Y-54.45 E288.1878 F600
G1 E284.1878 F2400
G1 Z0.500 F420
G1 X56.33 Y-55.52 F6000
G1 Z0.300 F420
G1 E288.1878 F1800
G1 X56.33 Y-52.12 E288.3999 F600
G1 X54.62 Y-54.35 E288.5752
G1 X56.93 Y-54.35 E288.7193
G1 E284.7193 F2400
G1 Z0.500 F420
G1 X58.00 Y-55.29 F6000
G1 Z0.300 F420
G1 E288.7193 F1800
G1 X58.00 Y-55.35 E288.7231 F600
G1 E284.7231 F2400
G1 Z0.500 F420
G1 X60.28 Y-52.06 F6000
G1 Z0.300 F420
G1 E288.7231 F1800
G1 X60.79 Y-52.20 E288.7561 F600
G1 X61.18 Y-52.58 E288.7900
G1 X61.42 Y-53.14 E288.8280
G1 X61.50 Y-53.82 E288.8708
G1 X61.42 Y-54.49 E288.9128
G1 X61.18 Y-55.05 E288.9509
G1 X60.79 Y-55.44 E288.9853
G1 X60.28 Y-55.58 E289.0183
G1 X59.76 Y-55.44 E289.0518
G1 X59.38 Y-55.05 E289.0858
G1 X59.14 Y-54.49 E289.1238
G1 X59.06 Y-53.82 E289.1659
G1 X59.14 Y-53.15 E289.2080
G1 X59.38 Y-52.58 E289.2466
G1 X59.76 Y-52.20 E289.2801
G1 X60.28 Y-52.06 E289.3137
G1 E285.3137 F2400
G1 Z0.500 F420
;structure:shell-inner
G1 X-45.00 Y-36.00 F6000
G1 Z0.200 F420
G1 E289.3137 F1800
G1 X-40.00 Y-36.00 E289.5216 F300
G1 X-30.00 Y-36.00 F60
G1 X0.00 Y-36.00 E291.5172 F902
G1 E293.5172 F1800
G1 X20.00 Y-36.00 E289.5172 F600
G1 E291.5172 F1800
G1 X40.00 Y-36.00 E295.5172 F600
G1 E291.5172 F2400
G1 Z0.500 F420
G1 Z0.200
G1 E295.5172 F1800
G1 X45.00 Y-36.00 E295.7251 F300
G1 E291.7251 F2400
G1 Z0.500 F420
G1 X-45.00 Y-38.00 F6000
G1 Z0.200 F420
G1 E295.7251 F1800
G1 X-40.00 Y-38.00 E295.9329 F300
G1 X-30.00 Y-38.00 F60
G1 X0.00 Y-38.00 E298.1281 F820
G1 E300.1281 F1800
G1 X20.00 Y-38.00 E296.1281 F600
G1 E298.1281 F1800
G1 X40.00 Y-38.00 E302.1281 F600
G1 E298.1281 F2400
G1 Z0.500 F420
G1 Z0.200
G1 E302.1281 F1800
G1 X45.00 Y-38.00 E302.3360 F300
G1 E298.3360 F2400
G1 Z0.500 F420
G1 X-45.00 Y-40.00 F6000
G1 Z0.200 F420
G1 E302.3360 F1800
G1 X-40.00 Y-40.00 E302.5439 F300
G1 X-30.00 Y-40.00 F60
G1 X0.00 Y-40.00 E304.9386 F752
G1 E306.9386 F1800
G1 X20.00 Y-40.00 E302.9386 F600
G1 E304.9386 F1800
G1 X40.00 Y-40.00 E308.9386 F600
G1 E304.9386 F2400
G1 Z0.500 F420
G1 Z0.200
G1 E308.9386 F1800
G1 X45.00 Y-40.00 E309.1465 F300
G1 E305.1465 F2400
G1 Z0.500 F420
G1 X-45.00 Y-42.00 F6000
G1 Z0.200 F420
G1 E309.1465 F1800
G1 X-40.00 Y-42.00 E309.3543 F300
G1 X-30.00 Y-42.00 F60
G1 X0.00 Y-42.00 E311.9486 F694
G1 E313.9486 F1800
G1 X20.00 Y-42.00 E309.9486 F600
G1 E311.9486 F1800
G1 X40.00 Y-42.00 E315.9486 F600
G1 E311.9486 F2400
G1 Z0.500 F420
G1 Z0.200
G1 E315.9486 F1800
G1 X45.00 Y-42.00 E316.1565 F300
G1 E312.1565 F2400
G1 Z0.500 F420
G1 X-45.00 Y-44.00 F6000
G1 Z0.200 F420
G1 E316.1565 F1800
G1 X-40.00 Y-44.00 E316.3644 F300
G1 X-30.00 Y-44.00 F60
G1 X0.00 Y-44.00 E319.1582 F644
G1 E321.1582 F1800
G1 X20.00 Y-44.00 E317.1582 F600
G1 E319.1582 F1800
G1 X40.00 Y-44.00 E323.1582 F600
G1 E319.1582 F2400
G1 Z0.500 F420
G1 Z0.200
G1 E323.1582 F1800
G1 X45.00 Y-44.00 E323.3661 F300
G1 E319.3661 F2400
G1 Z0.500 F420
G1 X-45.00 Y-46.00 F6000
G1 Z0.200 F420
G1 E323.3661 F1800
G1 X-40.00 Y-46.00 E323.5740 F300
G1 X-30.00 Y-46.00 F60
G1 X0.00 Y-46.00 E326.5674 F601
G1 E328.5674 F1800
G1 X20.00 Y-46.00 E324.5674 F600
G1 E326.5674 F1800
G1 X40.00 Y-46.00 E330.5674 F600
G1 E326.5674 F2400
G1 Z0.500 F420
G1 Z0.200
G1 E330.5674 F1800
G1 X45.00 Y-46.00 E330.7753 F300
G1 E326.7753 F2400
G1 Z0.500 F420
G1 X-45.00 Y-48.00 F6000
G1 Z0.200 F420
G1 E330.7753 F1800
G1 X-40.00 Y-48.00 E330.9831 F300
G1 X-30.00 Y-48.00 F60
G1 X0.00 Y-48.00 E334.1761 F564
G1 E336.1761 F1800
G1 X20.00 Y-48.00 E332.1761 F600
G1 E334.1761 F1800
G1 X40.00 Y-48.00 E338.1761 F600
G1 E334.1761 F2400
G1 Z0.500 F420
G1 Z0.200
G1 E338.1761 F1800
G1 X45.00 Y-48.00 E338.3840 F300
G1 E334.3840 F2400
G1 Z0.500 F420
G1 X-45.00 Y-50.00 F6000
G1 Z0.200 F420
G1 E338.3840 F1800
G1 X-40.00 Y-50.00 E338.5919 F300
G1 X-30.00 Y-50.00 F60
G1 X0.00 Y-50.00 E341.9844 F531
G1 E343.9844 F1800
G1 X20.00 Y-50.00 E339.9844 F600
G1 E341.9844 F1800
G1 X40.00 Y-50.00 E345.9844 F600
G1 E341.9844 F2400
G1 Z0.500 F420
G1 Z0.200
G1 E345.9844 F1800
G1 X45.00 Y-50.00 E346.1923 F300
G1 E342.1923 F2400
G1 Z0.500 F420
G1 X-45.00 Y-52.00 F6000
G1 Z0.200 F420
G1 E346.1923 F1800
G1 X-40.00 Y-52.00 E346.4002 F300
G1 X-30.00 Y-52.00 F60
G1 X0.00 Y-52.00 E349.9923 F501
G1 E351.9923 F1800
G1 X20.00 Y-52.00 E347.9923 F600
G1 E349.9923 F1800
G1 X40.00 Y-52.00 E353.9923 F600
G1 E349.9923 F2400
G1 Z0.500 F420
G1 Z0.200
G1 E353.9923 F1800
G1 X45.00 Y-52.00 E354.2001 F300
G1 E350.2001 F2400
G1 Z0.500 F420
G1 X-45.00 Y-54.00 F6000
G1 Z0.200 F420
G1 E354.2001 F1800
G1 X-40.00 Y-54.00 E354.4080 F300
G1 X-30.00 Y-54.00 F60
G1 X0.00 Y-54.00 E358.1997 F475
G1 E360.1997 F1800
G1 X20.00 Y-54.00 E356.1997 F600
G1 E358.1997 F1800
G1 X40.00 Y-54.00 E362.1997 F600
G1 E358.1997 F2400
G1 Z0.500 F420
G1 Z0.200
G1 E362.1997 F1800
G1 X45.00 Y-54.00 E362.4075 F300
G1 E358.4075 F2400
G1 Z0.500 F420
G1 X-45.00 Y-56.00 F6000
G1 Z0.200 F420
G1 E362.4075 F1800
G1 X-40.00 Y-56.00 E362.6154 F300
G1 X-30.00 Y-56.00 F60
G1 X0.00 Y-56.00 E366.6066 F451
G1 E368.6066 F1800
G1 X20.00 Y-56.00 E364.6066 F600
G1 E366.6066 F1800
G1 X40.00 Y-56.00 E370.6066 F600
G1 E366.6066 F2400
G1 Z0.500 F420
G1 Z0.200
G1 E370.6066 F1800
G1 X45.00 Y-56.00 E370.8145 F300
G1 E366.8145 F2400
G1 Z0.500 F420
G1 E368.3145 F1800
;end gcode
M107
M104 S0 T0
M140 S0 T0
G162 Z F1800
G28 X Y
M132 X Y A B
M652
G91
M18
