;gcode_flavor: flashforge
;machine_type: Adventurer 3 Series
;filament_diameter0: 1.75
;right_extruder_temperature: 210
;platform_temperature: 50
;extruder_fan: 100%
;case_fan: 100%
;base_print_speed: 60
;travel_speed: 100
;vertical_speed: 7
;retract_speed: 40
;restore_speed: 30
;layer_height: 0.30
;line_width: 0.50
;extrusion_ratio: 1.00
;command_line: ./gcodetest.py -Te=210 -Tp=50 -Fe=1.0 -Fc=1.0 -Kf=0.5 -Kb=2.0 -Re=1.0 -R
;start gcode
M118 X75.00 Y75.00 Z150.00 T0
M140 S50 T0
M104 S210 T0
M104 S0 T1
M107
M900 K0.000 T0
G90
G28
M132 X Y Z A B
G1 Z50.000 F420
G161 X Y F3300
M7 T0
M6 T0
M652 S255
M108 T0
M106
;preExtrude:0.20
;structure:pre-extrude
G1 X-55.00 Y-65.00 F6000
G1 Z0.200 F420
G1 E4.7828 F1800
G1 X-55.00 Y55.00 E24.7389 F1200
G1 E18.1686 F2400
G1 Z0.400 F420
;layer:0.30
;structure:brim
;structure:shell-outer
G1 X-42.50 Y59.88 F6000
G1 Z0.300 F420
G1 E20.2560 F1800
G1 X-42.50 Y56.48 E20.4680 F600
G1 E18.3887 F2400
G1 Z0.500 F420
G1 X-40.04 Y56.48 F6000
G1 Z0.300 F420
G1 E20.4448 F1800
G1 X-41.53 Y58.51 E20.6018 F600
G1 E18.5359 F2400
G1 Z0.500 F420
G1 X-42.50 Y57.67 F6000
G1 Z0.300 F420
G1 E20.5963 F1800
G1 X-39.98 Y59.88 E20.8053 F600
G1 E18.7267 F2400
G1 Z0.500 F420
G1 X-37.73 Y59.90 F6000
G1 Z0.300 F420
G1 E20.7909 F1800
G1 X-37.88 Y59.90 E20.8003 F600
G1 X-38.06 Y59.86 E20.8118
G1 X-38.22 Y59.73 E20.8246
G1 X-38.34 Y59.54 E20.8386
G1 X-38.42 Y59.17 E20.8623
G1 X-38.42 Y56.48 E21.0300
G1 E18.9432 F2400
G1 Z0.500 F420
G1 X-38.92 Y58.76 F6000
G1 Z0.300 F420
G1 E20.9787 F1800
G1 X-37.84 Y58.76 E21.0460 F600
G1 E19.0157 F2400
G1 Z0.500 F420
G1 X-36.66 Y58.26 F6000
G1 Z0.300 F420
G1 E21.0637 F1800
G1 X-34.97 Y58.26 E21.1691 F600
G1 E19.1198 F2400
G1 Z0.500 F420
G1 X-34.97 Y57.55 F6000
G1 Z0.300 F420
G1 E21.1678 F1800
G1 X-36.66 Y57.55 E21.2732 F600
G1 E19.2240 F2400
G1 Z0.500 F420
G1 X-32.69 Y59.94 F6000
G1 Z0.300 F420
G1 E21.2939 F1800
G1 X-32.18 Y59.80 E21.3269 F600
G1 X-31.79 Y59.42 E21.3608
G1 X-31.55 Y58.86 E21.3988
G1 X-31.47 Y58.18 E21.4415
G1 X-31.55 Y57.51 E21.4836
G1 X-31.79 Y56.95 E21.5216
G1 X-32.18 Y56.56 E21.5560
G1 X-32.69 Y56.42 E21.5890
G1 X-33.21 Y56.56 E21.6226
G1 X-33.59 Y56.95 E21.6565
G1 X-33.83 Y57.51 E21.6945
G1 X-33.91 Y58.18 E21.7366
G1 X-33.83 Y58.85 E21.7787
G1 X-33.59 Y59.42 E21.8173
G1 X-33.21 Y59.80 E21.8508
G1 X-32.69 Y59.94 E21.8844
G1 E19.7433 F2400
G1 Z0.500 F420
G1 X-30.41 Y56.71 F6000
G1 Z0.300 F420
G1 E21.6329 F1800
G1 X-30.41 Y56.65 E21.6366 F600
G1 E19.7610 F2400
G1 Z0.500 F420
G1 X-27.36 Y59.88 F6000
G1 Z0.300 F420
G1 E21.8294 F1800
G1 X-29.11 Y59.88 E21.9385 F600
G1 X-29.25 Y58.14 E22.0474
G1 X-28.97 Y58.45 E22.0735
G1 X-28.80 Y58.57 E22.0864
G1 X-28.61 Y58.64 E22.0991
G1 X-28.42 Y58.67 E22.1111
G1 X-28.22 Y58.68 E22.1236
G1 X-27.81 Y58.59 E22.1497
G1 X-27.49 Y58.37 E22.1740
G1 X-27.28 Y58.03 E22.1989
G1 X-27.20 Y57.61 E22.2255
G1 X-27.27 Y57.14 E22.2552
G1 X-27.48 Y56.77 E22.2817
G1 X-27.83 Y56.51 E22.3089
G1 X-28.33 Y56.42 E22.3406
G1 X-28.70 Y56.48 E22.3640
G1 X-29.01 Y56.64 E22.3857
G1 X-29.23 Y56.91 E22.4074
G1 X-29.35 Y57.27 E22.4311
G1 E20.2899 F2400
G1 Z0.500 F420
G1 X-22.82 Y59.88 F6000
G1 Z0.300 F420
G1 E22.3506 F1800
G1 X-22.82 Y56.48 E22.5626 F600
G1 E20.4833 F2400
G1 Z0.500 F420
G1 X-20.36 Y56.48 F6000
G1 Z0.300 F420
G1 E22.5394 F1800
G1 X-21.85 Y58.51 E22.6965 F600
G1 E20.6305 F2400
G1 Z0.500 F420
G1 X-22.82 Y57.67 F6000
G1 Z0.300 F420
G1 E22.6909 F1800
G1 X-20.30 Y59.88 E22.9000 F600
G1 E20.8213 F2400
G1 Z0.500 F420
G1 X-19.24 Y59.88 F6000
G1 Z0.300 F420
G1 E22.8819 F1800
G1 X-19.24 Y56.48 E23.0940 F600
G1 E21.0146 F2400
G1 Z0.500 F420
G1 X-19.24 Y56.98 F6000
G1 Z0.300 F420
G1 E23.0826 F1800
G1 X-18.99 Y56.74 E23.1042 F600
G1 X-18.60 Y56.49 E23.1331
G1 X-18.22 Y56.42 E23.1572
G1 X-17.84 Y56.51 E23.1815
G1 X-17.53 Y56.77 E23.2068
G1 X-17.33 Y57.18 E23.2352
G1 X-17.26 Y57.71 E23.2686
G1 X-17.32 Y58.22 E23.3006
G1 X-17.50 Y58.61 E23.3274
G1 X-17.79 Y58.86 E23.3513
G1 X-18.19 Y58.95 E23.3768
G1 X-18.38 Y58.93 E23.3887
G1 X-18.58 Y58.85 E23.4022
G1 X-18.79 Y58.72 E23.4176
G1 X-18.99 Y58.50 E23.4361
G1 X-19.24 Y58.03 E23.4693
G1 E21.3568 F2400
G1 Z0.500 F420
G1 X-16.20 Y58.26 F6000
G1 Z0.300 F420
G1 E23.4048 F1800
G1 X-14.51 Y58.26 E23.5102 F600
G1 E21.4610 F2400
G1 Z0.500 F420
G1 X-14.51 Y57.55 F6000
G1 Z0.300 F420
G1 E23.5090 F1800
G1 X-16.20 Y57.55 E23.6144 F600
G1 E21.5651 F2400
G1 Z0.500 F420
G1 X-13.45 Y59.44 F6000
G1 Z0.300 F420
G1 E23.6336 F1800
G1 X-13.26 Y59.65 E23.6513 F600
G1 X-13.03 Y59.81 E23.6688
G1 X-12.77 Y59.90 E23.6859
G1 X-12.49 Y59.94 E23.7036
G1 X-12.12 Y59.88 E23.7269
G1 X-11.82 Y59.68 E23.7494
G1 X-11.63 Y59.39 E23.7710
G1 X-11.56 Y59.02 E23.7945
G1 X-11.66 Y58.63 E23.8196
G1 X-11.94 Y58.27 E23.8481
G1 X-12.72 Y57.64 E23.9106
G1 X-13.02 Y57.23 E23.9423
G1 X-13.41 Y56.48 E23.9950
G1 X-11.59 Y56.48 E24.1085
G1 E21.9835 F2400
G1 Z0.500 F420
G1 X-10.49 Y56.71 F6000
G1 Z0.300 F420
G1 E23.8730 F1800
G1 X-10.49 Y56.65 E23.8767 F600
G1 E22.0011 F2400
G1 Z0.500 F420
G1 X-8.21 Y59.94 F6000
G1 Z0.300 F420
G1 E24.0709 F1800
G1 X-7.70 Y59.80 E24.1039 F600
G1 X-7.31 Y59.42 E24.1378
G1 X-7.07 Y58.86 E24.1758
G1 X-6.99 Y58.18 E24.2185
G1 X-7.07 Y57.51 E24.2606
G1 X-7.31 Y56.95 E24.2986
G1 X-7.70 Y56.56 E24.3330
G1 X-8.21 Y56.42 E24.3660
G1 X-8.73 Y56.56 E24.3996
G1 X-9.11 Y56.95 E24.4336
G1 X-9.35 Y57.51 E24.4715
G1 X-9.43 Y58.18 E24.5136
G1 X-9.35 Y58.85 E24.5557
G1 X-9.11 Y59.42 E24.5943
G1 X-8.73 Y59.80 E24.6278
G1 X-8.21 Y59.94 E24.6614
G1 E22.5203 F2400
G1 Z0.500 F420
G1 X-2.62 Y56.48 F6000
G1 Z0.300 F420
G1 E24.5888 F1800
G1 X-2.62 Y59.88 E24.8008 F600
G1 X-1.39 Y59.88 E24.8775
G1 X-1.00 Y59.78 E24.9027
G1 X-0.69 Y59.58 E24.9257
G1 X-0.59 Y59.45 E24.9359
G1 X-0.46 Y59.04 E24.9627
G1 X-0.51 Y58.80 E24.9780
G1 X-0.62 Y58.56 E24.9945
G1 X-0.84 Y58.36 E25.0130
G1 X-1.61 Y58.18 E25.0623
G1 E22.9375 F2400
G1 Z0.500 F420
G1 X-2.62 Y58.18 F6000
G1 Z0.300 F420
G1 E24.9979 F1800
G1 X-1.61 Y58.18 E25.0609 F600
G1 X-1.10 Y58.00 E25.0947
G1 X-0.71 Y57.38 E25.1403
G1 X-0.46 Y56.48 E25.1986
G1 E23.1214 F2400
G1 Z0.500 F420
G1 X0.61 Y57.69 F6000
G1 Z0.300 F420
G1 E25.1911 F1800
G1 X2.75 Y57.69 E25.3246 F600
G1 X2.67 Y58.22 E25.3580
G1 X2.46 Y58.61 E25.3856
G1 X2.12 Y58.86 E25.4119
G1 X1.68 Y58.95 E25.4399
G1 X1.25 Y58.86 E25.4673
G1 X0.91 Y58.61 E25.4937
G1 X0.69 Y58.22 E25.5216
G1 X0.61 Y57.69 E25.5550
G1 X0.69 Y57.15 E25.5891
G1 X0.92 Y56.75 E25.6178
G1 X1.27 Y56.51 E25.6443
G1 X1.73 Y56.42 E25.6735
G1 X2.07 Y56.47 E25.6950
G1 X2.36 Y56.61 E25.7151
G1 X2.57 Y56.83 E25.7340
G1 X2.69 Y57.13 E25.7542
G1 E23.6167 F2400
G1 Z0.500 F420
G1 X3.81 Y58.26 F6000
G1 Z0.300 F420
G1 E25.6649 F1800
G1 X5.50 Y58.26 E25.7703 F600
G1 E23.7210 F2400
G1 Z0.500 F420
G1 X5.50 Y57.55 F6000
G1 Z0.300 F420
G1 E25.7690 F1800
G1 X3.81 Y57.55 E25.8744 F600
G1 E23.8251 F2400
G1 Z0.500 F420
G1 X6.56 Y59.00 F6000
G1 Z0.300 F420
G1 E25.8876 F1800
G1 X7.03 Y59.24 E25.9205 F600
G1 X7.40 Y59.55 E25.9506
G1 X7.65 Y59.88 E25.9764
G1 X7.65 Y56.48 E26.1885
G1 E24.0935 F2400
G1 Z0.500 F420
G1 X8.70 Y56.71 F6000
G1 Z0.300 F420
G1 E25.9830 F1800
G1 X8.70 Y56.65 E25.9867 F600
G1 E24.1111 F2400
G1 Z0.500 F420
G1 X10.99 Y59.94 F6000
G1 Z0.300 F420
G1 E26.1809 F1800
G1 X11.50 Y59.80 E26.2139 F600
G1 X11.89 Y59.42 E26.2478
G1 X12.13 Y58.86 E26.2858
G1 X12.21 Y58.18 E26.3285
G1 X12.13 Y57.51 E26.3706
G1 X11.89 Y56.95 E26.4086
G1 X11.50 Y56.56 E26.4430
G1 X10.99 Y56.42 E26.4760
G1 X10.47 Y56.56 E26.5096
G1 X10.09 Y56.95 E26.5435
G1 X9.85 Y57.51 E26.5815
G1 X9.77 Y58.18 E26.6236
G1 X9.85 Y58.85 E26.6657
G1 X10.09 Y59.42 E26.7043
G1 X10.47 Y59.80 E26.7378
G1 X10.99 Y59.94 E26.7714
G1 E24.6303 F2400
G1 Z0.500 F420
;structure:brim
G1 X-45.00 Y60.00 F6000
G1 Z0.300 F420
G1 E26.7047 F1800
G1 X-45.00 Y-61.00 E34.2512 F600
G1 X-45.50 Y-61.00 E34.2824
G1 X-45.50 Y60.00 E41.8289
G1 E39.5219 F2400
G1 Z0.500 F420
G1 X45.00 Y60.00 F6000
G1 Z0.300 F420
G1 E41.5965 F1800
G1 X45.00 Y-61.00 E49.1431 F600
G1 X45.50 Y-61.00 E49.1742
G1 X45.50 Y60.00 E56.7208
G1 E54.4138 F2400
G1 Z0.500 F420
;structure:shell-outer
G1 X-45.00 Y55.00 F6000
G1 Z0.300 F420
G1 E56.4881 F1800
G1 X45.00 Y55.00 E62.1012 F600
G1 E59.7981 F2400
G1 Z0.500 F420
G1 X-42.00 Y55.00 F6000
G1 X-40.00 Y55.00
G1 Z0.300 F420
G1 E61.8574 F1800
G1 X-40.00 Y52.00 E62.0445 F600
G1 E59.9708 F2400
G1 Z0.500 F420
G1 X-38.00 Y55.00 F6000
G1 Z0.300 F420
G1 E62.0160 F1800
G1 X-38.00 Y53.50 E62.1096 F600
G1 E60.0651 F2400
G1 Z0.500 F420
G1 X-36.00 Y55.00 F6000
G1 Z0.300 F420
G1 E62.1103 F1800
G1 X-36.00 Y53.50 E62.2038 F600
G1 E60.1594 F2400
G1 Z0.500 F420
G1 X-34.00 Y55.00 F6000
G1 Z0.300 F420
G1 E62.2045 F1800
G1 X-34.00 Y53.50 E62.2981 F600
G1 E60.2537 F2400
G1 Z0.500 F420
G1 X-32.00 Y55.00 F6000
G1 Z0.300 F420
G1 E62.2988 F1800
G1 X-32.00 Y53.50 E62.3924 F600
G1 E60.3479 F2400
G1 Z0.500 F420
G1 X-30.00 Y55.00 F6000
G1 Z0.300 F420
G1 E62.4068 F1800
G1 X-30.00 Y52.00 E62.5939 F600
G1 E60.5203 F2400
G1 Z0.500 F420
G1 X-28.00 Y55.00 F6000
G1 Z0.300 F420
G1 E62.5654 F1800
G1 X-28.00 Y53.50 E62.6590 F600
G1 E60.6146 F2400
G1 Z0.500 F420
G1 X-26.00 Y55.00 F6000
G1 Z0.300 F420
G1 E62.6597 F1800
G1 X-26.00 Y53.50 E62.7532 F600
G1 E60.7088 F2400
G1 Z0.500 F420
G1 X-24.00 Y55.00 F6000
G1 Z0.300 F420
G1 E62.7540 F1800
G1 X-24.00 Y53.50 E62.8475 F600
G1 E60.8031 F2400
G1 Z0.500 F420
G1 X-22.00 Y55.00 F6000
G1 Z0.300 F420
G1 E62.8482 F1800
G1 X-22.00 Y53.50 E62.9418 F600
G1 E60.8974 F2400
G1 Z0.500 F420
G1 X-20.00 Y55.00 F6000
G1 Z0.300 F420
G1 E62.9562 F1800
G1 X-20.00 Y52.00 E63.1434 F600
G1 E61.0697 F2400
G1 Z0.500 F420
G1 X-18.00 Y55.00 F6000
G1 Z0.300 F420
G1 E63.1149 F1800
G1 X-18.00 Y53.50 E63.2084 F600
G1 E61.1640 F2400
G1 Z0.500 F420
G1 X-16.00 Y55.00 F6000
G1 Z0.300 F420
G1 E63.2091 F1800
G1 X-16.00 Y53.50 E63.3027 F600
G1 E61.2583 F2400
G1 Z0.500 F420
G1 X-14.00 Y55.00 F6000
G1 Z0.300 F420
G1 E63.3034 F1800
G1 X-14.00 Y53.50 E63.3969 F600
G1 E61.3525 F2400
G1 Z0.500 F420
G1 X-12.00 Y55.00 F6000
G1 Z0.300 F420
G1 E63.3977 F1800
G1 X-12.00 Y53.50 E63.4912 F600
G1 E61.4468 F2400
G1 Z0.500 F420
G1 X-10.00 Y55.00 F6000
G1 Z0.300 F420
G1 E63.5057 F1800
G1 X-10.00 Y52.00 E63.6928 F600
G1 E61.6191 F2400
G1 Z0.500 F420
G1 X-8.00 Y55.00 F6000
G1 Z0.300 F420
G1 E63.6643 F1800
G1 X-8.00 Y53.50 E63.7578 F600
G1 E61.7134 F2400
G1 Z0.500 F420
G1 X-6.00 Y55.00 F6000
G1 Z0.300 F420
G1 E63.7586 F1800
G1 X-6.00 Y53.50 E63.8521 F600
G1 E61.8077 F2400
G1 Z0.500 F420
G1 X-4.00 Y55.00 F6000
G1 Z0.300 F420
G1 E63.8528 F1800
G1 X-4.00 Y53.50 E63.9464 F600
G1 E61.9020 F2400
G1 Z0.500 F420
G1 X-2.00 Y55.00 F6000
G1 Z0.300 F420
G1 E63.9471 F1800
G1 X-2.00 Y53.50 E64.0406 F600
G1 E61.9962 F2400
G1 Z0.500 F420
G1 X0.00 Y55.00 F6000
G1 Z0.300 F420
G1 E64.0551 F1800
G1 X0.00 Y52.00 E64.2422 F600
G1 E62.1686 F2400
G1 Z0.500 F420
G1 X2.00 Y55.00 F6000
G1 Z0.300 F420
G1 E64.2137 F1800
G1 X2.00 Y53.50 E64.3073 F600
G1 E62.2629 F2400
G1 Z0.500 F420
G1 X4.00 Y55.00 F6000
G1 Z0.300 F420
G1 E64.3080 F1800
G1 X4.00 Y53.50 E64.4015 F600
G1 E62.3571 F2400
G1 Z0.500 F420
G1 X6.00 Y55.00 F6000
G1 Z0.300 F420
G1 E64.4022 F1800
G1 X6.00 Y53.50 E64.4958 F600
G1 E62.4514 F2400
G1 Z0.500 F420
G1 X8.00 Y55.00 F6000
G1 Z0.300 F420
G1 E64.4965 F1800
G1 X8.00 Y53.50 E64.5901 F600
G1 E62.5457 F2400
G1 Z0.500 F420
G1 X10.00 Y55.00 F6000
G1 Z0.300 F420
G1 E64.6045 F1800
G1 X10.00 Y52.00 E64.7916 F600
G1 E62.7180 F2400
G1 Z0.500 F420
G1 X12.00 Y55.00 F6000
G1 Z0.300 F420
G1 E64.7631 F1800
G1 X12.00 Y53.50 E64.8567 F600
G1 E62.8123 F2400
G1 Z0.500 F420
G1 X14.00 Y55.00 F6000
G1 Z0.300 F420
G1 E64.8574 F1800
G1 X14.00 Y53.50 E64.9510 F600
G1 E62.9065 F2400
G1 Z0.500 F420
G1 X16.00 Y55.00 F6000
G1 Z0.300 F420
G1 E64.9517 F1800
G1 X16.00 Y53.50 E65.0452 F600
G1 E63.0008 F2400
G1 Z0.500 F420
G1 X18.00 Y55.00 F6000
G1 Z0.300 F420
G1 E65.0459 F1800
G1 X18.00 Y53.50 E65.1395 F600
G1 E63.0951 F2400
G1 Z0.500 F420
G1 X20.00 Y55.00 F6000
G1 Z0.300 F420
G1 E65.1540 F1800
G1 X20.00 Y52.00 E65.3411 F600
G1 E63.2674 F2400
G1 Z0.500 F420
G1 X22.00 Y55.00 F6000
G1 Z0.300 F420
G1 E65.3126 F1800
G1 X22.00 Y53.50 E65.4061 F600
G1 E63.3617 F2400
G1 Z0.500 F420
G1 X24.00 Y55.00 F6000
G1 Z0.300 F420
G1 E65.4068 F1800
G1 X24.00 Y53.50 E65.5004 F600
G1 E63.4560 F2400
G1 Z0.500 F420
G1 X26.00 Y55.00 F6000
G1 Z0.300 F420
G1 E65.5011 F1800
G1 X26.00 Y53.50 E65.5947 F600
G1 E63.5502 F2400
G1 Z0.500 F420
G1 X28.00 Y55.00 F6000
G1 Z0.300 F420
G1 E65.5954 F1800
G1 X28.00 Y53.50 E65.6889 F600
G1 E63.6445 F2400
G1 Z0.500 F420
G1 X30.00 Y55.00 F6000
G1 Z0.300 F420
G1 E65.7034 F1800
G1 X30.00 Y52.00 E65.8905 F600
G1 E63.8168 F2400
G1 Z0.500 F420
G1 X32.00 Y55.00 F6000
G1 Z0.300 F420
G1 E65.8620 F1800
G1 X32.00 Y53.50 E65.9555 F600
G1 E63.9111 F2400
G1 Z0.500 F420
G1 X34.00 Y55.00 F6000
G1 Z0.300 F420
G1 E65.9563 F1800
G1 X34.00 Y53.50 E66.0498 F600
G1 E64.0054 F2400
G1 Z0.500 F420
G1 X36.00 Y55.00 F6000
G1 Z0.300 F420
G1 E66.0505 F1800
G1 X36.00 Y53.50 E66.1441 F600
G1 E64.0997 F2400
G1 Z0.500 F420
G1 X38.00 Y55.00 F6000
G1 Z0.300 F420
G1 E66.1448 F1800
G1 X38.00 Y53.50 E66.2383 F600
G1 E64.1939 F2400
G1 Z0.500 F420
G1 X40.00 Y55.00 F6000
G1 Z0.300 F420
G1 E66.2528 F1800
G1 X40.00 Y52.00 E66.4399 F600
G1 E64.3663 F2400
G1 Z0.500 F420
;structure:brim
;structure:shell-outer
G1 X46.50 Y54.88 F6000
G1 Z0.300 F420
G1 E66.4269 F1800
G1 X46.50 Y51.48 E66.6390 F600
G1 E64.5596 F2400
G1 Z0.500 F420
G1 X48.96 Y51.48 F6000
G1 Z0.300 F420
G1 E66.6157 F1800
G1 X47.47 Y53.51 E66.7728 F600
G1 E64.7068 F2400
G1 Z0.500 F420
G1 X46.50 Y52.67 F6000
G1 Z0.300 F420
G1 E66.7673 F1800
G1 X49.02 Y54.88 E66.9763 F600
G1 E64.8976 F2400
G1 Z0.500 F420
G1 X50.08 Y54.88 F6000
G1 Z0.300 F420
G1 E66.9582 F1800
G1 X50.08 Y51.48 E67.1703 F600
G1 E65.0909 F2400
G1 Z0.500 F420
G1 X50.08 Y51.98 F6000
G1 Z0.300 F420
G1 E67.1589 F1800
G1 X50.33 Y51.74 E67.1805 F600
G1 X50.72 Y51.49 E67.2094
G1 X51.10 Y51.42 E67.2335
G1 X51.48 Y51.51 E67.2579
G1 X51.79 Y51.77 E67.2831
G1 X51.99 Y52.18 E67.3116
G1 X52.06 Y52.71 E67.3449
G1 X52.00 Y53.22 E67.3769
G1 X51.82 Y53.61 E67.4037
G1 X51.53 Y53.86 E67.4276
G1 X51.13 Y53.95 E67.4532
G1 X50.94 Y53.93 E67.4651
G1 X50.74 Y53.85 E67.4785
G1 X50.53 Y53.72 E67.4939
G1 X50.33 Y53.50 E67.5125
G1 X50.08 Y53.03 E67.5457
G1 E65.4331 F2400
G1 Z0.500 F420
G1 X53.12 Y53.26 F6000
G1 Z0.300 F420
G1 E67.4812 F1800
G1 X54.81 Y53.26 E67.5866 F600
G1 E65.5373 F2400
G1 Z0.500 F420
G1 X54.81 Y52.55 F6000
G1 Z0.300 F420
G1 E67.5853 F1800
G1 X53.12 Y52.55 E67.6907 F600
G1 E65.6414 F2400
G1 Z0.500 F420
G1 X57.10 Y54.94 F6000
G1 Z0.300 F420
G1 E67.7113 F1800
G1 X57.61 Y54.80 E67.7443 F600
G1 X58.00 Y54.42 E67.7783
G1 X58.23 Y53.86 E67.8160
G1 X58.31 Y53.18 E67.8587
G1 X58.23 Y52.51 E67.9008
G1 X58.00 Y51.95 E67.9386
G1 X57.61 Y51.56 E67.9730
G1 X57.10 Y51.42 E68.0060
G1 X56.57 Y51.56 E68.0401
G1 X56.20 Y51.95 E68.0737
G1 X55.96 Y52.51 E68.1117
G1 X55.88 Y53.18 E68.1537
G1 X55.96 Y53.85 E68.1958
G1 X56.20 Y54.42 E68.2344
G1 X56.57 Y54.80 E68.2675
G1 X57.10 Y54.94 E68.3016
G1 E66.1607 F2400
G1 Z0.500 F420
G1 X59.38 Y51.71 F6000
G1 Z0.300 F420
G1 E68.0502 F1800
G1 X59.38 Y51.65 E68.0539 F600
G1 E66.1783 F2400
G1 Z0.500 F420
G1 X61.66 Y54.94 F6000
G1 Z0.300 F420
G1 E68.2481 F1800
G1 X62.17 Y54.80 E68.2811 F600
G1 X62.56 Y54.42 E68.3150
G1 X62.80 Y53.86 E68.3530
G1 X62.88 Y53.18 E68.3957
G1 X62.80 Y52.51 E68.4378
G1 X62.56 Y51.95 E68.4758
G1 X62.17 Y51.56 E68.5102
G1 X61.66 Y51.42 E68.5432
G1 X61.14 Y51.56 E68.5768
G1 X60.76 Y51.95 E68.6107
G1 X60.52 Y52.51 E68.6487
G1 X60.44 Y53.18 E68.6908
G1 X60.52 Y53.85 E68.7329
G1 X60.76 Y54.42 E68.7715
G1 X61.14 Y54.80 E68.8050
G1 X61.66 Y54.94 E68.8386
G1 E66.6975 F2400
G1 Z0.500 F420
G1 X63.95 Y52.90 F6000
G1 Z0.300 F420
G1 E68.7480 F1800
G1 X65.82 Y52.90 E68.8646 F600
G1 E66.8111 F2400
G1 Z0.500 F420
G1 X68.59 Y51.48 F6000
G1 Z0.300 F420
G1 E68.8776 F1800
G1 X68.59 Y54.88 E69.0897 F600
G1 X66.88 Y52.65 E69.2650
G1 X69.18 Y52.65 E69.4084
G1 E67.2778 F2400
G1 Z0.500 F420
G1 X70.25 Y51.71 F6000
G1 Z0.300 F420
G1 E69.1673 F1800
G1 X70.25 Y51.65 E69.1711 F600
G1 E67.2955 F2400
G1 Z0.500 F420
G1 X72.53 Y54.94 F6000
G1 Z0.300 F420
G1 E69.3652 F1800
G1 X73.04 Y54.80 E69.3982 F600
G1 X73.43 Y54.42 E69.4322
G1 X73.67 Y53.86 E69.4702
G1 X73.75 Y53.18 E69.5129
G1 X73.67 Y52.51 E69.5550
G1 X73.43 Y51.95 E69.5930
G1 X73.04 Y51.56 E69.6274
G1 X72.53 Y51.42 E69.6603
G1 X72.01 Y51.56 E69.6939
G1 X71.63 Y51.95 E69.7279
G1 X71.39 Y52.51 E69.7659
G1 X71.31 Y53.18 E69.8080
G1 X71.39 Y53.85 E69.8500
G1 X71.63 Y54.42 E69.8886
G1 X72.01 Y54.80 E69.9221
G1 X72.53 Y54.94 E69.9557
G1 E67.8146 F2400
G1 Z0.500 F420
G1 X46.50 Y46.48 F6000
G1 Z0.300 F420
G1 E69.8831 F1800
G1 X46.50 Y49.88 E70.0952 F600
G1 X47.73 Y49.88 E70.1719
G1 X48.12 Y49.78 E70.1970
G1 X48.43 Y49.58 E70.2200
G1 X48.53 Y49.45 E70.2302
G1 X48.66 Y49.04 E70.2571
G1 X48.61 Y48.80 E70.2723
G1 X48.50 Y48.56 E70.2888
G1 X48.28 Y48.36 E70.3073
G1 X47.51 Y48.18 E70.3567
G1 E68.2318 F2400
G1 Z0.500 F420
G1 X46.50 Y48.18 F6000
G1 Z0.300 F420
G1 E70.2923 F1800
G1 X47.51 Y48.18 E70.3553 F600
G1 X48.02 Y48.00 E70.3890
G1 X48.41 Y47.38 E70.4347
G1 X48.66 Y46.48 E70.4929
G1 E68.4157 F2400
G1 Z0.500 F420
G1 X49.72 Y47.69 F6000
G1 Z0.300 F420
G1 E70.4854 F1800
G1 X51.86 Y47.69 E70.6189 F600
G1 X51.78 Y48.22 E70.6523
G1 X51.57 Y48.61 E70.6799
G1 X51.23 Y48.86 E70.7063
G1 X50.79 Y48.95 E70.7343
G1 X50.36 Y48.86 E70.7617
G1 X50.02 Y48.61 E70.7880
G1 X49.80 Y48.22 E70.8159
G1 X49.72 Y47.69 E70.8494
G1 X49.80 Y47.15 E70.8834
G1 X50.03 Y46.75 E70.9122
G1 X50.38 Y46.51 E70.9386
G1 X50.84 Y46.42 E70.9679
G1 X51.18 Y46.47 E70.9893
G1 X51.47 Y46.61 E71.0094
G1 X51.68 Y46.83 E71.0284
G1 X51.80 Y47.13 E71.0485
G1 E68.9111 F2400
G1 Z0.500 F420
G1 X52.92 Y48.26 F6000
G1 Z0.300 F420
G1 E70.9592 F1800
G1 X54.61 Y48.26 E71.0646 F600
G1 E69.0153 F2400
G1 Z0.500 F420
G1 X54.61 Y47.55 F6000
G1 Z0.300 F420
G1 E71.0633 F1800
G1 X52.92 Y47.55 E71.1687 F600
G1 E69.1194 F2400
G1 Z0.500 F420
G1 X56.89 Y49.94 F6000
G1 Z0.300 F420
G1 E71.1894 F1800
G1 X57.40 Y49.80 E71.2224 F600
G1 X57.79 Y49.42 E71.2564
G1 X58.03 Y48.86 E71.2944
G1 X58.11 Y48.18 E71.3371
G1 X58.03 Y47.51 E71.3791
G1 X57.79 Y46.95 E71.4171
G1 X57.40 Y46.56 E71.4515
G1 X56.89 Y46.42 E71.4845
G1 X56.37 Y46.56 E71.5181
G1 X55.99 Y46.95 E71.5521
G1 X55.75 Y47.51 E71.5901
G1 X55.67 Y48.18 E71.6321
G1 X55.75 Y48.85 E71.6742
G1 X55.99 Y49.42 E71.7128
G1 X56.37 Y49.80 E71.7463
G1 X56.89 Y49.94 E71.7799
G1 E69.6388 F2400
G1 Z0.500 F420
G1 X59.18 Y46.71 F6000
G1 Z0.300 F420
G1 E71.5284 F1800
G1 X59.18 Y46.65 E71.5321 F600
G1 E69.6565 F2400
G1 Z0.500 F420
G1 X62.23 Y49.88 F6000
G1 Z0.300 F420
G1 E71.7249 F1800
G1 X60.48 Y49.88 E71.8340 F600
G1 X60.34 Y48.14 E71.9429
G1 X60.62 Y48.45 E71.9689
G1 X60.79 Y48.57 E71.9819
G1 X60.98 Y48.64 E71.9946
G1 X61.17 Y48.67 E72.0065
G1 X61.37 Y48.68 E72.0190
G1 X61.78 Y48.59 E72.0452
G1 X62.10 Y48.37 E72.0694
G1 X62.31 Y48.03 E72.0944
G1 X62.39 Y47.61 E72.1210
G1 X62.32 Y47.14 E72.1507
G1 X62.11 Y46.77 E72.1772
G1 X61.76 Y46.51 E72.2044
G1 X61.26 Y46.42 E72.2361
G1 X60.89 Y46.48 E72.2595
G1 X60.58 Y46.64 E72.2812
G1 X60.36 Y46.91 E72.3029
G1 X60.24 Y47.27 E72.3266
G1 E70.1854 F2400
G1 Z0.500 F420
G1 X46.50 Y43.89 F6000
G1 Z0.300 F420
G1 E72.2491 F1800
G1 X47.52 Y41.48 E72.4123 F600
G1 X48.54 Y43.89 E72.5755
G1 E70.4757 F2400
G1 Z0.500 F420
G1 X49.60 Y42.69 F6000
G1 Z0.300 F420
G1 E72.5454 F1800
G1 X51.74 Y42.69 E72.6789 F600
G1 X51.66 Y43.22 E72.7123
G1 X51.45 Y43.61 E72.7399
G1 X51.11 Y43.86 E72.7663
G1 X50.67 Y43.95 E72.7943
G1 X50.24 Y43.86 E72.8217
G1 X49.90 Y43.61 E72.8480
G1 X49.68 Y43.22 E72.8759
G1 X49.60 Y42.69 E72.9093
G1 X49.68 Y42.15 E72.9434
G1 X49.91 Y41.75 E72.9722
G1 X50.26 Y41.51 E72.9986
G1 X50.72 Y41.42 E73.0279
G1 X51.06 Y41.47 E73.0493
G1 X51.35 Y41.61 E73.0694
G1 X51.56 Y41.83 E73.0883
G1 X51.68 Y42.13 E73.1085
G1 E70.9711 F2400
G1 Z0.500 F420
G1 X52.80 Y43.26 F6000
G1 Z0.300 F420
G1 E73.0192 F1800
G1 X54.49 Y43.26 E73.1246 F600
G1 E71.0753 F2400
G1 Z0.500 F420
G1 X54.49 Y42.55 F6000
G1 Z0.300 F420
G1 E73.1233 F1800
G1 X52.80 Y42.55 E73.2287 F600
G1 E71.1794 F2400
G1 Z0.500 F420
G1 X55.55 Y44.00 F6000
G1 Z0.300 F420
G1 E73.2419 F1800
G1 X56.02 Y44.24 E73.2748 F600
G1 X56.39 Y44.55 E73.3049
G1 X56.64 Y44.88 E73.3307
G1 X56.64 Y41.48 E73.5427
G1 E71.4479 F2400
G1 Z0.500 F420
G1 X57.70 Y41.71 F6000
G1 Z0.300 F420
G1 E73.3373 F1800
G1 X57.70 Y41.65 E73.3411 F600
G1 E71.4655 F2400
G1 Z0.500 F420
G1 X59.99 Y44.94 F6000
G1 Z0.300 F420
G1 E73.5352 F1800
G1 X60.50 Y44.80 E73.5682 F600
G1 X60.89 Y44.42 E73.6022
G1 X61.12 Y43.86 E73.6399
G1 X61.21 Y43.18 E73.6827
G1 X61.12 Y42.51 E73.7249
G1 X60.89 Y41.95 E73.7626
G1 X60.50 Y41.56 E73.7970
G1 X59.99 Y41.42 E73.8300
G1 X59.46 Y41.56 E73.8642
G1 X59.09 Y41.95 E73.8977
G1 X58.85 Y42.51 E73.9357
G1 X58.77 Y43.18 E73.9778
G1 X58.85 Y43.85 E74.0199
G1 X59.09 Y44.42 E74.0585
G1 X59.46 Y44.80 E74.0915
G1 X59.99 Y44.94 E74.1257
G1 E71.9846 F2400
G1 Z0.500 F420
G1 X46.50 Y39.88 F6000
G1 Z0.300 F420
G1 E74.0453 F1800
G1 X46.50 Y36.48 E74.2574 F600
G1 E72.1780 F2400
G1 Z0.500 F420
G1 X46.50 Y38.23 F6000
G1 Z0.300 F420
G1 E74.2423 F1800
G1 X46.75 Y38.53 E74.2666 F600
G1 X46.98 Y38.75 E74.2865
G1 X47.20 Y38.88 E74.3024
G1 X47.40 Y38.93 E74.3153
G1 X47.59 Y38.95 E74.3272
G1 X47.91 Y38.88 E74.3476
G1 X48.14 Y38.71 E74.3655
G1 X48.24 Y38.51 E74.3794
G1 X48.33 Y38.08 E74.4068
G1 X48.33 Y36.48 E74.5066
G1 E72.4157 F2400
G1 Z0.500 F420
G1 X49.39 Y38.26 F6000
G1 Z0.300 F420
G1 E74.4638 F1800
G1 X51.08 Y38.26 E74.5692 F600
G1 E72.5199 F2400
G1 Z0.500 F420
G1 X51.08 Y37.55 F6000
G1 Z0.300 F420
G1 E74.5679 F1800
G1 X49.39 Y37.55 E74.6733 F600
G1 E72.6240 F2400
G1 Z0.500 F420
G1 X53.36 Y39.94 F6000
G1 Z0.300 F420
G1 E74.6940 F1800
G1 X53.87 Y39.80 E74.7270 F600
G1 X54.26 Y39.42 E74.7609
G1 X54.50 Y38.86 E74.7989
G1 X54.58 Y38.18 E74.8416
G1 X54.50 Y37.51 E74.8837
G1 X54.26 Y36.95 E74.9217
G1 X53.87 Y36.56 E74.9561
G1 X53.36 Y36.42 E74.9891
G1 X52.84 Y36.56 E75.0227
G1 X52.46 Y36.95 E75.0566
G1 X52.22 Y37.51 E75.0946
G1 X52.14 Y38.18 E75.1367
G1 X52.22 Y38.85 E75.1788
G1 X52.46 Y39.42 E75.2174
G1 X52.84 Y39.80 E75.2509
G1 X53.36 Y39.94 E75.2845
G1 E73.1434 F2400
G1 Z0.500 F420
G1 X55.64 Y36.71 F6000
G1 Z0.300 F420
G1 E75.0329 F1800
G1 X55.64 Y36.65 E75.0367 F600
G1 E73.1611 F2400
G1 Z0.500 F420
G1 X56.71 Y39.44 F6000
G1 Z0.300 F420
G1 E75.2293 F1800
G1 X56.90 Y39.65 E75.2470 F600
G1 X57.13 Y39.81 E75.2645
G1 X57.39 Y39.90 E75.2816
G1 X57.67 Y39.94 E75.2993
G1 X58.04 Y39.88 E75.3227
G1 X58.34 Y39.68 E75.3451
G1 X58.53 Y39.39 E75.3668
G1 X58.60 Y39.02 E75.3903
G1 X58.50 Y38.63 E75.4154
G1 X58.22 Y38.27 E75.4438
G1 X57.44 Y37.64 E75.5063
G1 X57.14 Y37.23 E75.5380
G1 X56.75 Y36.48 E75.5908
G1 X58.57 Y36.48 E75.7043
G1 E73.5792 F2400
G1 Z0.500 F420
G1 X46.50 Y33.89 F6000
G1 Z0.300 F420
G1 E75.6452 F1800
G1 X47.36 Y31.48 E75.8048 F600
G1 X48.10 Y33.89 E75.9620
G1 X48.87 Y31.48 E76.1198
G1 X49.71 Y33.89 E76.2790
G1 E74.1366 F2400
G1 Z0.500 F420
G1 X50.77 Y33.26 F6000
G1 Z0.300 F420
G1 E76.1848 F1800
G1 X52.46 Y33.26 E76.2902 F600
G1 E74.2408 F2400
G1 Z0.500 F420
G1 X52.46 Y32.55 F6000
G1 Z0.300 F420
G1 E76.2889 F1800
G1 X50.77 Y32.55 E76.3943 F600
G1 E74.3449 F2400
G1 Z0.500 F420
G1 X54.74 Y34.94 F6000
G1 Z0.300 F420
G1 E76.4150 F1800
G1 X55.25 Y34.80 E76.4480 F600
G1 X55.64 Y34.42 E76.4820
G1 X55.88 Y33.86 E76.5200
G1 X55.96 Y33.18 E76.5627
G1 X55.88 Y32.51 E76.6048
G1 X55.64 Y31.95 E76.6428
G1 X55.25 Y31.56 E76.6772
G1 X54.74 Y31.42 E76.7101
G1 X54.22 Y31.56 E76.7437
G1 X53.84 Y31.95 E76.7777
G1 X53.60 Y32.51 E76.8157
G1 X53.52 Y33.18 E76.8578
G1 X53.60 Y33.85 E76.8999
G1 X53.84 Y34.42 E76.9384
G1 X54.22 Y34.80 E76.9720
G1 X54.74 Y34.94 E77.0055
G1 E74.8644 F2400
G1 Z0.500 F420
G1 X57.02 Y31.71 F6000
G1 Z0.300 F420
G1 E76.7539 F1800
G1 X57.02 Y31.65 E76.7577 F600
G1 E74.8821 F2400
G1 Z0.500 F420
G1 X58.14 Y34.13 F6000
G1 Z0.300 F420
G1 E76.9502 F1800
G1 X58.25 Y34.47 E76.9725 F600
G1 X58.46 Y34.73 E76.9934
G1 X58.75 Y34.89 E77.0140
G1 X59.09 Y34.94 E77.0355
G1 X59.48 Y34.87 E77.0602
G1 X59.77 Y34.68 E77.0818
G1 X59.95 Y34.41 E77.1020
G1 X60.02 Y34.06 E77.1243
G1 X59.95 Y33.85 E77.1381
G1 X59.81 Y33.68 E77.1518
G1 X59.44 Y33.45 E77.1790
G1 X59.00 Y33.30 E77.2080
G1 X59.44 Y33.18 E77.2364
G1 X59.80 Y33.02 E77.2610
G1 X60.09 Y32.74 E77.2861
G1 X60.19 Y32.45 E77.3053
G1 X60.12 Y32.03 E77.3318
G1 X59.89 Y31.70 E77.3569
G1 X59.55 Y31.50 E77.3815
G1 X59.12 Y31.42 E77.4088
G1 X58.73 Y31.48 E77.4334
G1 X58.41 Y31.65 E77.4560
G1 X58.19 Y31.92 E77.4777
G1 X58.09 Y32.28 E77.5010
G1 E75.3664 F2400
G1 Z0.500 F420
;structure:shell-inner
G1 X-45.00 Y51.00 F6000
G1 Z0.200 F420
G1 E76.4123 F1800
G1 X-40.00 Y51.00 E76.5163 F300
G1 X-30.00 Y51.00 F60
G1 E76.8980 F1800
G1 X20.00 Y51.00 E78.1452 F2405
G1 E77.1949 F2400
G1 X40.00 Y51.00 F600
G1 E77.7981 F1800
G1 X45.00 Y51.00 E78.0060 F300
G1 E77.4040 F2400
G1 Z0.500 F420
G1 X-45.00 Y49.00 F6000
G1 Z0.200 F420
G1 E78.0295 F1800
G1 X-40.00 Y49.00 E78.1334 F300
G1 X-30.00 Y49.00 F60
G1 E78.5892 F1800
G1 X20.00 Y49.00 E79.8364 F2405
G1 E78.7680 F2400
G1 X40.00 Y49.00 F600
G1 E79.5288 F1800
G1 X45.00 Y49.00 E79.7367 F300
G1 E78.9619 F2400
G1 Z0.500 F420
G1 X-45.00 Y47.00 F6000
G1 Z0.200 F420
G1 E79.6673 F1800
G1 X-40.00 Y47.00 E79.7713 F300
G1 X-30.00 Y47.00 F60
G1 E80.2619 F1800
G1 X20.00 Y47.00 E81.5092 F2405
G1 E80.3271 F2400
G1 X40.00 Y47.00 F600
G1 E81.2467 F1800
G1 X45.00 Y47.00 E81.4546 F300
G1 E80.5155 F2400
G1 Z0.500 F420
G1 X-45.00 Y45.00 F6000
G1 Z0.200 F420
G1 E81.3009 F1800
G1 X-40.00 Y45.00 E81.4048 F300
G1 X-30.00 Y45.00 F60
G1 E81.9195 F1800
G1 X20.00 Y45.00 E83.1667 F2405
G1 E81.8743 F2400
G1 X40.00 Y45.00 F600
G1 E82.9535 F1800
G1 X45.00 Y45.00 E83.1614 F300
G1 E82.0600 F2400
G1 Z0.500 F420
G1 X-45.00 Y43.00 F6000
G1 Z0.200 F420
G1 E82.9253 F1800
G1 X-40.00 Y43.00 E83.0293 F300
G1 X-30.00 Y43.00 F60
G1 E83.5643 F1800
G1 X20.00 Y43.00 E84.8115 F2405
G1 E83.4114 F2400
G1 X40.00 Y43.00 F600
G1 E84.6503 F1800
G1 X45.00 Y43.00 E84.8582 F300
G1 E83.5954 F2400
G1 Z0.500 F420
G1 X-45.00 Y41.00 F6000
G1 Z0.200 F420
G1 E84.5408 F1800
G1 X-40.00 Y41.00 E84.6447 F300
G1 X-30.00 Y41.00 F60
G1 E85.1983 F1800
G1 X20.00 Y41.00 E86.4456 F2405
G1 E84.9398 F2400
G1 X40.00 Y41.00 F600
G1 E86.3386 F1800
G1 X45.00 Y41.00 E86.5465 F300
G1 E85.1227 F2400
G1 Z0.500 F420
G1 X-45.00 Y39.00 F6000
G1 Z0.200 F420
G1 E86.1480 F1800
G1 X-40.00 Y39.00 E86.2519 F300
G1 X-30.00 Y39.00 F60
G1 E86.8234 F1800
G1 X20.00 Y39.00 E88.0707 F2405
G1 E86.4607 F2400
G1 X40.00 Y39.00 F600
G1 E88.0194 F1800
G1 X45.00 Y39.00 E88.2273 F300
G1 E86.6427 F2400
G1 Z0.500 F420
G1 X-45.00 Y37.00 F6000
G1 Z0.200 F420
G1 E87.7481 F1800
G1 X-40.00 Y37.00 E87.8520 F300
G1 X-30.00 Y37.00 F60
G1 E88.4408 F1800
G1 X20.00 Y37.00 E89.6880 F2405
G1 E87.9750 F2400
G1 X40.00 Y37.00 F600
G1 E89.6937 F1800
G1 X45.00 Y37.00 E89.9016 F300
G1 E88.1565 F2400
G1 Z0.500 F420
G1 X-45.00 Y35.00 F6000
G1 Z0.200 F420
G1 E89.3419 F1800
G1 X-40.00 Y35.00 E89.4458 F300
G1 X-30.00 Y35.00 F60
G1 E90.0515 F1800
G1 X20.00 Y35.00 E91.2988 F2405
G1 E89.4838 F2400
G1 X40.00 Y35.00 F600
G1 E91.3625 F1800
G1 X45.00 Y35.00 E91.5703 F300
G1 E89.6648 F2400
G1 Z0.500 F420
G1 X-45.00 Y33.00 F6000
G1 Z0.200 F420
G1 E90.9301 F1800
G1 X-40.00 Y33.00 E91.0341 F300
G1 X-30.00 Y33.00 F60
G1 E91.6566 F1800
G1 X20.00 Y33.00 E92.9038 F2405
G1 E90.9875 F2400
G1 X40.00 Y33.00 F600
G1 E93.0262 F1800
G1 X45.00 Y33.00 E93.2341 F300
G1 E91.1682 F2400
G1 Z0.500 F420
G1 X-45.00 Y31.00 F6000
G1 Z0.200 F420
G1 E92.5135 F1800
G1 X-40.00 Y31.00 E92.6174 F300
G1 X-30.00 Y31.00 F60
G1 E93.2565 F1800
G1 X20.00 Y31.00 E94.5038 F2405
G1 E92.4869 F2400
G1 X40.00 Y31.00 F600
G1 E94.6855 F1800
G1 X45.00 Y31.00 E94.8934 F300
G1 E92.6672 F2400
G1 Z0.500 F420
;structure:shell-outer
G1 X-45.00 Y26.00 F6000
G1 Z0.300 F420
G1 E94.2406 F1800
G1 X45.00 Y26.00 E99.8532 F600
G1 E97.5503 F2400
G1 Z0.500 F420
G1 X-42.00 Y26.00 F6000
G1 X-40.00 Y26.00
G1 Z0.300 F420
G1 E99.6094 F1800
G1 X-40.00 Y23.00 E99.7965 F600
G1 E97.7230 F2400
G1 Z0.500 F420
G1 X-38.00 Y26.00 F6000
G1 Z0.300 F420
G1 E99.7680 F1800
G1 X-38.00 Y24.50 E99.8616 F600
G1 E97.8173 F2400
G1 Z0.500 F420
G1 X-36.00 Y26.00 F6000
G1 Z0.300 F420
G1 E99.8623 F1800
G1 X-36.00 Y24.50 E99.9558 F600
G1 E97.9115 F2400
G1 Z0.500 F420
G1 X-34.00 Y26.00 F6000
G1 Z0.300 F420
G1 E99.9566 F1800
G1 X-34.00 Y24.50 E100.0501 F600
G1 E98.0058 F2400
G1 Z0.500 F420
G1 X-32.00 Y26.00 F6000
G1 Z0.300 F420
G1 E100.0508 F1800
G1 X-32.00 Y24.50 E100.1444 F600
G1 E98.1000 F2400
G1 Z0.500 F420
G1 X-30.00 Y26.00 F6000
G1 Z0.300 F420
G1 E100.1588 F1800
G1 X-30.00 Y23.00 E100.3459 F600
G1 E98.2723 F2400
G1 Z0.500 F420
G1 X-28.00 Y26.00 F6000
G1 Z0.300 F420
G1 E100.3174 F1800
G1 X-28.00 Y24.50 E100.4110 F600
G1 E98.3666 F2400
G1 Z0.500 F420
G1 X-26.00 Y26.00 F6000
G1 Z0.300 F420
G1 E100.4117 F1800
G1 X-26.00 Y24.50 E100.5052 F600
G1 E98.4609 F2400
G1 Z0.500 F420
G1 X-24.00 Y26.00 F6000
G1 Z0.300 F420
G1 E100.5059 F1800
G1 X-24.00 Y24.50 E100.5995 F600
G1 E98.5551 F2400
G1 Z0.500 F420
G1 X-22.00 Y26.00 F6000
G1 Z0.300 F420
G1 E100.6002 F1800
G1 X-22.00 Y24.50 E100.6937 F600
G1 E98.6494 F2400
G1 Z0.500 F420
G1 X-20.00 Y26.00 F6000
G1 Z0.300 F420
G1 E100.7082 F1800
G1 X-20.00 Y23.00 E100.8953 F600
G1 E98.8217 F2400
G1 Z0.500 F420
G1 X-18.00 Y26.00 F6000
G1 Z0.300 F420
G1 E100.8668 F1800
G1 X-18.00 Y24.50 E100.9603 F600
G1 E98.9160 F2400
G1 Z0.500 F420
G1 X-16.00 Y26.00 F6000
G1 Z0.300 F420
G1 E100.9610 F1800
G1 X-16.00 Y24.50 E101.0546 F600
G1 E99.0103 F2400
G1 Z0.500 F420
G1 X-14.00 Y26.00 F6000
G1 Z0.300 F420
G1 E101.0553 F1800
G1 X-14.00 Y24.50 E101.1488 F600
G1 E99.1045 F2400
G1 Z0.500 F420
G1 X-12.00 Y26.00 F6000
G1 Z0.300 F420
G1 E101.1496 F1800
G1 X-12.00 Y24.50 E101.2431 F600
G1 E99.1988 F2400
G1 Z0.500 F420
G1 X-10.00 Y26.00 F6000
G1 Z0.300 F420
G1 E101.2576 F1800
G1 X-10.00 Y23.00 E101.4447 F600
G1 E99.3711 F2400
G1 Z0.500 F420
G1 X-8.00 Y26.00 F6000
G1 Z0.300 F420
G1 E101.4162 F1800
G1 X-8.00 Y24.50 E101.5097 F600
G1 E99.4654 F2400
G1 Z0.500 F420
G1 X-6.00 Y26.00 F6000
G1 Z0.300 F420
G1 E101.5104 F1800
G1 X-6.00 Y24.50 E101.6040 F600
G1 E99.5596 F2400
G1 Z0.500 F420
G1 X-4.00 Y26.00 F6000
G1 Z0.300 F420
G1 E101.6047 F1800
G1 X-4.00 Y24.50 E101.6982 F600
G1 E99.6539 F2400
G1 Z0.500 F420
G1 X-2.00 Y26.00 F6000
G1 Z0.300 F420
G1 E101.6989 F1800
G1 X-2.00 Y24.50 E101.7925 F600
G1 E99.7482 F2400
G1 Z0.500 F420
G1 X0.00 Y26.00 F6000
G1 Z0.300 F420
G1 E101.8069 F1800
G1 X0.00 Y23.00 E101.9940 F600
G1 E99.9205 F2400
G1 Z0.500 F420
G1 X2.00 Y26.00 F6000
G1 Z0.300 F420
G1 E101.9655 F1800
G1 X2.00 Y24.50 E102.0591 F600
G1 E100.0148 F2400
G1 Z0.500 F420
G1 X4.00 Y26.00 F6000
G1 Z0.300 F420
G1 E102.0598 F1800
G1 X4.00 Y24.50 E102.1533 F600
G1 E100.1090 F2400
G1 Z0.500 F420
G1 X6.00 Y26.00 F6000
G1 Z0.300 F420
G1 E102.1540 F1800
G1 X6.00 Y24.50 E102.2476 F600
G1 E100.2033 F2400
G1 Z0.500 F420
G1 X8.00 Y26.00 F6000
G1 Z0.300 F420
G1 E102.2483 F1800
G1 X8.00 Y24.50 E102.3418 F600
G1 E100.2975 F2400
G1 Z0.500 F420
G1 X10.00 Y26.00 F6000
G1 Z0.300 F420
G1 E102.3563 F1800
G1 X10.00 Y23.00 E102.5434 F600
G1 E100.4698 F2400
G1 Z0.500 F420
G1 X12.00 Y26.00 F6000
G1 Z0.300 F420
G1 E102.5149 F1800
G1 X12.00 Y24.50 E102.6085 F600
G1 E100.5641 F2400
G1 Z0.500 F420
G1 X14.00 Y26.00 F6000
G1 Z0.300 F420
G1 E102.6092 F1800
G1 X14.00 Y24.50 E102.7027 F600
G1 E100.6584 F2400
G1 Z0.500 F420
G1 X16.00 Y26.00 F6000
G1 Z0.300 F420
G1 E102.7034 F1800
G1 X16.00 Y24.50 E102.7970 F600
G1 E100.7526 F2400
G1 Z0.500 F420
G1 X18.00 Y26.00 F6000
G1 Z0.300 F420
G1 E102.7977 F1800
G1 X18.00 Y24.50 E102.8912 F600
G1 E100.8469 F2400
G1 Z0.500 F420
G1 X20.00 Y26.00 F6000
G1 Z0.300 F420
G1 E102.9057 F1800
G1 X20.00 Y23.00 E103.0928 F600
G1 E101.0192 F2400
G1 Z0.500 F420
G1 X22.00 Y26.00 F6000
G1 Z0.300 F420
G1 E103.0643 F1800
G1 X22.00 Y24.50 E103.1578 F600
G1 E101.1135 F2400
G1 Z0.500 F420
G1 X24.00 Y26.00 F6000
G1 Z0.300 F420
G1 E103.1585 F1800
G1 X24.00 Y24.50 E103.2521 F600
G1 E101.2078 F2400
G1 Z0.500 F420
G1 X26.00 Y26.00 F6000
G1 Z0.300 F420
G1 E103.2528 F1800
G1 X26.00 Y24.50 E103.3463 F600
G1 E101.3020 F2400
G1 Z0.500 F420
G1 X28.00 Y26.00 F6000
G1 Z0.300 F420
G1 E103.3470 F1800
G1 X28.00 Y24.50 E103.4406 F600
G1 E101.3963 F2400
G1 Z0.500 F420
G1 X30.00 Y26.00 F6000
G1 Z0.300 F420
G1 E103.4551 F1800
G1 X30.00 Y23.00 E103.6421 F600
G1 E101.5686 F2400
G1 Z0.500 F420
G1 X32.00 Y26.00 F6000
G1 Z0.300 F420
G1 E103.6137 F1800
G1 X32.00 Y24.50 E103.7072 F600
G1 E101.6629 F2400
G1 Z0.500 F420
G1 X34.00 Y26.00 F6000
G1 Z0.300 F420
G1 E103.7079 F1800
G1 X34.00 Y24.50 E103.8015 F600
G1 E101.7571 F2400
G1 Z0.500 F420
G1 X36.00 Y26.00 F6000
G1 Z0.300 F420
G1 E103.8022 F1800
G1 X36.00 Y24.50 E103.8957 F600
G1 E101.8514 F2400
G1 Z0.500 F420
G1 X38.00 Y26.00 F6000
G1 Z0.300 F420
G1 E103.8964 F1800
G1 X38.00 Y24.50 E103.9900 F600
G1 E101.9456 F2400
G1 Z0.500 F420
G1 X40.00 Y26.00 F6000
G1 Z0.300 F420
G1 E104.0044 F1800
G1 X40.00 Y23.00 E104.1915 F600
G1 E102.1180 F2400
G1 Z0.500 F420
;structure:brim
;structure:shell-outer
G1 X46.50 Y25.88 F6000
G1 Z0.300 F420
G1 E104.1785 F1800
G1 X46.50 Y22.48 E104.3905 F600
G1 E102.3113 F2400
G1 Z0.500 F420
G1 X48.96 Y22.48 F6000
G1 Z0.300 F420
G1 E104.3673 F1800
G1 X47.47 Y24.51 E104.5244 F600
G1 E102.4585 F2400
G1 Z0.500 F420
G1 X46.50 Y23.67 F6000
G1 Z0.300 F420
G1 E104.5188 F1800
G1 X49.02 Y25.88 E104.7278 F600
G1 E102.6492 F2400
G1 Z0.500 F420
G1 X50.08 Y25.88 F6000
G1 Z0.300 F420
G1 E104.7098 F1800
G1 X50.08 Y22.48 E104.9218 F600
G1 E102.8425 F2400
G1 Z0.500 F420
G1 X50.08 Y22.98 F6000
G1 Z0.300 F420
G1 E104.9105 F1800
G1 X50.33 Y22.74 E104.9321 F600
G1 X50.72 Y22.49 E104.9610
G1 X51.10 Y22.42 E104.9851
G1 X51.48 Y22.51 E105.0094
G1 X51.79 Y22.77 E105.0346
G1 X51.99 Y23.18 E105.0631
G1 X52.06 Y23.71 E105.0964
G1 X52.00 Y24.22 E105.1284
G1 X51.82 Y24.61 E105.1552
G1 X51.53 Y24.86 E105.1791
G1 X51.13 Y24.95 E105.2047
G1 X50.94 Y24.93 E105.2166
G1 X50.74 Y24.85 E105.2300
G1 X50.53 Y24.72 E105.2454
G1 X50.33 Y24.50 E105.2640
G1 X50.08 Y24.03 E105.2972
G1 E103.1847 F2400
G1 Z0.500 F420
G1 X53.12 Y24.26 F6000
G1 Z0.300 F420
G1 E105.2328 F1800
G1 X54.81 Y24.26 E105.3381 F600
G1 E103.2889 F2400
G1 Z0.500 F420
G1 X54.81 Y23.55 F6000
G1 Z0.300 F420
G1 E105.3369 F1800
G1 X53.12 Y23.55 E105.4423 F600
G1 E103.3930 F2400
G1 Z0.500 F420
G1 X57.10 Y25.94 F6000
G1 Z0.300 F420
G1 E105.4629 F1800
G1 X57.61 Y25.80 E105.4959 F600
G1 X58.00 Y25.42 E105.5299
G1 X58.23 Y24.86 E105.5676
G1 X58.31 Y24.18 E105.6103
G1 X58.23 Y23.51 E105.6524
G1 X58.00 Y22.95 E105.6902
G1 X57.61 Y22.56 E105.7246
G1 X57.10 Y22.42 E105.7575
G1 X56.57 Y22.56 E105.7917
G1 X56.20 Y22.95 E105.8253
G1 X55.96 Y23.51 E105.8632
G1 X55.88 Y24.18 E105.9053
G1 X55.96 Y24.85 E105.9474
G1 X56.20 Y25.42 E105.9860
G1 X56.57 Y25.80 E106.0191
G1 X57.10 Y25.94 E106.0532
G1 E103.9123 F2400
G1 Z0.500 F420
G1 X59.38 Y22.71 F6000
G1 Z0.300 F420
G1 E105.8018 F1800
G1 X59.38 Y22.65 E105.8055 F600
G1 E103.9299 F2400
G1 Z0.500 F420
G1 X61.66 Y25.94 F6000
G1 Z0.300 F420
G1 E105.9997 F1800
G1 X62.17 Y25.80 E106.0327 F600
G1 X62.56 Y25.42 E106.0666
G1 X62.80 Y24.86 E106.1046
G1 X62.88 Y24.18 E106.1473
G1 X62.80 Y23.51 E106.1894
G1 X62.56 Y22.95 E106.2274
G1 X62.17 Y22.56 E106.2618
G1 X61.66 Y22.42 E106.2948
G1 X61.14 Y22.56 E106.3284
G1 X60.76 Y22.95 E106.3623
G1 X60.52 Y23.51 E106.4003
G1 X60.44 Y24.18 E106.4424
G1 X60.52 Y24.85 E106.4845
G1 X60.76 Y25.42 E106.5231
G1 X61.14 Y25.80 E106.5566
G1 X61.66 Y25.94 E106.5902
G1 E104.4491 F2400
G1 Z0.500 F420
G1 X63.95 Y23.90 F6000
G1 Z0.300 F420
G1 E106.4996 F1800
G1 X65.82 Y23.90 E106.6162 F600
G1 E104.5627 F2400
G1 Z0.500 F420
G1 X68.59 Y22.48 F6000
G1 Z0.300 F420
G1 E106.6292 F1800
G1 X68.59 Y25.88 E106.8413 F600
G1 X66.88 Y23.65 E107.0166
G1 X69.18 Y23.65 E107.1600
G1 E105.0294 F2400
G1 Z0.500 F420
G1 X70.25 Y22.71 F6000
G1 Z0.300 F420
G1 E106.9189 F1800
G1 X70.25 Y22.65 E106.9227 F600
G1 E105.0471 F2400
G1 Z0.500 F420
G1 X72.53 Y25.94 F6000
G1 Z0.300 F420
G1 E107.1168 F1800
G1 X73.04 Y25.80 E107.1498 F600
G1 X73.43 Y25.42 E107.1838
G1 X73.67 Y24.86 E107.2218
G1 X73.75 Y24.18 E107.2645
G1 X73.67 Y23.51 E107.3065
G1 X73.43 Y22.95 E107.3445
G1 X73.04 Y22.56 E107.3789
G1 X72.53 Y22.42 E107.4119
G1 X72.01 Y22.56 E107.4455
G1 X71.63 Y22.95 E107.4795
G1 X71.39 Y23.51 E107.5175
G1 X71.31 Y24.18 E107.5596
G1 X71.39 Y24.85 E107.6016
G1 X71.63 Y25.42 E107.6402
G1 X72.01 Y25.80 E107.6737
G1 X72.53 Y25.94 E107.7073
G1 E105.5662 F2400
G1 Z0.500 F420
G1 X46.50 Y17.48 F6000
G1 Z0.300 F420
G1 E107.6347 F1800
G1 X46.50 Y20.88 E107.8468 F600
G1 X47.73 Y20.88 E107.9235
G1 X48.12 Y20.78 E107.9486
G1 X48.43 Y20.58 E107.9716
G1 X48.53 Y20.45 E107.9818
G1 X48.66 Y20.04 E108.0086
G1 X48.61 Y19.80 E108.0239
G1 X48.50 Y19.56 E108.0404
G1 X48.28 Y19.36 E108.0589
G1 X47.51 Y19.18 E108.1083
G1 E105.9834 F2400
G1 Z0.500 F420
G1 X46.50 Y19.18 F6000
G1 Z0.300 F420
G1 E108.0439 F1800
G1 X47.51 Y19.18 E108.1069 F600
G1 X48.02 Y19.00 E108.1406
G1 X48.41 Y18.38 E108.1863
G1 X48.66 Y17.48 E108.2445
G1 E106.1673 F2400
G1 Z0.500 F420
G1 X49.72 Y18.69 F6000
G1 Z0.300 F420
G1 E108.2370 F1800
G1 X51.86 Y18.69 E108.3705 F600
G1 X51.78 Y19.22 E108.4039
G1 X51.57 Y19.61 E108.4315
G1 X51.23 Y19.86 E108.4579
G1 X50.79 Y19.95 E108.4859
G1 X50.36 Y19.86 E108.5133
G1 X50.02 Y19.61 E108.5396
G1 X49.80 Y19.22 E108.5675
G1 X49.72 Y18.69 E108.6009
G1 X49.80 Y18.15 E108.6350
G1 X50.03 Y17.75 E108.6638
G1 X50.38 Y17.51 E108.6902
G1 X50.84 Y17.42 E108.7195
G1 X51.18 Y17.47 E108.7409
G1 X51.47 Y17.61 E108.7610
G1 X51.68 Y17.83 E108.7800
G1 X51.80 Y18.13 E108.8001
G1 E106.6626 F2400
G1 Z0.500 F420
G1 X52.92 Y19.26 F6000
G1 Z0.300 F420
G1 E108.7108 F1800
G1 X54.61 Y19.26 E108.8162 F600
G1 E106.7669 F2400
G1 Z0.500 F420
G1 X54.61 Y18.55 F6000
G1 Z0.300 F420
G1 E108.8149 F1800
G1 X52.92 Y18.55 E108.9203 F600
G1 E106.8710 F2400
G1 Z0.500 F420
G1 X56.89 Y20.94 F6000
G1 Z0.300 F420
G1 E108.9410 F1800
G1 X57.40 Y20.80 E108.9740 F600
G1 X57.79 Y20.42 E109.0079
G1 X58.03 Y19.86 E109.0459
G1 X58.11 Y19.18 E109.0886
G1 X58.03 Y18.51 E109.1307
G1 X57.79 Y17.95 E109.1687
G1 X57.40 Y17.56 E109.2031
G1 X56.89 Y17.42 E109.2361
G1 X56.37 Y17.56 E109.2697
G1 X55.99 Y17.95 E109.3036
G1 X55.75 Y18.51 E109.3416
G1 X55.67 Y19.18 E109.3837
G1 X55.75 Y19.85 E109.4258
G1 X55.99 Y20.42 E109.4644
G1 X56.37 Y20.80 E109.4979
G1 X56.89 Y20.94 E109.5315
G1 E107.3904 F2400
G1 Z0.500 F420
G1 X59.18 Y17.71 F6000
G1 Z0.300 F420
G1 E109.2800 F1800
G1 X59.18 Y17.65 E109.2837 F600
G1 E107.4081 F2400
G1 Z0.500 F420
G1 X62.23 Y20.88 F6000
G1 Z0.300 F420
G1 E109.4765 F1800
G1 X60.48 Y20.88 E109.5856 F600
G1 X60.34 Y19.14 E109.6945
G1 X60.62 Y19.45 E109.7205
G1 X60.79 Y19.57 E109.7335
G1 X60.98 Y19.64 E109.7461
G1 X61.17 Y19.67 E109.7581
G1 X61.37 Y19.68 E109.7706
G1 X61.78 Y19.59 E109.7968
G1 X62.10 Y19.37 E109.8210
G1 X62.31 Y19.03 E109.8460
G1 X62.39 Y18.61 E109.8726
G1 X62.32 Y18.14 E109.9023
G1 X62.11 Y17.77 E109.9288
G1 X61.76 Y17.51 E109.9560
G1 X61.26 Y17.42 E109.9877
G1 X60.89 Y17.48 E110.0110
G1 X60.58 Y17.64 E110.0328
G1 X60.36 Y17.91 E110.0545
G1 X60.24 Y18.27 E110.0782
G1 E107.9370 F2400
G1 Z0.500 F420
G1 X46.50 Y14.89 F6000
G1 Z0.300 F420
G1 E110.0007 F1800
G1 X47.52 Y12.48 E110.1639 F600
G1 X48.54 Y14.89 E110.3271
G1 E108.2273 F2400
G1 Z0.500 F420
G1 X49.60 Y13.69 F6000
G1 Z0.300 F420
G1 E110.2970 F1800
G1 X51.74 Y13.69 E110.4305 F600
G1 X51.66 Y14.22 E110.4639
G1 X51.45 Y14.61 E110.4915
G1 X51.11 Y14.86 E110.5179
G1 X50.67 Y14.95 E110.5459
G1 X50.24 Y14.86 E110.5733
G1 X49.90 Y14.61 E110.5996
G1 X49.68 Y14.22 E110.6275
G1 X49.60 Y13.69 E110.6609
G1 X49.68 Y13.15 E110.6950
G1 X49.91 Y12.75 E110.7238
G1 X50.26 Y12.51 E110.7502
G1 X50.72 Y12.42 E110.7795
G1 X51.06 Y12.47 E110.8009
G1 X51.35 Y12.61 E110.8210
G1 X51.56 Y12.83 E110.8399
G1 X51.68 Y13.13 E110.8601
G1 E108.7227 F2400
G1 Z0.500 F420
G1 X52.80 Y14.26 F6000
G1 Z0.300 F420
G1 E110.7708 F1800
G1 X54.49 Y14.26 E110.8762 F600
G1 E108.8269 F2400
G1 Z0.500 F420
G1 X54.49 Y13.55 F6000
G1 Z0.300 F420
G1 E110.8749 F1800
G1 X52.80 Y13.55 E110.9803 F600
G1 E108.9310 F2400
G1 Z0.500 F420
G1 X55.55 Y15.00 F6000
G1 Z0.300 F420
G1 E110.9935 F1800
G1 X56.02 Y15.24 E111.0264 F600
G1 X56.39 Y15.55 E111.0565
G1 X56.64 Y15.88 E111.0823
G1 X56.64 Y12.48 E111.2943
G1 E109.1995 F2400
G1 Z0.500 F420
G1 X57.70 Y12.71 F6000
G1 Z0.300 F420
G1 E111.0889 F1800
G1 X57.70 Y12.65 E111.0927 F600
G1 E109.2170 F2400
G1 Z0.500 F420
G1 X59.99 Y15.94 F6000
G1 Z0.300 F420
G1 E111.2868 F1800
G1 X60.50 Y15.80 E111.3198 F600
G1 X60.89 Y15.42 E111.3538
G1 X61.12 Y14.86 E111.3915
G1 X61.21 Y14.18 E111.4343
G1 X61.12 Y13.51 E111.4765
G1 X60.89 Y12.95 E111.5142
G1 X60.50 Y12.56 E111.5486
G1 X59.99 Y12.42 E111.5816
G1 X59.46 Y12.56 E111.6158
G1 X59.09 Y12.95 E111.6493
G1 X58.85 Y13.51 E111.6873
G1 X58.77 Y14.18 E111.7294
G1 X58.85 Y14.85 E111.7715
G1 X59.09 Y15.42 E111.8100
G1 X59.46 Y15.80 E111.8431
G1 X59.99 Y15.94 E111.8773
G1 E109.7362 F2400
G1 Z0.500 F420
G1 X46.50 Y10.88 F6000
G1 Z0.300 F420
G1 E111.7969 F1800
G1 X46.50 Y7.48 E112.0090 F600
G1 E109.9296 F2400
G1 Z0.500 F420
G1 X46.50 Y9.23 F6000
G1 Z0.300 F420
G1 E111.9939 F1800
G1 X46.75 Y9.53 E112.0182 F600
G1 X46.98 Y9.75 E112.0381
G1 X47.20 Y9.88 E112.0540
G1 X47.40 Y9.93 E112.0669
G1 X47.59 Y9.95 E112.0788
G1 X47.91 Y9.88 E112.0992
G1 X48.14 Y9.71 E112.1171
G1 X48.24 Y9.51 E112.1310
G1 X48.33 Y9.08 E112.1584
G1 X48.33 Y7.48 E112.2582
G1 E110.1673 F2400
G1 Z0.500 F420
G1 X49.39 Y9.26 F6000
G1 Z0.300 F420
G1 E112.2154 F1800
G1 X51.08 Y9.26 E112.3208 F600
G1 E110.2715 F2400
G1 Z0.500 F420
G1 X51.08 Y8.55 F6000
G1 Z0.300 F420
G1 E112.3195 F1800
G1 X49.39 Y8.55 E112.4249 F600
G1 E110.3756 F2400
G1 Z0.500 F420
G1 X53.36 Y10.94 F6000
G1 Z0.300 F420
G1 E112.4456 F1800
G1 X53.87 Y10.80 E112.4786 F600
G1 X54.26 Y10.42 E112.5125
G1 X54.50 Y9.86 E112.5505
G1 X54.58 Y9.18 E112.5932
G1 X54.50 Y8.51 E112.6353
G1 X54.26 Y7.95 E112.6733
G1 X53.87 Y7.56 E112.7077
G1 X53.36 Y7.42 E112.7407
G1 X52.84 Y7.56 E112.7743
G1 X52.46 Y7.95 E112.8082
G1 X52.22 Y8.51 E112.8462
G1 X52.14 Y9.18 E112.8883
G1 X52.22 Y9.85 E112.9304
G1 X52.46 Y10.42 E112.9690
G1 X52.84 Y10.80 E113.0025
G1 X53.36 Y10.94 E113.0361
G1 E110.8950 F2400
G1 Z0.500 F420
G1 X55.64 Y7.71 F6000
G1 Z0.300 F420
G1 E112.7845 F1800
G1 X55.64 Y7.65 E112.7883 F600
G1 E110.9127 F2400
G1 Z0.500 F420
G1 X56.71 Y10.44 F6000
G1 Z0.300 F420
G1 E112.9809 F1800
G1 X56.90 Y10.65 E112.9986 F600
G1 X57.13 Y10.81 E113.0161
G1 X57.39 Y10.90 E113.0332
G1 X57.67 Y10.94 E113.0509
G1 X58.04 Y10.88 E113.0742
G1 X58.34 Y10.68 E113.0967
G1 X58.53 Y10.39 E113.1184
G1 X58.60 Y10.02 E113.1418
G1 X58.50 Y9.63 E113.1670
G1 X58.22 Y9.27 E113.1954
G1 X57.44 Y8.64 E113.2579
G1 X57.14 Y8.23 E113.2896
G1 X56.75 Y7.48 E113.3423
G1 X58.57 Y7.48 E113.4559
G1 E111.3308 F2400
G1 Z0.500 F420
G1 X46.50 Y4.89 F6000
G1 Z0.300 F420
G1 E113.3968 F1800
G1 X47.36 Y2.48 E113.5564 F600
G1 X48.10 Y4.89 E113.7136
G1 X48.87 Y2.48 E113.8714
G1 X49.71 Y4.89 E114.0306
G1 E111.8881 F2400
G1 Z0.500 F420
G1 X50.77 Y4.26 F6000
G1 Z0.300 F420
G1 E113.9364 F1800
G1 X52.46 Y4.26 E114.0418 F600
G1 E111.9924 F2400
G1 Z0.500 F420
G1 X52.46 Y3.55 F6000
G1 Z0.300 F420
G1 E114.0405 F1800
G1 X50.77 Y3.55 E114.1459 F600
G1 E112.0965 F2400
G1 Z0.500 F420
G1 X54.74 Y5.94 F6000
G1 Z0.300 F420
G1 E114.1666 F1800
G1 X55.25 Y5.80 E114.1996 F600
G1 X55.64 Y5.42 E114.2336
G1 X55.88 Y4.86 E114.2716
G1 X55.96 Y4.18 E114.3143
G1 X55.88 Y3.51 E114.3564
G1 X55.64 Y2.95 E114.3944
G1 X55.25 Y2.56 E114.4288
G1 X54.74 Y2.42 E114.4617
G1 X54.22 Y2.56 E114.4953
G1 X53.84 Y2.95 E114.5293
G1 X53.60 Y3.51 E114.5673
G1 X53.52 Y4.18 E114.6094
G1 X53.60 Y4.85 E114.6515
G1 X53.84 Y5.42 E114.6900
G1 X54.22 Y5.80 E114.7236
G1 X54.74 Y5.94 E114.7571
G1 E112.6160 F2400
G1 Z0.500 F420
G1 X57.02 Y2.71 F6000
G1 Z0.300 F420
G1 E114.5055 F1800
G1 X57.02 Y2.65 E114.5093 F600
G1 E112.6336 F2400
G1 Z0.500 F420
G1 X59.80 Y2.48 F6000
G1 Z0.300 F420
G1 E114.6999 F1800
G1 X59.80 Y5.88 E114.9120 F600
G1 X58.09 Y3.65 E115.0873
G1 X60.40 Y3.65 E115.2313
G1 E113.1007 F2400
G1 Z0.500 F420
;structure:shell-inner
G1 X-45.00 Y22.00 F6000
G1 Z0.200 F420
G1 E114.1465 F1800
G1 X-40.00 Y22.00 E114.2505 F300
G1 X-30.00 Y22.00 F60
G1 E114.6470 F1800
G1 X20.00 Y22.00 E116.3100 F1804
G1 E115.3433 F2400
G1 X40.00 Y22.00 F600
G1 E115.9469 F1800
G1 X45.00 Y22.00 E116.1548 F300
G1 E115.5528 F2400
G1 Z0.500 F420
G1 X-45.00 Y20.00 F6000
G1 Z0.200 F420
G1 E116.1782 F1800
G1 X-40.00 Y20.00 E116.2822 F300
G1 X-30.00 Y20.00 F60
G1 E116.7847 F1800
G1 X20.00 Y20.00 E118.4478 F1804
G1 E117.3242 F2400
G1 X40.00 Y20.00 F600
G1 E118.0855 F1800
G1 X45.00 Y20.00 E118.2934 F300
G1 E117.5187 F2400
G1 Z0.500 F420
G1 X-45.00 Y18.00 F6000
G1 Z0.200 F420
G1 E118.2241 F1800
G1 X-40.00 Y18.00 E118.3280 F300
G1 X-30.00 Y18.00 F60
G1 E118.8974 F1800
G1 X20.00 Y18.00 E120.5605 F1804
G1 E119.2849 F2400
G1 X40.00 Y18.00 F600
G1 E120.2050 F1800
G1 X45.00 Y18.00 E120.4129 F300
G1 E119.4737 F2400
G1 Z0.500 F420
G1 X-45.00 Y16.00 F6000
G1 Z0.200 F420
G1 E120.2591 F1800
G1 X-40.00 Y16.00 E120.3631 F300
G1 X-30.00 Y16.00 F60
G1 E120.9885 F1800
G1 X20.00 Y16.00 E122.6515 F1804
G1 E121.2279 F2400
G1 X40.00 Y16.00 F600
G1 E122.3074 F1800
G1 X45.00 Y16.00 E122.5153 F300
G1 E121.4139 F2400
G1 Z0.500 F420
G1 X-45.00 Y14.00 F6000
G1 Z0.200 F420
G1 E122.2793 F1800
G1 X-40.00 Y14.00 E122.3832 F300
G1 X-30.00 Y14.00 F60
G1 E123.0610 F1800
G1 X20.00 Y14.00 E124.7240 F1804
G1 E123.1556 F2400
G1 X40.00 Y14.00 F600
G1 E124.3947 F1800
G1 X45.00 Y14.00 E124.6026 F300
G1 E123.3398 F2400
G1 Z0.500 F420
G1 X-45.00 Y12.00 F6000
G1 Z0.200 F420
G1 E124.2852 F1800
G1 X-40.00 Y12.00 E124.3891 F300
G1 X-30.00 Y12.00 F60
G1 E125.1175 F1800
G1 X20.00 Y12.00 E126.7805 F1804
G1 E125.0700 F2400
G1 X40.00 Y12.00 F600
G1 E126.4690 F1800
G1 X45.00 Y12.00 E126.6768 F300
G1 E125.2530 F2400
G1 Z0.500 F420
G1 X-45.00 Y10.00 F6000
G1 Z0.200 F420
G1 E126.2784 F1800
G1 X-40.00 Y10.00 E126.3823 F300
G1 X-30.00 Y10.00 F60
G1 E127.1606 F1800
G1 X20.00 Y10.00 E128.8236 F1804
G1 E126.9730 F2400
G1 X40.00 Y10.00 F600
G1 E128.5318 F1800
G1 X45.00 Y10.00 E128.7397 F300
G1 E127.1552 F2400
G1 Z0.500 F420
G1 X-45.00 Y8.00 F6000
G1 Z0.200 F420
G1 E128.2605 F1800
G1 X-40.00 Y8.00 E128.3645 F300
G1 X-30.00 Y8.00 F60
G1 E129.1920 F1800
G1 X20.00 Y8.00 E130.8550 F1804
G1 E128.8660 F2400
G1 X40.00 Y8.00 F600
G1 E130.5848 F1800
G1 X45.00 Y8.00 E130.7927 F300
G1 E129.0476 F2400
G1 Z0.500 F420
G1 X-45.00 Y6.00 F6000
G1 Z0.200 F420
G1 E130.2329 F1800
G1 X-40.00 Y6.00 E130.3369 F300
G1 X-30.00 Y6.00 F60
G1 E131.2134 F1800
G1 X20.00 Y6.00 E132.8764 F1804
G1 E130.7505 F2400
G1 X40.00 Y6.00 F600
G1 E132.6292 F1800
G1 X45.00 Y6.00 E132.8371 F300
G1 E130.9315 F2400
G1 Z0.500 F420
G1 X-45.00 Y4.00 F6000
G1 Z0.200 F420
G1 E132.1968 F1800
G1 X-40.00 Y4.00 E132.3008 F300
G1 X-30.00 Y4.00 F60
G1 E133.2261 F1800
G1 X20.00 Y4.00 E134.8891 F1804
G1 E132.6272 F2400
G1 X40.00 Y4.00 F600
G1 E134.6660 F1800
G1 X45.00 Y4.00 E134.8738 F300
G1 E132.8079 F2400
G1 Z0.500 F420
G1 X-45.00 Y2.00 F6000
G1 Z0.200 F420
G1 E134.1532 F1800
G1 X-40.00 Y2.00 E134.2572 F300
G1 X-30.00 Y2.00 F60
G1 E135.2311 F1800
G1 X20.00 Y2.00 E136.8941 F1804
G1 E134.4973 F2400
G1 X40.00 Y2.00 F600
G1 E136.6960 F1800
G1 X45.00 Y2.00 E136.9039 F300
G1 E134.6777 F2400
G1 Z0.500 F420
;structure:shell-outer
G1 X-45.00 Y-3.00 F6000
G1 Z0.300 F420
G1 E136.2511 F1800
G1 X45.00 Y-3.00 E141.8637 F600
G1 E139.5607 F2400
G1 Z0.500 F420
G1 X-42.00 Y-3.00 F6000
G1 X-40.00 Y-3.00
G1 Z0.300 F420
G1 E141.6199 F1800
G1 X-40.00 Y-6.00 E141.8070 F600
G1 E139.7335 F2400
G1 Z0.500 F420
G1 X-38.00 Y-3.00 F6000
G1 Z0.300 F420
G1 E141.7785 F1800
G1 X-38.00 Y-4.50 E141.8721 F600
G1 E139.8277 F2400
G1 Z0.500 F420
G1 X-36.00 Y-3.00 F6000
G1 Z0.300 F420
G1 E141.8728 F1800
G1 X-36.00 Y-4.50 E141.9663 F600
G1 E139.9220 F2400
G1 Z0.500 F420
G1 X-34.00 Y-3.00 F6000
G1 Z0.300 F420
G1 E141.9670 F1800
G1 X-34.00 Y-4.50 E142.0606 F600
G1 E140.0163 F2400
G1 Z0.500 F420
G1 X-32.00 Y-3.00 F6000
G1 Z0.300 F420
G1 E142.0613 F1800
G1 X-32.00 Y-4.50 E142.1548 F600
G1 E140.1105 F2400
G1 Z0.500 F420
G1 X-30.00 Y-3.00 F6000
G1 Z0.300 F420
G1 E142.1693 F1800
G1 X-30.00 Y-6.00 E142.3564 F600
G1 E140.2828 F2400
G1 Z0.500 F420
G1 X-28.00 Y-3.00 F6000
G1 Z0.300 F420
G1 E142.3279 F1800
G1 X-28.00 Y-4.50 E142.4214 F600
G1 E140.3771 F2400
G1 Z0.500 F420
G1 X-26.00 Y-3.00 F6000
G1 Z0.300 F420
G1 E142.4221 F1800
G1 X-26.00 Y-4.50 E142.5157 F600
G1 E140.4714 F2400
G1 Z0.500 F420
G1 X-24.00 Y-3.00 F6000
G1 Z0.300 F420
G1 E142.5164 F1800
G1 X-24.00 Y-4.50 E142.6099 F600
G1 E140.5656 F2400
G1 Z0.500 F420
G1 X-22.00 Y-3.00 F6000
G1 Z0.300 F420
G1 E142.6107 F1800
G1 X-22.00 Y-4.50 E142.7042 F600
G1 E140.6599 F2400
G1 Z0.500 F420
G1 X-20.00 Y-3.00 F6000
G1 Z0.300 F420
G1 E142.7187 F1800
G1 X-20.00 Y-6.00 E142.9058 F600
G1 E140.8322 F2400
G1 Z0.500 F420
G1 X-18.00 Y-3.00 F6000
G1 Z0.300 F420
G1 E142.8773 F1800
G1 X-18.00 Y-4.50 E142.9708 F600
G1 E140.9265 F2400
G1 Z0.500 F420
G1 X-16.00 Y-3.00 F6000
G1 Z0.300 F420
G1 E142.9715 F1800
G1 X-16.00 Y-4.50 E143.0651 F600
G1 E141.0207 F2400
G1 Z0.500 F420
G1 X-14.00 Y-3.00 F6000
G1 Z0.300 F420
G1 E143.0658 F1800
G1 X-14.00 Y-4.50 E143.1593 F600
G1 E141.1150 F2400
G1 Z0.500 F420
G1 X-12.00 Y-3.00 F6000
G1 Z0.300 F420
G1 E143.1600 F1800
G1 X-12.00 Y-4.50 E143.2536 F600
G1 E141.2093 F2400
G1 Z0.500 F420
G1 X-10.00 Y-3.00 F6000
G1 Z0.300 F420
G1 E143.2680 F1800
G1 X-10.00 Y-6.00 E143.4551 F600
G1 E141.3816 F2400
G1 Z0.500 F420
G1 X-8.00 Y-3.00 F6000
G1 Z0.300 F420
G1 E143.4266 F1800
G1 X-8.00 Y-4.50 E143.5202 F600
G1 E141.4759 F2400
G1 Z0.500 F420
G1 X-6.00 Y-3.00 F6000
G1 Z0.300 F420
G1 E143.5209 F1800
G1 X-6.00 Y-4.50 E143.6144 F600
G1 E141.5701 F2400
G1 Z0.500 F420
G1 X-4.00 Y-3.00 F6000
G1 Z0.300 F420
G1 E143.6151 F1800
G1 X-4.00 Y-4.50 E143.7087 F600
G1 E141.6644 F2400
G1 Z0.500 F420
G1 X-2.00 Y-3.00 F6000
G1 Z0.300 F420
G1 E143.7094 F1800
G1 X-2.00 Y-4.50 E143.8029 F600
G1 E141.7586 F2400
G1 Z0.500 F420
G1 X0.00 Y-3.00 F6000
G1 Z0.300 F420
G1 E143.8174 F1800
G1 X0.00 Y-6.00 E144.0045 F600
G1 E141.9309 F2400
G1 Z0.500 F420
G1 X2.00 Y-3.00 F6000
G1 Z0.300 F420
G1 E143.9760 F1800
G1 X2.00 Y-4.50 E144.0696 F600
G1 E142.0252 F2400
G1 Z0.500 F420
G1 X4.00 Y-3.00 F6000
G1 Z0.300 F420
G1 E144.0703 F1800
G1 X4.00 Y-4.50 E144.1638 F600
G1 E142.1195 F2400
G1 Z0.500 F420
G1 X6.00 Y-3.00 F6000
G1 Z0.300 F420
G1 E144.1645 F1800
G1 X6.00 Y-4.50 E144.2581 F600
G1 E142.2137 F2400
G1 Z0.500 F420
G1 X8.00 Y-3.00 F6000
G1 Z0.300 F420
G1 E144.2588 F1800
G1 X8.00 Y-4.50 E144.3523 F600
G1 E142.3080 F2400
G1 Z0.500 F420
G1 X10.00 Y-3.00 F6000
G1 Z0.300 F420
G1 E144.3668 F1800
G1 X10.00 Y-6.00 E144.5539 F600
G1 E142.4803 F2400
G1 Z0.500 F420
G1 X12.00 Y-3.00 F6000
G1 Z0.300 F420
G1 E144.5254 F1800
G1 X12.00 Y-4.50 E144.6189 F600
G1 E142.5746 F2400
G1 Z0.500 F420
G1 X14.00 Y-3.00 F6000
G1 Z0.300 F420
G1 E144.6196 F1800
G1 X14.00 Y-4.50 E144.7132 F600
G1 E142.6689 F2400
G1 Z0.500 F420
G1 X16.00 Y-3.00 F6000
G1 Z0.300 F420
G1 E144.7139 F1800
G1 X16.00 Y-4.50 E144.8074 F600
G1 E142.7631 F2400
G1 Z0.500 F420
G1 X18.00 Y-3.00 F6000
G1 Z0.300 F420
G1 E144.8081 F1800
G1 X18.00 Y-4.50 E144.9017 F600
G1 E142.8574 F2400
G1 Z0.500 F420
G1 X20.00 Y-3.00 F6000
G1 Z0.300 F420
G1 E144.9162 F1800
G1 X20.00 Y-6.00 E145.1033 F600
G1 E143.0297 F2400
G1 Z0.500 F420
G1 X22.00 Y-3.00 F6000
G1 Z0.300 F420
G1 E145.0748 F1800
G1 X22.00 Y-4.50 E145.1683 F600
G1 E143.1240 F2400
G1 Z0.500 F420
G1 X24.00 Y-3.00 F6000
G1 Z0.300 F420
G1 E145.1690 F1800
G1 X24.00 Y-4.50 E145.2626 F600
G1 E143.2182 F2400
G1 Z0.500 F420
G1 X26.00 Y-3.00 F6000
G1 Z0.300 F420
G1 E145.2633 F1800
G1 X26.00 Y-4.50 E145.3568 F600
G1 E143.3125 F2400
G1 Z0.500 F420
G1 X28.00 Y-3.00 F6000
G1 Z0.300 F420
G1 E145.3575 F1800
G1 X28.00 Y-4.50 E145.4511 F600
G1 E143.4067 F2400
G1 Z0.500 F420
G1 X30.00 Y-3.00 F6000
G1 Z0.300 F420
G1 E145.4655 F1800
G1 X30.00 Y-6.00 E145.6526 F600
G1 E143.5791 F2400
G1 Z0.500 F420
G1 X32.00 Y-3.00 F6000
G1 Z0.300 F420
G1 E145.6241 F1800
G1 X32.00 Y-4.50 E145.7177 F600
G1 E143.6734 F2400
G1 Z0.500 F420
G1 X34.00 Y-3.00 F6000
G1 Z0.300 F420
G1 E145.7184 F1800
G1 X34.00 Y-4.50 E145.8119 F600
G1 E143.7676 F2400
G1 Z0.500 F420
G1 X36.00 Y-3.00 F6000
G1 Z0.300 F420
G1 E145.8126 F1800
G1 X36.00 Y-4.50 E145.9062 F600
G1 E143.8619 F2400
G1 Z0.500 F420
G1 X38.00 Y-3.00 F6000
G1 Z0.300 F420
G1 E145.9069 F1800
G1 X38.00 Y-4.50 E146.0004 F600
G1 E143.9561 F2400
G1 Z0.500 F420
G1 X40.00 Y-3.00 F6000
G1 Z0.300 F420
G1 E146.0149 F1800
G1 X40.00 Y-6.00 E146.2020 F600
G1 E144.1284 F2400
G1 Z0.500 F420
;structure:brim
;structure:shell-outer
G1 X46.50 Y-3.12 F6000
G1 Z0.300 F420
G1 E146.1890 F1800
G1 X46.50 Y-6.52 E146.4010 F600
G1 E144.3217 F2400
G1 Z0.500 F420
G1 X48.96 Y-6.52 F6000
G1 Z0.300 F420
G1 E146.3778 F1800
G1 X47.47 Y-4.49 E146.5348 F600
G1 E144.4689 F2400
G1 Z0.500 F420
G1 X46.50 Y-5.33 F6000
G1 Z0.300 F420
G1 E146.5293 F1800
G1 X49.02 Y-3.12 E146.7383 F600
G1 E144.6597 F2400
G1 Z0.500 F420
G1 X50.08 Y-3.12 F6000
G1 Z0.300 F420
G1 E146.7203 F1800
G1 X50.08 Y-6.52 E146.9323 F600
G1 E144.8530 F2400
G1 Z0.500 F420
G1 X50.08 Y-6.02 F6000
G1 Z0.300 F420
G1 E146.9209 F1800
G1 X50.33 Y-6.26 E146.9425 F600
G1 X50.72 Y-6.51 E146.9714
G1 X51.10 Y-6.58 E146.9955
G1 X51.48 Y-6.49 E147.0199
G1 X51.79 Y-6.23 E147.0451
G1 X51.99 Y-5.82 E147.0736
G1 X52.06 Y-5.29 E147.1069
G1 X52.00 Y-4.78 E147.1389
G1 X51.82 Y-4.39 E147.1657
G1 X51.53 Y-4.14 E147.1896
G1 X51.13 Y-4.05 E147.2152
G1 X50.94 Y-4.07 E147.2271
G1 X50.74 Y-4.15 E147.2405
G1 X50.53 Y-4.28 E147.2559
G1 X50.33 Y-4.50 E147.2745
G1 X50.08 Y-4.97 E147.3076
G1 E145.1952 F2400
G1 Z0.500 F420
G1 X53.12 Y-4.74 F6000
G1 Z0.300 F420
G1 E147.2432 F1800
G1 X54.81 Y-4.74 E147.3486 F600
G1 E145.2994 F2400
G1 Z0.500 F420
G1 X54.81 Y-5.45 F6000
G1 Z0.300 F420
G1 E147.3473 F1800
G1 X53.12 Y-5.45 E147.4527 F600
G1 E145.4035 F2400
G1 Z0.500 F420
G1 X57.10 Y-3.06 F6000
G1 Z0.300 F420
G1 E147.4734 F1800
G1 X57.61 Y-3.20 E147.5064 F600
G1 X58.00 Y-3.58 E147.5404
G1 X58.23 Y-4.14 E147.5781
G1 X58.31 Y-4.82 E147.6208
G1 X58.23 Y-5.49 E147.6629
G1 X58.00 Y-6.05 E147.7006
G1 X57.61 Y-6.44 E147.7350
G1 X57.10 Y-6.58 E147.7680
G1 X56.57 Y-6.44 E147.8022
G1 X56.20 Y-6.05 E147.8357
G1 X55.96 Y-5.49 E147.8737
G1 X55.88 Y-4.82 E147.9158
G1 X55.96 Y-4.15 E147.9579
G1 X56.20 Y-3.58 E147.9965
G1 X56.57 Y-3.20 E148.0295
G1 X57.10 Y-3.06 E148.0637
G1 E145.9227 F2400
G1 Z0.500 F420
G1 X59.38 Y-6.29 F6000
G1 Z0.300 F420
G1 E147.8123 F1800
G1 X59.38 Y-6.35 E147.8160 F600
G1 E145.9404 F2400
G1 Z0.500 F420
G1 X61.66 Y-3.06 F6000
G1 Z0.300 F420
G1 E148.0102 F1800
G1 X62.17 Y-3.20 E148.0431 F600
G1 X62.56 Y-3.58 E148.0771
G1 X62.80 Y-4.14 E148.1151
G1 X62.88 Y-4.82 E148.1578
G1 X62.80 Y-5.49 E148.1999
G1 X62.56 Y-6.05 E148.2379
G1 X62.17 Y-6.44 E148.2723
G1 X61.66 Y-6.58 E148.3053
G1 X61.14 Y-6.44 E148.3388
G1 X60.76 Y-6.05 E148.3728
G1 X60.52 Y-5.49 E148.4108
G1 X60.44 Y-4.82 E148.4529
G1 X60.52 Y-4.15 E148.4950
G1 X60.76 Y-3.58 E148.5335
G1 X61.14 Y-3.20 E148.5671
G1 X61.66 Y-3.06 E148.6006
G1 E146.4596 F2400
G1 Z0.500 F420
G1 X63.95 Y-5.10 F6000
G1 Z0.300 F420
G1 E148.5101 F1800
G1 X65.82 Y-5.10 E148.6267 F600
G1 E146.5732 F2400
G1 Z0.500 F420
G1 X68.59 Y-6.52 F6000
G1 Z0.300 F420
G1 E148.6397 F1800
G1 X68.59 Y-3.12 E148.8518 F600
G1 X66.88 Y-5.35 E149.0270
G1 X69.18 Y-5.35 E149.1705
G1 E147.0399 F2400
G1 Z0.500 F420
G1 X70.25 Y-6.29 F6000
G1 Z0.300 F420
G1 E148.9294 F1800
G1 X70.25 Y-6.35 E148.9331 F600
G1 E147.0575 F2400
G1 Z0.500 F420
G1 X72.53 Y-3.06 F6000
G1 Z0.300 F420
G1 E149.1273 F1800
G1 X73.04 Y-3.20 E149.1603 F600
G1 X73.43 Y-3.58 E149.1942
G1 X73.67 Y-4.14 E149.2322
G1 X73.75 Y-4.82 E149.2749
G1 X73.67 Y-5.49 E149.3170
G1 X73.43 Y-6.05 E149.3550
G1 X73.04 Y-6.44 E149.3894
G1 X72.53 Y-6.58 E149.4224
G1 X72.01 Y-6.44 E149.4560
G1 X71.63 Y-6.05 E149.4900
G1 X71.39 Y-5.49 E149.5279
G1 X71.31 Y-4.82 E149.5700
G1 X71.39 Y-4.15 E149.6121
G1 X71.63 Y-3.58 E149.6507
G1 X72.01 Y-3.20 E149.6842
G1 X72.53 Y-3.06 E149.7178
G1 E147.5767 F2400
G1 Z0.500 F420
G1 X46.50 Y-11.52 F6000
G1 Z0.300 F420
G1 E149.6452 F1800
G1 X46.50 Y-8.12 E149.8572 F600
G1 X47.73 Y-8.12 E149.9339
G1 X48.12 Y-8.22 E149.9591
G1 X48.43 Y-8.42 E149.9821
G1 X48.53 Y-8.55 E149.9923
G1 X48.66 Y-8.96 E150.0191
G1 X48.61 Y-9.20 E150.0344
G1 X48.50 Y-9.44 E150.0509
G1 X48.28 Y-9.64 E150.0694
G1 X47.51 Y-9.82 E150.1187
G1 E147.9939 F2400
G1 Z0.500 F420
G1 X46.50 Y-9.82 F6000
G1 Z0.300 F420
G1 E150.0543 F1800
G1 X47.51 Y-9.82 E150.1173 F600
G1 X48.02 Y-10.00 E150.1511
G1 X48.41 Y-10.62 E150.1968
G1 X48.66 Y-11.52 E150.2550
G1 E148.1778 F2400
G1 Z0.500 F420
G1 X49.72 Y-10.31 F6000
G1 Z0.300 F420
G1 E150.2475 F1800
G1 X51.86 Y-10.31 E150.3810 F600
G1 X51.78 Y-9.78 E150.4144
G1 X51.57 Y-9.39 E150.4420
G1 X51.23 Y-9.14 E150.4683
G1 X50.79 Y-9.05 E150.4963
G1 X50.36 Y-9.14 E150.5237
G1 X50.02 Y-9.39 E150.5501
G1 X49.80 Y-9.78 E150.5780
G1 X49.72 Y-10.31 E150.6114
G1 X49.80 Y-10.85 E150.6455
G1 X50.03 Y-11.25 E150.6742
G1 X50.38 Y-11.49 E150.7007
G1 X50.84 Y-11.58 E150.7299
G1 X51.18 Y-11.53 E150.7514
G1 X51.47 Y-11.39 E150.7715
G1 X51.68 Y-11.17 E150.7904
G1 X51.80 Y-10.87 E150.8106
G1 E148.6731 F2400
G1 Z0.500 F420
G1 X52.92 Y-9.74 F6000
G1 Z0.300 F420
G1 E150.7213 F1800
G1 X54.61 Y-9.74 E150.8267 F600
G1 E148.7774 F2400
G1 Z0.500 F420
G1 X54.61 Y-10.45 F6000
G1 Z0.300 F420
G1 E150.8254 F1800
G1 X52.92 Y-10.45 E150.9308 F600
G1 E148.8815 F2400
G1 Z0.500 F420
G1 X56.89 Y-8.06 F6000
G1 Z0.300 F420
G1 E150.9515 F1800
G1 X57.40 Y-8.20 E150.9845 F600
G1 X57.79 Y-8.58 E151.0184
G1 X58.03 Y-9.14 E151.0564
G1 X58.11 Y-9.82 E151.0991
G1 X58.03 Y-10.49 E151.1412
G1 X57.79 Y-11.05 E151.1792
G1 X57.40 Y-11.44 E151.2136
G1 X56.89 Y-11.58 E151.2466
G1 X56.37 Y-11.44 E151.2802
G1 X55.99 Y-11.05 E151.3141
G1 X55.75 Y-10.49 E151.3521
G1 X55.67 Y-9.82 E151.3942
G1 X55.75 Y-9.15 E151.4363
G1 X55.99 Y-8.58 E151.4749
G1 X56.37 Y-8.20 E151.5084
G1 X56.89 Y-8.06 E151.5420
G1 E149.4009 F2400
G1 Z0.500 F420
G1 X59.18 Y-11.29 F6000
G1 Z0.300 F420
G1 E151.2904 F1800
G1 X59.18 Y-11.35 E151.2942 F600
G1 E149.4186 F2400
G1 Z0.500 F420
G1 X62.23 Y-8.12 F6000
G1 Z0.300 F420
G1 E151.4870 F1800
G1 X60.48 Y-8.12 E151.5961 F600
G1 X60.34 Y-9.86 E151.7050
G1 X60.62 Y-9.55 E151.7310
G1 X60.79 Y-9.43 E151.7440
G1 X60.98 Y-9.36 E151.7566
G1 X61.17 Y-9.33 E151.7686
G1 X61.37 Y-9.32 E151.7811
G1 X61.78 Y-9.41 E151.8073
G1 X62.10 Y-9.63 E151.8315
G1 X62.31 Y-9.97 E151.8564
G1 X62.39 Y-10.39 E151.8831
G1 X62.32 Y-10.86 E151.9127
G1 X62.11 Y-11.23 E151.9393
G1 X61.76 Y-11.49 E151.9665
G1 X61.26 Y-11.58 E151.9981
G1 X60.89 Y-11.52 E152.0215
G1 X60.58 Y-11.36 E152.0433
G1 X60.36 Y-11.09 E152.0650
G1 X60.24 Y-10.73 E152.0887
G1 E149.9475 F2400
G1 Z0.500 F420
G1 X46.50 Y-14.11 F6000
G1 Z0.300 F420
G1 E152.0112 F1800
G1 X47.52 Y-16.52 E152.1744 F600
G1 X48.54 Y-14.11 E152.3376
G1 E150.2378 F2400
G1 Z0.500 F420
G1 X49.60 Y-15.31 F6000
G1 Z0.300 F420
G1 E152.3075 F1800
G1 X51.74 Y-15.31 E152.4410 F600
G1 X51.66 Y-14.78 E152.4744
G1 X51.45 Y-14.39 E152.5020
G1 X51.11 Y-14.14 E152.5283
G1 X50.67 Y-14.05 E152.5563
G1 X50.24 Y-14.14 E152.5837
G1 X49.90 Y-14.39 E152.6101
G1 X49.68 Y-14.78 E152.6380
G1 X49.60 Y-15.31 E152.6714
G1 X49.68 Y-15.85 E152.7055
G1 X49.91 Y-16.25 E152.7342
G1 X50.26 Y-16.49 E152.7607
G1 X50.72 Y-16.58 E152.7899
G1 X51.06 Y-16.53 E152.8114
G1 X51.35 Y-16.39 E152.8314
G1 X51.56 Y-16.17 E152.8504
G1 X51.68 Y-15.87 E152.8706
G1 E150.7331 F2400
G1 Z0.500 F420
G1 X52.80 Y-14.74 F6000
G1 Z0.300 F420
G1 E152.7812 F1800
G1 X54.49 Y-14.74 E152.8866 F600
G1 E150.8374 F2400
G1 Z0.500 F420
G1 X54.49 Y-15.45 F6000
G1 Z0.300 F420
G1 E152.8854 F1800
G1 X52.80 Y-15.45 E152.9908 F600
G1 E150.9415 F2400
G1 Z0.500 F420
G1 X55.55 Y-14.00 F6000
G1 Z0.300 F420
G1 E153.0039 F1800
G1 X56.02 Y-13.76 E153.0368 F600
G1 X56.39 Y-13.45 E153.0669
G1 X56.64 Y-13.12 E153.0928
G1 X56.64 Y-16.52 E153.3048
G1 E151.2099 F2400
G1 Z0.500 F420
G1 X57.70 Y-16.29 F6000
G1 Z0.300 F420
G1 E153.0994 F1800
G1 X57.70 Y-16.35 E153.1031 F600
G1 E151.2275 F2400
G1 Z0.500 F420
G1 X59.99 Y-13.06 F6000
G1 Z0.300 F420
G1 E153.2973 F1800
G1 X60.50 Y-13.20 E153.3303 F600
G1 X60.89 Y-13.58 E153.3642
G1 X61.12 Y-14.14 E153.4020
G1 X61.21 Y-14.82 E153.4448
G1 X61.12 Y-15.49 E153.4869
G1 X60.89 Y-16.05 E153.5247
G1 X60.50 Y-16.44 E153.5591
G1 X59.99 Y-16.58 E153.5921
G1 X59.46 Y-16.44 E153.6263
G1 X59.09 Y-16.05 E153.6598
G1 X58.85 Y-15.49 E153.6978
G1 X58.77 Y-14.82 E153.7399
G1 X58.85 Y-14.15 E153.7820
G1 X59.09 Y-13.58 E153.8205
G1 X59.46 Y-13.20 E153.8536
G1 X59.99 Y-13.06 E153.8878
G1 E151.7467 F2400
G1 Z0.500 F420
G1 X46.50 Y-18.12 F6000
G1 Z0.300 F420
G1 E153.8074 F1800
G1 X46.50 Y-21.52 E154.0195 F600
G1 E151.9401 F2400
G1 Z0.500 F420
G1 X46.50 Y-19.77 F6000
G1 Z0.300 F420
G1 E154.0044 F1800
G1 X46.75 Y-19.47 E154.0287 F600
G1 X46.98 Y-19.25 E154.0486
G1 X47.20 Y-19.12 E154.0645
G1 X47.40 Y-19.07 E154.0774
G1 X47.59 Y-19.05 E154.0893
G1 X47.91 Y-19.12 E154.1097
G1 X48.14 Y-19.29 E154.1275
G1 X48.24 Y-19.49 E154.1415
G1 X48.33 Y-19.92 E154.1689
G1 X48.33 Y-21.52 E154.2687
G1 E152.1778 F2400
G1 Z0.500 F420
G1 X49.39 Y-19.74 F6000
G1 Z0.300 F420
G1 E154.2258 F1800
G1 X51.08 Y-19.74 E154.3312 F600
G1 E152.2819 F2400
G1 Z0.500 F420
G1 X51.08 Y-20.45 F6000
G1 Z0.300 F420
G1 E154.3300 F1800
G1 X49.39 Y-20.45 E154.4354 F600
G1 E152.3861 F2400
G1 Z0.500 F420
G1 X53.36 Y-18.06 F6000
G1 Z0.300 F420
G1 E154.4561 F1800
G1 X53.87 Y-18.20 E154.4890 F600
G1 X54.26 Y-18.58 E154.5230
G1 X54.50 Y-19.14 E154.5610
G1 X54.58 Y-19.82 E154.6037
G1 X54.50 Y-20.49 E154.6458
G1 X54.26 Y-21.05 E154.6838
G1 X53.87 Y-21.44 E154.7182
G1 X53.36 Y-21.58 E154.7512
G1 X52.84 Y-21.44 E154.7847
G1 X52.46 Y-21.05 E154.8187
G1 X52.22 Y-20.49 E154.8567
G1 X52.14 Y-19.82 E154.8988
G1 X52.22 Y-19.15 E154.9409
G1 X52.46 Y-18.58 E154.9794
G1 X52.84 Y-18.20 E155.0129
G1 X53.36 Y-18.06 E155.0465
G1 E152.9055 F2400
G1 Z0.500 F420
G1 X55.64 Y-21.29 F6000
G1 Z0.300 F420
G1 E154.7950 F1800
G1 X55.64 Y-21.35 E154.7987 F600
G1 E152.9231 F2400
G1 Z0.500 F420
G1 X56.71 Y-18.56 F6000
G1 Z0.300 F420
G1 E154.9914 F1800
G1 X56.90 Y-18.35 E155.0091 F600
G1 X57.13 Y-18.19 E155.0265
G1 X57.39 Y-18.10 E155.0437
G1 X57.67 Y-18.06 E155.0613
G1 X58.04 Y-18.12 E155.0847
G1 X58.34 Y-18.32 E155.1072
G1 X58.53 Y-18.61 E155.1288
G1 X58.60 Y-18.98 E155.1523
G1 X58.50 Y-19.37 E155.1774
G1 X58.22 Y-19.73 E155.2059
G1 X57.44 Y-20.36 E155.2684
G1 X57.14 Y-20.77 E155.3001
G1 X56.75 Y-21.52 E155.3528
G1 X58.57 Y-21.52 E155.4663
G1 E153.3413 F2400
G1 Z0.500 F420
G1 X46.50 Y-24.11 F6000
G1 Z0.300 F420
G1 E155.4073 F1800
G1 X47.36 Y-26.52 E155.5669 F600
G1 X48.10 Y-24.11 E155.7241
G1 X48.87 Y-26.52 E155.8819
G1 X49.71 Y-24.11 E156.0411
G1 E153.8986 F2400
G1 Z0.500 F420
G1 X50.77 Y-24.74 F6000
G1 Z0.300 F420
G1 E155.9469 F1800
G1 X52.46 Y-24.74 E156.0523 F600
G1 E154.0029 F2400
G1 Z0.500 F420
G1 X52.46 Y-25.45 F6000
G1 Z0.300 F420
G1 E156.0510 F1800
G1 X50.77 Y-25.45 E156.1564 F600
G1 E154.1070 F2400
G1 Z0.500 F420
G1 X54.74 Y-23.06 F6000
G1 Z0.300 F420
G1 E156.1771 F1800
G1 X55.25 Y-23.20 E156.2101 F600
G1 X55.64 Y-23.58 E156.2440
G1 X55.88 Y-24.14 E156.2820
G1 X55.96 Y-24.82 E156.3247
G1 X55.88 Y-25.49 E156.3668
G1 X55.64 Y-26.05 E156.4048
G1 X55.25 Y-26.44 E156.4392
G1 X54.74 Y-26.58 E156.4722
G1 X54.22 Y-26.44 E156.5058
G1 X53.84 Y-26.05 E156.5398
G1 X53.60 Y-25.49 E156.5778
G1 X53.52 Y-24.82 E156.6199
G1 X53.60 Y-24.15 E156.6619
G1 X53.84 Y-23.58 E156.7005
G1 X54.22 Y-23.20 E156.7340
G1 X54.74 Y-23.06 E156.7676
G1 E154.6265 F2400
G1 Z0.500 F420
G1 X57.02 Y-26.29 F6000
G1 Z0.300 F420
G1 E156.5160 F1800
G1 X57.02 Y-26.35 E156.5197 F600
G1 E154.6441 F2400
G1 Z0.500 F420
G1 X59.11 Y-23.08 F6000
G1 Z0.300 F420
G1 E156.7164 F1800
G1 X59.46 Y-23.14 E156.7386 F600
G1 X59.75 Y-23.29 E156.7589
G1 X59.94 Y-23.54 E156.7785
G1 X60.01 Y-23.89 E156.8008
G1 X59.87 Y-24.34 E156.8302
G1 X59.58 Y-24.60 E156.8545
G1 X58.65 Y-24.88 E156.9150
G1 X58.26 Y-25.16 E156.9450
G1 X58.09 Y-25.65 E156.9773
G1 X58.17 Y-26.05 E157.0028
G1 X58.38 Y-26.34 E157.0251
G1 X58.71 Y-26.52 E157.0485
G1 X59.11 Y-26.58 E157.0738
G1 X59.52 Y-26.52 E157.0996
G1 X59.85 Y-26.34 E157.1230
G1 X60.06 Y-26.05 E157.1454
G1 X60.14 Y-25.65 E157.1708
G1 X59.96 Y-25.16 E157.2034
G1 X59.58 Y-24.88 E157.2328
G1 X58.65 Y-24.60 E157.2934
G1 X58.36 Y-24.34 E157.3177
G1 X58.22 Y-23.89 E157.3471
G1 X58.29 Y-23.54 E157.3693
G1 X58.48 Y-23.29 E157.3889
G1 X58.76 Y-23.14 E157.4087
G1 X59.11 Y-23.08 E157.4309
G1 E155.2737 F2400
G1 Z0.500 F420
;structure:shell-inner
G1 X-45.00 Y-7.00 F6000
G1 Z0.200 F420
G1 E156.3197 F1800
G1 X-40.00 Y-7.00 E156.4236 F300
G1 X-30.00 Y-7.00 F60
G1 E156.8618 F1800
G1 X20.00 Y-7.00 E160.1878 F902
G1 E159.2027 F2400
G1 X40.00 Y-7.00 F600
G1 E159.8066 F1800
G1 X45.00 Y-7.00 E160.0145 F300
G1 E159.4125 F2400
G1 Z0.500 F420
G1 X-45.00 Y-9.00 F6000
G1 Z0.200 F420
G1 E160.0380 F1800
G1 X-40.00 Y-9.00 E160.1419 F300
G1 X-30.00 Y-9.00 F60
G1 E160.8142 F1800
G1 X20.00 Y-9.00 E164.1402 F902
G1 E162.8370 F2400
G1 X40.00 Y-9.00 F600
G1 E163.5998 F1800
G1 X45.00 Y-9.00 E163.8077 F300
G1 E163.0329 F2400
G1 Z0.500 F420
G1 X-45.00 Y-11.00 F6000
G1 Z0.200 F420
G1 E163.7384 F1800
G1 X-40.00 Y-11.00 E163.8423 F300
G1 X-30.00 Y-11.00 F60
G1 E164.7094 F1800
G1 X20.00 Y-11.00 E168.0354 F902
G1 E166.4214 F2400
G1 X40.00 Y-11.00 F600
G1 E167.3432 F1800
G1 X45.00 Y-11.00 E167.5511 F300
G1 E166.6120 F2400
G1 Z0.500 F420
G1 X-45.00 Y-13.00 F6000
G1 Z0.200 F420
G1 E167.3974 F1800
G1 X-40.00 Y-13.00 E167.5013 F300
G1 X-30.00 Y-13.00 F60
G1 E168.5525 F1800
G1 X20.00 Y-13.00 E171.8785 F902
G1 E169.9616 F2400
G1 X40.00 Y-13.00 F600
G1 E171.0427 F1800
G1 X45.00 Y-13.00 E171.2506 F300
G1 E170.1492 F2400
G1 Z0.500 F420
G1 X-45.00 Y-15.00 F6000
G1 Z0.200 F420
G1 E171.0145 F1800
G1 X-40.00 Y-15.00 E171.1185 F300
G1 X-30.00 Y-15.00 F60
G1 E172.3500 F1800
G1 X20.00 Y-15.00 E175.6760 F902
G1 E173.4635 F2400
G1 X40.00 Y-15.00 F600
G1 E174.7040 F1800
G1 X45.00 Y-15.00 E174.9119 F300
G1 E173.6491 F2400
G1 Z0.500 F420
G1 X-45.00 Y-17.00 F6000
G1 Z0.200 F420
G1 E174.5945 F1800
G1 X-40.00 Y-17.00 E174.6984 F300
G1 X-30.00 Y-17.00 F60
G1 E176.1085 F1800
G1 X20.00 Y-17.00 E179.4346 F902
G1 E176.9324 F2400
G1 X40.00 Y-17.00 F600
G1 E178.3326 F1800
G1 X45.00 Y-17.00 E178.5405 F300
G1 E177.1167 F2400
G1 Z0.500 F420
G1 X-45.00 Y-19.00 F6000
G1 Z0.200 F420
G1 E178.1420 F1800
G1 X-40.00 Y-19.00 E178.2460 F300
G1 X-30.00 Y-19.00 F60
G1 E179.8339 F1800
G1 X20.00 Y-19.00 E183.1599 F902
G1 E180.3732 F2400
G1 X40.00 Y-19.00 F600
G1 E181.9330 F1800
G1 X45.00 Y-19.00 E182.1409 F300
G1 E180.5564 F2400
G1 Z0.500 F420
G1 X-45.00 Y-21.00 F6000
G1 Z0.200 F420
G1 E181.6617 F1800
G1 X-40.00 Y-21.00 E181.7657 F300
G1 X-30.00 Y-21.00 F60
G1 E183.5309 F1800
G1 X20.00 Y-21.00 E186.8569 F902
G1 E183.7895 F2400
G1 X40.00 Y-21.00 F600
G1 E185.5091 F1800
G1 X45.00 Y-21.00 E185.7170 F300
G1 E183.9719 F2400
G1 Z0.500 F420
G1 X-45.00 Y-23.00 F6000
G1 Z0.200 F420
G1 E185.1572 F1800
G1 X-40.00 Y-23.00 E185.2612 F300
G1 X-30.00 Y-23.00 F60
G1 E187.2034 F1800
G1 X20.00 Y-23.00 E190.5294 F902
G1 E187.1846 F2400
G1 X40.00 Y-23.00 F600
G1 E189.0640 F1800
G1 X45.00 Y-23.00 E189.2719 F300
G1 E187.3664 F2400
G1 Z0.500 F420
G1 X-45.00 Y-25.00 F6000
G1 Z0.200 F420
G1 E188.6317 F1800
G1 X-40.00 Y-25.00 E188.7356 F300
G1 X-30.00 Y-25.00 F60
G1 E190.8546 F1800
G1 X20.00 Y-25.00 E194.1807 F902
G1 E190.5612 F2400
G1 X40.00 Y-25.00 F600
G1 E192.6005 F1800
G1 X45.00 Y-25.00 E192.8083 F300
G1 E190.7424 F2400
G1 Z0.500 F420
G1 X-45.00 Y-27.00 F6000
G1 Z0.200 F420
G1 E192.0877 F1800
G1 X-40.00 Y-27.00 E192.1917 F300
G1 X-30.00 Y-27.00 F60
G1 E194.4873 F1800
G1 X20.00 Y-27.00 E197.8133 F902
G1 E193.9214 F2400
G1 X40.00 Y-27.00 F600
G1 E196.1205 F1800
G1 X45.00 Y-27.00 E196.3284 F300
G1 E194.1022 F2400
G1 Z0.500 F420
;structure:shell-outer
G1 X-45.00 Y-32.00 F6000
G1 Z0.300 F420
G1 E195.6756 F1800
G1 X45.00 Y-32.00 E201.2882 F600
G1 E198.9853 F2400
G1 Z0.500 F420
G1 X-42.00 Y-32.00 F6000
G1 X-40.00 Y-32.00
G1 Z0.300 F420
G1 E201.0444 F1800
G1 X-40.00 Y-35.00 E201.2315 F600
G1 E199.1580 F2400
G1 Z0.500 F420
G1 X-38.00 Y-32.00 F6000
G1 Z0.300 F420
G1 E201.2030 F1800
G1 X-38.00 Y-33.50 E201.2966 F600
G1 E199.2523 F2400
G1 Z0.500 F420
G1 X-36.00 Y-32.00 F6000
G1 Z0.300 F420
G1 E201.2973 F1800
G1 X-36.00 Y-33.50 E201.3908 F600
G1 E199.3465 F2400
G1 Z0.500 F420
G1 X-34.00 Y-32.00 F6000
G1 Z0.300 F420
G1 E201.3916 F1800
G1 X-34.00 Y-33.50 E201.4851 F600
G1 E199.4408 F2400
G1 Z0.500 F420
G1 X-32.00 Y-32.00 F6000
G1 Z0.300 F420
G1 E201.4858 F1800
G1 X-32.00 Y-33.50 E201.5794 F600
G1 E199.5350 F2400
G1 Z0.500 F420
G1 X-30.00 Y-32.00 F6000
G1 Z0.300 F420
G1 E201.5938 F1800
G1 X-30.00 Y-35.00 E201.7809 F600
G1 E199.7073 F2400
G1 Z0.500 F420
G1 X-28.00 Y-32.00 F6000
G1 Z0.300 F420
G1 E201.7524 F1800
G1 X-28.00 Y-33.50 E201.8460 F600
G1 E199.8016 F2400
G1 Z0.500 F420
G1 X-26.00 Y-32.00 F6000
G1 Z0.300 F420
G1 E201.8467 F1800
G1 X-26.00 Y-33.50 E201.9402 F600
G1 E199.8959 F2400
G1 Z0.500 F420
G1 X-24.00 Y-32.00 F6000
G1 Z0.300 F420
G1 E201.9409 F1800
G1 X-24.00 Y-33.50 E202.0345 F600
G1 E199.9901 F2400
G1 Z0.500 F420
G1 X-22.00 Y-32.00 F6000
G1 Z0.300 F420
G1 E202.0352 F1800
G1 X-22.00 Y-33.50 E202.1287 F600
G1 E200.0844 F2400
G1 Z0.500 F420
G1 X-20.00 Y-32.00 F6000
G1 Z0.300 F420
G1 E202.1432 F1800
G1 X-20.00 Y-35.00 E202.3303 F600
G1 E200.2567 F2400
G1 Z0.500 F420
G1 X-18.00 Y-32.00 F6000
G1 Z0.300 F420
G1 E202.3018 F1800
G1 X-18.00 Y-33.50 E202.3953 F600
G1 E200.3510 F2400
G1 Z0.500 F420
G1 X-16.00 Y-32.00 F6000
G1 Z0.300 F420
G1 E202.3960 F1800
G1 X-16.00 Y-33.50 E202.4896 F600
G1 E200.4453 F2400
G1 Z0.500 F420
G1 X-14.00 Y-32.00 F6000
G1 Z0.300 F420
G1 E202.4903 F1800
G1 X-14.00 Y-33.50 E202.5838 F600
G1 E200.5395 F2400
G1 Z0.500 F420
G1 X-12.00 Y-32.00 F6000
G1 Z0.300 F420
G1 E202.5846 F1800
G1 X-12.00 Y-33.50 E202.6781 F600
G1 E200.6338 F2400
G1 Z0.500 F420
G1 X-10.00 Y-32.00 F6000
G1 Z0.300 F420
G1 E202.6926 F1800
G1 X-10.00 Y-35.00 E202.8797 F600
G1 E200.8061 F2400
G1 Z0.500 F420
G1 X-8.00 Y-32.00 F6000
G1 Z0.300 F420
G1 E202.8512 F1800
G1 X-8.00 Y-33.50 E202.9447 F600
G1 E200.9004 F2400
G1 Z0.500 F420
G1 X-6.00 Y-32.00 F6000
G1 Z0.300 F420
G1 E202.9454 F1800
G1 X-6.00 Y-33.50 E203.0390 F600
G1 E200.9946 F2400
G1 Z0.500 F420
G1 X-4.00 Y-32.00 F6000
G1 Z0.300 F420
G1 E203.0397 F1800
G1 X-4.00 Y-33.50 E203.1332 F600
G1 E201.0889 F2400
G1 Z0.500 F420
G1 X-2.00 Y-32.00 F6000
G1 Z0.300 F420
G1 E203.1339 F1800
G1 X-2.00 Y-33.50 E203.2275 F600
G1 E201.1832 F2400
G1 Z0.500 F420
G1 X0.00 Y-32.00 F6000
G1 Z0.300 F420
G1 E203.2419 F1800
G1 X0.00 Y-35.00 E203.4290 F600
G1 E201.3555 F2400
G1 Z0.500 F420
G1 X2.00 Y-32.00 F6000
G1 Z0.300 F420
G1 E203.4005 F1800
G1 X2.00 Y-33.50 E203.4941 F600
G1 E201.4498 F2400
G1 Z0.500 F420
G1 X4.00 Y-32.00 F6000
G1 Z0.300 F420
G1 E203.4948 F1800
G1 X4.00 Y-33.50 E203.5883 F600
G1 E201.5440 F2400
G1 Z0.500 F420
G1 X6.00 Y-32.00 F6000
G1 Z0.300 F420
G1 E203.5890 F1800
G1 X6.00 Y-33.50 E203.6826 F600
G1 E201.6383 F2400
G1 Z0.500 F420
G1 X8.00 Y-32.00 F6000
G1 Z0.300 F420
G1 E203.6833 F1800
G1 X8.00 Y-33.50 E203.7768 F600
G1 E201.7325 F2400
G1 Z0.500 F420
G1 X10.00 Y-32.00 F6000
G1 Z0.300 F420
G1 E203.7913 F1800
G1 X10.00 Y-35.00 E203.9784 F600
G1 E201.9048 F2400
G1 Z0.500 F420
G1 X12.00 Y-32.00 F6000
G1 Z0.300 F420
G1 E203.9499 F1800
G1 X12.00 Y-33.50 E204.0435 F600
G1 E201.9991 F2400
G1 Z0.500 F420
G1 X14.00 Y-32.00 F6000
G1 Z0.300 F420
G1 E204.0442 F1800
G1 X14.00 Y-33.50 E204.1377 F600
G1 E202.0934 F2400
G1 Z0.500 F420
G1 X16.00 Y-32.00 F6000
G1 Z0.300 F420
G1 E204.1384 F1800
G1 X16.00 Y-33.50 E204.2320 F600
G1 E202.1876 F2400
G1 Z0.500 F420
G1 X18.00 Y-32.00 F6000
G1 Z0.300 F420
G1 E204.2327 F1800
G1 X18.00 Y-33.50 E204.3262 F600
G1 E202.2819 F2400
G1 Z0.500 F420
G1 X20.00 Y-32.00 F6000
G1 Z0.300 F420
G1 E204.3407 F1800
G1 X20.00 Y-35.00 E204.5278 F600
G1 E202.4542 F2400
G1 Z0.500 F420
G1 X22.00 Y-32.00 F6000
G1 Z0.300 F420
G1 E204.4993 F1800
G1 X22.00 Y-33.50 E204.5928 F600
G1 E202.5485 F2400
G1 Z0.500 F420
G1 X24.00 Y-32.00 F6000
G1 Z0.300 F420
G1 E204.5935 F1800
G1 X24.00 Y-33.50 E204.6871 F600
G1 E202.6428 F2400
G1 Z0.500 F420
G1 X26.00 Y-32.00 F6000
G1 Z0.300 F420
G1 E204.6878 F1800
G1 X26.00 Y-33.50 E204.7813 F600
G1 E202.7370 F2400
G1 Z0.500 F420
G1 X28.00 Y-32.00 F6000
G1 Z0.300 F420
G1 E204.7820 F1800
G1 X28.00 Y-33.50 E204.8756 F600
G1 E202.8313 F2400
G1 Z0.500 F420
G1 X30.00 Y-32.00 F6000
G1 Z0.300 F420
G1 E204.8901 F1800
G1 X30.00 Y-35.00 E205.0771 F600
G1 E203.0036 F2400
G1 Z0.500 F420
G1 X32.00 Y-32.00 F6000
G1 Z0.300 F420
G1 E205.0487 F1800
G1 X32.00 Y-33.50 E205.1422 F600
G1 E203.0979 F2400
G1 Z0.500 F420
G1 X34.00 Y-32.00 F6000
G1 Z0.300 F420
G1 E205.1429 F1800
G1 X34.00 Y-33.50 E205.2365 F600
G1 E203.1921 F2400
G1 Z0.500 F420
G1 X36.00 Y-32.00 F6000
G1 Z0.300 F420
G1 E205.2372 F1800
G1 X36.00 Y-33.50 E205.3307 F600
G1 E203.2864 F2400
G1 Z0.500 F420
G1 X38.00 Y-32.00 F6000
G1 Z0.300 F420
G1 E205.3314 F1800
G1 X38.00 Y-33.50 E205.4250 F600
G1 E203.3806 F2400
G1 Z0.500 F420
G1 X40.00 Y-32.00 F6000
G1 Z0.300 F420
G1 E205.4394 F1800
G1 X40.00 Y-35.00 E205.6265 F600
G1 E203.5530 F2400
G1 Z0.500 F420
;structure:brim
;structure:shell-outer
G1 X46.50 Y-32.12 F6000
G1 Z0.300 F420
G1 E205.6135 F1800
G1 X46.50 Y-35.52 E205.8255 F600
G1 E203.7463 F2400
G1 Z0.500 F420
G1 X48.96 Y-35.52 F6000
G1 Z0.300 F420
G1 E205.8023 F1800
G1 X47.47 Y-33.49 E205.9594 F600
G1 E203.8935 F2400
G1 Z0.500 F420
G1 X46.50 Y-34.33 F6000
G1 Z0.300 F420
G1 E205.9538 F1800
G1 X49.02 Y-32.12 E206.1628 F600
G1 E204.0842 F2400
G1 Z0.500 F420
G1 X50.08 Y-32.12 F6000
G1 Z0.300 F420
G1 E206.1448 F1800
G1 X50.08 Y-35.52 E206.3568 F600
G1 E204.2775 F2400
G1 Z0.500 F420
G1 X50.08 Y-35.02 F6000
G1 Z0.300 F420
G1 E206.3455 F1800
G1 X50.33 Y-35.26 E206.3671 F600
G1 X50.72 Y-35.51 E206.3960
G1 X51.10 Y-35.58 E206.4201
G1 X51.48 Y-35.49 E206.4444
G1 X51.79 Y-35.23 E206.4696
G1 X51.99 Y-34.82 E206.4981
G1 X52.06 Y-34.29 E206.5314
G1 X52.00 Y-33.78 E206.5634
G1 X51.82 Y-33.39 E206.5902
G1 X51.53 Y-33.14 E206.6141
G1 X51.13 Y-33.05 E206.6397
G1 X50.94 Y-33.07 E206.6516
G1 X50.74 Y-33.15 E206.6650
G1 X50.53 Y-33.28 E206.6804
G1 X50.33 Y-33.50 E206.6990
G1 X50.08 Y-33.97 E206.7322
G1 E204.6197 F2400
G1 Z0.500 F420
G1 X53.12 Y-33.74 F6000
G1 Z0.300 F420
G1 E206.6678 F1800
G1 X54.81 Y-33.74 E206.7731 F600
G1 E204.7239 F2400
G1 Z0.500 F420
G1 X54.81 Y-34.45 F6000
G1 Z0.300 F420
G1 E206.7719 F1800
G1 X53.12 Y-34.45 E206.8773 F600
G1 E204.8280 F2400
G1 Z0.500 F420
G1 X57.10 Y-32.06 F6000
G1 Z0.300 F420
G1 E206.8979 F1800
G1 X57.61 Y-32.20 E206.9309 F600
G1 X58.00 Y-32.58 E206.9649
G1 X58.23 Y-33.14 E207.0026
G1 X58.31 Y-33.82 E207.0453
G1 X58.23 Y-34.49 E207.0874
G1 X58.00 Y-35.05 E207.1252
G1 X57.61 Y-35.44 E207.1596
G1 X57.10 Y-35.58 E207.1925
G1 X56.57 Y-35.44 E207.2267
G1 X56.20 Y-35.05 E207.2603
G1 X55.96 Y-34.49 E207.2982
G1 X55.88 Y-33.82 E207.3403
G1 X55.96 Y-33.15 E207.3824
G1 X56.20 Y-32.58 E207.4210
G1 X56.57 Y-32.20 E207.4541
G1 X57.10 Y-32.06 E207.4882
G1 E205.3473 F2400
G1 Z0.500 F420
G1 X59.38 Y-35.29 F6000
G1 Z0.300 F420
G1 E207.2368 F1800
G1 X59.38 Y-35.35 E207.2405 F600
G1 E205.3649 F2400
G1 Z0.500 F420
G1 X61.66 Y-32.06 F6000
G1 Z0.300 F420
G1 E207.4347 F1800
G1 X62.17 Y-32.20 E207.4677 F600
G1 X62.56 Y-32.58 E207.5016
G1 X62.80 Y-33.14 E207.5396
G1 X62.88 Y-33.82 E207.5823
G1 X62.80 Y-34.49 E207.6244
G1 X62.56 Y-35.05 E207.6624
G1 X62.17 Y-35.44 E207.6968
G1 X61.66 Y-35.58 E207.7298
G1 X61.14 Y-35.44 E207.7634
G1 X60.76 Y-35.05 E207.7973
G1 X60.52 Y-34.49 E207.8353
G1 X60.44 Y-33.82 E207.8774
G1 X60.52 Y-33.15 E207.9195
G1 X60.76 Y-32.58 E207.9581
G1 X61.14 Y-32.20 E207.9916
G1 X61.66 Y-32.06 E208.0252
G1 E205.8841 F2400
G1 Z0.500 F420
G1 X63.95 Y-34.10 F6000
G1 Z0.300 F420
G1 E207.9346 F1800
G1 X65.82 Y-34.10 E208.0512 F600
G1 E205.9977 F2400
G1 Z0.500 F420
G1 X68.59 Y-35.52 F6000
G1 Z0.300 F420
G1 E208.0642 F1800
G1 X68.59 Y-32.12 E208.2763 F600
G1 X66.88 Y-34.35 E208.4516
G1 X69.18 Y-34.35 E208.5950
G1 E206.4644 F2400
G1 Z0.500 F420
G1 X70.25 Y-35.29 F6000
G1 Z0.300 F420
G1 E208.3539 F1800
G1 X70.25 Y-35.35 E208.3577 F600
G1 E206.4821 F2400
G1 Z0.500 F420
G1 X72.53 Y-32.06 F6000
G1 Z0.300 F420
G1 E208.5518 F1800
G1 X73.04 Y-32.20 E208.5848 F600
G1 X73.43 Y-32.58 E208.6188
G1 X73.67 Y-33.14 E208.6568
G1 X73.75 Y-33.82 E208.6995
G1 X73.67 Y-34.49 E208.7415
G1 X73.43 Y-35.05 E208.7795
G1 X73.04 Y-35.44 E208.8139
G1 X72.53 Y-35.58 E208.8469
G1 X72.01 Y-35.44 E208.8805
G1 X71.63 Y-35.05 E208.9145
G1 X71.39 Y-34.49 E208.9525
G1 X71.31 Y-33.82 E208.9946
G1 X71.39 Y-33.15 E209.0366
G1 X71.63 Y-32.58 E209.0752
G1 X72.01 Y-32.20 E209.1087
G1 X72.53 Y-32.06 E209.1423
G1 E207.0012 F2400
G1 Z0.500 F420
G1 X46.50 Y-40.52 F6000
G1 Z0.300 F420
G1 E209.0697 F1800
G1 X46.50 Y-37.12 E209.2818 F600
G1 X47.73 Y-37.12 E209.3585
G1 X48.12 Y-37.22 E209.3836
G1 X48.43 Y-37.42 E209.4066
G1 X48.53 Y-37.55 E209.4168
G1 X48.66 Y-37.96 E209.4436
G1 X48.61 Y-38.20 E209.4589
G1 X48.50 Y-38.44 E209.4754
G1 X48.28 Y-38.64 E209.4939
G1 X47.51 Y-38.82 E209.5433
G1 E207.4184 F2400
G1 Z0.500 F420
G1 X46.50 Y-38.82 F6000
G1 Z0.300 F420
G1 E209.4789 F1800
G1 X47.51 Y-38.82 E209.5419 F600
G1 X48.02 Y-39.00 E209.5756
G1 X48.41 Y-39.62 E209.6213
G1 X48.66 Y-40.52 E209.6795
G1 E207.6023 F2400
G1 Z0.500 F420
G1 X49.72 Y-39.31 F6000
G1 Z0.300 F420
G1 E209.6720 F1800
G1 X51.86 Y-39.31 E209.8055 F600
G1 X51.78 Y-38.78 E209.8389
G1 X51.57 Y-38.39 E209.8665
G1 X51.23 Y-38.14 E209.8929
G1 X50.79 Y-38.05 E209.9209
G1 X50.36 Y-38.14 E209.9483
G1 X50.02 Y-38.39 E209.9746
G1 X49.80 Y-38.78 E210.0025
G1 X49.72 Y-39.31 E210.0359
G1 X49.80 Y-39.85 E210.0700
G1 X50.03 Y-40.25 E210.0988
G1 X50.38 Y-40.49 E210.1252
G1 X50.84 Y-40.58 E210.1545
G1 X51.18 Y-40.53 E210.1759
G1 X51.47 Y-40.39 E210.1960
G1 X51.68 Y-40.17 E210.2150
G1 X51.80 Y-39.87 E210.2351
G1 E208.0976 F2400
G1 Z0.500 F420
G1 X52.92 Y-38.74 F6000
G1 Z0.300 F420
G1 E210.1458 F1800
G1 X54.61 Y-38.74 E210.2512 F600
G1 E208.2019 F2400
G1 Z0.500 F420
G1 X54.61 Y-39.45 F6000
G1 Z0.300 F420
G1 E210.2499 F1800
G1 X52.92 Y-39.45 E210.3553 F600
G1 E208.3060 F2400
G1 Z0.500 F420
G1 X56.89 Y-37.06 F6000
G1 Z0.300 F420
G1 E210.3760 F1800
G1 X57.40 Y-37.20 E210.4090 F600
G1 X57.79 Y-37.58 E210.4429
G1 X58.03 Y-38.14 E210.4809
G1 X58.11 Y-38.82 E210.5236
G1 X58.03 Y-39.49 E210.5657
G1 X57.79 Y-40.05 E210.6037
G1 X57.40 Y-40.44 E210.6381
G1 X56.89 Y-40.58 E210.6711
G1 X56.37 Y-40.44 E210.7047
G1 X55.99 Y-40.05 E210.7386
G1 X55.75 Y-39.49 E210.7766
G1 X55.67 Y-38.82 E210.8187
G1 X55.75 Y-38.15 E210.8608
G1 X55.99 Y-37.58 E210.8994
G1 X56.37 Y-37.20 E210.9329
G1 X56.89 Y-37.06 E210.9665
G1 E208.8254 F2400
G1 Z0.500 F420
G1 X59.18 Y-40.29 F6000
G1 Z0.300 F420
G1 E210.7150 F1800
G1 X59.18 Y-40.35 E210.7187 F600
G1 E208.8431 F2400
G1 Z0.500 F420
G1 X62.23 Y-37.12 F6000
G1 Z0.300 F420
G1 E210.9115 F1800
G1 X60.48 Y-37.12 E211.0206 F600
G1 X60.34 Y-38.86 E211.1295
G1 X60.62 Y-38.55 E211.1555
G1 X60.79 Y-38.43 E211.1685
G1 X60.98 Y-38.36 E211.1811
G1 X61.17 Y-38.33 E211.1931
G1 X61.37 Y-38.32 E211.2056
G1 X61.78 Y-38.41 E211.2318
G1 X62.10 Y-38.63 E211.2560
G1 X62.31 Y-38.97 E211.2810
G1 X62.39 Y-39.39 E211.3076
G1 X62.32 Y-39.86 E211.3373
G1 X62.11 Y-40.23 E211.3638
G1 X61.76 Y-40.49 E211.3910
G1 X61.26 Y-40.58 E211.4227
G1 X60.89 Y-40.52 E211.4460
G1 X60.58 Y-40.36 E211.4678
G1 X60.36 Y-40.09 E211.4895
G1 X60.24 Y-39.73 E211.5132
G1 E209.3720 F2400
G1 Z0.500 F420
G1 X46.50 Y-43.11 F6000
G1 Z0.300 F420
G1 E211.4357 F1800
G1 X47.52 Y-45.52 E211.5989 F600
G1 X48.54 Y-43.11 E211.7621
G1 E209.6623 F2400
G1 Z0.500 F420
G1 X49.60 Y-44.31 F6000
G1 Z0.300 F420
G1 E211.7320 F1800
G1 X51.74 Y-44.31 E211.8655 F600
G1 X51.66 Y-43.78 E211.8989
G1 X51.45 Y-43.39 E211.9265
G1 X51.11 Y-43.14 E211.9529
G1 X50.67 Y-43.05 E211.9809
G1 X50.24 Y-43.14 E212.0083
G1 X49.90 Y-43.39 E212.0346
G1 X49.68 Y-43.78 E212.0625
G1 X49.60 Y-44.31 E212.0959
G1 X49.68 Y-44.85 E212.1300
G1 X49.91 Y-45.25 E212.1588
G1 X50.26 Y-45.49 E212.1852
G1 X50.72 Y-45.58 E212.2145
G1 X51.06 Y-45.53 E212.2359
G1 X51.35 Y-45.39 E212.2560
G1 X51.56 Y-45.17 E212.2749
G1 X51.68 Y-44.87 E212.2951
G1 E210.1577 F2400
G1 Z0.500 F420
G1 X52.80 Y-43.74 F6000
G1 Z0.300 F420
G1 E212.2058 F1800
G1 X54.49 Y-43.74 E212.3112 F600
G1 E210.2619 F2400
G1 Z0.500 F420
G1 X54.49 Y-44.45 F6000
G1 Z0.300 F420
G1 E212.3099 F1800
G1 X52.80 Y-44.45 E212.4153 F600
G1 E210.3660 F2400
G1 Z0.500 F420
G1 X55.55 Y-43.00 F6000
G1 Z0.300 F420
G1 E212.4285 F1800
G1 X56.02 Y-42.76 E212.4614 F600
G1 X56.39 Y-42.45 E212.4915
G1 X56.64 Y-42.12 E212.5173
G1 X56.64 Y-45.52 E212.7293
G1 E210.6345 F2400
G1 Z0.500 F420
G1 X57.70 Y-45.29 F6000
G1 Z0.300 F420
G1 E212.5239 F1800
G1 X57.70 Y-45.35 E212.5277 F600
G1 E210.6520 F2400
G1 Z0.500 F420
G1 X59.99 Y-42.06 F6000
G1 Z0.300 F420
G1 E212.7218 F1800
G1 X60.50 Y-42.20 E212.7548 F600
G1 X60.89 Y-42.58 E212.7888
G1 X61.12 Y-43.14 E212.8265
G1 X61.21 Y-43.82 E212.8693
G1 X61.12 Y-44.49 E212.9115
G1 X60.89 Y-45.05 E212.9492
G1 X60.50 Y-45.44 E212.9836
G1 X59.99 Y-45.58 E213.0166
G1 X59.46 Y-45.44 E213.0508
G1 X59.09 Y-45.05 E213.0843
G1 X58.85 Y-44.49 E213.1223
G1 X58.77 Y-43.82 E213.1644
G1 X58.85 Y-43.15 E213.2065
G1 X59.09 Y-42.58 E213.2450
G1 X59.46 Y-42.20 E213.2781
G1 X59.99 Y-42.06 E213.3123
G1 E211.1712 F2400
G1 Z0.500 F420
G1 X46.50 Y-47.12 F6000
G1 Z0.300 F420
G1 E213.2319 F1800
G1 X46.50 Y-50.52 E213.4440 F600
G1 E211.3646 F2400
G1 Z0.500 F420
G1 X46.50 Y-48.77 F6000
G1 Z0.300 F420
G1 E213.4289 F1800
G1 X46.75 Y-48.47 E213.4532 F600
G1 X46.98 Y-48.25 E213.4731
G1 X47.20 Y-48.12 E213.4890
G1 X47.40 Y-48.07 E213.5019
G1 X47.59 Y-48.05 E213.5138
G1 X47.91 Y-48.12 E213.5342
G1 X48.14 Y-48.29 E213.5521
G1 X48.24 Y-48.49 E213.5660
G1 X48.33 Y-48.92 E213.5934
G1 X48.33 Y-50.52 E213.6932
G1 E211.6023 F2400
G1 Z0.500 F420
G1 X49.39 Y-48.74 F6000
G1 Z0.300 F420
G1 E213.6504 F1800
G1 X51.08 Y-48.74 E213.7558 F600
G1 E211.7065 F2400
G1 Z0.500 F420
G1 X51.08 Y-49.45 F6000
G1 Z0.300 F420
G1 E213.7545 F1800
G1 X49.39 Y-49.45 E213.8599 F600
G1 E211.8106 F2400
G1 Z0.500 F420
G1 X53.36 Y-47.06 F6000
G1 Z0.300 F420
G1 E213.8806 F1800
G1 X53.87 Y-47.20 E213.9136 F600
G1 X54.26 Y-47.58 E213.9475
G1 X54.50 Y-48.14 E213.9855
G1 X54.58 Y-48.82 E214.0282
G1 X54.50 Y-49.49 E214.0703
G1 X54.26 Y-50.05 E214.1083
G1 X53.87 Y-50.44 E214.1427
G1 X53.36 Y-50.58 E214.1757
G1 X52.84 Y-50.44 E214.2093
G1 X52.46 Y-50.05 E214.2432
G1 X52.22 Y-49.49 E214.2812
G1 X52.14 Y-48.82 E214.3233
G1 X52.22 Y-48.15 E214.3654
G1 X52.46 Y-47.58 E214.4040
G1 X52.84 Y-47.20 E214.4375
G1 X53.36 Y-47.06 E214.4711
G1 E212.3300 F2400
G1 Z0.500 F420
G1 X55.64 Y-50.29 F6000
G1 Z0.300 F420
G1 E214.2195 F1800
G1 X55.64 Y-50.35 E214.2233 F600
G1 E212.3477 F2400
G1 Z0.500 F420
G1 X56.71 Y-47.56 F6000
G1 Z0.300 F420
G1 E214.4159 F1800
G1 X56.90 Y-47.35 E214.4336 F600
G1 X57.13 Y-47.19 E214.4511
G1 X57.39 Y-47.10 E214.4682
G1 X57.67 Y-47.06 E214.4859
G1 X58.04 Y-47.12 E214.5092
G1 X58.34 Y-47.32 E214.5317
G1 X58.53 Y-47.61 E214.5534
G1 X58.60 Y-47.98 E214.5768
G1 X58.50 Y-48.37 E214.6020
G1 X58.22 Y-48.73 E214.6304
G1 X57.44 Y-49.36 E214.6929
G1 X57.14 Y-49.77 E214.7246
G1 X56.75 Y-50.52 E214.7773
G1 X58.57 Y-50.52 E214.8909
G1 E212.7658 F2400
G1 Z0.500 F420
G1 X46.50 Y-53.11 F6000
G1 Z0.300 F420
G1 E214.8318 F1800
G1 X47.36 Y-55.52 E214.9914 F600
G1 X48.10 Y-53.11 E215.1486
G1 X48.87 Y-55.52 E215.3064
G1 X49.71 Y-53.11 E215.4656
G1 E213.3231 F2400
G1 Z0.500 F420
G1 X50.77 Y-53.74 F6000
G1 Z0.300 F420
G1 E215.3714 F1800
G1 X52.46 Y-53.74 E215.4768 F600
G1 E213.4274 F2400
G1 Z0.500 F420
G1 X52.46 Y-54.45 F6000
G1 Z0.300 F420
G1 E215.4755 F1800
G1 X50.77 Y-54.45 E215.5809 F600
G1 E213.5315 F2400
G1 Z0.500 F420
G1 X53.52 Y-53.00 F6000
G1 Z0.300 F420
G1 E215.5941 F1800
G1 X53.99 Y-52.76 E215.6270 F600
G1 X54.36 Y-52.45 E215.6571
G1 X54.61 Y-52.12 E215.6829
G1 X54.61 Y-55.52 E215.8950
G1 E213.8000 F2400
G1 Z0.500 F420
G1 X55.67 Y-55.29 F6000
G1 Z0.300 F420
G1 E215.6895 F1800
G1 X55.67 Y-55.35 E215.6932 F600
G1 E213.8176 F2400
G1 Z0.500 F420
G1 X58.77 Y-52.83 F6000
G1 Z0.300 F420
G1 E215.8897 F1800
G1 X58.46 Y-52.26 E215.9301 F600
G1 X57.87 Y-52.06 E215.9690
G1 X57.36 Y-52.18 E216.0017
G1 X57.01 Y-52.53 E216.0325
G1 X56.80 Y-53.13 E216.0722
G1 X56.73 Y-53.95 E216.1235
G1 X56.80 Y-54.64 E216.1668
G1 X57.02 Y-55.16 E216.2020
G1 X57.36 Y-55.47 E216.2307
G1 X57.83 Y-55.58 E216.2608
G1 X58.28 Y-55.49 E216.2894
G1 X58.60 Y-55.24 E216.3147
G1 X58.78 Y-54.87 E216.3404
G1 X58.85 Y-54.44 E216.3676
G1 X58.78 Y-54.04 E216.3929
G1 X58.59 Y-53.69 E216.4177
G1 X58.28 Y-53.46 E216.4418
G1 X57.88 Y-53.38 E216.4672
G1 X57.42 Y-53.47 E216.4965
G1 X57.00 Y-53.72 E216.5270
G1 X56.73 Y-53.95 E216.5491
G1 E214.3983 F2400
G1 Z0.500 F420
;structure:shell-inner
G1 X-45.00 Y-36.00 F6000
G1 Z0.200 F420
G1 E215.4442 F1800
G1 X-40.00 Y-36.00 E215.5482 F300
G1 X-30.00 Y-36.00 F60
G1 E216.1145 F1800
G1 X20.00 Y-36.00 E222.7665 F451
G1 E221.7739 F2400
G1 X40.00 Y-36.00 F600
G1 E222.3781 F1800
G1 X45.00 Y-36.00 E222.5859 F300
G1 E221.9839 F2400
G1 Z0.500 F420
G1 X-45.00 Y-38.00 F6000
G1 Z0.200 F420
G1 E222.6094 F1800
G1 X-40.00 Y-38.00 E222.7134 F300
G1 X-30.00 Y-38.00 F60
G1 E223.7697 F1800
G1 X20.00 Y-38.00 E230.4217 F451
G1 E228.7901 F2400
G1 X40.00 Y-38.00 F600
G1 E229.5538 F1800
G1 X45.00 Y-38.00 E229.7617 F300
G1 E228.9869 F2400
G1 Z0.500 F420
G1 X-45.00 Y-40.00 F6000
G1 Z0.200 F420
G1 E229.6924 F1800
G1 X-40.00 Y-40.00 E229.7963 F300
G1 X-30.00 Y-40.00 F60
G1 E231.3035 F1800
G1 X20.00 Y-40.00 E237.9556 F451
G1 E235.6935 F2400
G1 X40.00 Y-40.00 F600
G1 E236.6167 F1800
G1 X45.00 Y-40.00 E236.8246 F300
G1 E235.8855 F2400
G1 Z0.500 F420
G1 X-45.00 Y-42.00 F6000
G1 Z0.200 F420
G1 E236.6709 F1800
G1 X-40.00 Y-42.00 E236.7748 F300
G1 X-30.00 Y-42.00 F60
G1 E238.7220 F1800
G1 X20.00 Y-42.00 E245.3740 F451
G1 E242.4961 F2400
G1 X40.00 Y-42.00 F600
G1 E243.5789 F1800
G1 X45.00 Y-42.00 E243.7868 F300
G1 E242.6854 F2400
G1 Z0.500 F420
G1 X-45.00 Y-44.00 F6000
G1 Z0.200 F420
G1 E243.5508 F1800
G1 X-40.00 Y-44.00 E243.6547 F300
G1 X-30.00 Y-44.00 F60
G1 E246.0383 F1800
G1 X20.00 Y-44.00 E252.6903 F451
G1 E249.2116 F2400
G1 X40.00 Y-44.00 F600
G1 E250.4541 F1800
G1 X45.00 Y-44.00 E250.6619 F300
G1 E249.3991 F2400
G1 Z0.500 F420
G1 X-45.00 Y-46.00 F6000
G1 Z0.200 F420
G1 E250.3445 F1800
G1 X-40.00 Y-46.00 E250.4484 F300
G1 X-30.00 Y-46.00 F60
G1 E253.2666 F1800
G1 X20.00 Y-46.00 E259.9187 F451
G1 E255.8526 F2400
G1 X40.00 Y-46.00 F600
G1 E257.2546 F1800
G1 X45.00 Y-46.00 E257.4625 F300
G1 E256.0387 F2400
G1 Z0.500 F420
G1 X-45.00 Y-48.00 F6000
G1 Z0.200 F420
G1 E257.0641 F1800
G1 X-40.00 Y-48.00 E257.1680 F300
G1 X-30.00 Y-48.00 F60
G1 E260.4200 F1800
G1 X20.00 Y-48.00 E267.0720 F451
G1 E262.4296 F2400
G1 X40.00 Y-48.00 F600
G1 E263.9913 F1800
G1 X45.00 Y-48.00 E264.1992 F300
G1 E262.6147 F2400
G1 Z0.500 F420
G1 X-45.00 Y-50.00 F6000
G1 Z0.200 F420
G1 E263.7200 F1800
G1 X-40.00 Y-50.00 E263.8239 F300
G1 X-30.00 Y-50.00 F60
G1 E267.5093 F1800
G1 X20.00 Y-50.00 E274.1613 F451
G1 E268.9516 F2400
G1 X40.00 Y-50.00 F600
G1 E270.6731 F1800
G1 X45.00 Y-50.00 E270.8809 F300
G1 E269.1358 F2400
G1 Z0.500 F420
G1 X-45.00 Y-52.00 F6000
G1 Z0.200 F420
G1 E270.3212 F1800
G1 X-40.00 Y-52.00 E270.4251 F300
G1 X-30.00 Y-52.00 F60
G1 E274.5434 F1800
G1 X20.00 Y-52.00 E281.1954 F451
G1 E275.4260 F2400
G1 X40.00 Y-52.00 F600
G1 E277.3072 F1800
G1 X45.00 Y-52.00 E277.5150 F300
G1 E275.6095 F2400
G1 Z0.500 F420
G1 X-45.00 Y-54.00 F6000
G1 Z0.200 F420
G1 E276.8748 F1800
G1 X-40.00 Y-54.00 E276.9788 F300
G1 X-30.00 Y-54.00 F60
G1 E281.5298 F1800
G1 X20.00 Y-54.00 E288.1819 F451
G1 E281.8587 F2400
G1 X40.00 Y-54.00 F600
G1 E283.8997 F1800
G1 X45.00 Y-54.00 E284.1076 F300
G1 E282.0417 F2400
G1 Z0.500 F420
G1 X-45.00 Y-56.00 F6000
G1 Z0.200 F420
G1 E283.3870 F1800
G1 X-40.00 Y-56.00 E283.4909 F300
G1 X-30.00 Y-56.00 F60
G1 E288.4746 F1800
G1 X20.00 Y-56.00 E295.1266 F451
G1 E288.2550 F2400
G1 X40.00 Y-56.00 F600
G1 E290.4558 F1800
G1 X45.00 Y-56.00 E290.6636 F300
G1 E288.4374 F2400
G1 Z0.500 F420
G1 E287.9374 F2400
;end gcode
M107
M104 S0 T0
M140 S0 T0
G162 Z F1800
G28 X Y
M132 X Y A B
M652
G91
M18
