;gcode_flavor: flashforge
;machine_type: Adventurer 3 Series
;filament_diameter0: 1.75
;right_extruder_temperature: 245
;platform_temperature: 100
;extruder_fan: 0%
;case_fan: 0%
;base_print_speed: 60
;travel_speed: 100
;vertical_speed: 7
;retract_speed: 40
;restore_speed: 30
;layer_height: 0.30
;line_width: 0.50
;extrusion_ratio: 1.00
;start gcode
M118 X75.00 Y75.00 Z150.00 T0
M140 S100 T0
M104 S245 T0
M104 S0 T1
M107
M900 K0.600 T0
G90
G28
M132 X Y Z A B
G1 Z50.000 F420
G161 X Y F3300
M7 T0
M6 T0
M651
M108 T0
;preExtrude:0.20
;structure:pre-extrude
G1 X-55.00 Y-65.00 F6000                ; move dl=85.15@100(0<100>0) de=0.0000 h=0.00 r=0.00
;00:00:01.051: pe=0.0000 eb=0.0000 ve=0.0000 vn=0.0000 vl=0.000 db=0.00
G1 Z0.200 F420                          ; hopup dz=0.20@7 h=0.2 r=0.00
;00:00:01.080: pe=0.0000 eb=0.0000 ve=0.0000 vn=0.0000 vl=0.000 db=0.00
;00:00:01.080: adjusting restore de=2.5000@30 for ve=3.3122 db=2.0000 l=0.2x0.5x4.0 for pe=7.9873 eb=0.2612
G1 E8.2486 F1800                        ; restore de=8.2486@30 r=4.41
;00:00:01.355: pe=7.9311 eb=0.3175 ve=30.0000 vn=2.1942 vl=0.000 db=2.20
;extrude_ratio:1.0
G1 X-55.00 Y55.00 E19.9561 F1200        ; draw dl=120.00@20(0<20>10) l=0.20x0.50x4.00 r=3.99
;00:00:07.380: pe=7.9782 eb=0.2754 ve=1.6630 vn=3.0297 vl=10.000 db=2.05
G1 X-55.00 Y65.00 F600                  ; move dl=10.00@10(10<10>10) de=0.0000 h=0.20 r=3.94
;00:00:08.380: pe=6.3389 eb=0.2183 ve=0.0000 vn=1.4238 vl=10.000 db=1.83
G1 X35.00 Y65.00                        ; move dl=90.00@10(10<10>1) de=0.0000 h=0.20 r=1.48
;00:00:17.388: pe=0.7857 eb=0.0040 ve=0.0000 vn=0.0723 vl=1.000 db=0.25
G1 X45.00 Y65.00 F60                    ; move dl=10.00@1(1<1>0) de=0.0000 h=0.20 r=0.45
;00:00:27.389: pe=0.5995 eb=0.0025 ve=0.0000 vn=0.0132 vl=0.000 db=0.20
G1 E-3.0995 F2400                       ; retract de=-3.0995@40 r=0.39
;00:00:27.467: pe=-2.5000 eb=0.0025 ve=-40.0000 vn=0.0000 vl=0.000 db=0.20
G1 Z0.600 F420                          ; hopup dz=0.40@7 h=0.6 r=0.23
;00:00:27.524: pe=-2.5000 eb=0.0025 ve=0.0000 vn=0.0000 vl=0.000 db=0.11
;layer:0.30
;00:00:27.524: layer=1 h=0.30 w=0.50 r=1.00
;structure:brim
;00:00:27.524: text x0=-43.0 y0=60 fsize=5 angle=0 'Kf=0.6 Kb=3.0 Re=2.5'
G1 X-42.50 Y59.88 F6000                 ; move dl=87.65@100(0<100>0) de=0.0000 h=0.60 r=0.00
;00:00:28.600: pe=-2.5000 eb=0.0000 ve=0.0000 vn=0.0000 vl=0.000 db=0.00
G1 Z0.300 F420                          ; hopdn dz=-0.30@7 h=0.3 r=0.00
;00:00:28.643: pe=-2.5000 eb=0.0000 ve=0.0000 vn=0.0000 vl=0.000 db=0.00
;00:00:28.643: adjusting restore de=2.5000@30 for ve=0.5890 db=0.5000 l=0.3x0.5x1.0 for pe=1.8534 eb=0.0245
G1 E4.3779 F1800                        ; restore de=4.3779@30 r=0.97
;00:00:28.789: pe=1.8550 eb=0.0229 ve=30.0000 vn=0.6731 vl=0.000 db=0.48
;extrude_ratio:1.0
G1 X-42.50 Y56.48 E0.2120 F600          ; draw dl=3.40@10(0<10>0) l=0.30x0.50x1.00 r=1.02
;00:00:29.149: pe=1.8507 eb=0.0285 ve=0.0000 vn=0.3873 vl=0.000 db=0.54
G1 E-4.3507 F2400                       ; retract de=-4.3507@40 r=1.09
;00:00:29.258: pe=-2.5008 eb=0.0293 ve=-40.0000 vn=0.0000 vl=0.000 db=0.55
G1 Z0.700 F420                          ; hopup dz=0.40@7 h=0.7 r=0.72
;00:00:29.315: pe=-2.5008 eb=0.0293 ve=0.0000 vn=0.0000 vl=0.000 db=0.36
G1 X-40.04 Y56.48 F6000                 ; move dl=2.46@100(0<25>0) de=0.0000 h=0.70 r=0.00
;00:00:29.464: pe=-2.5008 eb=0.0000 ve=0.0000 vn=0.0000 vl=0.000 db=0.00
G1 Z0.300 F420                          ; hopdn dz=-0.40@7 h=0.3 r=0.00
;00:00:29.521: pe=-2.5008 eb=0.0000 ve=0.0000 vn=0.0000 vl=0.000 db=0.00
;00:00:29.521: adjusting restore de=2.5000@30 for ve=0.5777 db=0.5000 l=0.3x0.5x1.0 for pe=1.8466 eb=0.0245
G1 E4.3720 F1800                        ; restore de=4.3720@30 r=0.96
;00:00:29.667: pe=1.8484 eb=0.0228 ve=30.0000 vn=0.6709 vl=0.000 db=0.48
G1 X-41.53 Y58.51 E0.1570 F600          ; draw dl=2.52@10(0<10>0) l=0.30x0.50x1.00 r=1.03
;00:00:29.938: pe=1.8441 eb=0.0283 ve=0.0000 vn=0.3854 vl=0.000 db=0.54
G1 E-4.3441 F2400                       ; retract de=-4.3441@40 r=1.09
;00:00:30.047: pe=-2.5008 eb=0.0291 ve=-40.0000 vn=0.0000 vl=0.000 db=0.55
G1 Z0.700 F420                          ; hopup dz=0.40@7 h=0.7 r=0.71
;00:00:30.104: pe=-2.5008 eb=0.0291 ve=0.0000 vn=0.0000 vl=0.000 db=0.36
G1 X-42.50 Y57.67 F6000                 ; move dl=1.28@100(0<18>0) de=0.0000 h=0.70 r=0.00
;00:00:30.212: pe=-2.5008 eb=0.0000 ve=0.0000 vn=0.0000 vl=0.000 db=0.00
G1 Z0.300 F420                          ; hopdn dz=-0.40@7 h=0.3 r=0.00
;00:00:30.269: pe=-2.5008 eb=0.0000 ve=0.0000 vn=0.0000 vl=0.000 db=0.00
;00:00:30.269: adjusting restore de=2.5000@30 for ve=0.5885 db=0.5000 l=0.3x0.5x1.0 for pe=1.8531 eb=0.0245
G1 E4.3784 F1800                        ; restore de=4.3784@30 r=0.97
;00:00:30.415: pe=1.8547 eb=0.0229 ve=30.0000 vn=0.6730 vl=0.000 db=0.48
G1 X-39.98 Y59.88 E0.2090 F600          ; draw dl=3.35@10(0<10>0) l=0.30x0.50x1.00 r=1.02
;00:00:30.770: pe=1.8504 eb=0.0285 ve=0.0000 vn=0.3873 vl=0.000 db=0.54
G1 E-4.3504 F2400                       ; retract de=-4.3504@40 r=1.09
;00:00:30.879: pe=-2.5008 eb=0.0293 ve=-40.0000 vn=0.0000 vl=0.000 db=0.55
G1 Z0.700 F420                          ; hopup dz=0.40@7 h=0.7 r=0.72
;00:00:30.936: pe=-2.5008 eb=0.0293 ve=0.0000 vn=0.0000 vl=0.000 db=0.36
G1 X-37.73 Y59.90 F6000                 ; move dl=2.25@100(0<24>0) de=0.0000 h=0.70 r=0.00
;00:00:31.078: pe=-2.5008 eb=0.0000 ve=0.0000 vn=0.0000 vl=0.000 db=0.00
G1 Z0.300 F420                          ; hopdn dz=-0.40@7 h=0.3 r=0.00
;00:00:31.135: pe=-2.5008 eb=0.0000 ve=0.0000 vn=0.0000 vl=0.000 db=0.00
;00:00:31.135: adjusting restore de=2.5000@30 for ve=0.5927 db=0.5000 l=0.3x0.5x1.0 for pe=1.8556 eb=0.0245
G1 E4.3809 F1800                        ; restore de=4.3809@30 r=0.97
;00:00:31.281: pe=1.8571 eb=0.0230 ve=30.0000 vn=0.6738 vl=0.000 db=0.48
G1 X-37.88 Y59.90 E0.0094 F600          ; draw dl=0.15@10(0<10>10) l=0.30x0.50x1.00 r=1.35
;00:00:31.306: pe=1.8538 eb=0.0259 ve=0.6236 vn=0.5197 vl=10.000 db=0.51
G1 X-38.06 Y59.86 E0.0115               ; draw dl=0.18@10(10<10>10) l=0.30x0.50x1.00 r=0.90
;00:00:31.325: pe=1.8550 eb=0.0245 ve=0.6236 vn=0.5888 vl=10.000 db=0.50
G1 X-38.22 Y59.73 E0.0129               ; draw dl=0.21@10(10<10>10) l=0.30x0.50x1.00 r=0.96
;00:00:31.345: pe=1.8555 eb=0.0241 ve=0.6236 vn=0.6104 vl=10.000 db=0.50
G1 X-38.34 Y59.54 E0.0140               ; draw dl=0.22@10(10<10>10) l=0.30x0.50x1.00 r=0.98
;00:00:31.368: pe=1.8557 eb=0.0240 ve=0.6236 vn=0.6160 vl=10.000 db=0.50
G1 X-38.42 Y59.17 E0.0236               ; draw dl=0.38@10(10<10>10) l=0.30x0.50x1.00 r=0.99
;00:00:31.406: pe=1.8559 eb=0.0240 ve=0.6236 vn=0.6176 vl=10.000 db=0.50
G1 X-38.42 Y56.48 E0.1678               ; draw dl=2.69@10(10<10>0) l=0.30x0.50x1.00 r=1.02
;00:00:31.685: pe=1.8529 eb=0.0286 ve=0.0000 vn=0.3880 vl=0.000 db=0.54
G1 E-4.3529 F2400                       ; retract de=-4.3529@40 r=1.10
;00:00:31.793: pe=-2.5008 eb=0.0294 ve=-40.0000 vn=0.0000 vl=0.000 db=0.55
G1 Z0.700 F420                          ; hopup dz=0.40@7 h=0.7 r=0.72
;00:00:31.851: pe=-2.5008 eb=0.0294 ve=0.0000 vn=0.0000 vl=0.000 db=0.36
G1 X-38.92 Y58.76 F6000                 ; move dl=2.33@100(0<24>0) de=0.0000 h=0.70 r=0.00
;00:00:31.996: pe=-2.5008 eb=0.0000 ve=0.0000 vn=0.0000 vl=0.000 db=0.00
G1 Z0.300 F420                          ; hopdn dz=-0.40@7 h=0.3 r=0.00
;00:00:32.053: pe=-2.5008 eb=0.0000 ve=0.0000 vn=0.0000 vl=0.000 db=0.00
;00:00:32.053: adjusting restore de=2.5000@30 for ve=0.5262 db=0.5000 l=0.3x0.5x1.0 for pe=1.8157 eb=0.0245
G1 E4.3410 F1800                        ; restore de=4.3410@30 r=0.95
;00:00:32.197: pe=1.8182 eb=0.0220 ve=30.0000 vn=0.6596 vl=0.000 db=0.47
G1 X-37.84 Y58.76 E0.0674 F600          ; draw dl=1.08@10(0<10>0) l=0.30x0.50x1.00 r=1.06
;00:00:32.325: pe=1.8139 eb=0.0274 ve=0.0000 vn=0.3767 vl=0.000 db=0.53
G1 E-4.3139 F2400                       ; retract de=-4.3139@40 r=1.07
;00:00:32.433: pe=-2.5008 eb=0.0282 ve=-40.0000 vn=0.0000 vl=0.000 db=0.54
G1 Z0.700 F420                          ; hopup dz=0.40@7 h=0.7 r=0.70
;00:00:32.490: pe=-2.5008 eb=0.0282 ve=0.0000 vn=0.0000 vl=0.000 db=0.35
G1 X-36.66 Y58.26 F6000                 ; move dl=1.28@100(0<18>0) de=0.0000 h=0.70 r=0.00
;00:00:32.598: pe=-2.5008 eb=0.0000 ve=0.0000 vn=0.0000 vl=0.000 db=0.00
G1 Z0.300 F420                          ; hopdn dz=-0.40@7 h=0.3 r=0.00
;00:00:32.655: pe=-2.5008 eb=0.0000 ve=0.0000 vn=0.0000 vl=0.000 db=0.00
;00:00:32.655: adjusting restore de=2.5000@30 for ve=0.5576 db=0.5000 l=0.3x0.5x1.0 for pe=1.8346 eb=0.0245
G1 E4.3598 F1800                        ; restore de=4.3598@30 r=0.96
;00:00:32.800: pe=1.8366 eb=0.0225 ve=30.0000 vn=0.6666 vl=0.000 db=0.48
G1 X-34.97 Y58.26 E0.1054 F600          ; draw dl=1.69@10(0<10>0) l=0.30x0.50x1.00 r=1.04
;00:00:32.989: pe=1.8323 eb=0.0280 ve=0.0000 vn=0.3821 vl=0.000 db=0.53
G1 E-4.3323 F2400                       ; retract de=-4.3323@40 r=1.08
;00:00:33.098: pe=-2.5008 eb=0.0288 ve=-40.0000 vn=0.0000 vl=0.000 db=0.54
G1 Z0.700 F420                          ; hopup dz=0.40@7 h=0.7 r=0.71
;00:00:33.155: pe=-2.5008 eb=0.0288 ve=0.0000 vn=0.0000 vl=0.000 db=0.35
G1 X-34.97 Y57.55 F6000                 ; move dl=0.71@100(0<13>0) de=0.0000 h=0.70 r=0.00
;00:00:33.235: pe=-2.5008 eb=0.0000 ve=0.0000 vn=0.0000 vl=0.000 db=0.00
G1 Z0.300 F420                          ; hopdn dz=-0.40@7 h=0.3 r=0.00
;00:00:33.292: pe=-2.5008 eb=0.0000 ve=0.0000 vn=0.0000 vl=0.000 db=0.00
;00:00:33.292: adjusting restore de=2.5000@30 for ve=0.5576 db=0.5000 l=0.3x0.5x1.0 for pe=1.8346 eb=0.0245
G1 E4.3599 F1800                        ; restore de=4.3599@30 r=0.96
;00:00:33.437: pe=1.8366 eb=0.0225 ve=30.0000 vn=0.6666 vl=0.000 db=0.48
G1 X-36.66 Y57.55 E0.1054 F600          ; draw dl=1.69@10(0<10>0) l=0.30x0.50x1.00 r=1.04
;00:00:33.626: pe=1.8323 eb=0.0280 ve=0.0000 vn=0.3821 vl=0.000 db=0.53
G1 E-4.3323 F2400                       ; retract de=-4.3323@40 r=1.08
;00:00:33.734: pe=-2.5008 eb=0.0288 ve=-40.0000 vn=0.0000 vl=0.000 db=0.54
G1 Z0.700 F420                          ; hopup dz=0.40@7 h=0.7 r=0.71
;00:00:33.792: pe=-2.5008 eb=0.0288 ve=0.0000 vn=0.0000 vl=0.000 db=0.35
G1 X-32.69 Y59.94 F6000                 ; move dl=4.63@100(0<34>0) de=0.0000 h=0.70 r=0.00
;00:00:33.996: pe=-2.5008 eb=0.0000 ve=0.0000 vn=0.0000 vl=0.000 db=0.00
G1 Z0.300 F420                          ; hopdn dz=-0.40@7 h=0.3 r=0.00
;00:00:34.053: pe=-2.5008 eb=0.0000 ve=0.0000 vn=0.0000 vl=0.000 db=0.00
;00:00:34.053: adjusting restore de=2.5000@30 for ve=0.6107 db=0.5000 l=0.3x0.5x1.0 for pe=1.8664 eb=0.0245
G1 E4.3917 F1800                        ; restore de=4.3917@30 r=0.97
;00:00:34.199: pe=1.8677 eb=0.0232 ve=30.0000 vn=0.6783 vl=0.000 db=0.49
G1 X-32.18 Y59.80 E0.0330 F600          ; draw dl=0.53@10(0<10>10) l=0.30x0.50x1.00 r=1.06
;00:00:34.262: pe=1.8658 eb=0.0244 ve=0.6236 vn=0.6131 vl=10.000 db=0.50
G1 X-31.79 Y59.42 E0.0340               ; draw dl=0.54@10(10<10>10) l=0.30x0.50x1.00 r=0.99
;00:00:34.317: pe=1.8661 eb=0.0243 ve=0.6236 vn=0.6208 vl=10.000 db=0.50
G1 X-31.55 Y58.86 E0.0380               ; draw dl=0.61@10(10<10>10) l=0.30x0.50x1.00 r=1.00
;00:00:34.378: pe=1.8662 eb=0.0243 ve=0.6236 vn=0.6210 vl=10.000 db=0.50
G1 X-31.47 Y58.18 E0.0427               ; draw dl=0.68@10(10<10>10) l=0.30x0.50x1.00 r=1.00
;00:00:34.446: pe=1.8664 eb=0.0243 ve=0.6236 vn=0.6211 vl=10.000 db=0.50
G1 X-31.55 Y57.51 E0.0421               ; draw dl=0.67@10(10<10>10) l=0.30x0.50x1.00 r=1.00
;00:00:34.514: pe=1.8666 eb=0.0243 ve=0.6236 vn=0.6212 vl=10.000 db=0.50
G1 X-31.79 Y56.95 E0.0380               ; draw dl=0.61@10(10<10>10) l=0.30x0.50x1.00 r=1.00
;00:00:34.574: pe=1.8667 eb=0.0243 ve=0.6236 vn=0.6212 vl=10.000 db=0.50
G1 X-32.18 Y56.56 E0.0344               ; draw dl=0.55@10(10<10>10) l=0.30x0.50x1.00 r=1.00
;00:00:34.630: pe=1.8669 eb=0.0243 ve=0.6236 vn=0.6212 vl=10.000 db=0.50
G1 X-32.69 Y56.42 E0.0330               ; draw dl=0.53@10(10<10>10) l=0.30x0.50x1.00 r=1.00
;00:00:34.682: pe=1.8670 eb=0.0243 ve=0.6236 vn=0.6213 vl=10.000 db=0.50
G1 X-33.21 Y56.56 E0.0336               ; draw dl=0.54@10(10<10>10) l=0.30x0.50x1.00 r=1.00
;00:00:34.736: pe=1.8671 eb=0.0243 ve=0.6236 vn=0.6213 vl=10.000 db=0.50
G1 X-33.59 Y56.95 E0.0340               ; draw dl=0.54@10(10<10>10) l=0.30x0.50x1.00 r=1.00
;00:00:34.791: pe=1.8672 eb=0.0243 ve=0.6236 vn=0.6214 vl=10.000 db=0.50
G1 X-33.83 Y57.51 E0.0380               ; draw dl=0.61@10(10<10>10) l=0.30x0.50x1.00 r=1.00
;00:00:34.852: pe=1.8674 eb=0.0243 ve=0.6236 vn=0.6214 vl=10.000 db=0.50
G1 X-33.91 Y58.18 E0.0421               ; draw dl=0.67@10(10<10>10) l=0.30x0.50x1.00 r=1.00
;00:00:34.919: pe=1.8675 eb=0.0243 ve=0.6236 vn=0.6215 vl=10.000 db=0.50
G1 X-33.83 Y58.85 E0.0421               ; draw dl=0.67@10(10<10>10) l=0.30x0.50x1.00 r=1.00
;00:00:34.987: pe=1.8677 eb=0.0243 ve=0.6236 vn=0.6215 vl=10.000 db=0.50
G1 X-33.59 Y59.42 E0.0386               ; draw dl=0.62@10(10<10>10) l=0.30x0.50x1.00 r=1.00
;00:00:35.049: pe=1.8678 eb=0.0243 ve=0.6236 vn=0.6215 vl=10.000 db=0.50
G1 X-33.21 Y59.80 E0.0335               ; draw dl=0.54@10(10<10>10) l=0.30x0.50x1.00 r=1.00
;00:00:35.102: pe=1.8679 eb=0.0243 ve=0.6236 vn=0.6216 vl=10.000 db=0.50
G1 X-32.69 Y59.94 E0.0336               ; draw dl=0.54@10(10<10>0) l=0.30x0.50x1.00 r=1.14
;00:00:35.166: pe=1.8634 eb=0.0289 ve=0.0000 vn=0.3910 vl=0.000 db=0.54
G1 E-4.3634 F2400                       ; retract de=-4.3634@40 r=1.10
;00:00:35.275: pe=-2.5008 eb=0.0297 ve=-40.0000 vn=0.0000 vl=0.000 db=0.55
G1 Z0.700 F420                          ; hopup dz=0.40@7 h=0.7 r=0.72
;00:00:35.332: pe=-2.5008 eb=0.0297 ve=0.0000 vn=0.0000 vl=0.000 db=0.36
G1 X-30.41 Y56.71 F6000                 ; move dl=3.95@100(0<31>0) de=0.0000 h=0.70 r=0.00
;00:00:35.521: pe=-2.5008 eb=0.0000 ve=0.0000 vn=0.0000 vl=0.000 db=0.00
G1 Z0.300 F420                          ; hopdn dz=-0.40@7 h=0.3 r=0.00
;00:00:35.578: pe=-2.5008 eb=0.0000 ve=0.0000 vn=0.0000 vl=0.000 db=0.00
;00:00:35.578: adjusting restore de=2.5000@30 for ve=0.1610 db=0.5000 l=0.3x0.5x1.0001 for pe=1.5967 eb=0.0245
G1 E4.1220 F1800                        ; restore de=4.1220@30 r=0.84
;00:00:35.716: pe=1.6040 eb=0.0172 ve=30.0000 vn=0.5790 vl=0.000 db=0.42
G1 X-30.41 Y56.65 E0.0037 F600          ; draw dl=0.06@10(0<4>0) l=0.30x0.50x1.00 r=2.40
;00:00:35.739: pe=1.5988 eb=0.0228 ve=0.0000 vn=0.2545 vl=0.000 db=0.48
G1 E-4.0988 F2400                       ; retract de=-4.0988@40 r=0.97
;00:00:35.841: pe=-2.5003 eb=0.0231 ve=-40.0000 vn=0.0000 vl=0.000 db=0.49
G1 Z0.700 F420                          ; hopup dz=0.40@7 h=0.7 r=0.64
;00:00:35.898: pe=-2.5003 eb=0.0231 ve=0.0000 vn=0.0000 vl=0.000 db=0.32
G1 X-27.31 Y59.17 F6000                 ; move dl=4.00@100(0<32>0) de=0.0000 h=0.70 r=0.00
;00:00:36.088: pe=-2.5003 eb=0.0000 ve=0.0000 vn=0.0000 vl=0.000 db=0.00
G1 Z0.300 F420                          ; hopdn dz=-0.40@7 h=0.3 r=0.00
;00:00:36.145: pe=-2.5003 eb=0.0000 ve=0.0000 vn=0.0000 vl=0.000 db=0.00
;00:00:36.145: adjusting restore de=2.5000@30 for ve=0.6176 db=0.5000 l=0.3x0.5x1.0 for pe=1.8706 eb=0.0245
G1 E4.3954 F1800                        ; restore de=4.3954@30 r=0.98
;00:00:36.292: pe=1.8717 eb=0.0233 ve=30.0000 vn=0.6798 vl=0.000 db=0.49
G1 X-27.62 Y59.74 E0.0405 F600          ; draw dl=0.65@10(0<10>10) l=0.30x0.50x1.00 r=1.05
;00:00:36.367: pe=1.8698 eb=0.0244 ve=0.6236 vn=0.6187 vl=10.000 db=0.50
G1 X-28.21 Y59.94 E0.0389               ; draw dl=0.62@10(10<10>10) l=0.30x0.50x1.00 r=1.00
;00:00:36.429: pe=1.8700 eb=0.0244 ve=0.6236 vn=0.6222 vl=10.000 db=0.50
G1 X-28.72 Y59.82 E0.0327               ; draw dl=0.52@10(10<10>10) l=0.30x0.50x1.00 r=1.00
;00:00:36.481: pe=1.8701 eb=0.0244 ve=0.6236 vn=0.6223 vl=10.000 db=0.50
G1 X-29.07 Y59.47 E0.0309               ; draw dl=0.49@10(10<10>10) l=0.30x0.50x1.00 r=1.00
;00:00:36.531: pe=1.8701 eb=0.0244 ve=0.6236 vn=0.6223 vl=10.000 db=0.50
G1 X-29.28 Y58.87 E0.0396               ; draw dl=0.64@10(10<10>10) l=0.30x0.50x1.00 r=1.00
;00:00:36.594: pe=1.8702 eb=0.0244 ve=0.6236 vn=0.6223 vl=10.000 db=0.50
G1 X-29.35 Y58.05 E0.0513               ; draw dl=0.82@10(10<10>10) l=0.30x0.50x1.00 r=1.00
;00:00:36.677: pe=1.8703 eb=0.0244 ve=0.6236 vn=0.6224 vl=10.000 db=0.50
G1 X-29.28 Y57.36 E0.0433               ; draw dl=0.69@10(10<10>10) l=0.30x0.50x1.00 r=1.00
;00:00:36.746: pe=1.8704 eb=0.0244 ve=0.6236 vn=0.6224 vl=10.000 db=0.50
G1 X-29.06 Y56.84 E0.0352               ; draw dl=0.56@10(10<10>10) l=0.30x0.50x1.00 r=1.00
;00:00:36.802: pe=1.8705 eb=0.0244 ve=0.6236 vn=0.6224 vl=10.000 db=0.50
G1 X-28.72 Y56.53 E0.0287               ; draw dl=0.46@10(10<10>10) l=0.30x0.50x1.00 r=1.00
;00:00:36.848: pe=1.8705 eb=0.0244 ve=0.6236 vn=0.6224 vl=10.000 db=0.50
G1 X-28.25 Y56.42 E0.0301               ; draw dl=0.48@10(10<10>10) l=0.30x0.50x1.00 r=1.00
;00:00:36.897: pe=1.8706 eb=0.0244 ve=0.6236 vn=0.6225 vl=10.000 db=0.50
G1 X-27.80 Y56.51 E0.0286               ; draw dl=0.46@10(10<10>10) l=0.30x0.50x1.00 r=1.00
;00:00:36.943: pe=1.8706 eb=0.0244 ve=0.6236 vn=0.6225 vl=10.000 db=0.50
G1 X-27.48 Y56.76 E0.0253               ; draw dl=0.41@10(10<10>10) l=0.30x0.50x1.00 r=1.00
;00:00:36.983: pe=1.8707 eb=0.0244 ve=0.6236 vn=0.6225 vl=10.000 db=0.50
G1 X-27.30 Y57.13 E0.0257               ; draw dl=0.41@10(10<10>10) l=0.30x0.50x1.00 r=1.00
;00:00:37.024: pe=1.8707 eb=0.0244 ve=0.6236 vn=0.6225 vl=10.000 db=0.50
G1 X-27.23 Y57.56 E0.0272               ; draw dl=0.44@10(10<10>10) l=0.30x0.50x1.00 r=1.00
;00:00:37.068: pe=1.8708 eb=0.0244 ve=0.6236 vn=0.6225 vl=10.000 db=0.50
G1 X-27.30 Y57.96 E0.0253               ; draw dl=0.41@10(10<10>10) l=0.30x0.50x1.00 r=1.00
;00:00:37.108: pe=1.8708 eb=0.0244 ve=0.6236 vn=0.6225 vl=10.000 db=0.50
G1 X-27.49 Y58.31 E0.0248               ; draw dl=0.40@10(10<10>10) l=0.30x0.50x1.00 r=1.00
;00:00:37.148: pe=1.8709 eb=0.0244 ve=0.6236 vn=0.6225 vl=10.000 db=0.50
G1 X-27.80 Y58.54 E0.0241               ; draw dl=0.39@10(10<10>10) l=0.30x0.50x1.00 r=1.00
;00:00:37.187: pe=1.8709 eb=0.0244 ve=0.6236 vn=0.6226 vl=10.000 db=0.50
G1 X-28.20 Y58.62 E0.0254               ; draw dl=0.41@10(10<10>10) l=0.30x0.50x1.00 r=1.00
;00:00:37.228: pe=1.8709 eb=0.0244 ve=0.6236 vn=0.6226 vl=10.000 db=0.50
G1 X-28.66 Y58.53 E0.0292               ; draw dl=0.47@10(10<10>10) l=0.30x0.50x1.00 r=1.00
;00:00:37.275: pe=1.8710 eb=0.0244 ve=0.6236 vn=0.6226 vl=10.000 db=0.50
G1 X-29.08 Y58.28 E0.0305               ; draw dl=0.49@10(10<10>10) l=0.30x0.50x1.00 r=1.00
;00:00:37.323: pe=1.8710 eb=0.0244 ve=0.6236 vn=0.6226 vl=10.000 db=0.50
G1 X-29.35 Y58.05 E0.0221               ; draw dl=0.35@10(10<10>0) l=0.30x0.50x1.00 r=1.21
;00:00:37.369: pe=1.8664 eb=0.0290 ve=0.0000 vn=0.3919 vl=0.000 db=0.54
G1 E-4.3664 F2400                       ; retract de=-4.3664@40 r=1.10
;00:00:37.478: pe=-2.5008 eb=0.0298 ve=-40.0000 vn=0.0000 vl=0.000 db=0.55
G1 Z0.700 F420                          ; hopup dz=0.40@7 h=0.7 r=0.72
;00:00:37.535: pe=-2.5008 eb=0.0298 ve=0.0000 vn=0.0000 vl=0.000 db=0.36
G1 X-22.86 Y59.88 F6000                 ; move dl=6.74@100(0<41>0) de=0.0000 h=0.70 r=0.00
;00:00:37.782: pe=-2.5008 eb=0.0000 ve=0.0000 vn=0.0000 vl=0.000 db=0.00
G1 Z0.300 F420                          ; hopdn dz=-0.40@7 h=0.3 r=0.00
;00:00:37.839: pe=-2.5008 eb=0.0000 ve=0.0000 vn=0.0000 vl=0.000 db=0.00
;00:00:37.839: adjusting restore de=2.5000@30 for ve=0.5890 db=0.5000 l=0.3x0.5x1.0 for pe=1.8534 eb=0.0245
G1 E4.3787 F1800                        ; restore de=4.3787@30 r=0.97
;00:00:37.985: pe=1.8550 eb=0.0229 ve=30.0000 vn=0.6730 vl=0.000 db=0.48
G1 X-22.86 Y56.48 E0.2120 F600          ; draw dl=3.40@10(0<10>0) l=0.30x0.50x1.00 r=1.02
;00:00:38.345: pe=1.8507 eb=0.0285 ve=0.0000 vn=0.3873 vl=0.000 db=0.54
G1 E-4.3507 F2400                       ; retract de=-4.3507@40 r=1.09
;00:00:38.453: pe=-2.5008 eb=0.0293 ve=-40.0000 vn=0.0000 vl=0.000 db=0.55
G1 Z0.700 F420                          ; hopup dz=0.40@7 h=0.7 r=0.72
;00:00:38.511: pe=-2.5008 eb=0.0293 ve=0.0000 vn=0.0000 vl=0.000 db=0.36
G1 X-20.40 Y56.48 F6000                 ; move dl=2.46@100(0<25>0) de=0.0000 h=0.70 r=0.00
;00:00:38.659: pe=-2.5008 eb=0.0000 ve=0.0000 vn=0.0000 vl=0.000 db=0.00
G1 Z0.300 F420                          ; hopdn dz=-0.40@7 h=0.3 r=0.00
;00:00:38.717: pe=-2.5008 eb=0.0000 ve=0.0000 vn=0.0000 vl=0.000 db=0.00
;00:00:38.717: adjusting restore de=2.5000@30 for ve=0.5777 db=0.5000 l=0.3x0.5x1.0 for pe=1.8466 eb=0.0245
G1 E4.3720 F1800                        ; restore de=4.3720@30 r=0.96
;00:00:38.862: pe=1.8484 eb=0.0228 ve=30.0000 vn=0.6709 vl=0.000 db=0.48
G1 X-21.89 Y58.51 E0.1570 F600          ; draw dl=2.52@10(0<10>0) l=0.30x0.50x1.00 r=1.03
;00:00:39.134: pe=1.8441 eb=0.0283 ve=0.0000 vn=0.3854 vl=0.000 db=0.54
G1 E-4.3441 F2400                       ; retract de=-4.3441@40 r=1.09
;00:00:39.243: pe=-2.5008 eb=0.0291 ve=-40.0000 vn=0.0000 vl=0.000 db=0.55
G1 Z0.700 F420                          ; hopup dz=0.40@7 h=0.7 r=0.71
;00:00:39.300: pe=-2.5008 eb=0.0291 ve=0.0000 vn=0.0000 vl=0.000 db=0.36
G1 X-22.86 Y57.67 F6000                 ; move dl=1.28@100(0<18>0) de=0.0000 h=0.70 r=0.00
;00:00:39.407: pe=-2.5008 eb=0.0000 ve=0.0000 vn=0.0000 vl=0.000 db=0.00
G1 Z0.300 F420                          ; hopdn dz=-0.40@7 h=0.3 r=0.00
;00:00:39.464: pe=-2.5008 eb=0.0000 ve=0.0000 vn=0.0000 vl=0.000 db=0.00
;00:00:39.464: adjusting restore de=2.5000@30 for ve=0.5885 db=0.5000 l=0.3x0.5x1.0 for pe=1.8531 eb=0.0245
G1 E4.3784 F1800                        ; restore de=4.3784@30 r=0.97
;00:00:39.610: pe=1.8547 eb=0.0229 ve=30.0000 vn=0.6730 vl=0.000 db=0.48
G1 X-20.34 Y59.88 E0.2090 F600          ; draw dl=3.35@10(0<10>0) l=0.30x0.50x1.00 r=1.02
;00:00:39.966: pe=1.8504 eb=0.0285 ve=0.0000 vn=0.3873 vl=0.000 db=0.54
G1 E-4.3504 F2400                       ; retract de=-4.3504@40 r=1.09
;00:00:40.074: pe=-2.5008 eb=0.0293 ve=-40.0000 vn=0.0000 vl=0.000 db=0.55
G1 Z0.700 F420                          ; hopup dz=0.40@7 h=0.7 r=0.72
;00:00:40.131: pe=-2.5008 eb=0.0293 ve=0.0000 vn=0.0000 vl=0.000 db=0.36
G1 X-19.27 Y59.88 F6000                 ; move dl=1.07@100(0<16>0) de=0.0000 h=0.70 r=0.00
;00:00:40.230: pe=-2.5008 eb=0.0000 ve=0.0000 vn=0.0000 vl=0.000 db=0.00
G1 Z0.300 F420                          ; hopdn dz=-0.40@7 h=0.3 r=0.00
;00:00:40.287: pe=-2.5008 eb=0.0000 ve=0.0000 vn=0.0000 vl=0.000 db=0.00
;00:00:40.287: adjusting restore de=2.5000@30 for ve=0.5890 db=0.5000 l=0.3x0.5x1.0 for pe=1.8534 eb=0.0245
G1 E4.3787 F1800                        ; restore de=4.3787@30 r=0.97
;00:00:40.433: pe=1.8550 eb=0.0229 ve=30.0000 vn=0.6730 vl=0.000 db=0.48
G1 X-19.27 Y56.48 E0.2120 F600          ; draw dl=3.40@10(0<10>0) l=0.30x0.50x1.00 r=1.02
;00:00:40.793: pe=1.8507 eb=0.0285 ve=0.0000 vn=0.3873 vl=0.000 db=0.54
G1 E-4.3507 F2400                       ; retract de=-4.3507@40 r=1.09
;00:00:40.901: pe=-2.5008 eb=0.0293 ve=-40.0000 vn=0.0000 vl=0.000 db=0.55
G1 Z0.700 F420                          ; hopup dz=0.40@7 h=0.7 r=0.72
;00:00:40.959: pe=-2.5008 eb=0.0293 ve=0.0000 vn=0.0000 vl=0.000 db=0.36
G1 X-19.27 Y56.98 F6000                 ; move dl=0.50@100(0<11>0) de=0.0000 h=0.70 r=0.00
;00:00:41.026: pe=-2.5008 eb=0.0003 ve=0.0000 vn=0.0000 vl=0.000 db=0.03
G1 Z0.300 F420                          ; hopdn dz=-0.40@7 h=0.3 r=0.10
;00:00:41.083: pe=-2.5008 eb=0.0003 ve=0.0000 vn=0.0000 vl=0.000 db=0.05
;00:00:41.083: adjusting restore de=2.5000@30 for ve=0.6041 db=0.5000 l=0.3x0.5x1.0 for pe=1.8625 eb=0.0245
G1 E4.3878 F1800                        ; restore de=4.3878@30 r=0.97
;00:00:41.229: pe=1.8641 eb=0.0231 ve=30.0000 vn=0.6768 vl=0.000 db=0.49
G1 X-19.02 Y56.74 E0.0216 F600          ; draw dl=0.35@10(0<10>10) l=0.30x0.50x1.00 r=1.10
;00:00:41.274: pe=1.8619 eb=0.0247 ve=0.6236 vn=0.5931 vl=10.000 db=0.50
G1 X-18.63 Y56.49 E0.0289               ; draw dl=0.46@10(10<10>10) l=0.30x0.50x1.00 r=0.98
;00:00:41.320: pe=1.8625 eb=0.0242 ve=0.6236 vn=0.6186 vl=10.000 db=0.50
G1 X-18.25 Y56.42 E0.0241               ; draw dl=0.39@10(10<10>10) l=0.30x0.50x1.00 r=0.99
;00:00:41.359: pe=1.8627 eb=0.0242 ve=0.6236 vn=0.6198 vl=10.000 db=0.50
G1 X-17.87 Y56.51 E0.0244               ; draw dl=0.39@10(10<10>10) l=0.30x0.50x1.00 r=0.99
;00:00:41.398: pe=1.8628 eb=0.0242 ve=0.6236 vn=0.6199 vl=10.000 db=0.50
G1 X-17.56 Y56.77 E0.0252               ; draw dl=0.40@10(10<10>10) l=0.30x0.50x1.00 r=0.99
;00:00:41.438: pe=1.8630 eb=0.0242 ve=0.6236 vn=0.6200 vl=10.000 db=0.50
G1 X-17.36 Y57.18 E0.0284               ; draw dl=0.46@10(10<10>10) l=0.30x0.50x1.00 r=0.99
;00:00:41.484: pe=1.8631 eb=0.0242 ve=0.6236 vn=0.6200 vl=10.000 db=0.50
G1 X-17.29 Y57.71 E0.0333               ; draw dl=0.53@10(10<10>10) l=0.30x0.50x1.00 r=0.99
;00:00:41.537: pe=1.8633 eb=0.0242 ve=0.6236 vn=0.6201 vl=10.000 db=0.50
G1 X-17.35 Y58.22 E0.0320               ; draw dl=0.51@10(10<10>10) l=0.30x0.50x1.00 r=0.99
;00:00:41.589: pe=1.8635 eb=0.0242 ve=0.6236 vn=0.6201 vl=10.000 db=0.50
G1 X-17.53 Y58.61 E0.0268               ; draw dl=0.43@10(10<10>10) l=0.30x0.50x1.00 r=0.99
;00:00:41.632: pe=1.8636 eb=0.0242 ve=0.6236 vn=0.6202 vl=10.000 db=0.50
G1 X-17.82 Y58.86 E0.0239               ; draw dl=0.38@10(10<10>10) l=0.30x0.50x1.00 r=0.99
;00:00:41.670: pe=1.8638 eb=0.0242 ve=0.6236 vn=0.6202 vl=10.000 db=0.50
G1 X-18.22 Y58.95 E0.0256               ; draw dl=0.41@10(10<10>10) l=0.30x0.50x1.00 r=0.99
;00:00:41.711: pe=1.8639 eb=0.0242 ve=0.6236 vn=0.6203 vl=10.000 db=0.50
G1 X-18.41 Y58.93 E0.0119               ; draw dl=0.19@10(10<10>10) l=0.30x0.50x1.00 r=0.99
;00:00:41.730: pe=1.8640 eb=0.0242 ve=0.6236 vn=0.6203 vl=10.000 db=0.50
G1 X-18.61 Y58.85 E0.0134               ; draw dl=0.22@10(10<10>10) l=0.30x0.50x1.00 r=0.99
;00:00:41.752: pe=1.8640 eb=0.0242 ve=0.6236 vn=0.6203 vl=10.000 db=0.50
G1 X-18.82 Y58.72 E0.0154               ; draw dl=0.25@10(10<10>10) l=0.30x0.50x1.00 r=0.99
;00:00:41.776: pe=1.8641 eb=0.0242 ve=0.6236 vn=0.6203 vl=10.000 db=0.50
G1 X-19.02 Y58.50 E0.0185               ; draw dl=0.30@10(10<10>10) l=0.30x0.50x1.00 r=0.99
;00:00:41.806: pe=1.8642 eb=0.0242 ve=0.6236 vn=0.6204 vl=10.000 db=0.50
G1 X-19.27 Y58.03 E0.0332               ; draw dl=0.53@10(10<10>0) l=0.30x0.50x1.00 r=1.13
;00:00:41.869: pe=1.8598 eb=0.0288 ve=0.0000 vn=0.3900 vl=0.000 db=0.54
G1 E-4.3598 F2400                       ; retract de=-4.3598@40 r=1.10
;00:00:41.978: pe=-2.5008 eb=0.0296 ve=-40.0000 vn=0.0000 vl=0.000 db=0.55
G1 Z0.700 F420                          ; hopup dz=0.40@7 h=0.7 r=0.72
;00:00:42.035: pe=-2.5008 eb=0.0296 ve=0.0000 vn=0.0000 vl=0.000 db=0.36
G1 X-16.23 Y58.26 F6000                 ; move dl=3.05@100(0<28>0) de=0.0000 h=0.70 r=0.00
;00:00:42.201: pe=-2.5008 eb=0.0000 ve=0.0000 vn=0.0000 vl=0.000 db=0.00
G1 Z0.300 F420                          ; hopdn dz=-0.40@7 h=0.3 r=0.00
;00:00:42.258: pe=-2.5008 eb=0.0000 ve=0.0000 vn=0.0000 vl=0.000 db=0.00
;00:00:42.258: adjusting restore de=2.5000@30 for ve=0.5576 db=0.5000 l=0.3x0.5x1.0 for pe=1.8346 eb=0.0245
G1 E4.3599 F1800                        ; restore de=4.3599@30 r=0.96
;00:00:42.403: pe=1.8366 eb=0.0225 ve=30.0000 vn=0.6666 vl=0.000 db=0.48
G1 X-14.54 Y58.26 E0.1054 F600          ; draw dl=1.69@10(0<10>0) l=0.30x0.50x1.00 r=1.04
;00:00:42.592: pe=1.8323 eb=0.0280 ve=0.0000 vn=0.3821 vl=0.000 db=0.53
G1 E-4.3323 F2400                       ; retract de=-4.3323@40 r=1.08
;00:00:42.701: pe=-2.5008 eb=0.0288 ve=-40.0000 vn=0.0000 vl=0.000 db=0.54
G1 Z0.700 F420                          ; hopup dz=0.40@7 h=0.7 r=0.71
;00:00:42.758: pe=-2.5008 eb=0.0288 ve=0.0000 vn=0.0000 vl=0.000 db=0.35
G1 X-14.54 Y57.55 F6000                 ; move dl=0.71@100(0<13>0) de=0.0000 h=0.70 r=0.00
;00:00:42.838: pe=-2.5008 eb=0.0000 ve=0.0000 vn=0.0000 vl=0.000 db=0.00
G1 Z0.300 F420                          ; hopdn dz=-0.40@7 h=0.3 r=0.00
;00:00:42.895: pe=-2.5008 eb=0.0000 ve=0.0000 vn=0.0000 vl=0.000 db=0.00
;00:00:42.895: adjusting restore de=2.5000@30 for ve=0.5576 db=0.5000 l=0.3x0.5x1.0 for pe=1.8346 eb=0.0245
G1 E4.3599 F1800                        ; restore de=4.3599@30 r=0.96
;00:00:43.040: pe=1.8366 eb=0.0225 ve=30.0000 vn=0.6666 vl=0.000 db=0.48
G1 X-16.23 Y57.55 E0.1054 F600          ; draw dl=1.69@10(0<10>0) l=0.30x0.50x1.00 r=1.04
;00:00:43.229: pe=1.8323 eb=0.0280 ve=0.0000 vn=0.3821 vl=0.000 db=0.53
G1 E-4.3323 F2400                       ; retract de=-4.3323@40 r=1.08
;00:00:43.338: pe=-2.5008 eb=0.0288 ve=-40.0000 vn=0.0000 vl=0.000 db=0.54
G1 Z0.700 F420                          ; hopup dz=0.40@7 h=0.7 r=0.71
;00:00:43.395: pe=-2.5008 eb=0.0288 ve=0.0000 vn=0.0000 vl=0.000 db=0.35
G1 X-13.43 Y59.13 F6000                 ; move dl=3.22@100(0<28>0) de=0.0000 h=0.70 r=0.00
;00:00:43.565: pe=-2.5008 eb=0.0000 ve=0.0000 vn=0.0000 vl=0.000 db=0.00
G1 Z0.300 F420                          ; hopdn dz=-0.40@7 h=0.3 r=0.00
;00:00:43.622: pe=-2.5008 eb=0.0000 ve=0.0000 vn=0.0000 vl=0.000 db=0.00
;00:00:43.622: adjusting restore de=2.5000@30 for ve=0.6058 db=0.5000 l=0.3x0.5x1.0 for pe=1.8635 eb=0.0245
G1 E4.3888 F1800                        ; restore de=4.3888@30 r=0.97
;00:00:43.768: pe=1.8648 eb=0.0232 ve=30.0000 vn=0.6771 vl=0.000 db=0.49
G1 X-13.32 Y59.47 E0.0223 F600          ; draw dl=0.36@10(0<10>10) l=0.30x0.50x1.00 r=1.10
;00:00:43.814: pe=1.8627 eb=0.0247 ve=0.6236 vn=0.5952 vl=10.000 db=0.50
G1 X-13.11 Y59.73 E0.0208               ; draw dl=0.33@10(10<10>10) l=0.30x0.50x1.00 r=0.98
;00:00:43.847: pe=1.8631 eb=0.0243 ve=0.6236 vn=0.6174 vl=10.000 db=0.50
G1 X-12.82 Y59.89 E0.0207               ; draw dl=0.33@10(10<10>10) l=0.30x0.50x1.00 r=0.99
;00:00:43.881: pe=1.8633 eb=0.0242 ve=0.6236 vn=0.6198 vl=10.000 db=0.50
G1 X-12.48 Y59.94 E0.0214               ; draw dl=0.34@10(10<10>10) l=0.30x0.50x1.00 r=0.99
;00:00:43.915: pe=1.8634 eb=0.0242 ve=0.6236 vn=0.6201 vl=10.000 db=0.50
G1 X-12.09 Y59.87 E0.0247               ; draw dl=0.40@10(10<10>10) l=0.30x0.50x1.00 r=0.99
;00:00:43.955: pe=1.8636 eb=0.0242 ve=0.6236 vn=0.6202 vl=10.000 db=0.50
G1 X-11.80 Y59.68 E0.0216               ; draw dl=0.35@10(10<10>10) l=0.30x0.50x1.00 r=0.99
;00:00:43.989: pe=1.8637 eb=0.0242 ve=0.6236 vn=0.6202 vl=10.000 db=0.50
G1 X-11.62 Y59.41 E0.0202               ; draw dl=0.32@10(10<10>10) l=0.30x0.50x1.00 r=0.99
;00:00:44.022: pe=1.8638 eb=0.0242 ve=0.6236 vn=0.6202 vl=10.000 db=0.50
G1 X-11.55 Y59.06 E0.0223               ; draw dl=0.36@10(10<10>10) l=0.30x0.50x1.00 r=0.99
;00:00:44.057: pe=1.8639 eb=0.0242 ve=0.6236 vn=0.6203 vl=10.000 db=0.50
G1 X-11.62 Y58.85 E0.0138               ; draw dl=0.22@10(10<10>10) l=0.30x0.50x1.00 r=0.99
;00:00:44.080: pe=1.8640 eb=0.0242 ve=0.6236 vn=0.6203 vl=10.000 db=0.50
G1 X-11.76 Y58.68 E0.0137               ; draw dl=0.22@10(10<10>10) l=0.30x0.50x1.00 r=0.99
;00:00:44.102: pe=1.8641 eb=0.0242 ve=0.6236 vn=0.6203 vl=10.000 db=0.50
G1 X-12.13 Y58.45 E0.0272               ; draw dl=0.44@10(10<10>10) l=0.30x0.50x1.00 r=0.99
;00:00:44.145: pe=1.8642 eb=0.0242 ve=0.6236 vn=0.6204 vl=10.000 db=0.50
G1 X-12.57 Y58.30 E0.0290               ; draw dl=0.46@10(10<10>5) l=0.30x0.50x1.00 r=1.05
;00:00:44.195: pe=1.8628 eb=0.0258 ve=0.2839 vn=0.5404 vl=4.552 db=0.51
G1 X-12.13 Y58.18 E0.0284               ; draw dl=0.46@10(5<10>10) l=0.30x0.50x1.00 r=0.97
;00:00:44.243: pe=1.8638 eb=0.0244 ve=0.6236 vn=0.6119 vl=10.000 db=0.50
G1 X-11.77 Y58.02 E0.0246               ; draw dl=0.39@10(10<10>10) l=0.30x0.50x1.00 r=0.99
;00:00:44.283: pe=1.8640 eb=0.0242 ve=0.6236 vn=0.6197 vl=10.000 db=0.50
G1 X-11.48 Y57.74 E0.0251               ; draw dl=0.40@10(10<10>10) l=0.30x0.50x1.00 r=0.99
;00:00:44.323: pe=1.8641 eb=0.0242 ve=0.6236 vn=0.6203 vl=10.000 db=0.50
G1 X-11.38 Y57.45 E0.0191               ; draw dl=0.31@10(10<10>10) l=0.30x0.50x1.00 r=0.99
;00:00:44.354: pe=1.8642 eb=0.0242 ve=0.6236 vn=0.6204 vl=10.000 db=0.50
G1 X-11.45 Y57.03 E0.0266               ; draw dl=0.43@10(10<10>10) l=0.30x0.50x1.00 r=0.99
;00:00:44.396: pe=1.8644 eb=0.0242 ve=0.6236 vn=0.6204 vl=10.000 db=0.50
G1 X-11.68 Y56.70 E0.0251               ; draw dl=0.40@10(10<10>10) l=0.30x0.50x1.00 r=0.99
;00:00:44.436: pe=1.8645 eb=0.0242 ve=0.6236 vn=0.6205 vl=10.000 db=0.50
G1 X-12.02 Y56.50 E0.0246               ; draw dl=0.39@10(10<10>10) l=0.30x0.50x1.00 r=0.99
;00:00:44.476: pe=1.8646 eb=0.0242 ve=0.6236 vn=0.6205 vl=10.000 db=0.50
G1 X-12.44 Y56.42 E0.0267               ; draw dl=0.43@10(10<10>10) l=0.30x0.50x1.00 r=1.00
;00:00:44.519: pe=1.8648 eb=0.0242 ve=0.6236 vn=0.6206 vl=10.000 db=0.50
G1 X-12.84 Y56.48 E0.0252               ; draw dl=0.40@10(10<10>10) l=0.30x0.50x1.00 r=1.00
;00:00:44.559: pe=1.8649 eb=0.0242 ve=0.6236 vn=0.6206 vl=10.000 db=0.50
G1 X-13.16 Y56.65 E0.0226               ; draw dl=0.36@10(10<10>10) l=0.30x0.50x1.00 r=1.00
;00:00:44.595: pe=1.8650 eb=0.0242 ve=0.6236 vn=0.6206 vl=10.000 db=0.50
G1 X-13.38 Y56.92 E0.0217               ; draw dl=0.35@10(10<10>10) l=0.30x0.50x1.00 r=1.00
;00:00:44.630: pe=1.8651 eb=0.0243 ve=0.6236 vn=0.6207 vl=10.000 db=0.50
G1 X-13.48 Y57.28 E0.0233               ; draw dl=0.37@10(10<10>0) l=0.30x0.50x1.00 r=1.19
;00:00:44.677: pe=1.8606 eb=0.0288 ve=0.0000 vn=0.3902 vl=0.000 db=0.54
G1 E-4.3606 F2400                       ; retract de=-4.3606@40 r=1.10
;00:00:44.786: pe=-2.5008 eb=0.0296 ve=-40.0000 vn=0.0000 vl=0.000 db=0.55
G1 Z0.700 F420                          ; hopup dz=0.40@7 h=0.7 r=0.72
;00:00:44.844: pe=-2.5008 eb=0.0296 ve=0.0000 vn=0.0000 vl=0.000 db=0.36
G1 X-10.31 Y56.71 F6000                 ; move dl=3.22@100(0<28>0) de=0.0000 h=0.70 r=0.00
;00:00:45.014: pe=-2.5008 eb=0.0000 ve=0.0000 vn=0.0000 vl=0.000 db=0.00
G1 Z0.300 F420                          ; hopdn dz=-0.40@7 h=0.3 r=0.00
;00:00:45.071: pe=-2.5008 eb=0.0000 ve=0.0000 vn=0.0000 vl=0.000 db=0.00
;00:00:45.071: adjusting restore de=2.5000@30 for ve=0.1610 db=0.5000 l=0.3x0.5x1.0001 for pe=1.5967 eb=0.0245
G1 E4.1220 F1800                        ; restore de=4.1220@30 r=0.84
;00:00:45.208: pe=1.6040 eb=0.0172 ve=30.0000 vn=0.5790 vl=0.000 db=0.42
G1 X-10.31 Y56.65 E0.0037 F600          ; draw dl=0.06@10(0<4>0) l=0.30x0.50x1.00 r=2.40
;00:00:45.232: pe=1.5988 eb=0.0228 ve=0.0000 vn=0.2545 vl=0.000 db=0.48
G1 E-4.0988 F2400                       ; retract de=-4.0988@40 r=0.97
;00:00:45.334: pe=-2.5003 eb=0.0231 ve=-40.0000 vn=0.0000 vl=0.000 db=0.49
G1 Z0.700 F420                          ; hopup dz=0.40@7 h=0.7 r=0.64
;00:00:45.391: pe=-2.5003 eb=0.0231 ve=0.0000 vn=0.0000 vl=0.000 db=0.32
G1 X-8.03 Y59.94 F6000                  ; move dl=4.00@100(0<32>0) de=0.0000 h=0.70 r=0.00
;00:00:45.581: pe=-2.5003 eb=0.0000 ve=0.0000 vn=0.0000 vl=0.000 db=0.00
G1 Z0.300 F420                          ; hopdn dz=-0.40@7 h=0.3 r=0.00
;00:00:45.638: pe=-2.5003 eb=0.0000 ve=0.0000 vn=0.0000 vl=0.000 db=0.00
;00:00:45.638: adjusting restore de=2.5000@30 for ve=0.6107 db=0.5000 l=0.3x0.5x1.0 for pe=1.8664 eb=0.0245
G1 E4.3913 F1800                        ; restore de=4.3913@30 r=0.97
;00:00:45.785: pe=1.8677 eb=0.0232 ve=30.0000 vn=0.6783 vl=0.000 db=0.49
G1 X-7.52 Y59.80 E0.0330 F600           ; draw dl=0.53@10(0<10>10) l=0.30x0.50x1.00 r=1.06
;00:00:45.847: pe=1.8658 eb=0.0244 ve=0.6236 vn=0.6131 vl=10.000 db=0.50
G1 X-7.13 Y59.42 E0.0340                ; draw dl=0.54@10(10<10>10) l=0.30x0.50x1.00 r=0.99
;00:00:45.902: pe=1.8661 eb=0.0243 ve=0.6236 vn=0.6208 vl=10.000 db=0.50
G1 X-6.89 Y58.86 E0.0380                ; draw dl=0.61@10(10<10>10) l=0.30x0.50x1.00 r=1.00
;00:00:45.963: pe=1.8662 eb=0.0243 ve=0.6236 vn=0.6210 vl=10.000 db=0.50
G1 X-6.81 Y58.18 E0.0427                ; draw dl=0.68@10(10<10>10) l=0.30x0.50x1.00 r=1.00
;00:00:46.031: pe=1.8664 eb=0.0243 ve=0.6236 vn=0.6211 vl=10.000 db=0.50
G1 X-6.89 Y57.51 E0.0421                ; draw dl=0.67@10(10<10>10) l=0.30x0.50x1.00 r=1.00
;00:00:46.099: pe=1.8666 eb=0.0243 ve=0.6236 vn=0.6212 vl=10.000 db=0.50
G1 X-7.13 Y56.95 E0.0380                ; draw dl=0.61@10(10<10>10) l=0.30x0.50x1.00 r=1.00
;00:00:46.160: pe=1.8667 eb=0.0243 ve=0.6236 vn=0.6212 vl=10.000 db=0.50
G1 X-7.52 Y56.56 E0.0344                ; draw dl=0.55@10(10<10>10) l=0.30x0.50x1.00 r=1.00
;00:00:46.215: pe=1.8669 eb=0.0243 ve=0.6236 vn=0.6212 vl=10.000 db=0.50
G1 X-8.03 Y56.42 E0.0330                ; draw dl=0.53@10(10<10>10) l=0.30x0.50x1.00 r=1.00
;00:00:46.268: pe=1.8670 eb=0.0243 ve=0.6236 vn=0.6213 vl=10.000 db=0.50
G1 X-8.55 Y56.56 E0.0336                ; draw dl=0.54@10(10<10>10) l=0.30x0.50x1.00 r=1.00
;00:00:46.322: pe=1.8671 eb=0.0243 ve=0.6236 vn=0.6213 vl=10.000 db=0.50
G1 X-8.93 Y56.95 E0.0340                ; draw dl=0.54@10(10<10>10) l=0.30x0.50x1.00 r=1.00
;00:00:46.376: pe=1.8672 eb=0.0243 ve=0.6236 vn=0.6214 vl=10.000 db=0.50
G1 X-9.17 Y57.51 E0.0380                ; draw dl=0.61@10(10<10>10) l=0.30x0.50x1.00 r=1.00
;00:00:46.437: pe=1.8674 eb=0.0243 ve=0.6236 vn=0.6214 vl=10.000 db=0.50
G1 X-9.25 Y58.18 E0.0421                ; draw dl=0.67@10(10<10>10) l=0.30x0.50x1.00 r=1.00
;00:00:46.504: pe=1.8675 eb=0.0243 ve=0.6236 vn=0.6215 vl=10.000 db=0.50
G1 X-9.17 Y58.85 E0.0421                ; draw dl=0.67@10(10<10>10) l=0.30x0.50x1.00 r=1.00
;00:00:46.572: pe=1.8677 eb=0.0243 ve=0.6236 vn=0.6215 vl=10.000 db=0.50
G1 X-8.93 Y59.42 E0.0386                ; draw dl=0.62@10(10<10>10) l=0.30x0.50x1.00 r=1.00
;00:00:46.634: pe=1.8678 eb=0.0243 ve=0.6236 vn=0.6215 vl=10.000 db=0.50
G1 X-8.55 Y59.80 E0.0335                ; draw dl=0.54@10(10<10>10) l=0.30x0.50x1.00 r=1.00
;00:00:46.687: pe=1.8679 eb=0.0243 ve=0.6236 vn=0.6216 vl=10.000 db=0.50
G1 X-8.03 Y59.94 E0.0336                ; draw dl=0.54@10(10<10>0) l=0.30x0.50x1.00 r=1.14
;00:00:46.751: pe=1.8634 eb=0.0289 ve=0.0000 vn=0.3910 vl=0.000 db=0.54
G1 E-4.3634 F2400                       ; retract de=-4.3634@40 r=1.10
;00:00:46.860: pe=-2.5008 eb=0.0297 ve=-40.0000 vn=0.0000 vl=0.000 db=0.55
G1 Z0.700 F420                          ; hopup dz=0.40@7 h=0.7 r=0.72
;00:00:46.918: pe=-2.5008 eb=0.0297 ve=0.0000 vn=0.0000 vl=0.000 db=0.36
G1 X-2.44 Y56.48 F6000                  ; move dl=6.57@100(0<41>0) de=0.0000 h=0.70 r=0.00
;00:00:47.161: pe=-2.5008 eb=0.0000 ve=0.0000 vn=0.0000 vl=0.000 db=0.00
G1 Z0.300 F420                          ; hopdn dz=-0.40@7 h=0.3 r=0.00
;00:00:47.218: pe=-2.5008 eb=0.0000 ve=0.0000 vn=0.0000 vl=0.000 db=0.00
;00:00:47.218: adjusting restore de=2.5000@30 for ve=0.6076 db=0.5000 l=0.3x0.5x1.0 for pe=1.8646 eb=0.0245
G1 E4.3899 F1800                        ; restore de=4.3899@30 r=0.97
;00:00:47.364: pe=1.8659 eb=0.0232 ve=30.0000 vn=0.6776 vl=0.000 db=0.49
G1 X-2.44 Y59.88 E0.2120 F600           ; draw dl=3.40@10(0<10>10) l=0.30x0.50x1.00 r=1.00
;00:00:47.714: pe=1.8650 eb=0.0243 ve=0.6236 vn=0.6206 vl=10.000 db=0.50
;00:00:47.714: skipping empty move move dl=0.00@10(0<0>0) de=0.0000 h=0.30
G1 X-1.21 Y59.88 E0.0767                ; draw dl=1.23@10(10<10>10) l=0.30x0.50x1.00 r=1.00
;00:00:47.837: pe=1.8654 eb=0.0243 ve=0.6236 vn=0.6208 vl=10.000 db=0.50
G1 X-0.82 Y59.78 E0.0251                ; draw dl=0.40@10(10<10>10) l=0.30x0.50x1.00 r=1.00
;00:00:47.878: pe=1.8655 eb=0.0243 ve=0.6236 vn=0.6208 vl=10.000 db=0.50
G1 X-0.51 Y59.58 E0.0230                ; draw dl=0.37@10(10<10>10) l=0.30x0.50x1.00 r=1.00
;00:00:47.914: pe=1.8656 eb=0.0243 ve=0.6236 vn=0.6208 vl=10.000 db=0.50
G1 X-0.41 Y59.45 E0.0102                ; draw dl=0.16@10(10<10>10) l=0.30x0.50x1.00 r=1.00
;00:00:47.931: pe=1.8657 eb=0.0243 ve=0.6236 vn=0.6208 vl=10.000 db=0.50
G1 X-0.28 Y59.04 E0.0268                ; draw dl=0.43@10(10<10>10) l=0.30x0.50x1.00 r=1.00
;00:00:47.974: pe=1.8658 eb=0.0243 ve=0.6236 vn=0.6209 vl=10.000 db=0.50
G1 X-0.33 Y58.80 E0.0153                ; draw dl=0.25@10(10<10>10) l=0.30x0.50x1.00 r=1.00
;00:00:47.998: pe=1.8659 eb=0.0243 ve=0.6236 vn=0.6209 vl=10.000 db=0.50
G1 X-0.44 Y58.56 E0.0165                ; draw dl=0.26@10(10<10>10) l=0.30x0.50x1.00 r=1.00
;00:00:48.025: pe=1.8659 eb=0.0243 ve=0.6236 vn=0.6209 vl=10.000 db=0.50
G1 X-0.66 Y58.36 E0.0185                ; draw dl=0.30@10(10<10>10) l=0.30x0.50x1.00 r=1.00
;00:00:48.054: pe=1.8660 eb=0.0243 ve=0.6236 vn=0.6210 vl=10.000 db=0.50
G1 X-1.43 Y58.18 E0.0493                ; draw dl=0.79@10(10<10>0) l=0.30x0.50x1.00 r=1.09
;00:00:48.144: pe=1.8616 eb=0.0288 ve=0.0000 vn=0.3905 vl=0.000 db=0.54
G1 E-4.3616 F2400                       ; retract de=-4.3616@40 r=1.10
;00:00:48.253: pe=-2.5008 eb=0.0297 ve=-40.0000 vn=0.0000 vl=0.000 db=0.55
G1 Z0.700 F420                          ; hopup dz=0.40@7 h=0.7 r=0.72
;00:00:48.310: pe=-2.5008 eb=0.0297 ve=0.0000 vn=0.0000 vl=0.000 db=0.36
G1 X-2.44 Y58.18 F6000                  ; move dl=1.01@100(0<16>0) de=0.0000 h=0.70 r=0.00
;00:00:48.405: pe=-2.5008 eb=0.0000 ve=0.0000 vn=0.0000 vl=0.000 db=0.00
G1 Z0.300 F420                          ; hopdn dz=-0.40@7 h=0.3 r=0.00
;00:00:48.462: pe=-2.5008 eb=0.0000 ve=0.0000 vn=0.0000 vl=0.000 db=0.00
;00:00:48.462: adjusting restore de=2.5000@30 for ve=0.5871 db=0.5000 l=0.3x0.5x1.0 for pe=1.8523 eb=0.0245
G1 E4.3776 F1800                        ; restore de=4.3776@30 r=0.97
;00:00:48.608: pe=1.8539 eb=0.0229 ve=30.0000 vn=0.6727 vl=0.000 db=0.48
G1 X-1.43 Y58.18 E0.0630 F600           ; draw dl=1.01@10(0<10>10) l=0.30x0.50x1.00 r=1.02
;00:00:48.719: pe=1.8527 eb=0.0239 ve=0.6236 vn=0.6163 vl=10.000 db=0.49
G1 X-0.92 Y58.00 E0.0337                ; draw dl=0.54@10(10<10>10) l=0.30x0.50x1.00 r=0.99
;00:00:48.773: pe=1.8531 eb=0.0239 ve=0.6236 vn=0.6167 vl=10.000 db=0.49
G1 X-0.53 Y57.38 E0.0457                ; draw dl=0.73@10(10<10>10) l=0.30x0.50x1.00 r=0.99
;00:00:48.846: pe=1.8536 eb=0.0240 ve=0.6236 vn=0.6169 vl=10.000 db=0.49
G1 X-0.28 Y56.48 E0.0583                ; draw dl=0.93@10(10<10>0) l=0.30x0.50x1.00 r=1.07
;00:00:48.950: pe=1.8496 eb=0.0285 ve=0.0000 vn=0.3870 vl=0.000 db=0.54
G1 E-4.3496 F2400                       ; retract de=-4.3496@40 r=1.09
;00:00:49.059: pe=-2.5008 eb=0.0293 ve=-40.0000 vn=0.0000 vl=0.000 db=0.55
G1 Z0.700 F420                          ; hopup dz=0.40@7 h=0.7 r=0.72
;00:00:49.116: pe=-2.5008 eb=0.0293 ve=0.0000 vn=0.0000 vl=0.000 db=0.36
G1 X0.79 Y57.69 F6000                   ; move dl=1.62@100(0<20>0) de=0.0000 h=0.70 r=0.00
;00:00:49.236: pe=-2.5008 eb=0.0000 ve=0.0000 vn=0.0000 vl=0.000 db=0.00
G1 Z0.300 F420                          ; hopdn dz=-0.40@7 h=0.3 r=0.00
;00:00:49.293: pe=-2.5008 eb=0.0000 ve=0.0000 vn=0.0000 vl=0.000 db=0.00
;00:00:49.293: adjusting restore de=2.5000@30 for ve=0.6101 db=0.5000 l=0.3x0.5x1.0 for pe=1.8661 eb=0.0245
G1 E4.3914 F1800                        ; restore de=4.3914@30 r=0.97
;00:00:49.440: pe=1.8673 eb=0.0232 ve=30.0000 vn=0.6781 vl=0.000 db=0.49
G1 X2.93 Y57.69 E0.1335 F600            ; draw dl=2.14@10(0<10>10) l=0.30x0.50x1.00 r=1.01
;00:00:49.664: pe=1.8660 eb=0.0243 ve=0.6039 vn=0.6206 vl=9.683 db=0.50
G1 X2.85 Y58.22 E0.0334                 ; draw dl=0.54@10(10<10>10) l=0.30x0.50x1.00 r=1.00
;00:00:49.717: pe=1.8662 eb=0.0243 ve=0.6236 vn=0.6210 vl=10.000 db=0.50
G1 X2.64 Y58.61 E0.0276                 ; draw dl=0.44@10(10<10>10) l=0.30x0.50x1.00 r=1.00
;00:00:49.762: pe=1.8663 eb=0.0243 ve=0.6236 vn=0.6210 vl=10.000 db=0.50
G1 X2.30 Y58.86 E0.0263                 ; draw dl=0.42@10(10<10>10) l=0.30x0.50x1.00 r=1.00
;00:00:49.804: pe=1.8664 eb=0.0243 ve=0.6236 vn=0.6211 vl=10.000 db=0.50
G1 X1.86 Y58.95 E0.0280                 ; draw dl=0.45@10(10<10>10) l=0.30x0.50x1.00 r=1.00
;00:00:49.849: pe=1.8665 eb=0.0243 ve=0.6236 vn=0.6211 vl=10.000 db=0.50
G1 X1.43 Y58.86 E0.0274                 ; draw dl=0.44@10(10<10>10) l=0.30x0.50x1.00 r=1.00
;00:00:49.893: pe=1.8666 eb=0.0243 ve=0.6236 vn=0.6212 vl=10.000 db=0.50
G1 X1.09 Y58.61 E0.0263                 ; draw dl=0.42@10(10<10>10) l=0.30x0.50x1.00 r=1.00
;00:00:49.935: pe=1.8667 eb=0.0243 ve=0.6236 vn=0.6212 vl=10.000 db=0.50
G1 X0.87 Y58.22 E0.0279                 ; draw dl=0.45@10(10<10>10) l=0.30x0.50x1.00 r=1.00
;00:00:49.980: pe=1.8668 eb=0.0243 ve=0.6236 vn=0.6212 vl=10.000 db=0.50
G1 X0.79 Y57.69 E0.0334                 ; draw dl=0.54@10(10<10>10) l=0.30x0.50x1.00 r=1.00
;00:00:50.033: pe=1.8669 eb=0.0243 ve=0.6236 vn=0.6213 vl=10.000 db=0.50
G1 X0.87 Y57.15 E0.0340                 ; draw dl=0.55@10(10<10>10) l=0.30x0.50x1.00 r=1.00
;00:00:50.088: pe=1.8671 eb=0.0243 ve=0.6236 vn=0.6213 vl=10.000 db=0.50
G1 X1.10 Y56.75 E0.0288                 ; draw dl=0.46@10(10<10>10) l=0.30x0.50x1.00 r=1.00
;00:00:50.134: pe=1.8672 eb=0.0243 ve=0.6236 vn=0.6213 vl=10.000 db=0.50
G1 X1.45 Y56.51 E0.0265                 ; draw dl=0.42@10(10<10>10) l=0.30x0.50x1.00 r=1.00
;00:00:50.177: pe=1.8673 eb=0.0243 ve=0.6236 vn=0.6214 vl=10.000 db=0.50
G1 X1.91 Y56.42 E0.0292                 ; draw dl=0.47@10(10<10>10) l=0.30x0.50x1.00 r=1.00
;00:00:50.223: pe=1.8674 eb=0.0243 ve=0.6236 vn=0.6214 vl=10.000 db=0.50
G1 X2.25 Y56.47 E0.0214                 ; draw dl=0.34@10(10<10>10) l=0.30x0.50x1.00 r=1.00
;00:00:50.258: pe=1.8674 eb=0.0243 ve=0.6236 vn=0.6214 vl=10.000 db=0.50
G1 X2.54 Y56.61 E0.0201                 ; draw dl=0.32@10(10<10>10) l=0.30x0.50x1.00 r=1.00
;00:00:50.290: pe=1.8675 eb=0.0243 ve=0.6236 vn=0.6215 vl=10.000 db=0.50
G1 X2.75 Y56.83 E0.0190                 ; draw dl=0.30@10(10<10>10) l=0.30x0.50x1.00 r=1.00
;00:00:50.320: pe=1.8676 eb=0.0243 ve=0.6236 vn=0.6215 vl=10.000 db=0.50
G1 X2.87 Y57.13 E0.0202                 ; draw dl=0.32@10(10<10>0) l=0.30x0.50x1.00 r=1.23
;00:00:50.363: pe=1.8630 eb=0.0289 ve=0.0000 vn=0.3909 vl=0.000 db=0.54
G1 E-4.3630 F2400                       ; retract de=-4.3630@40 r=1.10
;00:00:50.472: pe=-2.5008 eb=0.0297 ve=-40.0000 vn=0.0000 vl=0.000 db=0.55
G1 Z0.700 F420                          ; hopup dz=0.40@7 h=0.7 r=0.72
;00:00:50.529: pe=-2.5008 eb=0.0297 ve=0.0000 vn=0.0000 vl=0.000 db=0.36
G1 X3.99 Y58.26 F6000                   ; move dl=1.59@100(0<20>0) de=0.0000 h=0.70 r=0.00
;00:00:50.649: pe=-2.5008 eb=0.0000 ve=0.0000 vn=0.0000 vl=0.000 db=0.00
G1 Z0.300 F420                          ; hopdn dz=-0.40@7 h=0.3 r=0.00
;00:00:50.706: pe=-2.5008 eb=0.0000 ve=0.0000 vn=0.0000 vl=0.000 db=0.00
;00:00:50.706: adjusting restore de=2.5000@30 for ve=0.5576 db=0.5000 l=0.3x0.5x1.0 for pe=1.8346 eb=0.0245
G1 E4.3599 F1800                        ; restore de=4.3599@30 r=0.96
;00:00:50.851: pe=1.8366 eb=0.0225 ve=30.0000 vn=0.6666 vl=0.000 db=0.48
G1 X5.68 Y58.26 E0.1054 F600            ; draw dl=1.69@10(0<10>0) l=0.30x0.50x1.00 r=1.04
;00:00:51.040: pe=1.8323 eb=0.0280 ve=0.0000 vn=0.3821 vl=0.000 db=0.53
G1 E-4.3323 F2400                       ; retract de=-4.3323@40 r=1.08
;00:00:51.148: pe=-2.5008 eb=0.0288 ve=-40.0000 vn=0.0000 vl=0.000 db=0.54
G1 Z0.700 F420                          ; hopup dz=0.40@7 h=0.7 r=0.71
;00:00:51.206: pe=-2.5008 eb=0.0288 ve=0.0000 vn=0.0000 vl=0.000 db=0.35
G1 X5.68 Y57.55 F6000                   ; move dl=0.71@100(0<13>0) de=0.0000 h=0.70 r=0.00
;00:00:51.285: pe=-2.5008 eb=0.0000 ve=0.0000 vn=0.0000 vl=0.000 db=0.00
G1 Z0.300 F420                          ; hopdn dz=-0.40@7 h=0.3 r=0.00
;00:00:51.343: pe=-2.5008 eb=0.0000 ve=0.0000 vn=0.0000 vl=0.000 db=0.00
;00:00:51.343: adjusting restore de=2.5000@30 for ve=0.5576 db=0.5000 l=0.3x0.5x1.0 for pe=1.8346 eb=0.0245
G1 E4.3599 F1800                        ; restore de=4.3599@30 r=0.96
;00:00:51.488: pe=1.8366 eb=0.0225 ve=30.0000 vn=0.6666 vl=0.000 db=0.48
G1 X3.99 Y57.55 E0.1054 F600            ; draw dl=1.69@10(0<10>0) l=0.30x0.50x1.00 r=1.04
;00:00:51.677: pe=1.8323 eb=0.0280 ve=0.0000 vn=0.3821 vl=0.000 db=0.53
G1 E-4.3323 F2400                       ; retract de=-4.3323@40 r=1.08
;00:00:51.785: pe=-2.5008 eb=0.0288 ve=-40.0000 vn=0.0000 vl=0.000 db=0.54
G1 Z0.700 F420                          ; hopup dz=0.40@7 h=0.7 r=0.71
;00:00:51.842: pe=-2.5008 eb=0.0288 ve=0.0000 vn=0.0000 vl=0.000 db=0.35
G1 X6.74 Y59.44 F6000                   ; move dl=3.34@100(0<29>0) de=0.0000 h=0.70 r=0.00
;00:00:52.016: pe=-2.5008 eb=0.0000 ve=0.0000 vn=0.0000 vl=0.000 db=0.00
G1 Z0.300 F420                          ; hopdn dz=-0.40@7 h=0.3 r=0.00
;00:00:52.073: pe=-2.5008 eb=0.0000 ve=0.0000 vn=0.0000 vl=0.000 db=0.00
;00:00:52.073: adjusting restore de=2.5000@30 for ve=0.6066 db=0.5000 l=0.3x0.5x1.0 for pe=1.8639 eb=0.0245
G1 E4.3892 F1800                        ; restore de=4.3892@30 r=0.97
;00:00:52.219: pe=1.8653 eb=0.0232 ve=30.0000 vn=0.6773 vl=0.000 db=0.49
G1 X6.93 Y59.65 E0.0177 F600            ; draw dl=0.28@10(0<10>10) l=0.30x0.50x1.00 r=1.14
;00:00:52.257: pe=1.8628 eb=0.0250 ve=0.6236 vn=0.5794 vl=10.000 db=0.51
G1 X7.16 Y59.81 E0.0175                 ; draw dl=0.28@10(10<10>10) l=0.30x0.50x1.00 r=0.96
;00:00:52.285: pe=1.8635 eb=0.0243 ve=0.6236 vn=0.6140 vl=10.000 db=0.50
G1 X7.42 Y59.90 E0.0172                 ; draw dl=0.28@10(10<10>10) l=0.30x0.50x1.00 r=0.99
;00:00:52.313: pe=1.8636 eb=0.0242 ve=0.6236 vn=0.6192 vl=10.000 db=0.50
G1 X7.70 Y59.94 E0.0176                 ; draw dl=0.28@10(10<10>10) l=0.30x0.50x1.00 r=0.99
;00:00:52.341: pe=1.8638 eb=0.0242 ve=0.6236 vn=0.6201 vl=10.000 db=0.50
G1 X8.07 Y59.88 E0.0234                 ; draw dl=0.37@10(10<10>10) l=0.30x0.50x1.00 r=0.99
;00:00:52.379: pe=1.8639 eb=0.0242 ve=0.6236 vn=0.6203 vl=10.000 db=0.50
G1 X8.37 Y59.68 E0.0225                 ; draw dl=0.36@10(10<10>10) l=0.30x0.50x1.00 r=0.99
;00:00:52.415: pe=1.8640 eb=0.0242 ve=0.6236 vn=0.6203 vl=10.000 db=0.50
G1 X8.56 Y59.39 E0.0216                 ; draw dl=0.35@10(10<10>10) l=0.30x0.50x1.00 r=0.99
;00:00:52.449: pe=1.8641 eb=0.0242 ve=0.6236 vn=0.6203 vl=10.000 db=0.50
G1 X8.63 Y59.02 E0.0235                 ; draw dl=0.38@10(10<10>10) l=0.30x0.50x1.00 r=0.99
;00:00:52.487: pe=1.8642 eb=0.0242 ve=0.6236 vn=0.6204 vl=10.000 db=0.50
G1 X8.53 Y58.63 E0.0251                 ; draw dl=0.40@10(10<10>10) l=0.30x0.50x1.00 r=0.99
;00:00:52.527: pe=1.8644 eb=0.0242 ve=0.6236 vn=0.6204 vl=10.000 db=0.50
G1 X8.25 Y58.27 E0.0284                 ; draw dl=0.46@10(10<10>10) l=0.30x0.50x1.00 r=0.99
;00:00:52.573: pe=1.8645 eb=0.0242 ve=0.6236 vn=0.6205 vl=10.000 db=0.50
G1 X7.47 Y57.64 E0.0625                 ; draw dl=1.00@10(10<10>10) l=0.30x0.50x1.00 r=1.00
;00:00:52.673: pe=1.8648 eb=0.0242 ve=0.6236 vn=0.6206 vl=10.000 db=0.50
G1 X7.17 Y57.23 E0.0317                 ; draw dl=0.51@10(10<10>10) l=0.30x0.50x1.00 r=1.00
;00:00:52.724: pe=1.8650 eb=0.0242 ve=0.6236 vn=0.6206 vl=10.000 db=0.50
G1 X6.78 Y56.48 E0.0527                 ; draw dl=0.85@10(10<10>7) l=0.30x0.50x1.00 r=1.00
;00:00:52.809: pe=1.8648 eb=0.0247 ve=0.4580 vn=0.5995 vl=7.345 db=0.50
G1 X8.60 Y56.48 E0.1135                 ; draw dl=1.82@10(7<10>0) l=0.30x0.50x1.00 r=1.03
;00:00:53.002: pe=1.8610 eb=0.0288 ve=0.0000 vn=0.3903 vl=0.000 db=0.54
G1 E-4.3610 F2400                       ; retract de=-4.3610@40 r=1.10
;00:00:53.111: pe=-2.5008 eb=0.0296 ve=-40.0000 vn=0.0000 vl=0.000 db=0.55
G1 Z0.700 F420                          ; hopup dz=0.40@7 h=0.7 r=0.72
;00:00:53.168: pe=-2.5008 eb=0.0296 ve=0.0000 vn=0.0000 vl=0.000 db=0.36
G1 X9.69 Y56.71 F6000                   ; move dl=1.11@100(0<17>0) de=0.0000 h=0.70 r=0.00
;00:00:53.268: pe=-2.5008 eb=0.0000 ve=0.0000 vn=0.0000 vl=0.000 db=0.00
G1 Z0.300 F420                          ; hopdn dz=-0.40@7 h=0.3 r=0.00
;00:00:53.325: pe=-2.5008 eb=0.0000 ve=0.0000 vn=0.0000 vl=0.000 db=0.00
;00:00:53.325: adjusting restore de=2.5000@30 for ve=0.1610 db=0.5000 l=0.3x0.5x1.0001 for pe=1.5967 eb=0.0245
G1 E4.1220 F1800                        ; restore de=4.1220@30 r=0.84
;00:00:53.463: pe=1.6040 eb=0.0172 ve=30.0000 vn=0.5790 vl=0.000 db=0.42
G1 X9.69 Y56.65 E0.0037 F600            ; draw dl=0.06@10(0<4>0) l=0.30x0.50x1.00 r=2.40
;00:00:53.486: pe=1.5988 eb=0.0228 ve=0.0000 vn=0.2545 vl=0.000 db=0.48
G1 E-4.0988 F2400                       ; retract de=-4.0988@40 r=0.97
;00:00:53.589: pe=-2.5003 eb=0.0231 ve=-40.0000 vn=0.0000 vl=0.000 db=0.49
G1 Z0.700 F420                          ; hopup dz=0.40@7 h=0.7 r=0.64
;00:00:53.646: pe=-2.5003 eb=0.0231 ve=0.0000 vn=0.0000 vl=0.000 db=0.32
G1 X12.74 Y59.88 F6000                  ; move dl=4.44@100(0<33>0) de=0.0000 h=0.70 r=0.00
;00:00:53.846: pe=-2.5003 eb=0.0000 ve=0.0000 vn=0.0000 vl=0.000 db=0.00
G1 Z0.300 F420                          ; hopdn dz=-0.40@7 h=0.3 r=0.00
;00:00:53.903: pe=-2.5003 eb=0.0000 ve=0.0000 vn=0.0000 vl=0.000 db=0.00
;00:00:53.903: adjusting restore de=2.5000@30 for ve=0.6077 db=0.5000 l=0.3x0.5x1.0 for pe=1.8646 eb=0.0245
G1 E4.3895 F1800                        ; restore de=4.3895@30 r=0.97
;00:00:54.049: pe=1.8659 eb=0.0232 ve=30.0000 vn=0.6776 vl=0.000 db=0.49
G1 X10.99 Y59.88 E0.1091 F600           ; draw dl=1.75@10(0<10>10) l=0.30x0.50x1.00 r=1.01
;00:00:54.234: pe=1.8646 eb=0.0242 ve=0.6236 vn=0.6205 vl=10.000 db=0.50
G1 X10.85 Y58.14 E0.1089                ; draw dl=1.75@10(10<10>5) l=0.30x0.50x1.00 r=1.01
;00:00:54.411: pe=1.8637 eb=0.0256 ve=0.3034 vn=0.5488 vl=4.866 db=0.51
G1 X11.13 Y58.45 E0.0261                ; draw dl=0.42@10(5<10>10) l=0.30x0.50x1.00 r=0.97
;00:00:54.456: pe=1.8645 eb=0.0244 ve=0.6236 vn=0.6108 vl=10.000 db=0.50
G1 X11.30 Y58.57 E0.0130                ; draw dl=0.21@10(10<10>10) l=0.30x0.50x1.00 r=0.99
;00:00:54.477: pe=1.8647 eb=0.0243 ve=0.6236 vn=0.6182 vl=10.000 db=0.50
G1 X11.49 Y58.64 E0.0126                ; draw dl=0.20@10(10<10>10) l=0.30x0.50x1.00 r=0.99
;00:00:54.497: pe=1.8648 eb=0.0243 ve=0.6236 vn=0.6200 vl=10.000 db=0.50
G1 X11.68 Y58.67 E0.0120                ; draw dl=0.19@10(10<10>10) l=0.30x0.50x1.00 r=0.99
;00:00:54.516: pe=1.8649 eb=0.0242 ve=0.6236 vn=0.6204 vl=10.000 db=0.50
G1 X11.88 Y58.68 E0.0125                ; draw dl=0.20@10(10<10>10) l=0.30x0.50x1.00 r=1.00
;00:00:54.536: pe=1.8649 eb=0.0242 ve=0.6236 vn=0.6206 vl=10.000 db=0.50
G1 X12.29 Y58.59 E0.0262                ; draw dl=0.42@10(10<10>10) l=0.30x0.50x1.00 r=1.00
;00:00:54.578: pe=1.8651 eb=0.0243 ve=0.6236 vn=0.6207 vl=10.000 db=0.50
G1 X12.61 Y58.37 E0.0242                ; draw dl=0.39@10(10<10>10) l=0.30x0.50x1.00 r=1.00
;00:00:54.617: pe=1.8652 eb=0.0243 ve=0.6236 vn=0.6207 vl=10.000 db=0.50
G1 X12.82 Y58.03 E0.0249                ; draw dl=0.40@10(10<10>10) l=0.30x0.50x1.00 r=1.00
;00:00:54.657: pe=1.8653 eb=0.0243 ve=0.6236 vn=0.6207 vl=10.000 db=0.50
G1 X12.90 Y57.61 E0.0267                ; draw dl=0.43@10(10<10>10) l=0.30x0.50x1.00 r=1.00
;00:00:54.700: pe=1.8654 eb=0.0243 ve=0.6236 vn=0.6208 vl=10.000 db=0.50
G1 X12.83 Y57.14 E0.0296                ; draw dl=0.48@10(10<10>10) l=0.30x0.50x1.00 r=1.00
;00:00:54.747: pe=1.8656 eb=0.0243 ve=0.6236 vn=0.6208 vl=10.000 db=0.50
G1 X12.62 Y56.77 E0.0265                ; draw dl=0.43@10(10<10>10) l=0.30x0.50x1.00 r=1.00
;00:00:54.790: pe=1.8657 eb=0.0243 ve=0.6236 vn=0.6209 vl=10.000 db=0.50
G1 X12.27 Y56.51 E0.0272                ; draw dl=0.44@10(10<10>10) l=0.30x0.50x1.00 r=1.00
;00:00:54.833: pe=1.8658 eb=0.0243 ve=0.6236 vn=0.6209 vl=10.000 db=0.50
G1 X11.77 Y56.42 E0.0317                ; draw dl=0.51@10(10<10>10) l=0.30x0.50x1.00 r=1.00
;00:00:54.884: pe=1.8659 eb=0.0243 ve=0.6236 vn=0.6209 vl=10.000 db=0.50
G1 X11.40 Y56.48 E0.0234                ; draw dl=0.37@10(10<10>10) l=0.30x0.50x1.00 r=1.00
;00:00:54.922: pe=1.8660 eb=0.0243 ve=0.6236 vn=0.6210 vl=10.000 db=0.50
G1 X11.09 Y56.64 E0.0218                ; draw dl=0.35@10(10<10>10) l=0.30x0.50x1.00 r=1.00
;00:00:54.956: pe=1.8661 eb=0.0243 ve=0.6236 vn=0.6210 vl=10.000 db=0.50
G1 X10.87 Y56.91 E0.0217                ; draw dl=0.35@10(10<10>10) l=0.30x0.50x1.00 r=1.00
;00:00:54.991: pe=1.8662 eb=0.0243 ve=0.6236 vn=0.6210 vl=10.000 db=0.50
G1 X10.75 Y57.27 E0.0237                ; draw dl=0.38@10(10<10>0) l=0.30x0.50x1.00 r=1.19
;00:00:55.039: pe=1.8617 eb=0.0288 ve=0.0000 vn=0.3905 vl=0.000 db=0.54
G1 E-4.3617 F2400                       ; retract de=-4.3617@40 r=1.10
;00:00:55.148: pe=-2.5008 eb=0.0297 ve=-40.0000 vn=0.0000 vl=0.000 db=0.55
G1 Z0.700 F420                          ; hopup dz=0.40@7 h=0.7 r=0.72
;00:00:55.205: pe=-2.5008 eb=0.0297 ve=0.0000 vn=0.0000 vl=0.000 db=0.36
;structure:brim
G1 X-45.00 Y60.00 F6000                 ; move dl=55.82@100(0<100>0) de=0.0000 h=0.70 r=0.00
;00:00:55.964: pe=-2.5008 eb=0.0000 ve=0.0000 vn=0.0000 vl=0.000 db=0.00
G1 Z0.300 F420                          ; hopdn dz=-0.40@7 h=0.3 r=0.00
;00:00:56.021: pe=-2.5008 eb=0.0000 ve=0.0000 vn=0.0000 vl=0.000 db=0.00
;00:00:56.021: adjusting restore de=2.5000@30 for ve=0.6231 db=0.5000 l=0.3x0.5x1.0 for pe=1.8739 eb=0.0245
G1 E4.3992 F1800                        ; restore de=4.3992@30 r=0.98
;00:00:56.167: pe=1.8750 eb=0.0234 ve=30.0000 vn=0.6810 vl=0.000 db=0.49
G1 X-45.00 Y-61.00 E7.5459 F600         ; draw dl=121.00@10(0<10>10) l=0.30x0.50x1.00 r=1.00
;00:01:08.277: pe=1.8742 eb=0.0245 ve=0.6236 vn=0.6236 vl=10.000 db=0.50
G1 X-45.50 Y-61.00 E0.0312              ; draw dl=0.50@10(10<10>10) l=0.30x0.50x1.00 r=1.00
;00:01:08.327: pe=1.8742 eb=0.0245 ve=0.6236 vn=0.6236 vl=10.000 db=0.50
G1 X-45.50 Y60.00 E7.5459               ; draw dl=121.00@10(10<10>0) l=0.30x0.50x1.00 r=1.00
;00:01:20.437: pe=1.8695 eb=0.0291 ve=0.0000 vn=0.3928 vl=0.000 db=0.54
G1 E-4.3695 F2400                       ; retract de=-4.3695@40 r=1.10
;00:01:20.547: pe=-2.5008 eb=0.0299 ve=-40.0000 vn=0.0000 vl=0.000 db=0.55
G1 Z0.700 F420                          ; hopup dz=0.40@7 h=0.7 r=0.72
;00:01:20.604: pe=-2.5008 eb=0.0299 ve=0.0000 vn=0.0000 vl=0.000 db=0.36
G1 X45.00 Y60.00 F6000                  ; move dl=90.50@100(0<100>0) de=0.0000 h=0.70 r=0.00
;00:01:21.709: pe=-2.5008 eb=0.0000 ve=0.0000 vn=0.0000 vl=0.000 db=0.00
G1 Z0.300 F420                          ; hopdn dz=-0.40@7 h=0.3 r=0.00
;00:01:21.766: pe=-2.5008 eb=0.0000 ve=0.0000 vn=0.0000 vl=0.000 db=0.00
;00:01:21.766: adjusting restore de=2.5000@30 for ve=0.6231 db=0.5000 l=0.3x0.5x1.0 for pe=1.8739 eb=0.0245
G1 E4.3992 F1800                        ; restore de=4.3992@30 r=0.98
;00:01:21.912: pe=1.8750 eb=0.0234 ve=30.0000 vn=0.6810 vl=0.000 db=0.49
G1 X45.00 Y-61.00 E7.5459 F600          ; draw dl=121.00@10(0<10>10) l=0.30x0.50x1.00 r=1.00
;00:01:34.022: pe=1.8742 eb=0.0245 ve=0.6236 vn=0.6236 vl=10.000 db=0.50
G1 X45.50 Y-61.00 E0.0312               ; draw dl=0.50@10(10<10>10) l=0.30x0.50x1.00 r=1.00
;00:01:34.072: pe=1.8742 eb=0.0245 ve=0.6236 vn=0.6236 vl=10.000 db=0.50
G1 X45.50 Y60.00 E7.5459                ; draw dl=121.00@10(10<10>0) l=0.30x0.50x1.00 r=1.00
;00:01:46.182: pe=1.8695 eb=0.0291 ve=0.0000 vn=0.3928 vl=0.000 db=0.54
G1 E-4.3695 F2400                       ; retract de=-4.3695@40 r=1.10
;00:01:46.292: pe=-2.5008 eb=0.0299 ve=-40.0000 vn=0.0000 vl=0.000 db=0.55
G1 Z0.700 F420                          ; hopup dz=0.40@7 h=0.7 r=0.72
;00:01:46.349: pe=-2.5008 eb=0.0299 ve=0.0000 vn=0.0000 vl=0.000 db=0.36
;00:01:46.349: Test Backlash ve=1.0 h=0.3 w=0.3-0.8 re=4.0
;structure:shell-outer
G1 X-45.00 Y55.00 F6000                 ; move dl=90.64@100(0<100>0) de=0.0000 h=0.70 r=0.00
;00:01:47.455: pe=-2.5008 eb=0.0000 ve=0.0000 vn=0.0000 vl=0.000 db=0.00
G1 Z0.300 F420                          ; hopdn dz=-0.40@7 h=0.3 r=0.00
;00:01:47.512: pe=-2.5008 eb=0.0000 ve=0.0000 vn=0.0000 vl=0.000 db=0.00
;00:01:47.512: adjusting restore de=2.5000@30 for ve=0.6222 db=0.5000 l=0.3x0.5x1.0 for pe=1.8733 eb=0.0245
G1 E4.3987 F1800                        ; restore de=4.3987@30 r=0.98
;00:01:47.659: pe=1.8744 eb=0.0234 ve=30.0000 vn=0.6808 vl=0.000 db=0.49
G1 X45.00 Y55.00 E5.6126 F600           ; draw dl=90.00@10(0<10>0) l=0.30x0.50x1.00 r=1.00
;00:01:56.679: pe=1.8694 eb=0.0291 ve=0.0000 vn=0.3928 vl=0.000 db=0.54
G1 E-4.3694 F2400                       ; retract de=-4.3694@40 r=1.10
;00:01:56.788: pe=-2.5008 eb=0.0299 ve=-40.0000 vn=0.0000 vl=0.000 db=0.55
G1 Z0.700 F420                          ; hopup dz=0.40@7 h=0.7 r=0.72
;00:01:56.845: pe=-2.5008 eb=0.0299 ve=0.0000 vn=0.0000 vl=0.000 db=0.36
G1 X-42.00 Y55.00 F6000                 ; move dl=87.00@100(0<100>0) de=0.0000 h=0.70 r=0.00
;00:01:57.915: pe=-2.5008 eb=0.0000 ve=0.0000 vn=0.0000 vl=0.000 db=0.00
G1 X-40.00 Y55.00                       ; move dl=2.00@100(0<22>0) de=0.0000 h=0.70 r=0.00
;00:01:58.050: pe=-2.5008 eb=0.0000 ve=0.0000 vn=0.0000 vl=0.000 db=0.00
G1 Z0.300 F420                          ; hopdn dz=-0.40@7 h=0.3 r=0.00
;00:01:58.107: pe=-2.5008 eb=0.0000 ve=0.0000 vn=0.0000 vl=0.000 db=0.00
;00:01:58.107: adjusting restore de=2.5000@30 for ve=0.5847 db=0.5000 l=0.3x0.5x1.0 for pe=1.8508 eb=0.0245
G1 E4.3761 F1800                        ; restore de=4.3761@30 r=0.97
;00:01:58.253: pe=1.8524 eb=0.0229 ve=30.0000 vn=0.6722 vl=0.000 db=0.48
G1 X-40.00 Y52.00 E0.1871 F600          ; draw dl=3.00@10(0<10>0) l=0.30x0.50x1.00 r=1.02
;00:01:58.573: pe=1.8482 eb=0.0284 ve=0.0000 vn=0.3866 vl=0.000 db=0.54
G1 E-4.3482 F2400                       ; retract de=-4.3482@40 r=1.09
;00:01:58.681: pe=-2.5008 eb=0.0292 ve=-40.0000 vn=0.0000 vl=0.000 db=0.55
G1 Z0.700 F420                          ; hopup dz=0.40@7 h=0.7 r=0.72
;00:01:58.738: pe=-2.5008 eb=0.0292 ve=0.0000 vn=0.0000 vl=0.000 db=0.36
G1 X-38.00 Y55.00 F6000                 ; move dl=3.61@100(0<30>0) de=0.0000 h=0.70 r=0.00
;00:01:58.919: pe=-2.5008 eb=0.0000 ve=0.0000 vn=0.0000 vl=0.000 db=0.00
G1 Z0.300 F420                          ; hopdn dz=-0.40@7 h=0.3 r=0.00
;00:01:58.976: pe=-2.5008 eb=0.0000 ve=0.0000 vn=0.0000 vl=0.000 db=0.00
;00:01:58.976: adjusting restore de=2.5000@30 for ve=0.5503 db=0.5000 l=0.3x0.5x1.0 for pe=1.8302 eb=0.0245
G1 E4.3555 F1800                        ; restore de=4.3555@30 r=0.96
;00:01:59.121: pe=1.8323 eb=0.0224 ve=30.0000 vn=0.6648 vl=0.000 db=0.48
G1 X-38.00 Y53.50 E0.0935 F600          ; draw dl=1.50@10(0<10>0) l=0.30x0.50x1.00 r=1.05
;00:01:59.291: pe=1.8280 eb=0.0278 ve=0.0000 vn=0.3808 vl=0.000 db=0.53
G1 E-4.3280 F2400                       ; retract de=-4.3280@40 r=1.08
;00:01:59.399: pe=-2.5008 eb=0.0286 ve=-40.0000 vn=0.0000 vl=0.000 db=0.54
G1 Z0.700 F420                          ; hopup dz=0.40@7 h=0.7 r=0.71
;00:01:59.456: pe=-2.5008 eb=0.0286 ve=0.0000 vn=0.0000 vl=0.000 db=0.35
G1 X-36.00 Y55.00 F6000                 ; move dl=2.50@100(0<25>0) de=0.0000 h=0.70 r=0.00
;00:01:59.606: pe=-2.5008 eb=0.0000 ve=0.0000 vn=0.0000 vl=0.000 db=0.00
G1 Z0.300 F420                          ; hopdn dz=-0.40@7 h=0.3 r=0.00
;00:01:59.663: pe=-2.5008 eb=0.0000 ve=0.0000 vn=0.0000 vl=0.000 db=0.00
;00:01:59.663: adjusting restore de=2.5000@30 for ve=0.5503 db=0.5000 l=0.3x0.5x1.0 for pe=1.8302 eb=0.0245
G1 E4.3554 F1800                        ; restore de=4.3554@30 r=0.96
;00:01:59.809: pe=1.8323 eb=0.0224 ve=30.0000 vn=0.6648 vl=0.000 db=0.48
G1 X-36.00 Y53.50 E0.0935 F600          ; draw dl=1.50@10(0<10>0) l=0.30x0.50x1.00 r=1.05
;00:01:59.979: pe=1.8280 eb=0.0278 ve=0.0000 vn=0.3808 vl=0.000 db=0.53
G1 E-4.3280 F2400                       ; retract de=-4.3280@40 r=1.08
;00:02:00.087: pe=-2.5008 eb=0.0286 ve=-40.0000 vn=0.0000 vl=0.000 db=0.54
G1 Z0.700 F420                          ; hopup dz=0.40@7 h=0.7 r=0.71
;00:02:00.144: pe=-2.5008 eb=0.0286 ve=0.0000 vn=0.0000 vl=0.000 db=0.35
G1 X-34.00 Y55.00 F6000                 ; move dl=2.50@100(0<25>0) de=0.0000 h=0.70 r=0.00
;00:02:00.294: pe=-2.5008 eb=0.0000 ve=0.0000 vn=0.0000 vl=0.000 db=0.00
G1 Z0.300 F420                          ; hopdn dz=-0.40@7 h=0.3 r=0.00
;00:02:00.351: pe=-2.5008 eb=0.0000 ve=0.0000 vn=0.0000 vl=0.000 db=0.00
;00:02:00.351: adjusting restore de=2.5000@30 for ve=0.5503 db=0.5000 l=0.3x0.5x1.0 for pe=1.8302 eb=0.0245
G1 E4.3554 F1800                        ; restore de=4.3554@30 r=0.96
;00:02:00.496: pe=1.8323 eb=0.0224 ve=30.0000 vn=0.6648 vl=0.000 db=0.48
G1 X-34.00 Y53.50 E0.0935 F600          ; draw dl=1.50@10(0<10>0) l=0.30x0.50x1.00 r=1.05
;00:02:00.666: pe=1.8280 eb=0.0278 ve=0.0000 vn=0.3808 vl=0.000 db=0.53
G1 E-4.3280 F2400                       ; retract de=-4.3280@40 r=1.08
;00:02:00.774: pe=-2.5008 eb=0.0286 ve=-40.0000 vn=0.0000 vl=0.000 db=0.54
G1 Z0.700 F420                          ; hopup dz=0.40@7 h=0.7 r=0.71
;00:02:00.832: pe=-2.5008 eb=0.0286 ve=0.0000 vn=0.0000 vl=0.000 db=0.35
G1 X-32.00 Y55.00 F6000                 ; move dl=2.50@100(0<25>0) de=0.0000 h=0.70 r=0.00
;00:02:00.982: pe=-2.5008 eb=0.0000 ve=0.0000 vn=0.0000 vl=0.000 db=0.00
G1 Z0.300 F420                          ; hopdn dz=-0.40@7 h=0.3 r=0.00
;00:02:01.039: pe=-2.5008 eb=0.0000 ve=0.0000 vn=0.0000 vl=0.000 db=0.00
;00:02:01.039: adjusting restore de=2.5000@30 for ve=0.5503 db=0.5000 l=0.3x0.5x1.0 for pe=1.8302 eb=0.0245
G1 E4.3554 F1800                        ; restore de=4.3554@30 r=0.96
;00:02:01.184: pe=1.8323 eb=0.0224 ve=30.0000 vn=0.6648 vl=0.000 db=0.48
G1 X-32.00 Y53.50 E0.0935 F600          ; draw dl=1.50@10(0<10>0) l=0.30x0.50x1.00 r=1.05
;00:02:01.354: pe=1.8280 eb=0.0278 ve=0.0000 vn=0.3808 vl=0.000 db=0.53
G1 E-4.3280 F2400                       ; retract de=-4.3280@40 r=1.08
;00:02:01.462: pe=-2.5008 eb=0.0286 ve=-40.0000 vn=0.0000 vl=0.000 db=0.54
G1 Z0.700 F420                          ; hopup dz=0.40@7 h=0.7 r=0.71
;00:02:01.519: pe=-2.5008 eb=0.0286 ve=0.0000 vn=0.0000 vl=0.000 db=0.35
G1 X-30.00 Y55.00 F6000                 ; move dl=2.50@100(0<25>0) de=0.0000 h=0.70 r=0.00
;00:02:01.669: pe=-2.5008 eb=0.0000 ve=0.0000 vn=0.0000 vl=0.000 db=0.00
G1 Z0.300 F420                          ; hopdn dz=-0.40@7 h=0.3 r=0.00
;00:02:01.726: pe=-2.5008 eb=0.0000 ve=0.0000 vn=0.0000 vl=0.000 db=0.00
;00:02:01.726: adjusting restore de=2.5000@30 for ve=0.5847 db=0.5000 l=0.3x0.5x1.0 for pe=1.8508 eb=0.0245
G1 E4.3761 F1800                        ; restore de=4.3761@30 r=0.97
;00:02:01.872: pe=1.8524 eb=0.0229 ve=30.0000 vn=0.6723 vl=0.000 db=0.48
G1 X-30.00 Y52.00 E0.1871 F600          ; draw dl=3.00@10(0<10>0) l=0.30x0.50x1.00 r=1.02
;00:02:02.192: pe=1.8482 eb=0.0284 ve=0.0000 vn=0.3866 vl=0.000 db=0.54
G1 E-4.3482 F2400                       ; retract de=-4.3482@40 r=1.09
;00:02:02.301: pe=-2.5008 eb=0.0292 ve=-40.0000 vn=0.0000 vl=0.000 db=0.55
G1 Z0.700 F420                          ; hopup dz=0.40@7 h=0.7 r=0.72
;00:02:02.358: pe=-2.5008 eb=0.0292 ve=0.0000 vn=0.0000 vl=0.000 db=0.36
G1 X-28.00 Y55.00 F6000                 ; move dl=3.61@100(0<30>0) de=0.0000 h=0.70 r=0.00
;00:02:02.538: pe=-2.5008 eb=0.0000 ve=0.0000 vn=0.0000 vl=0.000 db=0.00
G1 Z0.300 F420                          ; hopdn dz=-0.40@7 h=0.3 r=0.00
;00:02:02.595: pe=-2.5008 eb=0.0000 ve=0.0000 vn=0.0000 vl=0.000 db=0.00
;00:02:02.595: adjusting restore de=2.5000@30 for ve=0.5503 db=0.5000 l=0.3x0.5x1.0 for pe=1.8302 eb=0.0245
G1 E4.3555 F1800                        ; restore de=4.3555@30 r=0.96
;00:02:02.741: pe=1.8323 eb=0.0224 ve=30.0000 vn=0.6648 vl=0.000 db=0.48
G1 X-28.00 Y53.50 E0.0935 F600          ; draw dl=1.50@10(0<10>0) l=0.30x0.50x1.00 r=1.05
;00:02:02.911: pe=1.8280 eb=0.0278 ve=0.0000 vn=0.3808 vl=0.000 db=0.53
G1 E-4.3280 F2400                       ; retract de=-4.3280@40 r=1.08
;00:02:03.019: pe=-2.5008 eb=0.0286 ve=-40.0000 vn=0.0000 vl=0.000 db=0.54
G1 Z0.700 F420                          ; hopup dz=0.40@7 h=0.7 r=0.71
;00:02:03.076: pe=-2.5008 eb=0.0286 ve=0.0000 vn=0.0000 vl=0.000 db=0.35
G1 X-26.00 Y55.00 F6000                 ; move dl=2.50@100(0<25>0) de=0.0000 h=0.70 r=0.00
;00:02:03.226: pe=-2.5008 eb=0.0000 ve=0.0000 vn=0.0000 vl=0.000 db=0.00
G1 Z0.300 F420                          ; hopdn dz=-0.40@7 h=0.3 r=0.00
;00:02:03.283: pe=-2.5008 eb=0.0000 ve=0.0000 vn=0.0000 vl=0.000 db=0.00
;00:02:03.283: adjusting restore de=2.5000@30 for ve=0.5503 db=0.5000 l=0.3x0.5x1.0 for pe=1.8302 eb=0.0245
G1 E4.3554 F1800                        ; restore de=4.3554@30 r=0.96
;00:02:03.428: pe=1.8323 eb=0.0224 ve=30.0000 vn=0.6648 vl=0.000 db=0.48
G1 X-26.00 Y53.50 E0.0935 F600          ; draw dl=1.50@10(0<10>0) l=0.30x0.50x1.00 r=1.05
;00:02:03.598: pe=1.8280 eb=0.0278 ve=0.0000 vn=0.3808 vl=0.000 db=0.53
G1 E-4.3280 F2400                       ; retract de=-4.3280@40 r=1.08
;00:02:03.706: pe=-2.5008 eb=0.0286 ve=-40.0000 vn=0.0000 vl=0.000 db=0.54
G1 Z0.700 F420                          ; hopup dz=0.40@7 h=0.7 r=0.71
;00:02:03.764: pe=-2.5008 eb=0.0286 ve=0.0000 vn=0.0000 vl=0.000 db=0.35
G1 X-24.00 Y55.00 F6000                 ; move dl=2.50@100(0<25>0) de=0.0000 h=0.70 r=0.00
;00:02:03.914: pe=-2.5008 eb=0.0000 ve=0.0000 vn=0.0000 vl=0.000 db=0.00
G1 Z0.300 F420                          ; hopdn dz=-0.40@7 h=0.3 r=0.00
;00:02:03.971: pe=-2.5008 eb=0.0000 ve=0.0000 vn=0.0000 vl=0.000 db=0.00
;00:02:03.971: adjusting restore de=2.5000@30 for ve=0.5503 db=0.5000 l=0.3x0.5x1.0 for pe=1.8302 eb=0.0245
G1 E4.3554 F1800                        ; restore de=4.3554@30 r=0.96
;00:02:04.116: pe=1.8323 eb=0.0224 ve=30.0000 vn=0.6648 vl=0.000 db=0.48
G1 X-24.00 Y53.50 E0.0935 F600          ; draw dl=1.50@10(0<10>0) l=0.30x0.50x1.00 r=1.05
;00:02:04.286: pe=1.8280 eb=0.0278 ve=0.0000 vn=0.3808 vl=0.000 db=0.53
G1 E-4.3280 F2400                       ; retract de=-4.3280@40 r=1.08
;00:02:04.394: pe=-2.5008 eb=0.0286 ve=-40.0000 vn=0.0000 vl=0.000 db=0.54
G1 Z0.700 F420                          ; hopup dz=0.40@7 h=0.7 r=0.71
;00:02:04.451: pe=-2.5008 eb=0.0286 ve=0.0000 vn=0.0000 vl=0.000 db=0.35
G1 X-22.00 Y55.00 F6000                 ; move dl=2.50@100(0<25>0) de=0.0000 h=0.70 r=0.00
;00:02:04.601: pe=-2.5008 eb=0.0000 ve=0.0000 vn=0.0000 vl=0.000 db=0.00
G1 Z0.300 F420                          ; hopdn dz=-0.40@7 h=0.3 r=0.00
;00:02:04.658: pe=-2.5008 eb=0.0000 ve=0.0000 vn=0.0000 vl=0.000 db=0.00
;00:02:04.658: adjusting restore de=2.5000@30 for ve=0.5503 db=0.5000 l=0.3x0.5x1.0 for pe=1.8302 eb=0.0245
G1 E4.3554 F1800                        ; restore de=4.3554@30 r=0.96
;00:02:04.804: pe=1.8323 eb=0.0224 ve=30.0000 vn=0.6648 vl=0.000 db=0.48
G1 X-22.00 Y53.50 E0.0935 F600          ; draw dl=1.50@10(0<10>0) l=0.30x0.50x1.00 r=1.05
;00:02:04.974: pe=1.8280 eb=0.0278 ve=0.0000 vn=0.3808 vl=0.000 db=0.53
G1 E-4.3280 F2400                       ; retract de=-4.3280@40 r=1.08
;00:02:05.082: pe=-2.5008 eb=0.0286 ve=-40.0000 vn=0.0000 vl=0.000 db=0.54
G1 Z0.700 F420                          ; hopup dz=0.40@7 h=0.7 r=0.71
;00:02:05.139: pe=-2.5008 eb=0.0286 ve=0.0000 vn=0.0000 vl=0.000 db=0.35
G1 X-20.00 Y55.00 F6000                 ; move dl=2.50@100(0<25>0) de=0.0000 h=0.70 r=0.00
;00:02:05.289: pe=-2.5008 eb=0.0000 ve=0.0000 vn=0.0000 vl=0.000 db=0.00
G1 Z0.300 F420                          ; hopdn dz=-0.40@7 h=0.3 r=0.00
;00:02:05.346: pe=-2.5008 eb=0.0000 ve=0.0000 vn=0.0000 vl=0.000 db=0.00
;00:02:05.346: adjusting restore de=2.5000@30 for ve=0.5847 db=0.5000 l=0.3x0.5x1.0 for pe=1.8508 eb=0.0245
G1 E4.3761 F1800                        ; restore de=4.3761@30 r=0.97
;00:02:05.492: pe=1.8524 eb=0.0229 ve=30.0000 vn=0.6723 vl=0.000 db=0.48
G1 X-20.00 Y52.00 E0.1871 F600          ; draw dl=3.00@10(0<10>0) l=0.30x0.50x1.00 r=1.02
;00:02:05.812: pe=1.8482 eb=0.0284 ve=0.0000 vn=0.3866 vl=0.000 db=0.54
G1 E-4.3482 F2400                       ; retract de=-4.3482@40 r=1.09
;00:02:05.921: pe=-2.5008 eb=0.0292 ve=-40.0000 vn=0.0000 vl=0.000 db=0.55
G1 Z0.700 F420                          ; hopup dz=0.40@7 h=0.7 r=0.72
;00:02:05.978: pe=-2.5008 eb=0.0292 ve=0.0000 vn=0.0000 vl=0.000 db=0.36
G1 X-18.00 Y55.00 F6000                 ; move dl=3.61@100(0<30>0) de=0.0000 h=0.70 r=0.00
;00:02:06.158: pe=-2.5008 eb=0.0000 ve=0.0000 vn=0.0000 vl=0.000 db=0.00
G1 Z0.300 F420                          ; hopdn dz=-0.40@7 h=0.3 r=0.00
;00:02:06.215: pe=-2.5008 eb=0.0000 ve=0.0000 vn=0.0000 vl=0.000 db=0.00
;00:02:06.215: adjusting restore de=2.5000@30 for ve=0.5503 db=0.5000 l=0.3x0.5x1.0 for pe=1.8302 eb=0.0245
G1 E4.3555 F1800                        ; restore de=4.3555@30 r=0.96
;00:02:06.360: pe=1.8323 eb=0.0224 ve=30.0000 vn=0.6648 vl=0.000 db=0.48
G1 X-18.00 Y53.50 E0.0935 F600          ; draw dl=1.50@10(0<10>0) l=0.30x0.50x1.00 r=1.05
;00:02:06.530: pe=1.8280 eb=0.0278 ve=0.0000 vn=0.3808 vl=0.000 db=0.53
G1 E-4.3280 F2400                       ; retract de=-4.3280@40 r=1.08
;00:02:06.638: pe=-2.5008 eb=0.0286 ve=-40.0000 vn=0.0000 vl=0.000 db=0.54
G1 Z0.700 F420                          ; hopup dz=0.40@7 h=0.7 r=0.71
;00:02:06.696: pe=-2.5008 eb=0.0286 ve=0.0000 vn=0.0000 vl=0.000 db=0.35
G1 X-16.00 Y55.00 F6000                 ; move dl=2.50@100(0<25>0) de=0.0000 h=0.70 r=0.00
;00:02:06.846: pe=-2.5008 eb=0.0000 ve=0.0000 vn=0.0000 vl=0.000 db=0.00
G1 Z0.300 F420                          ; hopdn dz=-0.40@7 h=0.3 r=0.00
;00:02:06.903: pe=-2.5008 eb=0.0000 ve=0.0000 vn=0.0000 vl=0.000 db=0.00
;00:02:06.903: adjusting restore de=2.5000@30 for ve=0.5503 db=0.5000 l=0.3x0.5x1.0 for pe=1.8302 eb=0.0245
G1 E4.3554 F1800                        ; restore de=4.3554@30 r=0.96
;00:02:07.048: pe=1.8323 eb=0.0224 ve=30.0000 vn=0.6648 vl=0.000 db=0.48
G1 X-16.00 Y53.50 E0.0935 F600          ; draw dl=1.50@10(0<10>0) l=0.30x0.50x1.00 r=1.05
;00:02:07.218: pe=1.8280 eb=0.0278 ve=0.0000 vn=0.3808 vl=0.000 db=0.53
G1 E-4.3280 F2400                       ; retract de=-4.3280@40 r=1.08
;00:02:07.326: pe=-2.5008 eb=0.0286 ve=-40.0000 vn=0.0000 vl=0.000 db=0.54
G1 Z0.700 F420                          ; hopup dz=0.40@7 h=0.7 r=0.71
;00:02:07.383: pe=-2.5008 eb=0.0286 ve=0.0000 vn=0.0000 vl=0.000 db=0.35
G1 X-14.00 Y55.00 F6000                 ; move dl=2.50@100(0<25>0) de=0.0000 h=0.70 r=0.00
;00:02:07.533: pe=-2.5008 eb=0.0000 ve=0.0000 vn=0.0000 vl=0.000 db=0.00
G1 Z0.300 F420                          ; hopdn dz=-0.40@7 h=0.3 r=0.00
;00:02:07.590: pe=-2.5008 eb=0.0000 ve=0.0000 vn=0.0000 vl=0.000 db=0.00
;00:02:07.590: adjusting restore de=2.5000@30 for ve=0.5503 db=0.5000 l=0.3x0.5x1.0 for pe=1.8302 eb=0.0245
G1 E4.3554 F1800                        ; restore de=4.3554@30 r=0.96
;00:02:07.736: pe=1.8323 eb=0.0224 ve=30.0000 vn=0.6648 vl=0.000 db=0.48
G1 X-14.00 Y53.50 E0.0935 F600          ; draw dl=1.50@10(0<10>0) l=0.30x0.50x1.00 r=1.05
;00:02:07.906: pe=1.8280 eb=0.0278 ve=0.0000 vn=0.3808 vl=0.000 db=0.53
G1 E-4.3280 F2400                       ; retract de=-4.3280@40 r=1.08
;00:02:08.014: pe=-2.5008 eb=0.0286 ve=-40.0000 vn=0.0000 vl=0.000 db=0.54
G1 Z0.700 F420                          ; hopup dz=0.40@7 h=0.7 r=0.71
;00:02:08.071: pe=-2.5008 eb=0.0286 ve=0.0000 vn=0.0000 vl=0.000 db=0.35
G1 X-12.00 Y55.00 F6000                 ; move dl=2.50@100(0<25>0) de=0.0000 h=0.70 r=0.00
;00:02:08.221: pe=-2.5008 eb=0.0000 ve=0.0000 vn=0.0000 vl=0.000 db=0.00
G1 Z0.300 F420                          ; hopdn dz=-0.40@7 h=0.3 r=0.00
;00:02:08.278: pe=-2.5008 eb=0.0000 ve=0.0000 vn=0.0000 vl=0.000 db=0.00
;00:02:08.278: adjusting restore de=2.5000@30 for ve=0.5503 db=0.5000 l=0.3x0.5x1.0 for pe=1.8302 eb=0.0245
G1 E4.3554 F1800                        ; restore de=4.3554@30 r=0.96
;00:02:08.423: pe=1.8323 eb=0.0224 ve=30.0000 vn=0.6648 vl=0.000 db=0.48
G1 X-12.00 Y53.50 E0.0935 F600          ; draw dl=1.50@10(0<10>0) l=0.30x0.50x1.00 r=1.05
;00:02:08.593: pe=1.8280 eb=0.0278 ve=0.0000 vn=0.3808 vl=0.000 db=0.53
G1 E-4.3280 F2400                       ; retract de=-4.3280@40 r=1.08
;00:02:08.701: pe=-2.5008 eb=0.0286 ve=-40.0000 vn=0.0000 vl=0.000 db=0.54
G1 Z0.700 F420                          ; hopup dz=0.40@7 h=0.7 r=0.71
;00:02:08.759: pe=-2.5008 eb=0.0286 ve=0.0000 vn=0.0000 vl=0.000 db=0.35
G1 X-10.00 Y55.00 F6000                 ; move dl=2.50@100(0<25>0) de=0.0000 h=0.70 r=0.00
;00:02:08.909: pe=-2.5008 eb=0.0000 ve=0.0000 vn=0.0000 vl=0.000 db=0.00
G1 Z0.300 F420                          ; hopdn dz=-0.40@7 h=0.3 r=0.00
;00:02:08.966: pe=-2.5008 eb=0.0000 ve=0.0000 vn=0.0000 vl=0.000 db=0.00
;00:02:08.966: adjusting restore de=2.5000@30 for ve=0.5847 db=0.5000 l=0.3x0.5x1.0 for pe=1.8508 eb=0.0245
G1 E4.3761 F1800                        ; restore de=4.3761@30 r=0.97
;00:02:09.112: pe=1.8524 eb=0.0229 ve=30.0000 vn=0.6723 vl=0.000 db=0.48
G1 X-10.00 Y52.00 E0.1871 F600          ; draw dl=3.00@10(0<10>0) l=0.30x0.50x1.00 r=1.02
;00:02:09.432: pe=1.8482 eb=0.0284 ve=0.0000 vn=0.3866 vl=0.000 db=0.54
G1 E-4.3482 F2400                       ; retract de=-4.3482@40 r=1.09
;00:02:09.540: pe=-2.5008 eb=0.0292 ve=-40.0000 vn=0.0000 vl=0.000 db=0.55
G1 Z0.700 F420                          ; hopup dz=0.40@7 h=0.7 r=0.72
;00:02:09.597: pe=-2.5008 eb=0.0292 ve=0.0000 vn=0.0000 vl=0.000 db=0.36
G1 X-8.00 Y55.00 F6000                  ; move dl=3.61@100(0<30>0) de=0.0000 h=0.70 r=0.00
;00:02:09.778: pe=-2.5008 eb=0.0000 ve=0.0000 vn=0.0000 vl=0.000 db=0.00
G1 Z0.300 F420                          ; hopdn dz=-0.40@7 h=0.3 r=0.00
;00:02:09.835: pe=-2.5008 eb=0.0000 ve=0.0000 vn=0.0000 vl=0.000 db=0.00
;00:02:09.835: adjusting restore de=2.5000@30 for ve=0.5503 db=0.5000 l=0.3x0.5x1.0 for pe=1.8302 eb=0.0245
G1 E4.3555 F1800                        ; restore de=4.3555@30 r=0.96
;00:02:09.980: pe=1.8323 eb=0.0224 ve=30.0000 vn=0.6648 vl=0.000 db=0.48
G1 X-8.00 Y53.50 E0.0935 F600           ; draw dl=1.50@10(0<10>0) l=0.30x0.50x1.00 r=1.05
;00:02:10.150: pe=1.8280 eb=0.0278 ve=0.0000 vn=0.3808 vl=0.000 db=0.53
G1 E-4.3280 F2400                       ; retract de=-4.3280@40 r=1.08
;00:02:10.258: pe=-2.5008 eb=0.0286 ve=-40.0000 vn=0.0000 vl=0.000 db=0.54
G1 Z0.700 F420                          ; hopup dz=0.40@7 h=0.7 r=0.71
;00:02:10.315: pe=-2.5008 eb=0.0286 ve=0.0000 vn=0.0000 vl=0.000 db=0.35
G1 X-6.00 Y55.00 F6000                  ; move dl=2.50@100(0<25>0) de=0.0000 h=0.70 r=0.00
;00:02:10.465: pe=-2.5008 eb=0.0000 ve=0.0000 vn=0.0000 vl=0.000 db=0.00
G1 Z0.300 F420                          ; hopdn dz=-0.40@7 h=0.3 r=0.00
;00:02:10.522: pe=-2.5008 eb=0.0000 ve=0.0000 vn=0.0000 vl=0.000 db=0.00
;00:02:10.522: adjusting restore de=2.5000@30 for ve=0.5503 db=0.5000 l=0.3x0.5x1.0 for pe=1.8302 eb=0.0245
G1 E4.3554 F1800                        ; restore de=4.3554@30 r=0.96
;00:02:10.668: pe=1.8323 eb=0.0224 ve=30.0000 vn=0.6648 vl=0.000 db=0.48
G1 X-6.00 Y53.50 E0.0935 F600           ; draw dl=1.50@10(0<10>0) l=0.30x0.50x1.00 r=1.05
;00:02:10.838: pe=1.8280 eb=0.0278 ve=0.0000 vn=0.3808 vl=0.000 db=0.53
G1 E-4.3280 F2400                       ; retract de=-4.3280@40 r=1.08
;00:02:10.946: pe=-2.5008 eb=0.0286 ve=-40.0000 vn=0.0000 vl=0.000 db=0.54
G1 Z0.700 F420                          ; hopup dz=0.40@7 h=0.7 r=0.71
;00:02:11.003: pe=-2.5008 eb=0.0286 ve=0.0000 vn=0.0000 vl=0.000 db=0.35
G1 X-4.00 Y55.00 F6000                  ; move dl=2.50@100(0<25>0) de=0.0000 h=0.70 r=0.00
;00:02:11.153: pe=-2.5008 eb=0.0000 ve=0.0000 vn=0.0000 vl=0.000 db=0.00
G1 Z0.300 F420                          ; hopdn dz=-0.40@7 h=0.3 r=0.00
;00:02:11.210: pe=-2.5008 eb=0.0000 ve=0.0000 vn=0.0000 vl=0.000 db=0.00
;00:02:11.210: adjusting restore de=2.5000@30 for ve=0.5503 db=0.5000 l=0.3x0.5x1.0 for pe=1.8302 eb=0.0245
G1 E4.3554 F1800                        ; restore de=4.3554@30 r=0.96
;00:02:11.355: pe=1.8323 eb=0.0224 ve=30.0000 vn=0.6648 vl=0.000 db=0.48
G1 X-4.00 Y53.50 E0.0935 F600           ; draw dl=1.50@10(0<10>0) l=0.30x0.50x1.00 r=1.05
;00:02:11.525: pe=1.8280 eb=0.0278 ve=0.0000 vn=0.3808 vl=0.000 db=0.53
G1 E-4.3280 F2400                       ; retract de=-4.3280@40 r=1.08
;00:02:11.633: pe=-2.5008 eb=0.0286 ve=-40.0000 vn=0.0000 vl=0.000 db=0.54
G1 Z0.700 F420                          ; hopup dz=0.40@7 h=0.7 r=0.71
;00:02:11.691: pe=-2.5008 eb=0.0286 ve=0.0000 vn=0.0000 vl=0.000 db=0.35
G1 X-2.00 Y55.00 F6000                  ; move dl=2.50@100(0<25>0) de=0.0000 h=0.70 r=0.00
;00:02:11.841: pe=-2.5008 eb=0.0000 ve=0.0000 vn=0.0000 vl=0.000 db=0.00
G1 Z0.300 F420                          ; hopdn dz=-0.40@7 h=0.3 r=0.00
;00:02:11.898: pe=-2.5008 eb=0.0000 ve=0.0000 vn=0.0000 vl=0.000 db=0.00
;00:02:11.898: adjusting restore de=2.5000@30 for ve=0.5503 db=0.5000 l=0.3x0.5x1.0 for pe=1.8302 eb=0.0245
G1 E4.3554 F1800                        ; restore de=4.3554@30 r=0.96
;00:02:12.043: pe=1.8323 eb=0.0224 ve=30.0000 vn=0.6648 vl=0.000 db=0.48
G1 X-2.00 Y53.50 E0.0935 F600           ; draw dl=1.50@10(0<10>0) l=0.30x0.50x1.00 r=1.05
;00:02:12.213: pe=1.8280 eb=0.0278 ve=0.0000 vn=0.3808 vl=0.000 db=0.53
G1 E-4.3280 F2400                       ; retract de=-4.3280@40 r=1.08
;00:02:12.321: pe=-2.5008 eb=0.0286 ve=-40.0000 vn=0.0000 vl=0.000 db=0.54
G1 Z0.700 F420                          ; hopup dz=0.40@7 h=0.7 r=0.71
;00:02:12.378: pe=-2.5008 eb=0.0286 ve=0.0000 vn=0.0000 vl=0.000 db=0.35
G1 X0.00 Y55.00 F6000                   ; move dl=2.50@100(0<25>0) de=0.0000 h=0.70 r=0.00
;00:02:12.528: pe=-2.5008 eb=0.0000 ve=0.0000 vn=0.0000 vl=0.000 db=0.00
G1 Z0.300 F420                          ; hopdn dz=-0.40@7 h=0.3 r=0.00
;00:02:12.585: pe=-2.5008 eb=0.0000 ve=0.0000 vn=0.0000 vl=0.000 db=0.00
;00:02:12.585: adjusting restore de=2.5000@30 for ve=0.5847 db=0.5000 l=0.3x0.5x1.0 for pe=1.8508 eb=0.0245
G1 E4.3761 F1800                        ; restore de=4.3761@30 r=0.97
;00:02:12.731: pe=1.8524 eb=0.0229 ve=30.0000 vn=0.6723 vl=0.000 db=0.48
G1 X0.00 Y52.00 E0.1871 F600            ; draw dl=3.00@10(0<10>0) l=0.30x0.50x1.00 r=1.02
;00:02:13.051: pe=1.8482 eb=0.0284 ve=0.0000 vn=0.3866 vl=0.000 db=0.54
G1 E-4.3482 F2400                       ; retract de=-4.3482@40 r=1.09
;00:02:13.160: pe=-2.5008 eb=0.0292 ve=-40.0000 vn=0.0000 vl=0.000 db=0.55
G1 Z0.700 F420                          ; hopup dz=0.40@7 h=0.7 r=0.72
;00:02:13.217: pe=-2.5008 eb=0.0292 ve=0.0000 vn=0.0000 vl=0.000 db=0.36
G1 X2.00 Y55.00 F6000                   ; move dl=3.61@100(0<30>0) de=0.0000 h=0.70 r=0.00
;00:02:13.397: pe=-2.5008 eb=0.0000 ve=0.0000 vn=0.0000 vl=0.000 db=0.00
G1 Z0.300 F420                          ; hopdn dz=-0.40@7 h=0.3 r=0.00
;00:02:13.454: pe=-2.5008 eb=0.0000 ve=0.0000 vn=0.0000 vl=0.000 db=0.00
;00:02:13.454: adjusting restore de=2.5000@30 for ve=0.5503 db=0.5000 l=0.3x0.5x1.0 for pe=1.8302 eb=0.0245
G1 E4.3555 F1800                        ; restore de=4.3555@30 r=0.96
;00:02:13.600: pe=1.8323 eb=0.0224 ve=30.0000 vn=0.6648 vl=0.000 db=0.48
G1 X2.00 Y53.50 E0.0935 F600            ; draw dl=1.50@10(0<10>0) l=0.30x0.50x1.00 r=1.05
;00:02:13.770: pe=1.8280 eb=0.0278 ve=0.0000 vn=0.3808 vl=0.000 db=0.53
G1 E-4.3280 F2400                       ; retract de=-4.3280@40 r=1.08
;00:02:13.878: pe=-2.5008 eb=0.0286 ve=-40.0000 vn=0.0000 vl=0.000 db=0.54
G1 Z0.700 F420                          ; hopup dz=0.40@7 h=0.7 r=0.71
;00:02:13.935: pe=-2.5008 eb=0.0286 ve=0.0000 vn=0.0000 vl=0.000 db=0.35
G1 X4.00 Y55.00 F6000                   ; move dl=2.50@100(0<25>0) de=0.0000 h=0.70 r=0.00
;00:02:14.085: pe=-2.5008 eb=0.0000 ve=0.0000 vn=0.0000 vl=0.000 db=0.00
G1 Z0.300 F420                          ; hopdn dz=-0.40@7 h=0.3 r=0.00
;00:02:14.142: pe=-2.5008 eb=0.0000 ve=0.0000 vn=0.0000 vl=0.000 db=0.00
;00:02:14.142: adjusting restore de=2.5000@30 for ve=0.5503 db=0.5000 l=0.3x0.5x1.0 for pe=1.8302 eb=0.0245
G1 E4.3554 F1800                        ; restore de=4.3554@30 r=0.96
;00:02:14.287: pe=1.8323 eb=0.0224 ve=30.0000 vn=0.6648 vl=0.000 db=0.48
G1 X4.00 Y53.50 E0.0935 F600            ; draw dl=1.50@10(0<10>0) l=0.30x0.50x1.00 r=1.05
;00:02:14.457: pe=1.8280 eb=0.0278 ve=0.0000 vn=0.3808 vl=0.000 db=0.53
G1 E-4.3280 F2400                       ; retract de=-4.3280@40 r=1.08
;00:02:14.565: pe=-2.5008 eb=0.0286 ve=-40.0000 vn=0.0000 vl=0.000 db=0.54
G1 Z0.700 F420                          ; hopup dz=0.40@7 h=0.7 r=0.71
;00:02:14.623: pe=-2.5008 eb=0.0286 ve=0.0000 vn=0.0000 vl=0.000 db=0.35
G1 X6.00 Y55.00 F6000                   ; move dl=2.50@100(0<25>0) de=0.0000 h=0.70 r=0.00
;00:02:14.773: pe=-2.5008 eb=0.0000 ve=0.0000 vn=0.0000 vl=0.000 db=0.00
G1 Z0.300 F420                          ; hopdn dz=-0.40@7 h=0.3 r=0.00
;00:02:14.830: pe=-2.5008 eb=0.0000 ve=0.0000 vn=0.0000 vl=0.000 db=0.00
;00:02:14.830: adjusting restore de=2.5000@30 for ve=0.5503 db=0.5000 l=0.3x0.5x1.0 for pe=1.8302 eb=0.0245
G1 E4.3554 F1800                        ; restore de=4.3554@30 r=0.96
;00:02:14.975: pe=1.8323 eb=0.0224 ve=30.0000 vn=0.6648 vl=0.000 db=0.48
G1 X6.00 Y53.50 E0.0935 F600            ; draw dl=1.50@10(0<10>0) l=0.30x0.50x1.00 r=1.05
;00:02:15.145: pe=1.8280 eb=0.0278 ve=0.0000 vn=0.3808 vl=0.000 db=0.53
G1 E-4.3280 F2400                       ; retract de=-4.3280@40 r=1.08
;00:02:15.253: pe=-2.5008 eb=0.0286 ve=-40.0000 vn=0.0000 vl=0.000 db=0.54
G1 Z0.700 F420                          ; hopup dz=0.40@7 h=0.7 r=0.71
;00:02:15.310: pe=-2.5008 eb=0.0286 ve=0.0000 vn=0.0000 vl=0.000 db=0.35
G1 X8.00 Y55.00 F6000                   ; move dl=2.50@100(0<25>0) de=0.0000 h=0.70 r=0.00
;00:02:15.460: pe=-2.5008 eb=0.0000 ve=0.0000 vn=0.0000 vl=0.000 db=0.00
G1 Z0.300 F420                          ; hopdn dz=-0.40@7 h=0.3 r=0.00
;00:02:15.517: pe=-2.5008 eb=0.0000 ve=0.0000 vn=0.0000 vl=0.000 db=0.00
;00:02:15.517: adjusting restore de=2.5000@30 for ve=0.5503 db=0.5000 l=0.3x0.5x1.0 for pe=1.8302 eb=0.0245
G1 E4.3554 F1800                        ; restore de=4.3554@30 r=0.96
;00:02:15.663: pe=1.8323 eb=0.0224 ve=30.0000 vn=0.6648 vl=0.000 db=0.48
G1 X8.00 Y53.50 E0.0935 F600            ; draw dl=1.50@10(0<10>0) l=0.30x0.50x1.00 r=1.05
;00:02:15.833: pe=1.8280 eb=0.0278 ve=0.0000 vn=0.3808 vl=0.000 db=0.53
G1 E-4.3280 F2400                       ; retract de=-4.3280@40 r=1.08
;00:02:15.941: pe=-2.5008 eb=0.0286 ve=-40.0000 vn=0.0000 vl=0.000 db=0.54
G1 Z0.700 F420                          ; hopup dz=0.40@7 h=0.7 r=0.71
;00:02:15.998: pe=-2.5008 eb=0.0286 ve=0.0000 vn=0.0000 vl=0.000 db=0.35
G1 X10.00 Y55.00 F6000                  ; move dl=2.50@100(0<25>0) de=0.0000 h=0.70 r=0.00
;00:02:16.148: pe=-2.5008 eb=0.0000 ve=0.0000 vn=0.0000 vl=0.000 db=0.00
G1 Z0.300 F420                          ; hopdn dz=-0.40@7 h=0.3 r=0.00
;00:02:16.205: pe=-2.5008 eb=0.0000 ve=0.0000 vn=0.0000 vl=0.000 db=0.00
;00:02:16.205: adjusting restore de=2.5000@30 for ve=0.5847 db=0.5000 l=0.3x0.5x1.0 for pe=1.8508 eb=0.0245
G1 E4.3761 F1800                        ; restore de=4.3761@30 r=0.97
;00:02:16.351: pe=1.8524 eb=0.0229 ve=30.0000 vn=0.6723 vl=0.000 db=0.48
G1 X10.00 Y52.00 E0.1871 F600           ; draw dl=3.00@10(0<10>0) l=0.30x0.50x1.00 r=1.02
;00:02:16.671: pe=1.8482 eb=0.0284 ve=0.0000 vn=0.3866 vl=0.000 db=0.54
G1 E-4.3482 F2400                       ; retract de=-4.3482@40 r=1.09
;00:02:16.780: pe=-2.5008 eb=0.0292 ve=-40.0000 vn=0.0000 vl=0.000 db=0.55
G1 Z0.700 F420                          ; hopup dz=0.40@7 h=0.7 r=0.72
;00:02:16.837: pe=-2.5008 eb=0.0292 ve=0.0000 vn=0.0000 vl=0.000 db=0.36
G1 X12.00 Y55.00 F6000                  ; move dl=3.61@100(0<30>0) de=0.0000 h=0.70 r=0.00
;00:02:17.017: pe=-2.5008 eb=0.0000 ve=0.0000 vn=0.0000 vl=0.000 db=0.00
G1 Z0.300 F420                          ; hopdn dz=-0.40@7 h=0.3 r=0.00
;00:02:17.074: pe=-2.5008 eb=0.0000 ve=0.0000 vn=0.0000 vl=0.000 db=0.00
;00:02:17.074: adjusting restore de=2.5000@30 for ve=0.5503 db=0.5000 l=0.3x0.5x1.0 for pe=1.8302 eb=0.0245
G1 E4.3555 F1800                        ; restore de=4.3555@30 r=0.96
;00:02:17.219: pe=1.8323 eb=0.0224 ve=30.0000 vn=0.6648 vl=0.000 db=0.48
G1 X12.00 Y53.50 E0.0935 F600           ; draw dl=1.50@10(0<10>0) l=0.30x0.50x1.00 r=1.05
;00:02:17.389: pe=1.8280 eb=0.0278 ve=0.0000 vn=0.3808 vl=0.000 db=0.53
G1 E-4.3280 F2400                       ; retract de=-4.3280@40 r=1.08
;00:02:17.497: pe=-2.5008 eb=0.0286 ve=-40.0000 vn=0.0000 vl=0.000 db=0.54
G1 Z0.700 F420                          ; hopup dz=0.40@7 h=0.7 r=0.71
;00:02:17.555: pe=-2.5008 eb=0.0286 ve=0.0000 vn=0.0000 vl=0.000 db=0.35
G1 X14.00 Y55.00 F6000                  ; move dl=2.50@100(0<25>0) de=0.0000 h=0.70 r=0.00
;00:02:17.705: pe=-2.5008 eb=0.0000 ve=0.0000 vn=0.0000 vl=0.000 db=0.00
G1 Z0.300 F420                          ; hopdn dz=-0.40@7 h=0.3 r=0.00
;00:02:17.762: pe=-2.5008 eb=0.0000 ve=0.0000 vn=0.0000 vl=0.000 db=0.00
;00:02:17.762: adjusting restore de=2.5000@30 for ve=0.5503 db=0.5000 l=0.3x0.5x1.0 for pe=1.8302 eb=0.0245
G1 E4.3554 F1800                        ; restore de=4.3554@30 r=0.96
;00:02:17.907: pe=1.8323 eb=0.0224 ve=30.0000 vn=0.6648 vl=0.000 db=0.48
G1 X14.00 Y53.50 E0.0935 F600           ; draw dl=1.50@10(0<10>0) l=0.30x0.50x1.00 r=1.05
;00:02:18.077: pe=1.8280 eb=0.0278 ve=0.0000 vn=0.3808 vl=0.000 db=0.53
G1 E-4.3280 F2400                       ; retract de=-4.3280@40 r=1.08
;00:02:18.185: pe=-2.5008 eb=0.0286 ve=-40.0000 vn=0.0000 vl=0.000 db=0.54
G1 Z0.700 F420                          ; hopup dz=0.40@7 h=0.7 r=0.71
;00:02:18.242: pe=-2.5008 eb=0.0286 ve=0.0000 vn=0.0000 vl=0.000 db=0.35
G1 X16.00 Y55.00 F6000                  ; move dl=2.50@100(0<25>0) de=0.0000 h=0.70 r=0.00
;00:02:18.392: pe=-2.5008 eb=0.0000 ve=0.0000 vn=0.0000 vl=0.000 db=0.00
G1 Z0.300 F420                          ; hopdn dz=-0.40@7 h=0.3 r=0.00
;00:02:18.449: pe=-2.5008 eb=0.0000 ve=0.0000 vn=0.0000 vl=0.000 db=0.00
;00:02:18.449: adjusting restore de=2.5000@30 for ve=0.5503 db=0.5000 l=0.3x0.5x1.0 for pe=1.8302 eb=0.0245
G1 E4.3554 F1800                        ; restore de=4.3554@30 r=0.96
;00:02:18.595: pe=1.8323 eb=0.0224 ve=30.0000 vn=0.6648 vl=0.000 db=0.48
G1 X16.00 Y53.50 E0.0935 F600           ; draw dl=1.50@10(0<10>0) l=0.30x0.50x1.00 r=1.05
;00:02:18.765: pe=1.8280 eb=0.0278 ve=0.0000 vn=0.3808 vl=0.000 db=0.53
G1 E-4.3280 F2400                       ; retract de=-4.3280@40 r=1.08
;00:02:18.873: pe=-2.5008 eb=0.0286 ve=-40.0000 vn=0.0000 vl=0.000 db=0.54
G1 Z0.700 F420                          ; hopup dz=0.40@7 h=0.7 r=0.71
;00:02:18.930: pe=-2.5008 eb=0.0286 ve=0.0000 vn=0.0000 vl=0.000 db=0.35
G1 X18.00 Y55.00 F6000                  ; move dl=2.50@100(0<25>0) de=0.0000 h=0.70 r=0.00
;00:02:19.080: pe=-2.5008 eb=0.0000 ve=0.0000 vn=0.0000 vl=0.000 db=0.00
G1 Z0.300 F420                          ; hopdn dz=-0.40@7 h=0.3 r=0.00
;00:02:19.137: pe=-2.5008 eb=0.0000 ve=0.0000 vn=0.0000 vl=0.000 db=0.00
;00:02:19.137: adjusting restore de=2.5000@30 for ve=0.5503 db=0.5000 l=0.3x0.5x1.0 for pe=1.8302 eb=0.0245
G1 E4.3554 F1800                        ; restore de=4.3554@30 r=0.96
;00:02:19.282: pe=1.8323 eb=0.0224 ve=30.0000 vn=0.6648 vl=0.000 db=0.48
G1 X18.00 Y53.50 E0.0935 F600           ; draw dl=1.50@10(0<10>0) l=0.30x0.50x1.00 r=1.05
;00:02:19.452: pe=1.8280 eb=0.0278 ve=0.0000 vn=0.3808 vl=0.000 db=0.53
G1 E-4.3280 F2400                       ; retract de=-4.3280@40 r=1.08
;00:02:19.560: pe=-2.5008 eb=0.0286 ve=-40.0000 vn=0.0000 vl=0.000 db=0.54
G1 Z0.700 F420                          ; hopup dz=0.40@7 h=0.7 r=0.71
;00:02:19.618: pe=-2.5008 eb=0.0286 ve=0.0000 vn=0.0000 vl=0.000 db=0.35
G1 X20.00 Y55.00 F6000                  ; move dl=2.50@100(0<25>0) de=0.0000 h=0.70 r=0.00
;00:02:19.768: pe=-2.5008 eb=0.0000 ve=0.0000 vn=0.0000 vl=0.000 db=0.00
G1 Z0.300 F420                          ; hopdn dz=-0.40@7 h=0.3 r=0.00
;00:02:19.825: pe=-2.5008 eb=0.0000 ve=0.0000 vn=0.0000 vl=0.000 db=0.00
;00:02:19.825: adjusting restore de=2.5000@30 for ve=0.5847 db=0.5000 l=0.3x0.5x1.0 for pe=1.8508 eb=0.0245
G1 E4.3761 F1800                        ; restore de=4.3761@30 r=0.97
;00:02:19.971: pe=1.8524 eb=0.0229 ve=30.0000 vn=0.6723 vl=0.000 db=0.48
G1 X20.00 Y52.00 E0.1871 F600           ; draw dl=3.00@10(0<10>0) l=0.30x0.50x1.00 r=1.02
;00:02:20.291: pe=1.8482 eb=0.0284 ve=0.0000 vn=0.3866 vl=0.000 db=0.54
G1 E-4.3482 F2400                       ; retract de=-4.3482@40 r=1.09
;00:02:20.399: pe=-2.5008 eb=0.0292 ve=-40.0000 vn=0.0000 vl=0.000 db=0.55
G1 Z0.700 F420                          ; hopup dz=0.40@7 h=0.7 r=0.72
;00:02:20.456: pe=-2.5008 eb=0.0292 ve=0.0000 vn=0.0000 vl=0.000 db=0.36
G1 X22.00 Y55.00 F6000                  ; move dl=3.61@100(0<30>0) de=0.0000 h=0.70 r=0.00
;00:02:20.637: pe=-2.5008 eb=0.0000 ve=0.0000 vn=0.0000 vl=0.000 db=0.00
G1 Z0.300 F420                          ; hopdn dz=-0.40@7 h=0.3 r=0.00
;00:02:20.694: pe=-2.5008 eb=0.0000 ve=0.0000 vn=0.0000 vl=0.000 db=0.00
;00:02:20.694: adjusting restore de=2.5000@30 for ve=0.5503 db=0.5000 l=0.3x0.5x1.0 for pe=1.8302 eb=0.0245
G1 E4.3555 F1800                        ; restore de=4.3555@30 r=0.96
;00:02:20.839: pe=1.8323 eb=0.0224 ve=30.0000 vn=0.6648 vl=0.000 db=0.48
G1 X22.00 Y53.50 E0.0935 F600           ; draw dl=1.50@10(0<10>0) l=0.30x0.50x1.00 r=1.05
;00:02:21.009: pe=1.8280 eb=0.0278 ve=0.0000 vn=0.3808 vl=0.000 db=0.53
G1 E-4.3280 F2400                       ; retract de=-4.3280@40 r=1.08
;00:02:21.117: pe=-2.5008 eb=0.0286 ve=-40.0000 vn=0.0000 vl=0.000 db=0.54
G1 Z0.700 F420                          ; hopup dz=0.40@7 h=0.7 r=0.71
;00:02:21.174: pe=-2.5008 eb=0.0286 ve=0.0000 vn=0.0000 vl=0.000 db=0.35
G1 X24.00 Y55.00 F6000                  ; move dl=2.50@100(0<25>0) de=0.0000 h=0.70 r=0.00
;00:02:21.324: pe=-2.5008 eb=0.0000 ve=0.0000 vn=0.0000 vl=0.000 db=0.00
G1 Z0.300 F420                          ; hopdn dz=-0.40@7 h=0.3 r=0.00
;00:02:21.381: pe=-2.5008 eb=0.0000 ve=0.0000 vn=0.0000 vl=0.000 db=0.00
;00:02:21.381: adjusting restore de=2.5000@30 for ve=0.5503 db=0.5000 l=0.3x0.5x1.0 for pe=1.8302 eb=0.0245
G1 E4.3554 F1800                        ; restore de=4.3554@30 r=0.96
;00:02:21.527: pe=1.8323 eb=0.0224 ve=30.0000 vn=0.6648 vl=0.000 db=0.48
G1 X24.00 Y53.50 E0.0935 F600           ; draw dl=1.50@10(0<10>0) l=0.30x0.50x1.00 r=1.05
;00:02:21.697: pe=1.8280 eb=0.0278 ve=0.0000 vn=0.3808 vl=0.000 db=0.53
G1 E-4.3280 F2400                       ; retract de=-4.3280@40 r=1.08
;00:02:21.805: pe=-2.5008 eb=0.0286 ve=-40.0000 vn=0.0000 vl=0.000 db=0.54
G1 Z0.700 F420                          ; hopup dz=0.40@7 h=0.7 r=0.71
;00:02:21.862: pe=-2.5008 eb=0.0286 ve=0.0000 vn=0.0000 vl=0.000 db=0.35
G1 X26.00 Y55.00 F6000                  ; move dl=2.50@100(0<25>0) de=0.0000 h=0.70 r=0.00
;00:02:22.012: pe=-2.5008 eb=0.0000 ve=0.0000 vn=0.0000 vl=0.000 db=0.00
G1 Z0.300 F420                          ; hopdn dz=-0.40@7 h=0.3 r=0.00
;00:02:22.069: pe=-2.5008 eb=0.0000 ve=0.0000 vn=0.0000 vl=0.000 db=0.00
;00:02:22.069: adjusting restore de=2.5000@30 for ve=0.5503 db=0.5000 l=0.3x0.5x1.0 for pe=1.8302 eb=0.0245
G1 E4.3554 F1800                        ; restore de=4.3554@30 r=0.96
;00:02:22.214: pe=1.8323 eb=0.0224 ve=30.0000 vn=0.6648 vl=0.000 db=0.48
G1 X26.00 Y53.50 E0.0935 F600           ; draw dl=1.50@10(0<10>0) l=0.30x0.50x1.00 r=1.05
;00:02:22.384: pe=1.8280 eb=0.0278 ve=0.0000 vn=0.3808 vl=0.000 db=0.53
G1 E-4.3280 F2400                       ; retract de=-4.3280@40 r=1.08
;00:02:22.492: pe=-2.5008 eb=0.0286 ve=-40.0000 vn=0.0000 vl=0.000 db=0.54
G1 Z0.700 F420                          ; hopup dz=0.40@7 h=0.7 r=0.71
;00:02:22.550: pe=-2.5008 eb=0.0286 ve=0.0000 vn=0.0000 vl=0.000 db=0.35
G1 X28.00 Y55.00 F6000                  ; move dl=2.50@100(0<25>0) de=0.0000 h=0.70 r=0.00
;00:02:22.700: pe=-2.5008 eb=0.0000 ve=0.0000 vn=0.0000 vl=0.000 db=0.00
G1 Z0.300 F420                          ; hopdn dz=-0.40@7 h=0.3 r=0.00
;00:02:22.757: pe=-2.5008 eb=0.0000 ve=0.0000 vn=0.0000 vl=0.000 db=0.00
;00:02:22.757: adjusting restore de=2.5000@30 for ve=0.5503 db=0.5000 l=0.3x0.5x1.0 for pe=1.8302 eb=0.0245
G1 E4.3554 F1800                        ; restore de=4.3554@30 r=0.96
;00:02:22.902: pe=1.8323 eb=0.0224 ve=30.0000 vn=0.6648 vl=0.000 db=0.48
G1 X28.00 Y53.50 E0.0935 F600           ; draw dl=1.50@10(0<10>0) l=0.30x0.50x1.00 r=1.05
;00:02:23.072: pe=1.8280 eb=0.0278 ve=0.0000 vn=0.3808 vl=0.000 db=0.53
G1 E-4.3280 F2400                       ; retract de=-4.3280@40 r=1.08
;00:02:23.180: pe=-2.5008 eb=0.0286 ve=-40.0000 vn=0.0000 vl=0.000 db=0.54
G1 Z0.700 F420                          ; hopup dz=0.40@7 h=0.7 r=0.71
;00:02:23.237: pe=-2.5008 eb=0.0286 ve=0.0000 vn=0.0000 vl=0.000 db=0.35
G1 X30.00 Y55.00 F6000                  ; move dl=2.50@100(0<25>0) de=0.0000 h=0.70 r=0.00
;00:02:23.387: pe=-2.5008 eb=0.0000 ve=0.0000 vn=0.0000 vl=0.000 db=0.00
G1 Z0.300 F420                          ; hopdn dz=-0.40@7 h=0.3 r=0.00
;00:02:23.444: pe=-2.5008 eb=0.0000 ve=0.0000 vn=0.0000 vl=0.000 db=0.00
;00:02:23.444: adjusting restore de=2.5000@30 for ve=0.5847 db=0.5000 l=0.3x0.5x1.0 for pe=1.8508 eb=0.0245
G1 E4.3761 F1800                        ; restore de=4.3761@30 r=0.97
;00:02:23.590: pe=1.8524 eb=0.0229 ve=30.0000 vn=0.6723 vl=0.000 db=0.48
G1 X30.00 Y52.00 E0.1871 F600           ; draw dl=3.00@10(0<10>0) l=0.30x0.50x1.00 r=1.02
;00:02:23.910: pe=1.8482 eb=0.0284 ve=0.0000 vn=0.3866 vl=0.000 db=0.54
G1 E-4.3482 F2400                       ; retract de=-4.3482@40 r=1.09
;00:02:24.019: pe=-2.5008 eb=0.0292 ve=-40.0000 vn=0.0000 vl=0.000 db=0.55
G1 Z0.700 F420                          ; hopup dz=0.40@7 h=0.7 r=0.72
;00:02:24.076: pe=-2.5008 eb=0.0292 ve=0.0000 vn=0.0000 vl=0.000 db=0.36
G1 X32.00 Y55.00 F6000                  ; move dl=3.61@100(0<30>0) de=0.0000 h=0.70 r=0.00
;00:02:24.256: pe=-2.5008 eb=0.0000 ve=0.0000 vn=0.0000 vl=0.000 db=0.00
G1 Z0.300 F420                          ; hopdn dz=-0.40@7 h=0.3 r=0.00
;00:02:24.313: pe=-2.5008 eb=0.0000 ve=0.0000 vn=0.0000 vl=0.000 db=0.00
;00:02:24.313: adjusting restore de=2.5000@30 for ve=0.5503 db=0.5000 l=0.3x0.5x1.0 for pe=1.8302 eb=0.0245
G1 E4.3555 F1800                        ; restore de=4.3555@30 r=0.96
;00:02:24.459: pe=1.8323 eb=0.0224 ve=30.0000 vn=0.6648 vl=0.000 db=0.48
G1 X32.00 Y53.50 E0.0935 F600           ; draw dl=1.50@10(0<10>0) l=0.30x0.50x1.00 r=1.05
;00:02:24.629: pe=1.8280 eb=0.0278 ve=0.0000 vn=0.3808 vl=0.000 db=0.53
G1 E-4.3280 F2400                       ; retract de=-4.3280@40 r=1.08
;00:02:24.737: pe=-2.5008 eb=0.0286 ve=-40.0000 vn=0.0000 vl=0.000 db=0.54
G1 Z0.700 F420                          ; hopup dz=0.40@7 h=0.7 r=0.71
;00:02:24.794: pe=-2.5008 eb=0.0286 ve=0.0000 vn=0.0000 vl=0.000 db=0.35
G1 X34.00 Y55.00 F6000                  ; move dl=2.50@100(0<25>0) de=0.0000 h=0.70 r=0.00
;00:02:24.944: pe=-2.5008 eb=0.0000 ve=0.0000 vn=0.0000 vl=0.000 db=0.00
G1 Z0.300 F420                          ; hopdn dz=-0.40@7 h=0.3 r=0.00
;00:02:25.001: pe=-2.5008 eb=0.0000 ve=0.0000 vn=0.0000 vl=0.000 db=0.00
;00:02:25.001: adjusting restore de=2.5000@30 for ve=0.5503 db=0.5000 l=0.3x0.5x1.0 for pe=1.8302 eb=0.0245
G1 E4.3554 F1800                        ; restore de=4.3554@30 r=0.96
;00:02:25.146: pe=1.8323 eb=0.0224 ve=30.0000 vn=0.6648 vl=0.000 db=0.48
G1 X34.00 Y53.50 E0.0935 F600           ; draw dl=1.50@10(0<10>0) l=0.30x0.50x1.00 r=1.05
;00:02:25.316: pe=1.8280 eb=0.0278 ve=0.0000 vn=0.3808 vl=0.000 db=0.53
G1 E-4.3280 F2400                       ; retract de=-4.3280@40 r=1.08
;00:02:25.424: pe=-2.5008 eb=0.0286 ve=-40.0000 vn=0.0000 vl=0.000 db=0.54
G1 Z0.700 F420                          ; hopup dz=0.40@7 h=0.7 r=0.71
;00:02:25.482: pe=-2.5008 eb=0.0286 ve=0.0000 vn=0.0000 vl=0.000 db=0.35
G1 X36.00 Y55.00 F6000                  ; move dl=2.50@100(0<25>0) de=0.0000 h=0.70 r=0.00
;00:02:25.632: pe=-2.5008 eb=0.0000 ve=0.0000 vn=0.0000 vl=0.000 db=0.00
G1 Z0.300 F420                          ; hopdn dz=-0.40@7 h=0.3 r=0.00
;00:02:25.689: pe=-2.5008 eb=0.0000 ve=0.0000 vn=0.0000 vl=0.000 db=0.00
;00:02:25.689: adjusting restore de=2.5000@30 for ve=0.5503 db=0.5000 l=0.3x0.5x1.0 for pe=1.8302 eb=0.0245
G1 E4.3554 F1800                        ; restore de=4.3554@30 r=0.96
;00:02:25.834: pe=1.8323 eb=0.0224 ve=30.0000 vn=0.6648 vl=0.000 db=0.48
G1 X36.00 Y53.50 E0.0935 F600           ; draw dl=1.50@10(0<10>0) l=0.30x0.50x1.00 r=1.05
;00:02:26.004: pe=1.8280 eb=0.0278 ve=0.0000 vn=0.3808 vl=0.000 db=0.53
G1 E-4.3280 F2400                       ; retract de=-4.3280@40 r=1.08
;00:02:26.112: pe=-2.5008 eb=0.0286 ve=-40.0000 vn=0.0000 vl=0.000 db=0.54
G1 Z0.700 F420                          ; hopup dz=0.40@7 h=0.7 r=0.71
;00:02:26.169: pe=-2.5008 eb=0.0286 ve=0.0000 vn=0.0000 vl=0.000 db=0.35
G1 X38.00 Y55.00 F6000                  ; move dl=2.50@100(0<25>0) de=0.0000 h=0.70 r=0.00
;00:02:26.319: pe=-2.5008 eb=0.0000 ve=0.0000 vn=0.0000 vl=0.000 db=0.00
G1 Z0.300 F420                          ; hopdn dz=-0.40@7 h=0.3 r=0.00
;00:02:26.376: pe=-2.5008 eb=0.0000 ve=0.0000 vn=0.0000 vl=0.000 db=0.00
;00:02:26.376: adjusting restore de=2.5000@30 for ve=0.5503 db=0.5000 l=0.3x0.5x1.0 for pe=1.8302 eb=0.0245
G1 E4.3554 F1800                        ; restore de=4.3554@30 r=0.96
;00:02:26.522: pe=1.8323 eb=0.0224 ve=30.0000 vn=0.6648 vl=0.000 db=0.48
G1 X38.00 Y53.50 E0.0935 F600           ; draw dl=1.50@10(0<10>0) l=0.30x0.50x1.00 r=1.05
;00:02:26.692: pe=1.8280 eb=0.0278 ve=0.0000 vn=0.3808 vl=0.000 db=0.53
G1 E-4.3280 F2400                       ; retract de=-4.3280@40 r=1.08
