;gcode_flavor: flashforge
;machine_type: Adventurer 3 Series
;filament_diameter0: 1.75
;right_extruder_temperature: 245
;platform_temperature: 100
;extruder_fan: 0%
;case_fan: 0%
;base_print_speed: 60
;travel_speed: 100
;vertical_speed: 7
;retract_speed: 40
;restore_speed: 30
;layer_height: 0.30
;line_width: 0.50
;extrusion_ratio: 1.00
;start gcode
M118 X75.00 Y75.00 Z150.00 T0
M140 S100 T0
M104 S245 T0
M104 S0 T1
M107
M900 K0.500 T0
G90
G28
M132 X Y Z A B
G1 Z50.000 F420
G161 X Y F3300
M7 T0
M6 T0
M651
M108 T0
;preExtrude:0.30
;structure:pre-extrude
G1 X-55.00 Y-65.00 F6000                ; move dl=85.15@0<100>0 de=0.0000 h=0.00
;00:00:01.051: pe=0.0000 eb=0.0000 ve=0.0000 vn=0.0000 vl=0.000 db=0.00
G1 Z0.300 F420                          ; hopup dz=0.30@7 h=0.3
;00:00:01.094: pe=0.0000 eb=0.0000 ve=0.0000 vn=0.0000 vl=0.000 db=0.00
G1 E6.8760 F1800                        ; restore de=6.8760@30
;00:00:01.324: pe=6.3967 eb=0.4793 ve=30.0000 vn=3.9460 vl=0.000 db=2.21
G1 X-55.00 Y55.00 E36.8101 F1200        ; draw dl=120.00@0<20>10 l=0.30x0.50x4.00
;00:00:07.349: pe=6.4705 eb=0.4143 ve=2.4945 vn=4.7147 vl=10.000 db=2.06
G1 X-55.00 Y65.00 F600                  ; move dl=10.00@10<10>10 de=0.0000 h=0.30
;00:00:08.349: pe=4.1345 eb=0.2567 ve=0.0000 vn=1.7943 vl=10.000 db=1.62
G1 X35.00 Y65.00                        ; move dl=90.00@10<10>1 de=0.0000 h=0.30
;00:00:17.357: pe=0.0628 eb=0.0001 ve=0.0000 vn=0.0054 vl=1.000 db=0.03
G1 X45.00 Y65.00 F60                    ; move dl=10.00@1<1>0 de=0.0000 h=0.30
;00:00:27.358: pe=0.0344 eb=0.0000 ve=0.0000 vn=0.0003 vl=0.000 db=0.02
G1 E35.2757 F2400                       ; retract de=-1.5344@40
;00:00:27.396: pe=-1.5000 eb=0.0000 ve=-40.0000 vn=0.0000 vl=0.000 db=0.02
G1 Z0.700 F420                          ; hopup dz=0.40@7 h=0.7
;00:00:27.453: pe=-1.5000 eb=0.0000 ve=0.0000 vn=0.0000 vl=0.000 db=0.01
;layer:0.30
;00:00:27.453: layer=1 h=0.30 w=0.50 r=1.00
;structure:brim
G1 X-45.00 Y60.00 F6000                 ; move dl=90.14@0<100>0 de=0.0000 h=0.70
;00:00:28.555: pe=-1.5000 eb=0.0000 ve=0.0000 vn=0.0000 vl=0.000 db=0.00
G1 Z0.300 F420                          ; hopdn dz=-0.40@7 h=0.3
;00:00:28.612: pe=-1.5000 eb=0.0000 ve=0.0000 vn=0.0000 vl=0.000 db=0.00
G1 E38.1118 F1800                       ; restore de=2.8360@30
;00:00:28.706: pe=1.3161 eb=0.0200 ve=30.0000 vn=0.8254 vl=0.000 db=0.45
G1 X-45.00 Y-61.00 E45.6577 F600        ; draw dl=121.00@0<10>10 l=0.30x0.50x1.00
;00:00:40.816: pe=1.3118 eb=0.0245 ve=0.6236 vn=0.6236 vl=10.000 db=0.50
G1 X-45.50 Y-61.00 E45.6889             ; draw dl=0.50@10<10>10 l=0.30x0.50x1.00
;00:00:40.866: pe=1.3118 eb=0.0245 ve=0.6236 vn=0.6236 vl=10.000 db=0.50
G1 X-45.50 Y60.00 E53.2348              ; draw dl=121.00@10<10>0 l=0.30x0.50x1.00
;00:00:52.976: pe=1.3069 eb=0.0293 ve=0.0000 vn=0.4264 vl=0.000 db=0.55
G1 E50.4279 F2400                       ; retract de=-2.8069@40
;00:00:53.046: pe=-1.5008 eb=0.0301 ve=-40.0000 vn=0.0000 vl=0.000 db=0.55
G1 Z0.700 F420                          ; hopup dz=0.40@7 h=0.7
;00:00:53.104: pe=-1.5008 eb=0.0301 ve=0.0000 vn=0.0000 vl=0.000 db=0.36
G1 X45.00 Y60.00 F6000                  ; move dl=90.50@0<100>0 de=0.0000 h=0.70
;00:00:54.209: pe=-1.5008 eb=0.0000 ve=0.0000 vn=0.0000 vl=0.000 db=0.00
G1 Z0.300 F420                          ; hopdn dz=-0.40@7 h=0.3
;00:00:54.266: pe=-1.5008 eb=0.0000 ve=0.0000 vn=0.0000 vl=0.000 db=0.00
G1 E53.2647 F1800                       ; restore de=2.8369@30
;00:00:54.360: pe=1.3161 eb=0.0200 ve=30.0000 vn=0.8254 vl=0.000 db=0.45
G1 X45.00 Y-61.00 E60.8106 F600         ; draw dl=121.00@0<10>10 l=0.30x0.50x1.00
;00:01:06.470: pe=1.3118 eb=0.0245 ve=0.6236 vn=0.6236 vl=10.000 db=0.50
G1 X45.50 Y-61.00 E60.8418              ; draw dl=0.50@10<10>10 l=0.30x0.50x1.00
;00:01:06.520: pe=1.3118 eb=0.0245 ve=0.6236 vn=0.6236 vl=10.000 db=0.50
G1 X45.50 Y60.00 E68.3877               ; draw dl=121.00@10<10>0 l=0.30x0.50x1.00
;00:01:18.630: pe=1.3069 eb=0.0293 ve=0.0000 vn=0.4264 vl=0.000 db=0.55
G1 E65.5808 F2400                       ; retract de=-2.8069@40
;00:01:18.700: pe=-1.5008 eb=0.0301 ve=-40.0000 vn=0.0000 vl=0.000 db=0.55
G1 Z0.700 F420                          ; hopup dz=0.40@7 h=0.7
;00:01:18.758: pe=-1.5008 eb=0.0301 ve=0.0000 vn=0.0000 vl=0.000 db=0.36
;00:01:18.758: Test Backlash Kf=0.5 Kb=2.0 Re=1.0 vx=20-100 re=5.0
;structure:shell-outer
G1 X-45.00 Y55.00 F6000                 ; move dl=90.64@0<100>0 de=0.0000 h=0.70
;00:01:19.864: pe=-1.5008 eb=0.0000 ve=0.0000 vn=0.0000 vl=0.000 db=0.00
G1 Z0.300 F420                          ; hopdn dz=-0.40@7 h=0.3
;00:01:19.921: pe=-1.5008 eb=0.0000 ve=0.0000 vn=0.0000 vl=0.000 db=0.00
G1 E68.4172 F1800                       ; restore de=2.8365@30
;00:01:20.016: pe=1.3156 eb=0.0200 ve=30.0000 vn=0.8251 vl=0.000 db=0.45
G1 X45.00 Y55.00 E74.0299 F600          ; draw dl=90.00@0<10>0 l=0.30x0.50x1.00
;00:01:29.036: pe=1.3069 eb=0.0293 ve=0.0000 vn=0.4264 vl=0.000 db=0.55
G1 E71.2230 F2400                       ; retract de=-2.8069@40
;00:01:29.106: pe=-1.5008 eb=0.0301 ve=-40.0000 vn=0.0000 vl=0.000 db=0.55
G1 Z0.700 F420                          ; hopup dz=0.40@7 h=0.7
;00:01:29.163: pe=-1.5008 eb=0.0301 ve=0.0000 vn=0.0000 vl=0.000 db=0.36
G1 X-42.00 Y55.00 F6000                 ; move dl=87.00@0<100>0 de=0.0000 h=0.70
;00:01:30.233: pe=-1.5008 eb=0.0000 ve=0.0000 vn=0.0000 vl=0.000 db=0.00
G1 X-40.00 Y55.00 F1342                 ; move dl=2.00@0<22>0 de=0.0000 h=0.70
;00:01:30.367: pe=-1.5008 eb=0.0000 ve=0.0000 vn=0.0000 vl=0.000 db=0.00
G1 Z0.300 F420                          ; hopdn dz=-0.40@7 h=0.3
;00:01:30.424: pe=-1.5008 eb=0.0000 ve=0.0000 vn=0.0000 vl=0.000 db=0.00
G1 E74.0407 F1800                       ; restore de=2.8177@30
;00:01:30.518: pe=1.2974 eb=0.0194 ve=30.0000 vn=0.8130 vl=0.000 db=0.45
G1 X-40.00 Y52.00 E74.2277 F600         ; draw dl=3.00@0<10>0 l=0.30x0.50x1.00
;00:01:30.838: pe=1.2902 eb=0.0286 ve=0.0000 vn=0.4193 vl=0.000 db=0.54
G1 E71.4376 F2400                       ; retract de=-2.7902@40
;00:01:30.908: pe=-1.5008 eb=0.0294 ve=-40.0000 vn=0.0000 vl=0.000 db=0.55
G1 Z0.700 F420                          ; hopup dz=0.40@7 h=0.7
;00:01:30.965: pe=-1.5008 eb=0.0294 ve=0.0000 vn=0.0000 vl=0.000 db=0.36
G1 X-38.00 Y55.00 F1801                 ; move dl=3.61@0<30>0 de=0.0000 h=0.70
;00:01:31.145: pe=-1.5008 eb=0.0000 ve=0.0000 vn=0.0000 vl=0.000 db=0.00
G1 Z0.300 F420                          ; hopdn dz=-0.40@7 h=0.3
;00:01:31.202: pe=-1.5008 eb=0.0000 ve=0.0000 vn=0.0000 vl=0.000 db=0.00
G1 E74.2380 F1800                       ; restore de=2.8004@30
;00:01:31.296: pe=1.2807 eb=0.0189 ve=30.0000 vn=0.8026 vl=0.000 db=0.44
G1 X-38.00 Y53.50 E74.3315 F600         ; draw dl=1.50@0<10>0 l=0.30x0.50x1.00
;00:01:31.466: pe=1.2736 eb=0.0279 ve=0.0000 vn=0.4123 vl=0.000 db=0.53
G1 E71.5580 F2400                       ; retract de=-2.7736@40
;00:01:31.535: pe=-1.5008 eb=0.0287 ve=-40.0000 vn=0.0000 vl=0.000 db=0.54
G1 Z0.700 F420                          ; hopup dz=0.40@7 h=0.7
;00:01:31.592: pe=-1.5008 eb=0.0287 ve=0.0000 vn=0.0000 vl=0.000 db=0.35
G1 X-36.00 Y55.00 F1500                 ; move dl=2.50@0<25>0 de=0.0000 h=0.70
;00:01:31.742: pe=-1.5008 eb=0.0000 ve=0.0000 vn=0.0000 vl=0.000 db=0.00
G1 Z0.300 F420                          ; hopdn dz=-0.40@7 h=0.3
;00:01:31.799: pe=-1.5008 eb=0.0000 ve=0.0000 vn=0.0000 vl=0.000 db=0.00
G1 E74.3584 F1800                       ; restore de=2.8004@30
;00:01:31.893: pe=1.2807 eb=0.0189 ve=30.0000 vn=0.8026 vl=0.000 db=0.44
G1 X-36.00 Y53.50 E74.4519 F600         ; draw dl=1.50@0<10>0 l=0.30x0.50x1.00
;00:01:32.063: pe=1.2736 eb=0.0279 ve=0.0000 vn=0.4123 vl=0.000 db=0.53
G1 E71.6783 F2400                       ; retract de=-2.7736@40
;00:01:32.132: pe=-1.5008 eb=0.0287 ve=-40.0000 vn=0.0000 vl=0.000 db=0.54
G1 Z0.700 F420                          ; hopup dz=0.40@7 h=0.7
;00:01:32.189: pe=-1.5008 eb=0.0287 ve=0.0000 vn=0.0000 vl=0.000 db=0.35
G1 X-34.00 Y55.00 F1500                 ; move dl=2.50@0<25>0 de=0.0000 h=0.70
;00:01:32.339: pe=-1.5008 eb=0.0000 ve=0.0000 vn=0.0000 vl=0.000 db=0.00
G1 Z0.300 F420                          ; hopdn dz=-0.40@7 h=0.3
;00:01:32.396: pe=-1.5008 eb=0.0000 ve=0.0000 vn=0.0000 vl=0.000 db=0.00
G1 E74.4787 F1800                       ; restore de=2.8004@30
;00:01:32.490: pe=1.2807 eb=0.0189 ve=30.0000 vn=0.8026 vl=0.000 db=0.44
G1 X-34.00 Y53.50 E74.5723 F600         ; draw dl=1.50@0<10>0 l=0.30x0.50x1.00
;00:01:32.660: pe=1.2736 eb=0.0279 ve=0.0000 vn=0.4123 vl=0.000 db=0.53
G1 E71.7987 F2400                       ; retract de=-2.7736@40
;00:01:32.729: pe=-1.5008 eb=0.0287 ve=-40.0000 vn=0.0000 vl=0.000 db=0.54
G1 Z0.700 F420                          ; hopup dz=0.40@7 h=0.7
;00:01:32.786: pe=-1.5008 eb=0.0287 ve=0.0000 vn=0.0000 vl=0.000 db=0.35
G1 X-32.00 Y55.00 F1500                 ; move dl=2.50@0<25>0 de=0.0000 h=0.70
;00:01:32.936: pe=-1.5008 eb=0.0000 ve=0.0000 vn=0.0000 vl=0.000 db=0.00
G1 Z0.300 F420                          ; hopdn dz=-0.40@7 h=0.3
;00:01:32.993: pe=-1.5008 eb=0.0000 ve=0.0000 vn=0.0000 vl=0.000 db=0.00
G1 E74.5991 F1800                       ; restore de=2.8004@30
;00:01:33.087: pe=1.2807 eb=0.0189 ve=30.0000 vn=0.8026 vl=0.000 db=0.44
G1 X-32.00 Y53.50 E74.6926 F600         ; draw dl=1.50@0<10>0 l=0.30x0.50x1.00
;00:01:33.257: pe=1.2736 eb=0.0279 ve=0.0000 vn=0.4123 vl=0.000 db=0.53
G1 E71.9191 F2400                       ; retract de=-2.7736@40
;00:01:33.326: pe=-1.5008 eb=0.0287 ve=-40.0000 vn=0.0000 vl=0.000 db=0.54
G1 Z0.700 F420                          ; hopup dz=0.40@7 h=0.7
;00:01:33.383: pe=-1.5008 eb=0.0287 ve=0.0000 vn=0.0000 vl=0.000 db=0.35
G1 X-30.00 Y55.00 F1500                 ; move dl=2.50@0<25>0 de=0.0000 h=0.70
;00:01:33.533: pe=-1.5008 eb=0.0000 ve=0.0000 vn=0.0000 vl=0.000 db=0.00
G1 Z0.300 F420                          ; hopdn dz=-0.40@7 h=0.3
;00:01:33.590: pe=-1.5008 eb=0.0000 ve=0.0000 vn=0.0000 vl=0.000 db=0.00
G1 E74.7366 F1800                       ; restore de=2.8176@30
;00:01:33.684: pe=1.2974 eb=0.0194 ve=30.0000 vn=0.8130 vl=0.000 db=0.45
G1 X-30.00 Y52.00 E74.9237 F600         ; draw dl=3.00@0<10>0 l=0.30x0.50x1.00
;00:01:34.004: pe=1.2902 eb=0.0286 ve=0.0000 vn=0.4193 vl=0.000 db=0.54
G1 E72.1335 F2400                       ; retract de=-2.7902@40
;00:01:34.074: pe=-1.5008 eb=0.0294 ve=-40.0000 vn=0.0000 vl=0.000 db=0.55
G1 Z0.700 F420                          ; hopup dz=0.40@7 h=0.7
;00:01:34.131: pe=-1.5008 eb=0.0294 ve=0.0000 vn=0.0000 vl=0.000 db=0.36
G1 X-28.00 Y55.00 F1801                 ; move dl=3.61@0<30>0 de=0.0000 h=0.70
;00:01:34.311: pe=-1.5008 eb=0.0000 ve=0.0000 vn=0.0000 vl=0.000 db=0.00
G1 Z0.300 F420                          ; hopdn dz=-0.40@7 h=0.3
;00:01:34.368: pe=-1.5008 eb=0.0000 ve=0.0000 vn=0.0000 vl=0.000 db=0.00
G1 E74.9340 F1800                       ; restore de=2.8004@30
;00:01:34.462: pe=1.2807 eb=0.0189 ve=30.0000 vn=0.8026 vl=0.000 db=0.44
G1 X-28.00 Y53.50 E75.0275 F600         ; draw dl=1.50@0<10>0 l=0.30x0.50x1.00
;00:01:34.632: pe=1.2736 eb=0.0279 ve=0.0000 vn=0.4123 vl=0.000 db=0.53
G1 E72.2539 F2400                       ; retract de=-2.7736@40
;00:01:34.701: pe=-1.5008 eb=0.0287 ve=-40.0000 vn=0.0000 vl=0.000 db=0.54
G1 Z0.700 F420                          ; hopup dz=0.40@7 h=0.7
;00:01:34.758: pe=-1.5008 eb=0.0287 ve=0.0000 vn=0.0000 vl=0.000 db=0.35
G1 X-26.00 Y55.00 F1500                 ; move dl=2.50@0<25>0 de=0.0000 h=0.70
;00:01:34.908: pe=-1.5008 eb=0.0000 ve=0.0000 vn=0.0000 vl=0.000 db=0.00
G1 Z0.300 F420                          ; hopdn dz=-0.40@7 h=0.3
;00:01:34.965: pe=-1.5008 eb=0.0000 ve=0.0000 vn=0.0000 vl=0.000 db=0.00
G1 E75.0543 F1800                       ; restore de=2.8004@30
;00:01:35.059: pe=1.2807 eb=0.0189 ve=30.0000 vn=0.8026 vl=0.000 db=0.44
G1 X-26.00 Y53.50 E75.1479 F600         ; draw dl=1.50@0<10>0 l=0.30x0.50x1.00
;00:01:35.229: pe=1.2736 eb=0.0279 ve=0.0000 vn=0.4123 vl=0.000 db=0.53
G1 E72.3743 F2400                       ; retract de=-2.7736@40
;00:01:35.298: pe=-1.5008 eb=0.0287 ve=-40.0000 vn=0.0000 vl=0.000 db=0.54
G1 Z0.700 F420                          ; hopup dz=0.40@7 h=0.7
;00:01:35.355: pe=-1.5008 eb=0.0287 ve=0.0000 vn=0.0000 vl=0.000 db=0.35
G1 X-24.00 Y55.00 F1500                 ; move dl=2.50@0<25>0 de=0.0000 h=0.70
;00:01:35.505: pe=-1.5008 eb=0.0000 ve=0.0000 vn=0.0000 vl=0.000 db=0.00
G1 Z0.300 F420                          ; hopdn dz=-0.40@7 h=0.3
;00:01:35.562: pe=-1.5008 eb=0.0000 ve=0.0000 vn=0.0000 vl=0.000 db=0.00
G1 E75.1747 F1800                       ; restore de=2.8004@30
;00:01:35.656: pe=1.2807 eb=0.0189 ve=30.0000 vn=0.8026 vl=0.000 db=0.44
G1 X-24.00 Y53.50 E75.2683 F600         ; draw dl=1.50@0<10>0 l=0.30x0.50x1.00
;00:01:35.826: pe=1.2736 eb=0.0279 ve=0.0000 vn=0.4123 vl=0.000 db=0.53
G1 E72.4947 F2400                       ; retract de=-2.7736@40
;00:01:35.895: pe=-1.5008 eb=0.0287 ve=-40.0000 vn=0.0000 vl=0.000 db=0.54
G1 Z0.700 F420                          ; hopup dz=0.40@7 h=0.7
;00:01:35.952: pe=-1.5008 eb=0.0287 ve=0.0000 vn=0.0000 vl=0.000 db=0.35
G1 X-22.00 Y55.00 F1500                 ; move dl=2.50@0<25>0 de=0.0000 h=0.70
;00:01:36.102: pe=-1.5008 eb=0.0000 ve=0.0000 vn=0.0000 vl=0.000 db=0.00
G1 Z0.300 F420                          ; hopdn dz=-0.40@7 h=0.3
;00:01:36.159: pe=-1.5008 eb=0.0000 ve=0.0000 vn=0.0000 vl=0.000 db=0.00
G1 E75.2951 F1800                       ; restore de=2.8004@30
;00:01:36.253: pe=1.2807 eb=0.0189 ve=30.0000 vn=0.8026 vl=0.000 db=0.44
G1 X-22.00 Y53.50 E75.3886 F600         ; draw dl=1.50@0<10>0 l=0.30x0.50x1.00
;00:01:36.423: pe=1.2736 eb=0.0279 ve=0.0000 vn=0.4123 vl=0.000 db=0.53
G1 E72.6150 F2400                       ; retract de=-2.7736@40
;00:01:36.492: pe=-1.5008 eb=0.0287 ve=-40.0000 vn=0.0000 vl=0.000 db=0.54
G1 Z0.700 F420                          ; hopup dz=0.40@7 h=0.7
;00:01:36.549: pe=-1.5008 eb=0.0287 ve=0.0000 vn=0.0000 vl=0.000 db=0.35
G1 X-20.00 Y55.00 F1500                 ; move dl=2.50@0<25>0 de=0.0000 h=0.70
;00:01:36.699: pe=-1.5008 eb=0.0000 ve=0.0000 vn=0.0000 vl=0.000 db=0.00
G1 Z0.300 F420                          ; hopdn dz=-0.40@7 h=0.3
;00:01:36.756: pe=-1.5008 eb=0.0000 ve=0.0000 vn=0.0000 vl=0.000 db=0.00
G1 E75.4326 F1800                       ; restore de=2.8176@30
;00:01:36.850: pe=1.2974 eb=0.0194 ve=30.0000 vn=0.8130 vl=0.000 db=0.45
G1 X-20.00 Y52.00 E75.6197 F600         ; draw dl=3.00@0<10>0 l=0.30x0.50x1.00
;00:01:37.170: pe=1.2902 eb=0.0286 ve=0.0000 vn=0.4193 vl=0.000 db=0.54
G1 E72.8295 F2400                       ; retract de=-2.7902@40
;00:01:37.240: pe=-1.5008 eb=0.0294 ve=-40.0000 vn=0.0000 vl=0.000 db=0.55
G1 Z0.700 F420                          ; hopup dz=0.40@7 h=0.7
;00:01:37.297: pe=-1.5008 eb=0.0294 ve=0.0000 vn=0.0000 vl=0.000 db=0.36
G1 X-18.00 Y55.00 F1801                 ; move dl=3.61@0<30>0 de=0.0000 h=0.70
;00:01:37.477: pe=-1.5008 eb=0.0000 ve=0.0000 vn=0.0000 vl=0.000 db=0.00
G1 Z0.300 F420                          ; hopdn dz=-0.40@7 h=0.3
;00:01:37.534: pe=-1.5008 eb=0.0000 ve=0.0000 vn=0.0000 vl=0.000 db=0.00
G1 E75.6300 F1800                       ; restore de=2.8004@30
;00:01:37.628: pe=1.2807 eb=0.0189 ve=30.0000 vn=0.8026 vl=0.000 db=0.44
G1 X-18.00 Y53.50 E75.7235 F600         ; draw dl=1.50@0<10>0 l=0.30x0.50x1.00
;00:01:37.798: pe=1.2736 eb=0.0279 ve=0.0000 vn=0.4123 vl=0.000 db=0.53
G1 E72.9499 F2400                       ; retract de=-2.7736@40
;00:01:37.867: pe=-1.5008 eb=0.0287 ve=-40.0000 vn=0.0000 vl=0.000 db=0.54
G1 Z0.700 F420                          ; hopup dz=0.40@7 h=0.7
;00:01:37.924: pe=-1.5008 eb=0.0287 ve=0.0000 vn=0.0000 vl=0.000 db=0.35
G1 X-16.00 Y55.00 F1500                 ; move dl=2.50@0<25>0 de=0.0000 h=0.70
;00:01:38.074: pe=-1.5008 eb=0.0000 ve=0.0000 vn=0.0000 vl=0.000 db=0.00
G1 Z0.300 F420                          ; hopdn dz=-0.40@7 h=0.3
;00:01:38.131: pe=-1.5008 eb=0.0000 ve=0.0000 vn=0.0000 vl=0.000 db=0.00
G1 E75.7503 F1800                       ; restore de=2.8004@30
;00:01:38.225: pe=1.2807 eb=0.0189 ve=30.0000 vn=0.8026 vl=0.000 db=0.44
G1 X-16.00 Y53.50 E75.8439 F600         ; draw dl=1.50@0<10>0 l=0.30x0.50x1.00
;00:01:38.395: pe=1.2736 eb=0.0279 ve=0.0000 vn=0.4123 vl=0.000 db=0.53
G1 E73.0703 F2400                       ; retract de=-2.7736@40
;00:01:38.464: pe=-1.5008 eb=0.0287 ve=-40.0000 vn=0.0000 vl=0.000 db=0.54
G1 Z0.700 F420                          ; hopup dz=0.40@7 h=0.7
;00:01:38.521: pe=-1.5008 eb=0.0287 ve=0.0000 vn=0.0000 vl=0.000 db=0.35
G1 X-14.00 Y55.00 F1500                 ; move dl=2.50@0<25>0 de=0.0000 h=0.70
;00:01:38.671: pe=-1.5008 eb=0.0000 ve=0.0000 vn=0.0000 vl=0.000 db=0.00
G1 Z0.300 F420                          ; hopdn dz=-0.40@7 h=0.3
;00:01:38.728: pe=-1.5008 eb=0.0000 ve=0.0000 vn=0.0000 vl=0.000 db=0.00
G1 E75.8707 F1800                       ; restore de=2.8004@30
;00:01:38.822: pe=1.2807 eb=0.0189 ve=30.0000 vn=0.8026 vl=0.000 db=0.44
G1 X-14.00 Y53.50 E75.9642 F600         ; draw dl=1.50@0<10>0 l=0.30x0.50x1.00
;00:01:38.992: pe=1.2736 eb=0.0279 ve=0.0000 vn=0.4123 vl=0.000 db=0.53
G1 E73.1907 F2400                       ; retract de=-2.7736@40
;00:01:39.061: pe=-1.5008 eb=0.0287 ve=-40.0000 vn=0.0000 vl=0.000 db=0.54
G1 Z0.700 F420                          ; hopup dz=0.40@7 h=0.7
;00:01:39.118: pe=-1.5008 eb=0.0287 ve=0.0000 vn=0.0000 vl=0.000 db=0.35
G1 X-12.00 Y55.00 F1500                 ; move dl=2.50@0<25>0 de=0.0000 h=0.70
;00:01:39.268: pe=-1.5008 eb=0.0000 ve=0.0000 vn=0.0000 vl=0.000 db=0.00
G1 Z0.300 F420                          ; hopdn dz=-0.40@7 h=0.3
;00:01:39.325: pe=-1.5008 eb=0.0000 ve=0.0000 vn=0.0000 vl=0.000 db=0.00
G1 E75.9911 F1800                       ; restore de=2.8004@30
;00:01:39.419: pe=1.2807 eb=0.0189 ve=30.0000 vn=0.8026 vl=0.000 db=0.44
G1 X-12.00 Y53.50 E76.0846 F600         ; draw dl=1.50@0<10>0 l=0.30x0.50x1.00
;00:01:39.589: pe=1.2736 eb=0.0279 ve=0.0000 vn=0.4123 vl=0.000 db=0.53
G1 E73.3110 F2400                       ; retract de=-2.7736@40
;00:01:39.658: pe=-1.5008 eb=0.0287 ve=-40.0000 vn=0.0000 vl=0.000 db=0.54
G1 Z0.700 F420                          ; hopup dz=0.40@7 h=0.7
;00:01:39.715: pe=-1.5008 eb=0.0287 ve=0.0000 vn=0.0000 vl=0.000 db=0.35
G1 X-10.00 Y55.00 F1500                 ; move dl=2.50@0<25>0 de=0.0000 h=0.70
;00:01:39.865: pe=-1.5008 eb=0.0000 ve=0.0000 vn=0.0000 vl=0.000 db=0.00
G1 Z0.300 F420                          ; hopdn dz=-0.40@7 h=0.3
;00:01:39.922: pe=-1.5008 eb=0.0000 ve=0.0000 vn=0.0000 vl=0.000 db=0.00
G1 E76.1286 F1800                       ; restore de=2.8176@30
;00:01:40.016: pe=1.2974 eb=0.0194 ve=30.0000 vn=0.8130 vl=0.000 db=0.45
G1 X-10.00 Y52.00 E76.3157 F600         ; draw dl=3.00@0<10>0 l=0.30x0.50x1.00
;00:01:40.336: pe=1.2902 eb=0.0286 ve=0.0000 vn=0.4193 vl=0.000 db=0.54
G1 E73.5255 F2400                       ; retract de=-2.7902@40
;00:01:40.406: pe=-1.5008 eb=0.0294 ve=-40.0000 vn=0.0000 vl=0.000 db=0.55
G1 Z0.700 F420                          ; hopup dz=0.40@7 h=0.7
;00:01:40.463: pe=-1.5008 eb=0.0294 ve=0.0000 vn=0.0000 vl=0.000 db=0.36
G1 X-8.00 Y55.00 F1801                  ; move dl=3.61@0<30>0 de=0.0000 h=0.70
;00:01:40.643: pe=-1.5008 eb=0.0000 ve=0.0000 vn=0.0000 vl=0.000 db=0.00
G1 Z0.300 F420                          ; hopdn dz=-0.40@7 h=0.3
;00:01:40.700: pe=-1.5008 eb=0.0000 ve=0.0000 vn=0.0000 vl=0.000 db=0.00
G1 E76.3260 F1800                       ; restore de=2.8004@30
;00:01:40.794: pe=1.2807 eb=0.0189 ve=30.0000 vn=0.8026 vl=0.000 db=0.44
G1 X-8.00 Y53.50 E76.4195 F600          ; draw dl=1.50@0<10>0 l=0.30x0.50x1.00
;00:01:40.964: pe=1.2736 eb=0.0279 ve=0.0000 vn=0.4123 vl=0.000 db=0.53
G1 E73.6459 F2400                       ; retract de=-2.7736@40
;00:01:41.033: pe=-1.5008 eb=0.0287 ve=-40.0000 vn=0.0000 vl=0.000 db=0.54
G1 Z0.700 F420                          ; hopup dz=0.40@7 h=0.7
;00:01:41.090: pe=-1.5008 eb=0.0287 ve=0.0000 vn=0.0000 vl=0.000 db=0.35
G1 X-6.00 Y55.00 F1500                  ; move dl=2.50@0<25>0 de=0.0000 h=0.70
;00:01:41.240: pe=-1.5008 eb=0.0000 ve=0.0000 vn=0.0000 vl=0.000 db=0.00
G1 Z0.300 F420                          ; hopdn dz=-0.40@7 h=0.3
;00:01:41.297: pe=-1.5008 eb=0.0000 ve=0.0000 vn=0.0000 vl=0.000 db=0.00
G1 E76.4463 F1800                       ; restore de=2.8004@30
;00:01:41.391: pe=1.2807 eb=0.0189 ve=30.0000 vn=0.8026 vl=0.000 db=0.44
G1 X-6.00 Y53.50 E76.5399 F600          ; draw dl=1.50@0<10>0 l=0.30x0.50x1.00
;00:01:41.561: pe=1.2736 eb=0.0279 ve=0.0000 vn=0.4123 vl=0.000 db=0.53
G1 E73.7663 F2400                       ; retract de=-2.7736@40
;00:01:41.630: pe=-1.5008 eb=0.0287 ve=-40.0000 vn=0.0000 vl=0.000 db=0.54
G1 Z0.700 F420                          ; hopup dz=0.40@7 h=0.7
;00:01:41.687: pe=-1.5008 eb=0.0287 ve=0.0000 vn=0.0000 vl=0.000 db=0.35
G1 X-4.00 Y55.00 F1500                  ; move dl=2.50@0<25>0 de=0.0000 h=0.70
;00:01:41.837: pe=-1.5008 eb=0.0000 ve=0.0000 vn=0.0000 vl=0.000 db=0.00
G1 Z0.300 F420                          ; hopdn dz=-0.40@7 h=0.3
;00:01:41.894: pe=-1.5008 eb=0.0000 ve=0.0000 vn=0.0000 vl=0.000 db=0.00
G1 E76.5667 F1800                       ; restore de=2.8004@30
;00:01:41.988: pe=1.2807 eb=0.0189 ve=30.0000 vn=0.8026 vl=0.000 db=0.44
G1 X-4.00 Y53.50 E76.6602 F600          ; draw dl=1.50@0<10>0 l=0.30x0.50x1.00
;00:01:42.158: pe=1.2736 eb=0.0279 ve=0.0000 vn=0.4123 vl=0.000 db=0.53
G1 E73.8867 F2400                       ; retract de=-2.7736@40
;00:01:42.227: pe=-1.5008 eb=0.0287 ve=-40.0000 vn=0.0000 vl=0.000 db=0.54
G1 Z0.700 F420                          ; hopup dz=0.40@7 h=0.7
;00:01:42.284: pe=-1.5008 eb=0.0287 ve=0.0000 vn=0.0000 vl=0.000 db=0.35
G1 X-2.00 Y55.00 F1500                  ; move dl=2.50@0<25>0 de=0.0000 h=0.70
;00:01:42.434: pe=-1.5008 eb=0.0000 ve=0.0000 vn=0.0000 vl=0.000 db=0.00
G1 Z0.300 F420                          ; hopdn dz=-0.40@7 h=0.3
;00:01:42.491: pe=-1.5008 eb=0.0000 ve=0.0000 vn=0.0000 vl=0.000 db=0.00
G1 E76.6871 F1800                       ; restore de=2.8004@30
;00:01:42.585: pe=1.2807 eb=0.0189 ve=30.0000 vn=0.8026 vl=0.000 db=0.44
G1 X-2.00 Y53.50 E76.7806 F600          ; draw dl=1.50@0<10>0 l=0.30x0.50x1.00
;00:01:42.755: pe=1.2736 eb=0.0279 ve=0.0000 vn=0.4123 vl=0.000 db=0.53
G1 E74.0070 F2400                       ; retract de=-2.7736@40
;00:01:42.824: pe=-1.5008 eb=0.0287 ve=-40.0000 vn=0.0000 vl=0.000 db=0.54
G1 Z0.700 F420                          ; hopup dz=0.40@7 h=0.7
;00:01:42.881: pe=-1.5008 eb=0.0287 ve=0.0000 vn=0.0000 vl=0.000 db=0.35
G1 X0.00 Y55.00 F1500                   ; move dl=2.50@0<25>0 de=0.0000 h=0.70
;00:01:43.031: pe=-1.5008 eb=0.0000 ve=0.0000 vn=0.0000 vl=0.000 db=0.00
G1 Z0.300 F420                          ; hopdn dz=-0.40@7 h=0.3
;00:01:43.088: pe=-1.5008 eb=0.0000 ve=0.0000 vn=0.0000 vl=0.000 db=0.00
G1 E76.8246 F1800                       ; restore de=2.8176@30
;00:01:43.182: pe=1.2974 eb=0.0194 ve=30.0000 vn=0.8130 vl=0.000 db=0.45
G1 X0.00 Y52.00 E77.0117 F600           ; draw dl=3.00@0<10>0 l=0.30x0.50x1.00
;00:01:43.502: pe=1.2902 eb=0.0286 ve=0.0000 vn=0.4193 vl=0.000 db=0.54
G1 E74.2215 F2400                       ; retract de=-2.7902@40
;00:01:43.572: pe=-1.5008 eb=0.0294 ve=-40.0000 vn=0.0000 vl=0.000 db=0.55
G1 Z0.700 F420                          ; hopup dz=0.40@7 h=0.7
;00:01:43.629: pe=-1.5008 eb=0.0294 ve=0.0000 vn=0.0000 vl=0.000 db=0.36
G1 X2.00 Y55.00 F1801                   ; move dl=3.61@0<30>0 de=0.0000 h=0.70
;00:01:43.809: pe=-1.5008 eb=0.0000 ve=0.0000 vn=0.0000 vl=0.000 db=0.00
G1 Z0.300 F420                          ; hopdn dz=-0.40@7 h=0.3
;00:01:43.866: pe=-1.5008 eb=0.0000 ve=0.0000 vn=0.0000 vl=0.000 db=0.00
G1 E77.0220 F1800                       ; restore de=2.8004@30
;00:01:43.960: pe=1.2807 eb=0.0189 ve=30.0000 vn=0.8026 vl=0.000 db=0.44
G1 X2.00 Y53.50 E77.1155 F600           ; draw dl=1.50@0<10>0 l=0.30x0.50x1.00
;00:01:44.130: pe=1.2736 eb=0.0279 ve=0.0000 vn=0.4123 vl=0.000 db=0.53
G1 E74.3419 F2400                       ; retract de=-2.7736@40
;00:01:44.199: pe=-1.5008 eb=0.0287 ve=-40.0000 vn=0.0000 vl=0.000 db=0.54
G1 Z0.700 F420                          ; hopup dz=0.40@7 h=0.7
;00:01:44.256: pe=-1.5008 eb=0.0287 ve=0.0000 vn=0.0000 vl=0.000 db=0.35
G1 X4.00 Y55.00 F1500                   ; move dl=2.50@0<25>0 de=0.0000 h=0.70
;00:01:44.406: pe=-1.5008 eb=0.0000 ve=0.0000 vn=0.0000 vl=0.000 db=0.00
G1 Z0.300 F420                          ; hopdn dz=-0.40@7 h=0.3
;00:01:44.463: pe=-1.5008 eb=0.0000 ve=0.0000 vn=0.0000 vl=0.000 db=0.00
G1 E77.1423 F1800                       ; restore de=2.8004@30
;00:01:44.557: pe=1.2807 eb=0.0189 ve=30.0000 vn=0.8026 vl=0.000 db=0.44
G1 X4.00 Y53.50 E77.2359 F600           ; draw dl=1.50@0<10>0 l=0.30x0.50x1.00
;00:01:44.727: pe=1.2736 eb=0.0279 ve=0.0000 vn=0.4123 vl=0.000 db=0.53
G1 E74.4623 F2400                       ; retract de=-2.7736@40
;00:01:44.796: pe=-1.5008 eb=0.0287 ve=-40.0000 vn=0.0000 vl=0.000 db=0.54
G1 Z0.700 F420                          ; hopup dz=0.40@7 h=0.7
;00:01:44.853: pe=-1.5008 eb=0.0287 ve=0.0000 vn=0.0000 vl=0.000 db=0.35
G1 X6.00 Y55.00 F1500                   ; move dl=2.50@0<25>0 de=0.0000 h=0.70
;00:01:45.003: pe=-1.5008 eb=0.0000 ve=0.0000 vn=0.0000 vl=0.000 db=0.00
G1 Z0.300 F420                          ; hopdn dz=-0.40@7 h=0.3
;00:01:45.060: pe=-1.5008 eb=0.0000 ve=0.0000 vn=0.0000 vl=0.000 db=0.00
G1 E77.2627 F1800                       ; restore de=2.8004@30
;00:01:45.154: pe=1.2807 eb=0.0189 ve=30.0000 vn=0.8026 vl=0.000 db=0.44
G1 X6.00 Y53.50 E77.3562 F600           ; draw dl=1.50@0<10>0 l=0.30x0.50x1.00
;00:01:45.324: pe=1.2736 eb=0.0279 ve=0.0000 vn=0.4123 vl=0.000 db=0.53
G1 E74.5827 F2400                       ; retract de=-2.7736@40
;00:01:45.393: pe=-1.5008 eb=0.0287 ve=-40.0000 vn=0.0000 vl=0.000 db=0.54
G1 Z0.700 F420                          ; hopup dz=0.40@7 h=0.7
;00:01:45.450: pe=-1.5008 eb=0.0287 ve=0.0000 vn=0.0000 vl=0.000 db=0.35
G1 X8.00 Y55.00 F1500                   ; move dl=2.50@0<25>0 de=0.0000 h=0.70
;00:01:45.600: pe=-1.5008 eb=0.0000 ve=0.0000 vn=0.0000 vl=0.000 db=0.00
G1 Z0.300 F420                          ; hopdn dz=-0.40@7 h=0.3
;00:01:45.657: pe=-1.5008 eb=0.0000 ve=0.0000 vn=0.0000 vl=0.000 db=0.00
G1 E77.3831 F1800                       ; restore de=2.8004@30
;00:01:45.751: pe=1.2807 eb=0.0189 ve=30.0000 vn=0.8026 vl=0.000 db=0.44
G1 X8.00 Y53.50 E77.4766 F600           ; draw dl=1.50@0<10>0 l=0.30x0.50x1.00
;00:01:45.921: pe=1.2736 eb=0.0279 ve=0.0000 vn=0.4123 vl=0.000 db=0.53
G1 E74.7030 F2400                       ; retract de=-2.7736@40
;00:01:45.990: pe=-1.5008 eb=0.0287 ve=-40.0000 vn=0.0000 vl=0.000 db=0.54
G1 Z0.700 F420                          ; hopup dz=0.40@7 h=0.7
;00:01:46.047: pe=-1.5008 eb=0.0287 ve=0.0000 vn=0.0000 vl=0.000 db=0.35
G1 X10.00 Y55.00 F1500                  ; move dl=2.50@0<25>0 de=0.0000 h=0.70
;00:01:46.197: pe=-1.5008 eb=0.0000 ve=0.0000 vn=0.0000 vl=0.000 db=0.00
G1 Z0.300 F420                          ; hopdn dz=-0.40@7 h=0.3
;00:01:46.254: pe=-1.5008 eb=0.0000 ve=0.0000 vn=0.0000 vl=0.000 db=0.00
G1 E77.5206 F1800                       ; restore de=2.8176@30
;00:01:46.348: pe=1.2974 eb=0.0194 ve=30.0000 vn=0.8130 vl=0.000 db=0.45
G1 X10.00 Y52.00 E77.7077 F600          ; draw dl=3.00@0<10>0 l=0.30x0.50x1.00
;00:01:46.668: pe=1.2902 eb=0.0286 ve=0.0000 vn=0.4193 vl=0.000 db=0.54
G1 E74.9175 F2400                       ; retract de=-2.7902@40
;00:01:46.738: pe=-1.5008 eb=0.0294 ve=-40.0000 vn=0.0000 vl=0.000 db=0.55
G1 Z0.700 F420                          ; hopup dz=0.40@7 h=0.7
;00:01:46.795: pe=-1.5008 eb=0.0294 ve=0.0000 vn=0.0000 vl=0.000 db=0.36
G1 X12.00 Y55.00 F1801                  ; move dl=3.61@0<30>0 de=0.0000 h=0.70
;00:01:46.975: pe=-1.5008 eb=0.0000 ve=0.0000 vn=0.0000 vl=0.000 db=0.00
G1 Z0.300 F420                          ; hopdn dz=-0.40@7 h=0.3
;00:01:47.032: pe=-1.5008 eb=0.0000 ve=0.0000 vn=0.0000 vl=0.000 db=0.00
G1 E77.7179 F1800                       ; restore de=2.8004@30
;00:01:47.126: pe=1.2807 eb=0.0189 ve=30.0000 vn=0.8026 vl=0.000 db=0.44
G1 X12.00 Y53.50 E77.8115 F600          ; draw dl=1.50@0<10>0 l=0.30x0.50x1.00
;00:01:47.296: pe=1.2736 eb=0.0279 ve=0.0000 vn=0.4123 vl=0.000 db=0.53
G1 E75.0379 F2400                       ; retract de=-2.7736@40
;00:01:47.365: pe=-1.5008 eb=0.0287 ve=-40.0000 vn=0.0000 vl=0.000 db=0.54
G1 Z0.700 F420                          ; hopup dz=0.40@7 h=0.7
;00:01:47.422: pe=-1.5008 eb=0.0287 ve=0.0000 vn=0.0000 vl=0.000 db=0.35
G1 X14.00 Y55.00 F1500                  ; move dl=2.50@0<25>0 de=0.0000 h=0.70
;00:01:47.572: pe=-1.5008 eb=0.0000 ve=0.0000 vn=0.0000 vl=0.000 db=0.00
G1 Z0.300 F420                          ; hopdn dz=-0.40@7 h=0.3
;00:01:47.629: pe=-1.5008 eb=0.0000 ve=0.0000 vn=0.0000 vl=0.000 db=0.00
G1 E77.8383 F1800                       ; restore de=2.8004@30
;00:01:47.723: pe=1.2807 eb=0.0189 ve=30.0000 vn=0.8026 vl=0.000 db=0.44
G1 X14.00 Y53.50 E77.9319 F600          ; draw dl=1.50@0<10>0 l=0.30x0.50x1.00
;00:01:47.893: pe=1.2736 eb=0.0279 ve=0.0000 vn=0.4123 vl=0.000 db=0.53
G1 E75.1583 F2400                       ; retract de=-2.7736@40
;00:01:47.962: pe=-1.5008 eb=0.0287 ve=-40.0000 vn=0.0000 vl=0.000 db=0.54
G1 Z0.700 F420                          ; hopup dz=0.40@7 h=0.7
;00:01:48.019: pe=-1.5008 eb=0.0287 ve=0.0000 vn=0.0000 vl=0.000 db=0.35
G1 X16.00 Y55.00 F1500                  ; move dl=2.50@0<25>0 de=0.0000 h=0.70
;00:01:48.169: pe=-1.5008 eb=0.0000 ve=0.0000 vn=0.0000 vl=0.000 db=0.00
G1 Z0.300 F420                          ; hopdn dz=-0.40@7 h=0.3
;00:01:48.226: pe=-1.5008 eb=0.0000 ve=0.0000 vn=0.0000 vl=0.000 db=0.00
G1 E77.9587 F1800                       ; restore de=2.8004@30
;00:01:48.320: pe=1.2807 eb=0.0189 ve=30.0000 vn=0.8026 vl=0.000 db=0.44
G1 X16.00 Y53.50 E78.0522 F600          ; draw dl=1.50@0<10>0 l=0.30x0.50x1.00
;00:01:48.490: pe=1.2736 eb=0.0279 ve=0.0000 vn=0.4123 vl=0.000 db=0.53
G1 E75.2786 F2400                       ; retract de=-2.7736@40
;00:01:48.559: pe=-1.5008 eb=0.0287 ve=-40.0000 vn=0.0000 vl=0.000 db=0.54
G1 Z0.700 F420                          ; hopup dz=0.40@7 h=0.7
;00:01:48.616: pe=-1.5008 eb=0.0287 ve=0.0000 vn=0.0000 vl=0.000 db=0.35
G1 X18.00 Y55.00 F1500                  ; move dl=2.50@0<25>0 de=0.0000 h=0.70
;00:01:48.766: pe=-1.5008 eb=0.0000 ve=0.0000 vn=0.0000 vl=0.000 db=0.00
G1 Z0.300 F420                          ; hopdn dz=-0.40@7 h=0.3
;00:01:48.823: pe=-1.5008 eb=0.0000 ve=0.0000 vn=0.0000 vl=0.000 db=0.00
G1 E78.0790 F1800                       ; restore de=2.8004@30
;00:01:48.917: pe=1.2807 eb=0.0189 ve=30.0000 vn=0.8026 vl=0.000 db=0.44
G1 X18.00 Y53.50 E78.1726 F600          ; draw dl=1.50@0<10>0 l=0.30x0.50x1.00
;00:01:49.087: pe=1.2736 eb=0.0279 ve=0.0000 vn=0.4123 vl=0.000 db=0.53
G1 E75.3990 F2400                       ; retract de=-2.7736@40
;00:01:49.156: pe=-1.5008 eb=0.0287 ve=-40.0000 vn=0.0000 vl=0.000 db=0.54
G1 Z0.700 F420                          ; hopup dz=0.40@7 h=0.7
;00:01:49.213: pe=-1.5008 eb=0.0287 ve=0.0000 vn=0.0000 vl=0.000 db=0.35
G1 X20.00 Y55.00 F1500                  ; move dl=2.50@0<25>0 de=0.0000 h=0.70
;00:01:49.363: pe=-1.5008 eb=0.0000 ve=0.0000 vn=0.0000 vl=0.000 db=0.00
G1 Z0.300 F420                          ; hopdn dz=-0.40@7 h=0.3
;00:01:49.420: pe=-1.5008 eb=0.0000 ve=0.0000 vn=0.0000 vl=0.000 db=0.00
G1 E78.2166 F1800                       ; restore de=2.8176@30
;00:01:49.514: pe=1.2974 eb=0.0194 ve=30.0000 vn=0.8130 vl=0.000 db=0.45
G1 X20.00 Y52.00 E78.4037 F600          ; draw dl=3.00@0<10>0 l=0.30x0.50x1.00
;00:01:49.834: pe=1.2902 eb=0.0286 ve=0.0000 vn=0.4193 vl=0.000 db=0.54
G1 E75.6135 F2400                       ; retract de=-2.7902@40
;00:01:49.904: pe=-1.5008 eb=0.0294 ve=-40.0000 vn=0.0000 vl=0.000 db=0.55
G1 Z0.700 F420                          ; hopup dz=0.40@7 h=0.7
;00:01:49.961: pe=-1.5008 eb=0.0294 ve=0.0000 vn=0.0000 vl=0.000 db=0.36
G1 X22.00 Y55.00 F1801                  ; move dl=3.61@0<30>0 de=0.0000 h=0.70
;00:01:50.141: pe=-1.5008 eb=0.0000 ve=0.0000 vn=0.0000 vl=0.000 db=0.00
G1 Z0.300 F420                          ; hopdn dz=-0.40@7 h=0.3
;00:01:50.198: pe=-1.5008 eb=0.0000 ve=0.0000 vn=0.0000 vl=0.000 db=0.00
G1 E78.4139 F1800                       ; restore de=2.8004@30
;00:01:50.292: pe=1.2807 eb=0.0189 ve=30.0000 vn=0.8026 vl=0.000 db=0.44
G1 X22.00 Y53.50 E78.5075 F600          ; draw dl=1.50@0<10>0 l=0.30x0.50x1.00
;00:01:50.462: pe=1.2736 eb=0.0279 ve=0.0000 vn=0.4123 vl=0.000 db=0.53
G1 E75.7339 F2400                       ; retract de=-2.7736@40
;00:01:50.531: pe=-1.5008 eb=0.0287 ve=-40.0000 vn=0.0000 vl=0.000 db=0.54
G1 Z0.700 F420                          ; hopup dz=0.40@7 h=0.7
;00:01:50.588: pe=-1.5008 eb=0.0287 ve=0.0000 vn=0.0000 vl=0.000 db=0.35
G1 X24.00 Y55.00 F1500                  ; move dl=2.50@0<25>0 de=0.0000 h=0.70
;00:01:50.738: pe=-1.5008 eb=0.0000 ve=0.0000 vn=0.0000 vl=0.000 db=0.00
G1 Z0.300 F420                          ; hopdn dz=-0.40@7 h=0.3
;00:01:50.795: pe=-1.5008 eb=0.0000 ve=0.0000 vn=0.0000 vl=0.000 db=0.00
G1 E78.5343 F1800                       ; restore de=2.8004@30
;00:01:50.889: pe=1.2807 eb=0.0189 ve=30.0000 vn=0.8026 vl=0.000 db=0.44
G1 X24.00 Y53.50 E78.6279 F600          ; draw dl=1.50@0<10>0 l=0.30x0.50x1.00
;00:01:51.059: pe=1.2736 eb=0.0279 ve=0.0000 vn=0.4123 vl=0.000 db=0.53
G1 E75.8543 F2400                       ; retract de=-2.7736@40
;00:01:51.128: pe=-1.5008 eb=0.0287 ve=-40.0000 vn=0.0000 vl=0.000 db=0.54
G1 Z0.700 F420                          ; hopup dz=0.40@7 h=0.7
;00:01:51.185: pe=-1.5008 eb=0.0287 ve=0.0000 vn=0.0000 vl=0.000 db=0.35
G1 X26.00 Y55.00 F1500                  ; move dl=2.50@0<25>0 de=0.0000 h=0.70
;00:01:51.335: pe=-1.5008 eb=0.0000 ve=0.0000 vn=0.0000 vl=0.000 db=0.00
G1 Z0.300 F420                          ; hopdn dz=-0.40@7 h=0.3
;00:01:51.392: pe=-1.5008 eb=0.0000 ve=0.0000 vn=0.0000 vl=0.000 db=0.00
G1 E78.6547 F1800                       ; restore de=2.8004@30
;00:01:51.486: pe=1.2807 eb=0.0189 ve=30.0000 vn=0.8026 vl=0.000 db=0.44
G1 X26.00 Y53.50 E78.7482 F600          ; draw dl=1.50@0<10>0 l=0.30x0.50x1.00
;00:01:51.656: pe=1.2736 eb=0.0279 ve=0.0000 vn=0.4123 vl=0.000 db=0.53
G1 E75.9746 F2400                       ; retract de=-2.7736@40
;00:01:51.725: pe=-1.5008 eb=0.0287 ve=-40.0000 vn=0.0000 vl=0.000 db=0.54
G1 Z0.700 F420                          ; hopup dz=0.40@7 h=0.7
;00:01:51.782: pe=-1.5008 eb=0.0287 ve=0.0000 vn=0.0000 vl=0.000 db=0.35
G1 X28.00 Y55.00 F1500                  ; move dl=2.50@0<25>0 de=0.0000 h=0.70
;00:01:51.932: pe=-1.5008 eb=0.0000 ve=0.0000 vn=0.0000 vl=0.000 db=0.00
G1 Z0.300 F420                          ; hopdn dz=-0.40@7 h=0.3
;00:01:51.989: pe=-1.5008 eb=0.0000 ve=0.0000 vn=0.0000 vl=0.000 db=0.00
G1 E78.7750 F1800                       ; restore de=2.8004@30
;00:01:52.083: pe=1.2807 eb=0.0189 ve=30.0000 vn=0.8026 vl=0.000 db=0.44
G1 X28.00 Y53.50 E78.8686 F600          ; draw dl=1.50@0<10>0 l=0.30x0.50x1.00
;00:01:52.253: pe=1.2736 eb=0.0279 ve=0.0000 vn=0.4123 vl=0.000 db=0.53
G1 E76.0950 F2400                       ; retract de=-2.7736@40
;00:01:52.322: pe=-1.5008 eb=0.0287 ve=-40.0000 vn=0.0000 vl=0.000 db=0.54
G1 Z0.700 F420                          ; hopup dz=0.40@7 h=0.7
;00:01:52.379: pe=-1.5008 eb=0.0287 ve=0.0000 vn=0.0000 vl=0.000 db=0.35
G1 X30.00 Y55.00 F1500                  ; move dl=2.50@0<25>0 de=0.0000 h=0.70
;00:01:52.529: pe=-1.5008 eb=0.0000 ve=0.0000 vn=0.0000 vl=0.000 db=0.00
G1 Z0.300 F420                          ; hopdn dz=-0.40@7 h=0.3
;00:01:52.586: pe=-1.5008 eb=0.0000 ve=0.0000 vn=0.0000 vl=0.000 db=0.00
G1 E78.9126 F1800                       ; restore de=2.8176@30
;00:01:52.680: pe=1.2974 eb=0.0194 ve=30.0000 vn=0.8130 vl=0.000 db=0.45
G1 X30.00 Y52.00 E79.0997 F600          ; draw dl=3.00@0<10>0 l=0.30x0.50x1.00
;00:01:53.000: pe=1.2902 eb=0.0286 ve=0.0000 vn=0.4193 vl=0.000 db=0.54
G1 E76.3095 F2400                       ; retract de=-2.7902@40
;00:01:53.070: pe=-1.5008 eb=0.0294 ve=-40.0000 vn=0.0000 vl=0.000 db=0.55
G1 Z0.700 F420                          ; hopup dz=0.40@7 h=0.7
;00:01:53.127: pe=-1.5008 eb=0.0294 ve=0.0000 vn=0.0000 vl=0.000 db=0.36
G1 X32.00 Y55.00 F1801                  ; move dl=3.61@0<30>0 de=0.0000 h=0.70
;00:01:53.307: pe=-1.5008 eb=0.0000 ve=0.0000 vn=0.0000 vl=0.000 db=0.00
G1 Z0.300 F420                          ; hopdn dz=-0.40@7 h=0.3
;00:01:53.364: pe=-1.5008 eb=0.0000 ve=0.0000 vn=0.0000 vl=0.000 db=0.00
G1 E79.1099 F1800                       ; restore de=2.8004@30
;00:01:53.458: pe=1.2807 eb=0.0189 ve=30.0000 vn=0.8026 vl=0.000 db=0.44
G1 X32.00 Y53.50 E79.2035 F600          ; draw dl=1.50@0<10>0 l=0.30x0.50x1.00
;00:01:53.628: pe=1.2736 eb=0.0279 ve=0.0000 vn=0.4123 vl=0.000 db=0.53
G1 E76.4299 F2400                       ; retract de=-2.7736@40
;00:01:53.697: pe=-1.5008 eb=0.0287 ve=-40.0000 vn=0.0000 vl=0.000 db=0.54
G1 Z0.700 F420                          ; hopup dz=0.40@7 h=0.7
;00:01:53.754: pe=-1.5008 eb=0.0287 ve=0.0000 vn=0.0000 vl=0.000 db=0.35
G1 X34.00 Y55.00 F1500                  ; move dl=2.50@0<25>0 de=0.0000 h=0.70
;00:01:53.904: pe=-1.5008 eb=0.0000 ve=0.0000 vn=0.0000 vl=0.000 db=0.00
G1 Z0.300 F420                          ; hopdn dz=-0.40@7 h=0.3
;00:01:53.961: pe=-1.5008 eb=0.0000 ve=0.0000 vn=0.0000 vl=0.000 db=0.00
G1 E79.2303 F1800                       ; restore de=2.8004@30
;00:01:54.055: pe=1.2807 eb=0.0189 ve=30.0000 vn=0.8026 vl=0.000 db=0.44
G1 X34.00 Y53.50 E79.3238 F600          ; draw dl=1.50@0<10>0 l=0.30x0.50x1.00
;00:01:54.225: pe=1.2736 eb=0.0279 ve=0.0000 vn=0.4123 vl=0.000 db=0.53
G1 E76.5503 F2400                       ; retract de=-2.7736@40
;00:01:54.294: pe=-1.5008 eb=0.0287 ve=-40.0000 vn=0.0000 vl=0.000 db=0.54
G1 Z0.700 F420                          ; hopup dz=0.40@7 h=0.7
;00:01:54.351: pe=-1.5008 eb=0.0287 ve=0.0000 vn=0.0000 vl=0.000 db=0.35
G1 X36.00 Y55.00 F1500                  ; move dl=2.50@0<25>0 de=0.0000 h=0.70
;00:01:54.501: pe=-1.5008 eb=0.0000 ve=0.0000 vn=0.0000 vl=0.000 db=0.00
G1 Z0.300 F420                          ; hopdn dz=-0.40@7 h=0.3
;00:01:54.558: pe=-1.5008 eb=0.0000 ve=0.0000 vn=0.0000 vl=0.000 db=0.00
G1 E79.3507 F1800                       ; restore de=2.8004@30
;00:01:54.652: pe=1.2807 eb=0.0189 ve=30.0000 vn=0.8026 vl=0.000 db=0.44
G1 X36.00 Y53.50 E79.4442 F600          ; draw dl=1.50@0<10>0 l=0.30x0.50x1.00
;00:01:54.822: pe=1.2736 eb=0.0279 ve=0.0000 vn=0.4123 vl=0.000 db=0.53
G1 E76.6706 F2400                       ; retract de=-2.7736@40
;00:01:54.891: pe=-1.5008 eb=0.0287 ve=-40.0000 vn=0.0000 vl=0.000 db=0.54
G1 Z0.700 F420                          ; hopup dz=0.40@7 h=0.7
;00:01:54.948: pe=-1.5008 eb=0.0287 ve=0.0000 vn=0.0000 vl=0.000 db=0.35
G1 X38.00 Y55.00 F1500                  ; move dl=2.50@0<25>0 de=0.0000 h=0.70
;00:01:55.098: pe=-1.5008 eb=0.0000 ve=0.0000 vn=0.0000 vl=0.000 db=0.00
G1 Z0.300 F420                          ; hopdn dz=-0.40@7 h=0.3
;00:01:55.155: pe=-1.5008 eb=0.0000 ve=0.0000 vn=0.0000 vl=0.000 db=0.00
G1 E79.4710 F1800                       ; restore de=2.8004@30
;00:01:55.248: pe=1.2807 eb=0.0189 ve=30.0000 vn=0.8026 vl=0.000 db=0.44
G1 X38.00 Y53.50 E79.5646 F600          ; draw dl=1.50@0<10>0 l=0.30x0.50x1.00
;00:01:55.418: pe=1.2736 eb=0.0279 ve=0.0000 vn=0.4123 vl=0.000 db=0.53
G1 E76.7910 F2400                       ; retract de=-2.7736@40
;00:01:55.488: pe=-1.5008 eb=0.0287 ve=-40.0000 vn=0.0000 vl=0.000 db=0.54
G1 Z0.700 F420                          ; hopup dz=0.40@7 h=0.7
;00:01:55.545: pe=-1.5008 eb=0.0287 ve=0.0000 vn=0.0000 vl=0.000 db=0.35
G1 X40.00 Y55.00 F1500                  ; move dl=2.50@0<25>0 de=0.0000 h=0.70
;00:01:55.695: pe=-1.5008 eb=0.0000 ve=0.0000 vn=0.0000 vl=0.000 db=0.00
G1 Z0.300 F420                          ; hopdn dz=-0.40@7 h=0.3
;00:01:55.752: pe=-1.5008 eb=0.0000 ve=0.0000 vn=0.0000 vl=0.000 db=0.00
G1 E79.6086 F1800                       ; restore de=2.8176@30
;00:01:55.846: pe=1.2974 eb=0.0194 ve=30.0000 vn=0.8130 vl=0.000 db=0.45
G1 X40.00 Y52.00 E79.7957 F600          ; draw dl=3.00@0<10>0 l=0.30x0.50x1.00
;00:01:56.166: pe=1.2902 eb=0.0286 ve=0.0000 vn=0.4193 vl=0.000 db=0.54
G1 E77.0055 F2400                       ; retract de=-2.7902@40
;00:01:56.236: pe=-1.5008 eb=0.0294 ve=-40.0000 vn=0.0000 vl=0.000 db=0.55
G1 Z0.700 F420                          ; hopup dz=0.40@7 h=0.7
;00:01:56.293: pe=-1.5008 eb=0.0294 ve=0.0000 vn=0.0000 vl=0.000 db=0.36
;structure:infill-solid
;00:01:56.293: Test Line Backlash Kf=0.5 Kb=2.0 Re=1.0 vx=20 re=5.0
;00:01:56.293: setting config Kf=0.5 Kb=2.0 Re=1.0
G1 X-45.00 Y51.00 F6000                 ; move dl=85.01@0<100>0 de=0.0000 h=0.70
;00:01:57.343: pe=-1.5008 eb=0.0000 ve=0.0000 vn=0.0000 vl=0.000 db=0.00
G1 Z0.300 F420                          ; hopdn dz=-0.40@7 h=0.3
;00:01:57.400: pe=-1.5008 eb=0.0000 ve=0.0000 vn=0.0000 vl=0.000 db=0.00
G1 E80.1459 F1800                       ; restore de=3.1404@30
;00:01:57.505: pe=1.6098 eb=0.0298 ve=30.0000 vn=1.0140 vl=0.000 db=0.55
G1 X0.00 Y51.00 E82.9522 F1200          ; draw dl=45.00@0<20>5 l=0.30x0.50x1.00
;00:01:59.786: pe=1.6105 eb=0.0335 ve=0.3118 vn=0.8827 vl=5.000 db=0.58
G1 X20.00 Y51.00 E77.9522 F300          ; move dl=20.00@5<5>5 de=-5.0000 h=0.30
;00:02:03.786: pe=-3.5930 eb=0.0000 ve=-1.2500 vn=0.0000 vl=5.000 db=0.00
G1 X40.00 Y51.00 E82.9522               ; draw dl=20.00@5<5>5 l=0.30x0.50x4.01
;00:02:07.786: pe=1.1937 eb=0.0253 ve=1.2500 vn=0.3535 vl=5.000 db=0.51
G1 X45.00 Y51.00 E83.2640               ; draw dl=5.00@5<5>0 l=0.30x0.50x1.00
;00:02:08.791: pe=1.1831 eb=0.0271 ve=0.0000 vn=0.2609 vl=0.000 db=0.53
G1 E81.0809 F2400                       ; retract de=-2.1831@40
;00:02:08.846: pe=-1.0003 eb=0.0274 ve=-40.0000 vn=0.0000 vl=0.000 db=0.53
G1 Z0.700 F420                          ; hopup dz=0.40@7 h=0.7
;00:02:08.903: pe=-1.0003 eb=0.0274 ve=0.0000 vn=0.0000 vl=0.000 db=0.35
;00:02:08.903: restoring config Kf=0.5 Kb=2.0 Re=1.5
;00:02:08.903: Test Line Backlash Kf=0.5 Kb=2.0 Re=1.0 vx=28.0 re=5.0
;00:02:08.903: setting config Kf=0.5 Kb=2.0 Re=1.0
G1 X-45.00 Y49.00 F6000                 ; move dl=90.02@0<100>0 de=0.0000 h=0.70
;00:02:10.003: pe=-1.0003 eb=0.0000 ve=0.0000 vn=0.0000 vl=0.000 db=0.00
G1 Z0.300 F420                          ; hopdn dz=-0.40@7 h=0.3
;00:02:10.060: pe=-1.0003 eb=0.0000 ve=0.0000 vn=0.0000 vl=0.000 db=0.00
G1 E83.9540 F1800                       ; restore de=2.8731@30
;00:02:10.156: pe=1.8342 eb=0.0386 ve=30.0000 vn=1.1575 vl=0.000 db=0.63
G1 X0.00 Y49.00 E86.7604 F1680          ; draw dl=45.00@0<28>5 l=0.30x0.50x1.00
;00:02:11.810: pe=1.8420 eb=0.0418 ve=0.3118 vn=1.0725 vl=5.000 db=0.65
G1 X20.00 Y49.00 E81.7604 F300          ; move dl=20.00@5<5>5 de=-5.0000 h=0.30
;00:02:15.810: pe=-3.4186 eb=0.0000 ve=-1.2500 vn=0.0000 vl=5.000 db=0.00
G1 X40.00 Y49.00 E86.7604               ; draw dl=20.00@5<5>5 l=0.30x0.50x4.01
;00:02:19.810: pe=1.3160 eb=0.0308 ve=1.2500 vn=0.3885 vl=5.000 db=0.56
G1 X45.00 Y49.00 E87.0722               ; draw dl=5.00@5<5>0 l=0.30x0.50x1.00
;00:02:20.815: pe=1.2773 eb=0.0315 ve=0.0000 vn=0.2848 vl=0.000 db=0.57
G1 E84.7949 F2400                       ; retract de=-2.2773@40
;00:02:20.872: pe=-1.0004 eb=0.0319 ve=-40.0000 vn=0.0000 vl=0.000 db=0.57
G1 Z0.700 F420                          ; hopup dz=0.40@7 h=0.7
;00:02:20.929: pe=-1.0004 eb=0.0319 ve=0.0000 vn=0.0000 vl=0.000 db=0.37
;00:02:20.929: restoring config Kf=0.5 Kb=2.0 Re=1.5
;00:02:20.929: Test Line Backlash Kf=0.5 Kb=2.0 Re=1.0 vx=36.0 re=5.0
;00:02:20.929: setting config Kf=0.5 Kb=2.0 Re=1.0
G1 X-45.00 Y47.00 F6000                 ; move dl=90.02@0<100>0 de=0.0000 h=0.70
;00:02:22.029: pe=-1.0004 eb=0.0000 ve=0.0000 vn=0.0000 vl=0.000 db=0.00
G1 Z0.300 F420                          ; hopdn dz=-0.40@7 h=0.3
;00:02:22.086: pe=-1.0004 eb=0.0000 ve=0.0000 vn=0.0000 vl=0.000 db=0.00
G1 E87.8886 F1800                       ; restore de=3.0938@30
;00:02:22.190: pe=2.0454 eb=0.0480 ve=30.0000 vn=1.2919 vl=0.000 db=0.70
G1 X0.00 Y47.00 E90.6950 F2160          ; draw dl=45.00@0<36>5 l=0.30x0.50x1.00
;00:02:23.502: pe=2.0632 eb=0.0508 ve=0.3118 vn=1.2460 vl=5.000 db=0.72
G1 X20.00 Y47.00 E85.6950 F300          ; move dl=20.00@5<5>5 de=-5.0000 h=0.30
;00:02:27.502: pe=-3.2569 eb=0.0000 ve=-1.2500 vn=0.0000 vl=5.000 db=0.00
G1 X40.00 Y47.00 E90.6950               ; draw dl=20.00@5<5>5 l=0.30x0.50x4.01
;00:02:31.502: pe=1.4252 eb=0.0362 ve=1.2500 vn=0.4197 vl=5.000 db=0.61
G1 X45.00 Y47.00 E91.0068               ; draw dl=5.00@5<5>0 l=0.30x0.50x1.00
;00:02:32.507: pe=1.3615 eb=0.0358 ve=0.0000 vn=0.3061 vl=0.000 db=0.60
G1 E88.6453 F2400                       ; retract de=-2.3615@40
;00:02:32.566: pe=-1.0004 eb=0.0362 ve=-40.0000 vn=0.0000 vl=0.000 db=0.61
G1 Z0.700 F420                          ; hopup dz=0.40@7 h=0.7
;00:02:32.623: pe=-1.0004 eb=0.0362 ve=0.0000 vn=0.0000 vl=0.000 db=0.40
;00:02:32.623: restoring config Kf=0.5 Kb=2.0 Re=1.5
;00:02:32.623: Test Line Backlash Kf=0.5 Kb=2.0 Re=1.0 vx=44.0 re=5.0
;00:02:32.623: setting config Kf=0.5 Kb=2.0 Re=1.0
G1 X-45.00 Y45.00 F6000                 ; move dl=90.02@0<100>0 de=0.0000 h=0.70
;00:02:33.724: pe=-1.0004 eb=0.0000 ve=0.0000 vn=0.0000 vl=0.000 db=0.00
G1 Z0.300 F420                          ; hopdn dz=-0.40@7 h=0.3
;00:02:33.781: pe=-1.0004 eb=0.0000 ve=0.0000 vn=0.0000 vl=0.000 db=0.00
G1 E91.9443 F1800                       ; restore de=3.2990@30
;00:02:33.891: pe=2.2410 eb=0.0576 ve=30.0000 vn=1.4160 vl=0.000 db=0.77
G1 X0.00 Y45.00 E94.7506 F2640          ; draw dl=45.00@0<44>5 l=0.30x0.50x1.00
;00:02:34.992: pe=2.2717 eb=0.0601 ve=0.3118 vn=1.4103 vl=5.000 db=0.78
G1 X20.00 Y45.00 E89.7506 F300          ; move dl=20.00@5<5>5 de=-5.0000 h=0.30
;00:02:38.992: pe=-3.1088 eb=0.0000 ve=-1.2500 vn=0.0000 vl=5.000 db=0.00
G1 X40.00 Y45.00 E94.7506               ; draw dl=20.00@5<5>5 l=0.30x0.50x4.01
;00:02:42.992: pe=1.5218 eb=0.0413 ve=1.2500 vn=0.4470 vl=5.000 db=0.65
G1 X45.00 Y45.00 E95.0624               ; draw dl=5.00@5<5>0 l=0.30x0.50x1.00
;00:02:43.997: pe=1.4361 eb=0.0397 ve=0.0000 vn=0.3249 vl=0.000 db=0.64
G1 E92.6263 F2400                       ; retract de=-2.4361@40
;00:02:44.058: pe=-1.0005 eb=0.0402 ve=-40.0000 vn=0.0000 vl=0.000 db=0.64
G1 Z0.700 F420                          ; hopup dz=0.40@7 h=0.7
;00:02:44.115: pe=-1.0005 eb=0.0402 ve=0.0000 vn=0.0000 vl=0.000 db=0.42
;00:02:44.115: restoring config Kf=0.5 Kb=2.0 Re=1.5
;00:02:44.115: Test Line Backlash Kf=0.5 Kb=2.0 Re=1.0 vx=52.0 re=5.0
;00:02:44.115: setting config Kf=0.5 Kb=2.0 Re=1.0
G1 X-45.00 Y43.00 F6000                 ; move dl=90.02@0<100>0 de=0.0000 h=0.70
;00:02:45.215: pe=-1.0005 eb=0.0000 ve=0.0000 vn=0.0000 vl=0.000 db=0.00
G1 Z0.300 F420                          ; hopdn dz=-0.40@7 h=0.3
;00:02:45.272: pe=-1.0005 eb=0.0000 ve=0.0000 vn=0.0000 vl=0.000 db=0.00
G1 E96.1130 F1800                       ; restore de=3.4868@30
;00:02:45.389: pe=2.4193 eb=0.0671 ve=30.0000 vn=1.5289 vl=0.000 db=0.83
G1 X0.00 Y43.00 E98.9194 F3120          ; draw dl=45.00@0<52>5 l=0.30x0.50x1.00
;00:02:46.349: pe=2.4652 eb=0.0693 ve=0.3118 vn=1.5654 vl=5.000 db=0.84
G1 X20.00 Y43.00 E93.9194 F300          ; move dl=20.00@5<5>5 de=-5.0000 h=0.30
;00:02:50.349: pe=-2.9749 eb=0.0000 ve=-1.2500 vn=0.0000 vl=5.000 db=0.00
G1 X40.00 Y43.00 E98.9194               ; draw dl=20.00@5<5>5 l=0.30x0.50x4.01
;00:02:54.349: pe=1.6064 eb=0.0460 ve=1.2500 vn=0.4708 vl=5.000 db=0.69
G1 X45.00 Y43.00 E99.2312               ; draw dl=5.00@5<5>0 l=0.30x0.50x1.00
;00:02:55.354: pe=1.5016 eb=0.0434 ve=0.0000 vn=0.3413 vl=0.000 db=0.67
G1 E96.7296 F2400                       ; retract de=-2.5016@40
;00:02:55.416: pe=-1.0005 eb=0.0439 ve=-40.0000 vn=0.0000 vl=0.000 db=0.67
G1 Z0.700 F420                          ; hopup dz=0.40@7 h=0.7
;00:02:55.473: pe=-1.0005 eb=0.0439 ve=0.0000 vn=0.0000 vl=0.000 db=0.44
;00:02:55.473: restoring config Kf=0.5 Kb=2.0 Re=1.5
;00:02:55.473: Test Line Backlash Kf=0.5 Kb=2.0 Re=1.0 vx=60.0 re=5.0
;00:02:55.473: setting config Kf=0.5 Kb=2.0 Re=1.0
G1 X-45.00 Y41.00 F6000                 ; move dl=90.02@0<100>0 de=0.0000 h=0.70
;00:02:56.573: pe=-1.0005 eb=0.0000 ve=0.0000 vn=0.0000 vl=0.000 db=0.00
G1 Z0.300 F420                          ; hopdn dz=-0.40@7 h=0.3
;00:02:56.631: pe=-1.0005 eb=0.0000 ve=0.0000 vn=0.0000 vl=0.000 db=0.00
G1 E100.3854 F1800                      ; restore de=3.6558@30
;00:02:56.752: pe=2.5791 eb=0.0762 ve=30.0000 vn=1.6296 vl=0.000 db=0.88
G1 X0.00 Y41.00 E103.1918 F3600         ; draw dl=45.00@0<60>5 l=0.30x0.50x1.00
;00:02:57.613: pe=2.6417 eb=0.0782 ve=0.3118 vn=1.7095 vl=5.000 db=0.89
G1 X20.00 Y41.00 E98.1918 F300          ; move dl=20.00@5<5>5 de=-5.0000 h=0.30
;00:03:01.613: pe=-2.8554 eb=0.0000 ve=-1.2500 vn=0.0000 vl=5.000 db=0.00
G1 X40.00 Y41.00 E103.1918              ; draw dl=20.00@5<5>5 l=0.30x0.50x4.01
;00:03:05.613: pe=1.6798 eb=0.0504 ve=1.2500 vn=0.4914 vl=5.000 db=0.72
G1 X45.00 Y41.00 E103.5036              ; draw dl=5.00@5<5>0 l=0.30x0.50x1.00
;00:03:06.618: pe=1.5583 eb=0.0467 ve=0.0000 vn=0.3555 vl=0.000 db=0.69
G1 E100.9452 F2400                      ; retract de=-2.5583@40
;00:03:06.682: pe=-1.0006 eb=0.0473 ve=-40.0000 vn=0.0000 vl=0.000 db=0.69
G1 Z0.700 F420                          ; hopup dz=0.40@7 h=0.7
;00:03:06.739: pe=-1.0006 eb=0.0473 ve=0.0000 vn=0.0000 vl=0.000 db=0.45
;00:03:06.739: restoring config Kf=0.5 Kb=2.0 Re=1.5
;00:03:06.739: Test Line Backlash Kf=0.5 Kb=2.0 Re=1.0 vx=68.0 re=5.0
;00:03:06.739: setting config Kf=0.5 Kb=2.0 Re=1.0
G1 X-45.00 Y39.00 F6000                 ; move dl=90.02@0<100>0 de=0.0000 h=0.70
;00:03:07.839: pe=-1.0006 eb=0.0000 ve=0.0000 vn=0.0000 vl=0.000 db=0.00
G1 Z0.300 F420                          ; hopdn dz=-0.40@7 h=0.3
;00:03:07.896: pe=-1.0006 eb=0.0000 ve=0.0000 vn=0.0000 vl=0.000 db=0.00
G1 E104.7507 F1800                      ; restore de=3.8054@30
;00:03:08.023: pe=2.7200 eb=0.0848 ve=30.0000 vn=1.7182 vl=0.000 db=0.93
G1 X0.00 Y39.00 E107.5570 F4080         ; draw dl=45.00@0<68>5 l=0.30x0.50x1.00
;00:03:08.811: pe=2.8003 eb=0.0865 ve=0.3118 vn=1.8409 vl=5.000 db=0.94
G1 X20.00 Y39.00 E102.5570 F300         ; move dl=20.00@5<5>5 de=-5.0000 h=0.30
;00:03:12.811: pe=-2.7503 eb=0.0000 ve=-1.2500 vn=0.0000 vl=5.000 db=0.00
G1 X40.00 Y39.00 E107.5570              ; draw dl=20.00@5<5>5 l=0.30x0.50x4.01
;00:03:16.811: pe=1.7427 eb=0.0542 ve=1.2500 vn=0.5090 vl=5.000 db=0.74
G1 X45.00 Y39.00 E107.8688              ; draw dl=5.00@5<5>0 l=0.30x0.50x1.00
;00:03:17.816: pe=1.6071 eb=0.0496 ve=0.0000 vn=0.3677 vl=0.000 db=0.71
G1 E105.2617 F2400                      ; retract de=-2.6071@40
;00:03:17.881: pe=-1.0006 eb=0.0502 ve=-40.0000 vn=0.0000 vl=0.000 db=0.72
G1 Z0.700 F420                          ; hopup dz=0.40@7 h=0.7
;00:03:17.939: pe=-1.0006 eb=0.0502 ve=0.0000 vn=0.0000 vl=0.000 db=0.47
;00:03:17.939: restoring config Kf=0.5 Kb=2.0 Re=1.5
;00:03:17.939: Test Line Backlash Kf=0.5 Kb=2.0 Re=1.0 vx=76.0 re=5.0
;00:03:17.939: setting config Kf=0.5 Kb=2.0 Re=1.0
G1 X-45.00 Y37.00 F6000                 ; move dl=90.02@0<100>0 de=0.0000 h=0.70
;00:03:19.039: pe=-1.0006 eb=0.0000 ve=0.0000 vn=0.0000 vl=0.000 db=0.00
G1 Z0.300 F420                          ; hopdn dz=-0.40@7 h=0.3
;00:03:19.096: pe=-1.0006 eb=0.0000 ve=0.0000 vn=0.0000 vl=0.000 db=0.00
G1 E109.1973 F1800                      ; restore de=3.9357@30
;00:03:19.227: pe=2.8424 eb=0.0926 ve=30.0000 vn=1.7949 vl=0.000 db=0.97
G1 X0.00 Y37.00 E112.0037 F4560         ; draw dl=45.00@0<76>5 l=0.30x0.50x1.00
;00:03:19.962: pe=2.9403 eb=0.0942 ve=0.3118 vn=1.9584 vl=5.000 db=0.98
G1 X20.00 Y37.00 E107.0037 F300         ; move dl=20.00@5<5>5 de=-5.0000 h=0.30
;00:03:23.962: pe=-2.6591 eb=0.0000 ve=-1.2500 vn=0.0000 vl=5.000 db=0.00
G1 X40.00 Y37.00 E112.0037              ; draw dl=20.00@5<5>5 l=0.30x0.50x4.01
;00:03:27.962: pe=1.7961 eb=0.0576 ve=1.2500 vn=0.5238 vl=5.000 db=0.77
G1 X45.00 Y37.00 E112.3155              ; draw dl=5.00@5<5>0 l=0.30x0.50x1.00
;00:03:28.967: pe=1.6485 eb=0.0522 ve=0.0000 vn=0.3781 vl=0.000 db=0.73
G1 E109.6670 F2400                      ; retract de=-2.6485@40
;00:03:29.033: pe=-1.0007 eb=0.0528 ve=-40.0000 vn=0.0000 vl=0.000 db=0.73
G1 Z0.700 F420                          ; hopup dz=0.40@7 h=0.7
;00:03:29.090: pe=-1.0007 eb=0.0528 ve=0.0000 vn=0.0000 vl=0.000 db=0.48
;00:03:29.090: restoring config Kf=0.5 Kb=2.0 Re=1.5
;00:03:29.090: Test Line Backlash Kf=0.5 Kb=2.0 Re=1.0 vx=84.0 re=5.0
;00:03:29.090: setting config Kf=0.5 Kb=2.0 Re=1.0
G1 X-45.00 Y35.00 F6000                 ; move dl=90.02@0<100>0 de=0.0000 h=0.70
;00:03:30.190: pe=-1.0007 eb=0.0000 ve=0.0000 vn=0.0000 vl=0.000 db=0.00
G1 Z0.300 F420                          ; hopdn dz=-0.40@7 h=0.3
;00:03:30.247: pe=-1.0007 eb=0.0000 ve=0.0000 vn=0.0000 vl=0.000 db=0.00
G1 E113.7139 F1800                      ; restore de=4.0470@30
;00:03:30.382: pe=2.9467 eb=0.0996 ve=30.0000 vn=1.8602 vl=0.000 db=1.01
G1 X0.00 Y35.00 E116.5203 F5040         ; draw dl=45.00@0<84>5 l=0.30x0.50x1.00
;00:03:31.076: pe=3.0617 eb=0.1010 ve=0.3118 vn=2.0614 vl=5.000 db=1.02
G1 X20.00 Y35.00 E111.5203 F300         ; move dl=20.00@5<5>5 de=-5.0000 h=0.30
;00:03:35.076: pe=-2.5812 eb=0.0000 ve=-1.2500 vn=0.0000 vl=5.000 db=0.00
G1 X40.00 Y35.00 E116.5203              ; draw dl=20.00@5<5>5 l=0.30x0.50x4.01
;00:03:39.076: pe=1.8408 eb=0.0606 ve=1.2500 vn=0.5362 vl=5.000 db=0.79
G1 X45.00 Y35.00 E116.8321              ; draw dl=5.00@5<5>0 l=0.30x0.50x1.00
;00:03:40.081: pe=1.6832 eb=0.0544 ve=0.0000 vn=0.3867 vl=0.000 db=0.74
G1 E114.1488 F2400                      ; retract de=-2.6832@40
;00:03:40.148: pe=-1.0007 eb=0.0551 ve=-40.0000 vn=0.0000 vl=0.000 db=0.75
G1 Z0.700 F420                          ; hopup dz=0.40@7 h=0.7
;00:03:40.205: pe=-1.0007 eb=0.0551 ve=0.0000 vn=0.0000 vl=0.000 db=0.49
;00:03:40.205: restoring config Kf=0.5 Kb=2.0 Re=1.5
;00:03:40.205: Test Line Backlash Kf=0.5 Kb=2.0 Re=1.0 vx=92.0 re=5.0
;00:03:40.205: setting config Kf=0.5 Kb=2.0 Re=1.0
G1 X-45.00 Y33.00 F6000                 ; move dl=90.02@0<100>0 de=0.0000 h=0.70
;00:03:41.306: pe=-1.0007 eb=0.0000 ve=0.0000 vn=0.0000 vl=0.000 db=0.00
G1 Z0.300 F420                          ; hopdn dz=-0.40@7 h=0.3
;00:03:41.363: pe=-1.0007 eb=0.0000 ve=0.0000 vn=0.0000 vl=0.000 db=0.00
G1 E118.2891 F1800                      ; restore de=4.1403@30
;00:03:41.501: pe=3.0340 eb=0.1056 ve=30.0000 vn=1.9146 vl=0.000 db=1.04
G1 X0.00 Y33.00 E121.0954 F5520         ; draw dl=45.00@0<92>5 l=0.30x0.50x1.00
;00:03:42.164: pe=3.1649 eb=0.1070 ve=0.3118 vn=2.1498 vl=5.000 db=1.04
G1 X20.00 Y33.00 E116.0954 F300         ; move dl=20.00@5<5>5 de=-5.0000 h=0.30
;00:03:46.164: pe=-2.5159 eb=0.0000 ve=-1.2500 vn=0.0000 vl=5.000 db=0.00
G1 X40.00 Y33.00 E121.0954              ; draw dl=20.00@5<5>5 l=0.30x0.50x4.01
;00:03:50.164: pe=1.8778 eb=0.0631 ve=1.2500 vn=0.5465 vl=5.000 db=0.80
G1 X45.00 Y33.00 E121.4073              ; draw dl=5.00@5<5>0 l=0.30x0.50x1.00
;00:03:51.169: pe=1.7119 eb=0.0562 ve=0.0000 vn=0.3939 vl=0.000 db=0.76
G1 E118.6953 F2400                      ; retract de=-2.7119@40
;00:03:51.237: pe=-1.0007 eb=0.0569 ve=-40.0000 vn=0.0000 vl=0.000 db=0.76
G1 Z0.700 F420                          ; hopup dz=0.40@7 h=0.7
;00:03:51.294: pe=-1.0007 eb=0.0569 ve=0.0000 vn=0.0000 vl=0.000 db=0.50
;00:03:51.294: restoring config Kf=0.5 Kb=2.0 Re=1.5
;00:03:51.294: Test Line Backlash Kf=0.5 Kb=2.0 Re=1.0 vx=100.0 re=5.0
;00:03:51.294: setting config Kf=0.5 Kb=2.0 Re=1.0
G1 X-45.00 Y31.00 F6000                 ; move dl=90.02@0<100>0 de=0.0000 h=0.70
;00:03:52.394: pe=-1.0007 eb=0.0000 ve=0.0000 vn=0.0000 vl=0.000 db=0.00
G1 Z0.300 F420                          ; hopdn dz=-0.40@7 h=0.3
;00:03:52.452: pe=-1.0007 eb=0.0000 ve=0.0000 vn=0.0000 vl=0.000 db=0.00
G1 E122.9121 F1800                      ; restore de=4.2168@30
;00:03:52.592: pe=3.1054 eb=0.1107 ve=30.0000 vn=1.9594 vl=0.000 db=1.06
G1 X0.00 Y31.00 E125.7185 F6000         ; draw dl=45.00@0<100>5 l=0.30x0.50x1.00
;00:03:53.232: pe=3.2506 eb=0.1120 ve=0.3118 vn=2.2238 vl=5.000 db=1.07
G1 X20.00 Y31.00 E120.7185 F300         ; move dl=20.00@5<5>5 de=-5.0000 h=0.30
;00:03:57.232: pe=-2.4622 eb=0.0000 ve=-1.2500 vn=0.0000 vl=5.000 db=0.00
G1 X40.00 Y31.00 E125.7185              ; draw dl=20.00@5<5>5 l=0.30x0.50x4.01
;00:04:01.232: pe=1.9078 eb=0.0651 ve=1.2500 vn=0.5548 vl=5.000 db=0.82
G1 X45.00 Y31.00 E126.0303              ; draw dl=5.00@5<5>0 l=0.30x0.50x1.00
;00:04:02.237: pe=1.7352 eb=0.0577 ve=0.0000 vn=0.3997 vl=0.000 db=0.77
G1 E123.2950 F2400                      ; retract de=-2.7352@40
;00:04:02.306: pe=-1.0008 eb=0.0585 ve=-40.0000 vn=0.0000 vl=0.000 db=0.77
G1 Z0.700 F420                          ; hopup dz=0.40@7 h=0.7
;00:04:02.363: pe=-1.0008 eb=0.0585 ve=0.0000 vn=0.0000 vl=0.000 db=0.51
;00:04:02.363: restoring config Kf=0.5 Kb=2.0 Re=1.5
;structure:brim
;00:04:02.363: text x0=46.0 y0=55 fsize=5 angle=0 'Kf=0.5\nKb=2.0\nRe=1.0\nvx=20-100\nre=5.0'
G1 X46.50 Y54.88 F4641                  ; move dl=23.93@0<77>0 de=0.0000 h=0.70
;00:04:02.827: pe=-1.0008 eb=0.0000 ve=0.0000 vn=0.0000 vl=0.000 db=0.00
G1 Z0.300 F420                          ; hopdn dz=-0.40@7 h=0.3
;00:04:02.884: pe=-1.0008 eb=0.0000 ve=0.0000 vn=0.0000 vl=0.000 db=0.00
G1 E125.6148 F1800                      ; restore de=2.3197@30
;00:04:02.961: pe=1.2995 eb=0.0195 ve=30.0000 vn=0.8147 vl=0.000 db=0.45
G1 X46.50 Y51.48 E125.8268 F600         ; draw dl=3.40@0<10>0 l=0.30x0.50x1.00
;00:04:03.321: pe=1.2923 eb=0.0287 ve=0.0000 vn=0.4202 vl=0.000 db=0.54
G1 E123.0345 F2400                      ; retract de=-2.7923@40
;00:04:03.391: pe=-1.5008 eb=0.0295 ve=-40.0000 vn=0.0000 vl=0.000 db=0.55
G1 Z0.700 F420                          ; hopup dz=0.40@7 h=0.7
;00:04:03.448: pe=-1.5008 eb=0.0295 ve=0.0000 vn=0.0000 vl=0.000 db=0.36
G1 X48.96 Y51.48 F1488                  ; move dl=2.46@0<25>0 de=0.0000 h=0.70
;00:04:03.597: pe=-1.5008 eb=0.0000 ve=0.0000 vn=0.0000 vl=0.000 db=0.00
G1 Z0.300 F420                          ; hopdn dz=-0.40@7 h=0.3
;00:04:03.654: pe=-1.5008 eb=0.0000 ve=0.0000 vn=0.0000 vl=0.000 db=0.00
G1 E125.8487 F1800                      ; restore de=2.8142@30
;00:04:03.748: pe=1.2940 eb=0.0193 ve=30.0000 vn=0.8110 vl=0.000 db=0.44
G1 X47.47 Y53.51 E126.0057 F600         ; draw dl=2.52@0<10>0 l=0.30x0.50x1.00
;00:04:04.020: pe=1.2869 eb=0.0285 ve=0.0000 vn=0.4179 vl=0.000 db=0.54
G1 E123.2189 F2400                      ; retract de=-2.7869@40
;00:04:04.090: pe=-1.5008 eb=0.0293 ve=-40.0000 vn=0.0000 vl=0.000 db=0.55
G1 Z0.700 F420                          ; hopup dz=0.40@7 h=0.7
;00:04:04.147: pe=-1.5008 eb=0.0293 ve=0.0000 vn=0.0000 vl=0.000 db=0.36
G1 X46.50 Y52.67 F1075                  ; move dl=1.28@0<18>0 de=0.0000 h=0.70
;00:04:04.254: pe=-1.5008 eb=0.0000 ve=0.0000 vn=0.0000 vl=0.000 db=0.00
G1 Z0.300 F420                          ; hopdn dz=-0.40@7 h=0.3
;00:04:04.311: pe=-1.5008 eb=0.0000 ve=0.0000 vn=0.0000 vl=0.000 db=0.00
G1 E126.0384 F1800                      ; restore de=2.8196@30
;00:04:04.405: pe=1.2993 eb=0.0195 ve=30.0000 vn=0.8140 vl=0.000 db=0.45
G1 X49.02 Y54.88 E126.2474 F600         ; draw dl=3.35@0<10>0 l=0.30x0.50x1.00
;00:04:04.760: pe=1.2920 eb=0.0287 ve=0.0000 vn=0.4201 vl=0.000 db=0.54
G1 E123.4554 F2400                      ; retract de=-2.7920@40
;00:04:04.830: pe=-1.5008 eb=0.0295 ve=-40.0000 vn=0.0000 vl=0.000 db=0.55
G1 Z0.700 F420                          ; hopup dz=0.40@7 h=0.7
;00:04:04.887: pe=-1.5008 eb=0.0295 ve=0.0000 vn=0.0000 vl=0.000 db=0.36
G1 X51.27 Y54.90 F1423                  ; move dl=2.25@0<24>0 de=0.0000 h=0.70
;00:04:05.030: pe=-1.5008 eb=0.0000 ve=0.0000 vn=0.0000 vl=0.000 db=0.00
G1 Z0.300 F420                          ; hopdn dz=-0.40@7 h=0.3
;00:04:05.087: pe=-1.5008 eb=0.0000 ve=0.0000 vn=0.0000 vl=0.000 db=0.00
G1 E126.1677 F1800                      ; restore de=2.7123@30
;00:04:05.177: pe=1.1950 eb=0.0165 ve=30.0000 vn=0.7473 vl=0.000 db=0.41
G1 X51.12 Y54.90 E126.1771 F600         ; draw dl=0.15@0<10>10 l=0.30x0.50x1.00
;00:04:05.202: pe=1.1907 eb=0.0214 ve=0.6236 vn=0.5124 vl=10.000 db=0.47
G1 X50.94 Y54.86 E126.1886              ; draw dl=0.18@10<10>10 l=0.30x0.50x1.00
;00:04:05.221: pe=1.1924 eb=0.0206 ve=0.6236 vn=0.5504 vl=10.000 db=0.46
G1 X50.78 Y54.73 E126.2014              ; draw dl=0.21@10<10>10 l=0.30x0.50x1.00
;00:04:05.241: pe=1.1937 eb=0.0204 ve=0.6236 vn=0.5639 vl=10.000 db=0.46
G1 X50.66 Y54.54 E126.2155              ; draw dl=0.22@10<10>10 l=0.30x0.50x1.00
;00:04:05.264: pe=1.1950 eb=0.0203 ve=0.6236 vn=0.5682 vl=10.000 db=0.46
G1 X50.58 Y54.17 E126.2391              ; draw dl=0.38@10<10>10 l=0.30x0.50x1.00
;00:04:05.302: pe=1.1971 eb=0.0204 ve=0.6236 vn=0.5703 vl=10.000 db=0.46
G1 X50.58 Y51.48 E126.4068              ; draw dl=2.69@10<10>0 l=0.30x0.50x1.00
;00:04:05.581: pe=1.2060 eb=0.0252 ve=0.0000 vn=0.3838 vl=0.000 db=0.51
G1 E123.7008 F2400                      ; retract de=-2.7060@40
;00:04:05.648: pe=-1.5007 eb=0.0259 ve=-40.0000 vn=0.0000 vl=0.000 db=0.51
G1 Z0.700 F420                          ; hopup dz=0.40@7 h=0.7
;00:04:05.705: pe=-1.5007 eb=0.0259 ve=0.0000 vn=0.0000 vl=0.000 db=0.34
G1 X50.08 Y53.76 F1449                  ; move dl=2.33@0<24>0 de=0.0000 h=0.70
;00:04:05.850: pe=-1.5007 eb=0.0000 ve=0.0000 vn=0.0000 vl=0.000 db=0.00
G1 Z0.300 F420                          ; hopdn dz=-0.40@7 h=0.3
;00:04:05.908: pe=-1.5007 eb=0.0000 ve=0.0000 vn=0.0000 vl=0.000 db=0.00
G1 E126.4890 F1800                      ; restore de=2.7883@30
;00:04:06.001: pe=1.2690 eb=0.0186 ve=30.0000 vn=0.7946 vl=0.000 db=0.44
G1 X51.16 Y53.76 E126.5564 F600         ; draw dl=1.08@0<10>0 l=0.30x0.50x1.00
;00:04:06.129: pe=1.2619 eb=0.0274 ve=0.0000 vn=0.4072 vl=0.000 db=0.53
G1 E123.7945 F2400                      ; retract de=-2.7619@40
;00:04:06.198: pe=-1.5008 eb=0.0282 ve=-40.0000 vn=0.0000 vl=0.000 db=0.54
G1 Z0.700 F420                          ; hopup dz=0.40@7 h=0.7
;00:04:06.255: pe=-1.5008 eb=0.0282 ve=0.0000 vn=0.0000 vl=0.000 db=0.35
G1 X52.34 Y53.26 F1074                  ; move dl=1.28@0<18>0 de=0.0000 h=0.70
;00:04:06.362: pe=-1.5008 eb=0.0000 ve=0.0000 vn=0.0000 vl=0.000 db=0.00
G1 Z0.300 F420                          ; hopdn dz=-0.40@7 h=0.3
;00:04:06.419: pe=-1.5008 eb=0.0000 ve=0.0000 vn=0.0000 vl=0.000 db=0.00
G1 E126.5985 F1800                      ; restore de=2.8041@30
;00:04:06.513: pe=1.2843 eb=0.0190 ve=30.0000 vn=0.8049 vl=0.000 db=0.44
G1 X54.03 Y53.26 E126.7039 F600         ; draw dl=1.69@0<10>0 l=0.30x0.50x1.00
;00:04:06.702: pe=1.2771 eb=0.0281 ve=0.0000 vn=0.4138 vl=0.000 db=0.54
G1 E123.9268 F2400                      ; retract de=-2.7771@40
;00:04:06.771: pe=-1.5008 eb=0.0288 ve=-40.0000 vn=0.0000 vl=0.000 db=0.54
G1 Z0.700 F420                          ; hopup dz=0.40@7 h=0.7
;00:04:06.828: pe=-1.5008 eb=0.0288 ve=0.0000 vn=0.0000 vl=0.000 db=0.36
G1 X54.03 Y52.55 F799                   ; move dl=0.71@0<13>0 de=0.0000 h=0.70
;00:04:06.908: pe=-1.5008 eb=0.0000 ve=0.0000 vn=0.0000 vl=0.000 db=0.00
G1 Z0.300 F420                          ; hopdn dz=-0.40@7 h=0.3
;00:04:06.965: pe=-1.5008 eb=0.0000 ve=0.0000 vn=0.0000 vl=0.000 db=0.00
G1 E126.7309 F1800                      ; restore de=2.8041@30
;00:04:07.059: pe=1.2843 eb=0.0190 ve=30.0000 vn=0.8049 vl=0.000 db=0.44
G1 X52.34 Y52.55 E126.8363 F600         ; draw dl=1.69@0<10>0 l=0.30x0.50x1.00
;00:04:07.248: pe=1.2771 eb=0.0281 ve=0.0000 vn=0.4138 vl=0.000 db=0.54
G1 E124.0591 F2400                      ; retract de=-2.7771@40
;00:04:07.317: pe=-1.5008 eb=0.0288 ve=-40.0000 vn=0.0000 vl=0.000 db=0.54
G1 Z0.700 F420                          ; hopup dz=0.40@7 h=0.7
;00:04:07.374: pe=-1.5008 eb=0.0288 ve=0.0000 vn=0.0000 vl=0.000 db=0.36
G1 X56.31 Y54.94 F2042                  ; move dl=4.63@0<34>0 de=0.0000 h=0.70
;00:04:07.579: pe=-1.5008 eb=0.0000 ve=0.0000 vn=0.0000 vl=0.000 db=0.00
G1 Z0.300 F420                          ; hopdn dz=-0.40@7 h=0.3
;00:04:07.636: pe=-1.5008 eb=0.0000 ve=0.0000 vn=0.0000 vl=0.000 db=0.00
G1 E126.8466 F1800                      ; restore de=2.7875@30
;00:04:07.729: pe=1.2682 eb=0.0186 ve=30.0000 vn=0.7941 vl=0.000 db=0.44
G1 X56.82 Y54.80 E126.8796 F600         ; draw dl=0.53@0<10>10 l=0.30x0.50x1.00
;00:04:07.792: pe=1.2646 eb=0.0229 ve=0.6236 vn=0.5958 vl=10.000 db=0.48
G1 X57.21 Y54.42 E126.9136              ; draw dl=0.54@10<10>10 l=0.30x0.50x1.00
;00:04:07.846: pe=1.2658 eb=0.0228 ve=0.6236 vn=0.6021 vl=10.000 db=0.48
G1 X57.45 Y53.86 E126.9516              ; draw dl=0.61@10<10>10 l=0.30x0.50x1.00
;00:04:07.907: pe=1.2671 eb=0.0228 ve=0.6236 vn=0.6029 vl=10.000 db=0.48
G1 X57.53 Y53.18 E126.9943              ; draw dl=0.68@10<10>10 l=0.30x0.50x1.00
;00:04:07.975: pe=1.2685 eb=0.0229 ve=0.6236 vn=0.6036 vl=10.000 db=0.48
G1 X57.45 Y52.51 E127.0364              ; draw dl=0.67@10<10>10 l=0.30x0.50x1.00
;00:04:08.043: pe=1.2698 eb=0.0229 ve=0.6236 vn=0.6042 vl=10.000 db=0.48
G1 X57.21 Y51.95 E127.0744              ; draw dl=0.61@10<10>10 l=0.30x0.50x1.00
;00:04:08.104: pe=1.2710 eb=0.0230 ve=0.6236 vn=0.6047 vl=10.000 db=0.48
G1 X56.82 Y51.56 E127.1087              ; draw dl=0.55@10<10>10 l=0.30x0.50x1.00
;00:04:08.159: pe=1.2720 eb=0.0230 ve=0.6236 vn=0.6052 vl=10.000 db=0.48
G1 X56.31 Y51.42 E127.1417              ; draw dl=0.53@10<10>10 l=0.30x0.50x1.00
;00:04:08.212: pe=1.2730 eb=0.0231 ve=0.6236 vn=0.6056 vl=10.000 db=0.49
G1 X55.79 Y51.56 E127.1753              ; draw dl=0.54@10<10>10 l=0.30x0.50x1.00
;00:04:08.266: pe=1.2739 eb=0.0231 ve=0.6236 vn=0.6061 vl=10.000 db=0.49
G1 X55.41 Y51.95 E127.2093              ; draw dl=0.54@10<10>10 l=0.30x0.50x1.00
;00:04:08.320: pe=1.2749 eb=0.0231 ve=0.6236 vn=0.6065 vl=10.000 db=0.49
G1 X55.17 Y52.51 E127.2473              ; draw dl=0.61@10<10>10 l=0.30x0.50x1.00
;00:04:08.381: pe=1.2759 eb=0.0232 ve=0.6236 vn=0.6070 vl=10.000 db=0.49
G1 X55.09 Y53.18 E127.2893              ; draw dl=0.67@10<10>10 l=0.30x0.50x1.00
;00:04:08.449: pe=1.2770 eb=0.0232 ve=0.6236 vn=0.6075 vl=10.000 db=0.49
G1 X55.17 Y53.85 E127.3314              ; draw dl=0.67@10<10>10 l=0.30x0.50x1.00
;00:04:08.516: pe=1.2781 eb=0.0232 ve=0.6236 vn=0.6080 vl=10.000 db=0.49
G1 X55.41 Y54.42 E127.3700              ; draw dl=0.62@10<10>10 l=0.30x0.50x1.00
;00:04:08.578: pe=1.2790 eb=0.0233 ve=0.6236 vn=0.6084 vl=10.000 db=0.49
G1 X55.79 Y54.80 E127.4035              ; draw dl=0.54@10<10>10 l=0.30x0.50x1.00
;00:04:08.632: pe=1.2798 eb=0.0233 ve=0.6236 vn=0.6088 vl=10.000 db=0.49
G1 X56.31 Y54.94 E127.4371              ; draw dl=0.54@10<10>0 l=0.30x0.50x1.00
;00:04:08.695: pe=1.2759 eb=0.0280 ve=0.0000 vn=0.4132 vl=0.000 db=0.53
G1 E124.6612 F2400                      ; retract de=-2.7759@40
;00:04:08.765: pe=-1.5008 eb=0.0288 ve=-40.0000 vn=0.0000 vl=0.000 db=0.54
G1 Z0.700 F420                          ; hopup dz=0.40@7 h=0.7
;00:04:08.822: pe=-1.5008 eb=0.0288 ve=0.0000 vn=0.0000 vl=0.000 db=0.35
G1 X58.59 Y51.71 F1886                  ; move dl=3.95@0<31>0 de=0.0000 h=0.70
;00:04:09.011: pe=-1.5008 eb=0.0000 ve=0.0000 vn=0.0000 vl=0.000 db=0.00
G1 Z0.300 F420                          ; hopdn dz=-0.40@7 h=0.3
;00:04:09.068: pe=-1.5008 eb=0.0000 ve=0.0000 vn=0.0000 vl=0.000 db=0.00
G1 E127.2671 F1800                      ; restore de=2.6059@30
;00:04:09.155: pe=1.0912 eb=0.0138 ve=30.0000 vn=0.6800 vl=0.000 db=0.38
G1 X58.59 Y51.65 E127.2708 F232         ; draw dl=0.06@0<4>0 l=0.30x0.50x1.00
;00:04:09.178: pe=1.0843 eb=0.0213 ve=0.0000 vn=0.3049 vl=0.000 db=0.47
G1 E124.6865 F2400                      ; retract de=-2.5843@40
;00:04:09.242: pe=-1.5004 eb=0.0217 ve=-40.0000 vn=0.0000 vl=0.000 db=0.47
G1 Z0.700 F420                          ; hopup dz=0.40@7 h=0.7
;00:04:09.300: pe=-1.5004 eb=0.0217 ve=0.0000 vn=0.0000 vl=0.000 db=0.31
G1 X61.64 Y54.88 F2000                  ; move dl=4.44@0<33>0 de=0.0000 h=0.70
;00:04:09.500: pe=-1.5004 eb=0.0000 ve=0.0000 vn=0.0000 vl=0.000 db=0.00
G1 Z0.300 F420                          ; hopdn dz=-0.40@7 h=0.3
;00:04:09.557: pe=-1.5004 eb=0.0000 ve=0.0000 vn=0.0000 vl=0.000 db=0.00
G1 E127.5064 F1800                      ; restore de=2.8199@30
;00:04:09.651: pe=1.2999 eb=0.0195 ve=30.0000 vn=0.8145 vl=0.000 db=0.45
G1 X59.89 Y54.88 E127.6155 F600         ; draw dl=1.75@0<10>10 l=0.30x0.50x1.00
;00:04:09.836: pe=1.2964 eb=0.0239 ve=0.6236 vn=0.6165 vl=10.000 db=0.49
G1 X59.75 Y53.14 E127.7244              ; draw dl=1.75@10<10>5 l=0.30x0.50x1.00
;00:04:10.013: pe=1.2961 eb=0.0254 ve=0.3034 vn=0.5571 vl=4.866 db=0.51
G1 X60.03 Y53.45 E127.7504              ; draw dl=0.42@5<10>10 l=0.30x0.50x1.00
;00:04:10.057: pe=1.2970 eb=0.0242 ve=0.6236 vn=0.6045 vl=10.000 db=0.50
G1 X60.20 Y53.57 E127.7634              ; draw dl=0.21@10<10>10 l=0.30x0.50x1.00
;00:04:10.078: pe=1.2973 eb=0.0240 ve=0.6236 vn=0.6132 vl=10.000 db=0.50
G1 X60.39 Y53.64 E127.7760              ; draw dl=0.20@10<10>10 l=0.30x0.50x1.00
;00:04:10.098: pe=1.2974 eb=0.0240 ve=0.6236 vn=0.6158 vl=10.000 db=0.49
G1 X60.58 Y53.67 E127.7880              ; draw dl=0.19@10<10>10 l=0.30x0.50x1.00
;00:04:10.118: pe=1.2976 eb=0.0240 ve=0.6236 vn=0.6166 vl=10.000 db=0.49
G1 X60.78 Y53.68 E127.8005              ; draw dl=0.20@10<10>10 l=0.30x0.50x1.00
;00:04:10.138: pe=1.2977 eb=0.0240 ve=0.6236 vn=0.6170 vl=10.000 db=0.49
G1 X61.19 Y53.59 E127.8267              ; draw dl=0.42@10<10>10 l=0.30x0.50x1.00
;00:04:10.180: pe=1.2980 eb=0.0240 ve=0.6236 vn=0.6172 vl=10.000 db=0.49
G1 X61.51 Y53.37 E127.8509              ; draw dl=0.39@10<10>10 l=0.30x0.50x1.00
;00:04:10.218: pe=1.2982 eb=0.0240 ve=0.6236 vn=0.6173 vl=10.000 db=0.49
G1 X61.72 Y53.03 E127.8758              ; draw dl=0.40@10<10>10 l=0.30x0.50x1.00
;00:04:10.258: pe=1.2985 eb=0.0240 ve=0.6236 vn=0.6175 vl=10.000 db=0.49
G1 X61.80 Y52.61 E127.9025              ; draw dl=0.43@10<10>10 l=0.30x0.50x1.00
;00:04:10.301: pe=1.2987 eb=0.0240 ve=0.6236 vn=0.6176 vl=10.000 db=0.49
G1 X61.73 Y52.14 E127.9321              ; draw dl=0.48@10<10>10 l=0.30x0.50x1.00
;00:04:10.349: pe=1.2990 eb=0.0240 ve=0.6236 vn=0.6177 vl=10.000 db=0.50
G1 X61.52 Y51.77 E127.9586              ; draw dl=0.43@10<10>10 l=0.30x0.50x1.00
;00:04:10.391: pe=1.2993 eb=0.0240 ve=0.6236 vn=0.6178 vl=10.000 db=0.50
G1 X61.17 Y51.51 E127.9858              ; draw dl=0.44@10<10>10 l=0.30x0.50x1.00
;00:04:10.435: pe=1.2995 eb=0.0240 ve=0.6236 vn=0.6179 vl=10.000 db=0.50
G1 X60.67 Y51.42 E128.0175              ; draw dl=0.51@10<10>10 l=0.30x0.50x1.00
;00:04:10.486: pe=1.2998 eb=0.0240 ve=0.6236 vn=0.6181 vl=10.000 db=0.50
G1 X60.30 Y51.48 E128.0409              ; draw dl=0.37@10<10>10 l=0.30x0.50x1.00
;00:04:10.523: pe=1.3000 eb=0.0240 ve=0.6236 vn=0.6182 vl=10.000 db=0.50
G1 X59.99 Y51.64 E128.0627              ; draw dl=0.35@10<10>10 l=0.30x0.50x1.00
;00:04:10.558: pe=1.3002 eb=0.0241 ve=0.6236 vn=0.6183 vl=10.000 db=0.50
G1 X59.77 Y51.91 E128.0844              ; draw dl=0.35@10<10>10 l=0.30x0.50x1.00
;00:04:10.593: pe=1.3004 eb=0.0241 ve=0.6236 vn=0.6183 vl=10.000 db=0.50
G1 X59.65 Y52.27 E128.1080              ; draw dl=0.38@10<10>0 l=0.30x0.50x1.00
;00:04:10.641: pe=1.2957 eb=0.0288 ve=0.0000 vn=0.4216 vl=0.000 db=0.54
G1 E125.3123 F2400                      ; retract de=-2.7957@40
;00:04:10.711: pe=-1.5008 eb=0.0296 ve=-40.0000 vn=0.0000 vl=0.000 db=0.55
G1 Z0.700 F420                          ; hopup dz=0.40@7 h=0.7
;00:04:10.768: pe=-1.5008 eb=0.0296 ve=0.0000 vn=0.0000 vl=0.000 db=0.36
G1 X46.50 Y49.88 F3468                  ; move dl=13.37@0<58>0 de=0.0000 h=0.70
;00:04:11.115: pe=-1.5008 eb=0.0000 ve=0.0000 vn=0.0000 vl=0.000 db=0.00
G1 Z0.300 F420                          ; hopdn dz=-0.40@7 h=0.3
;00:04:11.172: pe=-1.5008 eb=0.0000 ve=0.0000 vn=0.0000 vl=0.000 db=0.00
G1 E128.1321 F1800                      ; restore de=2.8198@30
;00:04:11.266: pe=1.2995 eb=0.0195 ve=30.0000 vn=0.8142 vl=0.000 db=0.45
G1 X46.50 Y46.48 E128.3441 F600         ; draw dl=3.40@0<10>0 l=0.30x0.50x1.00
;00:04:11.626: pe=1.2923 eb=0.0287 ve=0.0000 vn=0.4202 vl=0.000 db=0.54
G1 E125.5519 F2400                      ; retract de=-2.7923@40
;00:04:11.696: pe=-1.5008 eb=0.0295 ve=-40.0000 vn=0.0000 vl=0.000 db=0.55
G1 Z0.700 F420                          ; hopup dz=0.40@7 h=0.7
;00:04:11.753: pe=-1.5008 eb=0.0295 ve=0.0000 vn=0.0000 vl=0.000 db=0.36
G1 X48.96 Y46.48 F1488                  ; move dl=2.46@0<25>0 de=0.0000 h=0.70
;00:04:11.902: pe=-1.5008 eb=0.0000 ve=0.0000 vn=0.0000 vl=0.000 db=0.00
G1 Z0.300 F420                          ; hopdn dz=-0.40@7 h=0.3
;00:04:11.959: pe=-1.5008 eb=0.0000 ve=0.0000 vn=0.0000 vl=0.000 db=0.00
G1 E128.3660 F1800                      ; restore de=2.8142@30
;00:04:12.052: pe=1.2940 eb=0.0193 ve=30.0000 vn=0.8110 vl=0.000 db=0.44
G1 X47.47 Y48.51 E128.5231 F600         ; draw dl=2.52@0<10>0 l=0.30x0.50x1.00
;00:04:12.324: pe=1.2869 eb=0.0285 ve=0.0000 vn=0.4179 vl=0.000 db=0.54
G1 E125.7362 F2400                      ; retract de=-2.7869@40
;00:04:12.394: pe=-1.5008 eb=0.0293 ve=-40.0000 vn=0.0000 vl=0.000 db=0.55
G1 Z0.700 F420                          ; hopup dz=0.40@7 h=0.7
;00:04:12.451: pe=-1.5008 eb=0.0293 ve=0.0000 vn=0.0000 vl=0.000 db=0.36
G1 X46.50 Y47.67 F1075                  ; move dl=1.28@0<18>0 de=0.0000 h=0.70
;00:04:12.559: pe=-1.5008 eb=0.0000 ve=0.0000 vn=0.0000 vl=0.000 db=0.00
G1 Z0.300 F420                          ; hopdn dz=-0.40@7 h=0.3
;00:04:12.616: pe=-1.5008 eb=0.0000 ve=0.0000 vn=0.0000 vl=0.000 db=0.00
G1 E128.5558 F1800                      ; restore de=2.8196@30
;00:04:12.710: pe=1.2992 eb=0.0195 ve=30.0000 vn=0.8140 vl=0.000 db=0.45
G1 X49.02 Y49.88 E128.7648 F600         ; draw dl=3.35@0<10>0 l=0.30x0.50x1.00
;00:04:13.065: pe=1.2920 eb=0.0287 ve=0.0000 vn=0.4201 vl=0.000 db=0.54
G1 E125.9728 F2400                      ; retract de=-2.7920@40
;00:04:13.135: pe=-1.5008 eb=0.0295 ve=-40.0000 vn=0.0000 vl=0.000 db=0.55
G1 Z0.700 F420                          ; hopup dz=0.40@7 h=0.7
;00:04:13.192: pe=-1.5008 eb=0.0295 ve=0.0000 vn=0.0000 vl=0.000 db=0.36
G1 X50.08 Y49.88 F977                   ; move dl=1.06@0<16>0 de=0.0000 h=0.70
;00:04:13.289: pe=-1.5008 eb=0.0000 ve=0.0000 vn=0.0000 vl=0.000 db=0.00
G1 Z0.300 F420                          ; hopdn dz=-0.40@7 h=0.3
;00:04:13.347: pe=-1.5008 eb=0.0000 ve=0.0000 vn=0.0000 vl=0.000 db=0.00
G1 E128.7925 F1800                      ; restore de=2.8198@30
;00:04:13.441: pe=1.2995 eb=0.0195 ve=30.0000 vn=0.8142 vl=0.000 db=0.45
G1 X50.08 Y46.48 E129.0046 F600         ; draw dl=3.40@0<10>0 l=0.30x0.50x1.00
;00:04:13.801: pe=1.2923 eb=0.0287 ve=0.0000 vn=0.4202 vl=0.000 db=0.54
G1 E126.2123 F2400                      ; retract de=-2.7923@40
;00:04:13.870: pe=-1.5008 eb=0.0295 ve=-40.0000 vn=0.0000 vl=0.000 db=0.55
G1 Z0.700 F420                          ; hopup dz=0.40@7 h=0.7
;00:04:13.928: pe=-1.5008 eb=0.0295 ve=0.0000 vn=0.0000 vl=0.000 db=0.36
G1 X50.08 Y46.98 F671                   ; move dl=0.50@0<11>0 de=0.0000 h=0.70
;00:04:13.995: pe=-1.5008 eb=0.0003 ve=0.0000 vn=0.0000 vl=0.000 db=0.03
G1 Z0.300 F420                          ; hopdn dz=-0.40@7 h=0.3
;00:04:14.052: pe=-1.5008 eb=0.0003 ve=0.0000 vn=0.0000 vl=0.000 db=0.05
G1 E128.9796 F1800                      ; restore de=2.7673@30
;00:04:14.144: pe=1.2487 eb=0.0180 ve=30.0000 vn=0.7818 vl=0.000 db=0.43
G1 X50.33 Y46.74 E129.0012 F600         ; draw dl=0.35@0<10>10 l=0.30x0.50x1.00
;00:04:14.189: pe=1.2450 eb=0.0224 ve=0.6236 vn=0.5755 vl=10.000 db=0.48
G1 X50.72 Y46.49 E129.0301              ; draw dl=0.46@10<10>10 l=0.30x0.50x1.00
;00:04:14.235: pe=1.2467 eb=0.0221 ve=0.6236 vn=0.5923 vl=10.000 db=0.48
G1 X51.10 Y46.42 E129.0542              ; draw dl=0.39@10<10>10 l=0.30x0.50x1.00
;00:04:14.274: pe=1.2478 eb=0.0221 ve=0.6236 vn=0.5939 vl=10.000 db=0.48
G1 X51.48 Y46.51 E129.0785              ; draw dl=0.39@10<10>10 l=0.30x0.50x1.00
;00:04:14.313: pe=1.2490 eb=0.0222 ve=0.6236 vn=0.5945 vl=10.000 db=0.48
G1 X51.79 Y46.77 E129.1038              ; draw dl=0.40@10<10>10 l=0.30x0.50x1.00
;00:04:14.353: pe=1.2502 eb=0.0222 ve=0.6236 vn=0.5950 vl=10.000 db=0.48
G1 X51.99 Y47.18 E129.1322              ; draw dl=0.46@10<10>10 l=0.30x0.50x1.00
;00:04:14.399: pe=1.2514 eb=0.0223 ve=0.6236 vn=0.5956 vl=10.000 db=0.48
G1 X52.06 Y47.71 E129.1656              ; draw dl=0.53@10<10>10 l=0.30x0.50x1.00
;00:04:14.452: pe=1.2529 eb=0.0223 ve=0.6236 vn=0.5963 vl=10.000 db=0.48
G1 X52.00 Y48.22 E129.1976              ; draw dl=0.51@10<10>10 l=0.30x0.50x1.00
;00:04:14.504: pe=1.2543 eb=0.0224 ve=0.6236 vn=0.5970 vl=10.000 db=0.48
G1 X51.82 Y48.61 E129.2244              ; draw dl=0.43@10<10>10 l=0.30x0.50x1.00
;00:04:14.547: pe=1.2554 eb=0.0224 ve=0.6236 vn=0.5975 vl=10.000 db=0.48
G1 X51.53 Y48.86 E129.2483              ; draw dl=0.38@10<10>10 l=0.30x0.50x1.00
;00:04:14.585: pe=1.2564 eb=0.0224 ve=0.6236 vn=0.5980 vl=10.000 db=0.48
G1 X51.13 Y48.95 E129.2738              ; draw dl=0.41@10<10>10 l=0.30x0.50x1.00
;00:04:14.626: pe=1.2575 eb=0.0225 ve=0.6236 vn=0.5984 vl=10.000 db=0.48
G1 X50.94 Y48.93 E129.2857              ; draw dl=0.19@10<10>10 l=0.30x0.50x1.00
;00:04:14.645: pe=1.2579 eb=0.0225 ve=0.6236 vn=0.5987 vl=10.000 db=0.48
G1 X50.74 Y48.85 E129.2992              ; draw dl=0.22@10<10>10 l=0.30x0.50x1.00
;00:04:14.667: pe=1.2585 eb=0.0225 ve=0.6236 vn=0.5989 vl=10.000 db=0.48
G1 X50.53 Y48.72 E129.3146              ; draw dl=0.25@10<10>10 l=0.30x0.50x1.00
;00:04:14.691: pe=1.2591 eb=0.0225 ve=0.6236 vn=0.5992 vl=10.000 db=0.48
G1 X50.33 Y48.50 E129.3331              ; draw dl=0.30@10<10>10 l=0.30x0.50x1.00
;00:04:14.721: pe=1.2598 eb=0.0226 ve=0.6236 vn=0.5995 vl=10.000 db=0.48
G1 X50.08 Y48.03 E129.3663              ; draw dl=0.53@10<10>0 l=0.30x0.50x1.00
;00:04:14.784: pe=1.2564 eb=0.0272 ve=0.0000 vn=0.4050 vl=0.000 db=0.53
G1 E126.6099 F2400                      ; retract de=-2.7564@40
;00:04:14.853: pe=-1.5008 eb=0.0280 ve=-40.0000 vn=0.0000 vl=0.000 db=0.53
G1 Z0.700 F420                          ; hopup dz=0.40@7 h=0.7
;00:04:14.910: pe=-1.5008 eb=0.0280 ve=0.0000 vn=0.0000 vl=0.000 db=0.35
G1 X53.12 Y48.26 F1656                  ; move dl=3.05@0<28>0 de=0.0000 h=0.70
;00:04:15.076: pe=-1.5008 eb=0.0000 ve=0.0000 vn=0.0000 vl=0.000 db=0.00
G1 Z0.300 F420                          ; hopdn dz=-0.40@7 h=0.3
;00:04:15.133: pe=-1.5008 eb=0.0000 ve=0.0000 vn=0.0000 vl=0.000 db=0.00
G1 E129.4140 F1800                      ; restore de=2.8041@30
;00:04:15.226: pe=1.2843 eb=0.0190 ve=30.0000 vn=0.8049 vl=0.000 db=0.44
G1 X54.81 Y48.26 E129.5194 F600         ; draw dl=1.69@0<10>0 l=0.30x0.50x1.00
;00:04:15.415: pe=1.2771 eb=0.0281 ve=0.0000 vn=0.4138 vl=0.000 db=0.54
G1 E126.7422 F2400                      ; retract de=-2.7771@40
;00:04:15.485: pe=-1.5008 eb=0.0288 ve=-40.0000 vn=0.0000 vl=0.000 db=0.54
G1 Z0.700 F420                          ; hopup dz=0.40@7 h=0.7
;00:04:15.542: pe=-1.5008 eb=0.0288 ve=0.0000 vn=0.0000 vl=0.000 db=0.36
G1 X54.81 Y47.55 F799                   ; move dl=0.71@0<13>0 de=0.0000 h=0.70
;00:04:15.622: pe=-1.5008 eb=0.0000 ve=0.0000 vn=0.0000 vl=0.000 db=0.00
G1 Z0.300 F420                          ; hopdn dz=-0.40@7 h=0.3
;00:04:15.679: pe=-1.5008 eb=0.0000 ve=0.0000 vn=0.0000 vl=0.000 db=0.00
G1 E129.5463 F1800                      ; restore de=2.8041@30
;00:04:15.773: pe=1.2843 eb=0.0190 ve=30.0000 vn=0.8049 vl=0.000 db=0.44
G1 X53.12 Y47.55 E129.6517 F600         ; draw dl=1.69@0<10>0 l=0.30x0.50x1.00
;00:04:15.962: pe=1.2771 eb=0.0281 ve=0.0000 vn=0.4138 vl=0.000 db=0.54
G1 E126.8746 F2400                      ; retract de=-2.7771@40
;00:04:16.031: pe=-1.5008 eb=0.0288 ve=-40.0000 vn=0.0000 vl=0.000 db=0.54
G1 Z0.700 F420                          ; hopup dz=0.40@7 h=0.7
;00:04:16.088: pe=-1.5008 eb=0.0288 ve=0.0000 vn=0.0000 vl=0.000 db=0.36
G1 X55.88 Y49.44 F1735                  ; move dl=3.35@0<29>0 de=0.0000 h=0.70
;00:04:16.262: pe=-1.5008 eb=0.0000 ve=0.0000 vn=0.0000 vl=0.000 db=0.00
G1 Z0.300 F420                          ; hopdn dz=-0.40@7 h=0.3
;00:04:16.319: pe=-1.5008 eb=0.0000 ve=0.0000 vn=0.0000 vl=0.000 db=0.00
G1 E129.6289 F1800                      ; restore de=2.7543@30
;00:04:16.411: pe=1.2359 eb=0.0177 ve=30.0000 vn=0.7735 vl=0.000 db=0.42
G1 X56.06 Y49.65 E129.6461 F600         ; draw dl=0.28@0<10>10 l=0.30x0.50x1.00
;00:04:16.448: pe=1.2320 eb=0.0222 ve=0.6236 vn=0.5608 vl=10.000 db=0.48
G1 X56.29 Y49.81 E129.6636              ; draw dl=0.28@10<10>10 l=0.30x0.50x1.00
;00:04:16.476: pe=1.2334 eb=0.0217 ve=0.6236 vn=0.5825 vl=10.000 db=0.47
G1 X56.55 Y49.90 E129.6808              ; draw dl=0.28@10<10>10 l=0.30x0.50x1.00
;00:04:16.504: pe=1.2344 eb=0.0217 ve=0.6236 vn=0.5868 vl=10.000 db=0.47
G1 X56.84 Y49.94 E129.6990              ; draw dl=0.29@10<10>10 l=0.30x0.50x1.00
;00:04:16.533: pe=1.2355 eb=0.0217 ve=0.6236 vn=0.5881 vl=10.000 db=0.47
G1 X57.21 Y49.88 E129.7224              ; draw dl=0.37@10<10>10 l=0.30x0.50x1.00
;00:04:16.571: pe=1.2368 eb=0.0217 ve=0.6236 vn=0.5888 vl=10.000 db=0.47
G1 X57.50 Y49.68 E129.7444              ; draw dl=0.35@10<10>10 l=0.30x0.50x1.00
;00:04:16.606: pe=1.2380 eb=0.0218 ve=0.6236 vn=0.5894 vl=10.000 db=0.47
G1 X57.70 Y49.39 E129.7663              ; draw dl=0.35@10<10>10 l=0.30x0.50x1.00
;00:04:16.641: pe=1.2392 eb=0.0218 ve=0.6236 vn=0.5900 vl=10.000 db=0.47
G1 X57.77 Y49.02 E129.7898              ; draw dl=0.38@10<10>10 l=0.30x0.50x1.00
;00:04:16.679: pe=1.2405 eb=0.0219 ve=0.6236 vn=0.5906 vl=10.000 db=0.47
G1 X57.66 Y48.63 E129.8151              ; draw dl=0.41@10<10>10 l=0.30x0.50x1.00
;00:04:16.719: pe=1.2418 eb=0.0219 ve=0.6236 vn=0.5912 vl=10.000 db=0.47
G1 X57.38 Y48.27 E129.8435              ; draw dl=0.46@10<10>10 l=0.30x0.50x1.00
;00:04:16.765: pe=1.2433 eb=0.0220 ve=0.6236 vn=0.5919 vl=10.000 db=0.47
G1 X56.61 Y47.64 E129.9056              ; draw dl=0.99@10<10>10 l=0.30x0.50x1.00
;00:04:16.864: pe=1.2463 eb=0.0221 ve=0.6236 vn=0.5933 vl=10.000 db=0.47
G1 X56.30 Y47.23 E129.9376              ; draw dl=0.51@10<10>10 l=0.30x0.50x1.00
;00:04:16.916: pe=1.2479 eb=0.0221 ve=0.6236 vn=0.5940 vl=10.000 db=0.48
G1 X55.91 Y46.48 E129.9904              ; draw dl=0.85@10<10>7 l=0.30x0.50x1.00
;00:04:17.001: pe=1.2499 eb=0.0226 ve=0.4580 vn=0.5777 vl=7.345 db=0.48
G1 X57.73 Y46.48 E130.1039              ; draw dl=1.82@7<10>0 l=0.30x0.50x1.00
;00:04:17.194: pe=1.2505 eb=0.0270 ve=0.0000 vn=0.4025 vl=0.000 db=0.52
G1 E127.3534 F2400                      ; retract de=-2.7505@40
;00:04:17.262: pe=-1.5007 eb=0.0277 ve=-40.0000 vn=0.0000 vl=0.000 db=0.53
G1 Z0.700 F420                          ; hopup dz=0.40@7 h=0.7
;00:04:17.320: pe=-1.5007 eb=0.0277 ve=0.0000 vn=0.0000 vl=0.000 db=0.35
G1 X58.83 Y46.71 F1006                  ; move dl=1.12@0<17>0 de=0.0000 h=0.70
;00:04:17.420: pe=-1.5007 eb=0.0000 ve=0.0000 vn=0.0000 vl=0.000 db=0.00
G1 Z0.300 F420                          ; hopdn dz=-0.40@7 h=0.3
;00:04:17.477: pe=-1.5007 eb=0.0000 ve=0.0000 vn=0.0000 vl=0.000 db=0.00
G1 E129.9592 F1800                      ; restore de=2.6058@30
;00:04:17.564: pe=1.0912 eb=0.0138 ve=30.0000 vn=0.6800 vl=0.000 db=0.38
G1 X58.83 Y46.65 E129.9629 F232         ; draw dl=0.06@0<4>0 l=0.30x0.50x1.00
;00:04:17.587: pe=1.0843 eb=0.0213 ve=0.0000 vn=0.3049 vl=0.000 db=0.47
G1 E127.3786 F2400                      ; retract de=-2.5843@40
;00:04:17.652: pe=-1.5004 eb=0.0217 ve=-40.0000 vn=0.0000 vl=0.000 db=0.47
G1 Z0.700 F420                          ; hopup dz=0.40@7 h=0.7
;00:04:17.709: pe=-1.5004 eb=0.0217 ve=0.0000 vn=0.0000 vl=0.000 db=0.31
G1 X61.11 Y49.94 F1898                  ; move dl=4.00@0<32>0 de=0.0000 h=0.70
;00:04:17.899: pe=-1.5004 eb=0.0000 ve=0.0000 vn=0.0000 vl=0.000 db=0.00
G1 Z0.300 F420                          ; hopdn dz=-0.40@7 h=0.3
;00:04:17.956: pe=-1.5004 eb=0.0000 ve=0.0000 vn=0.0000 vl=0.000 db=0.00
G1 E130.1658 F1800                      ; restore de=2.7871@30
;00:04:18.049: pe=1.2682 eb=0.0186 ve=30.0000 vn=0.7942 vl=0.000 db=0.44
G1 X61.62 Y49.80 E130.1987 F600         ; draw dl=0.53@0<10>10 l=0.30x0.50x1.00
;00:04:18.112: pe=1.2646 eb=0.0229 ve=0.6236 vn=0.5958 vl=10.000 db=0.48
G1 X62.01 Y49.42 E130.2327              ; draw dl=0.54@10<10>10 l=0.30x0.50x1.00
;00:04:18.166: pe=1.2658 eb=0.0228 ve=0.6236 vn=0.6021 vl=10.000 db=0.48
G1 X62.25 Y48.86 E130.2707              ; draw dl=0.61@10<10>10 l=0.30x0.50x1.00
;00:04:18.227: pe=1.2671 eb=0.0228 ve=0.6236 vn=0.6029 vl=10.000 db=0.48
G1 X62.33 Y48.18 E130.3134              ; draw dl=0.68@10<10>10 l=0.30x0.50x1.00
;00:04:18.296: pe=1.2685 eb=0.0229 ve=0.6236 vn=0.6036 vl=10.000 db=0.48
G1 X62.25 Y47.51 E130.3555              ; draw dl=0.67@10<10>10 l=0.30x0.50x1.00
;00:04:18.363: pe=1.2698 eb=0.0229 ve=0.6236 vn=0.6042 vl=10.000 db=0.48
G1 X62.01 Y46.95 E130.3935              ; draw dl=0.61@10<10>10 l=0.30x0.50x1.00
;00:04:18.424: pe=1.2710 eb=0.0230 ve=0.6236 vn=0.6047 vl=10.000 db=0.48
G1 X61.62 Y46.56 E130.4279              ; draw dl=0.55@10<10>10 l=0.30x0.50x1.00
;00:04:18.479: pe=1.2720 eb=0.0230 ve=0.6236 vn=0.6052 vl=10.000 db=0.48
G1 X61.11 Y46.42 E130.4609              ; draw dl=0.53@10<10>10 l=0.30x0.50x1.00
;00:04:18.532: pe=1.2730 eb=0.0231 ve=0.6236 vn=0.6056 vl=10.000 db=0.49
G1 X60.59 Y46.56 E130.4944              ; draw dl=0.54@10<10>10 l=0.30x0.50x1.00
;00:04:18.586: pe=1.2740 eb=0.0231 ve=0.6236 vn=0.6061 vl=10.000 db=0.49
G1 X60.21 Y46.95 E130.5284              ; draw dl=0.54@10<10>10 l=0.30x0.50x1.00
;00:04:18.640: pe=1.2749 eb=0.0231 ve=0.6236 vn=0.6065 vl=10.000 db=0.49
G1 X59.97 Y47.51 E130.5664              ; draw dl=0.61@10<10>10 l=0.30x0.50x1.00
;00:04:18.701: pe=1.2759 eb=0.0232 ve=0.6236 vn=0.6070 vl=10.000 db=0.49
G1 X59.89 Y48.18 E130.6085              ; draw dl=0.67@10<10>10 l=0.30x0.50x1.00
;00:04:18.769: pe=1.2770 eb=0.0232 ve=0.6236 vn=0.6075 vl=10.000 db=0.49
G1 X59.97 Y48.85 E130.6505              ; draw dl=0.67@10<10>10 l=0.30x0.50x1.00
;00:04:18.836: pe=1.2781 eb=0.0232 ve=0.6236 vn=0.6080 vl=10.000 db=0.49
G1 X60.21 Y49.42 E130.6891              ; draw dl=0.62@10<10>10 l=0.30x0.50x1.00
;00:04:18.898: pe=1.2790 eb=0.0233 ve=0.6236 vn=0.6084 vl=10.000 db=0.49
G1 X60.59 Y49.80 E130.7226              ; draw dl=0.54@10<10>10 l=0.30x0.50x1.00
;00:04:18.952: pe=1.2798 eb=0.0233 ve=0.6236 vn=0.6088 vl=10.000 db=0.49
G1 X61.11 Y49.94 E130.7562              ; draw dl=0.54@10<10>0 l=0.30x0.50x1.00
;00:04:19.016: pe=1.2759 eb=0.0280 ve=0.0000 vn=0.4132 vl=0.000 db=0.53
G1 E127.9804 F2400                      ; retract de=-2.7759@40
;00:04:19.085: pe=-1.5008 eb=0.0288 ve=-40.0000 vn=0.0000 vl=0.000 db=0.54
G1 Z0.700 F420                          ; hopup dz=0.40@7 h=0.7
;00:04:19.142: pe=-1.5008 eb=0.0288 ve=0.0000 vn=0.0000 vl=0.000 db=0.35
G1 X46.50 Y41.48 F3898                  ; move dl=16.88@0<65>0 de=0.0000 h=0.70
;00:04:19.532: pe=-1.5008 eb=0.0000 ve=0.0000 vn=0.0000 vl=0.000 db=0.00
G1 Z0.300 F420                          ; hopdn dz=-0.40@7 h=0.3
;00:04:19.589: pe=-1.5008 eb=0.0000 ve=0.0000 vn=0.0000 vl=0.000 db=0.00
G1 E130.8085 F1800                      ; restore de=2.8282@30
;00:04:19.684: pe=1.3077 eb=0.0197 ve=30.0000 vn=0.8199 vl=0.000 db=0.45
G1 X46.50 Y44.88 E131.0206 F600         ; draw dl=3.40@0<10>10 l=0.30x0.50x1.00
;00:04:20.034: pe=1.3040 eb=0.0242 ve=0.6236 vn=0.6200 vl=10.000 db=0.50
;00:04:20.034: skipping empty move move dl=0.00@0<10>0 de=0.0000 h=0.30
G1 X47.73 Y44.88 E131.0973              ; draw dl=1.23@10<10>10 l=0.30x0.50x1.00
;00:04:20.157: pe=1.3045 eb=0.0242 ve=0.6236 vn=0.6202 vl=10.000 db=0.50
G1 X48.12 Y44.78 E131.1224              ; draw dl=0.40@10<10>10 l=0.30x0.50x1.00
;00:04:20.197: pe=1.3046 eb=0.0242 ve=0.6236 vn=0.6203 vl=10.000 db=0.50
G1 X48.43 Y44.58 E131.1454              ; draw dl=0.37@10<10>10 l=0.30x0.50x1.00
;00:04:20.234: pe=1.3047 eb=0.0242 ve=0.6236 vn=0.6203 vl=10.000 db=0.50
G1 X48.53 Y44.45 E131.1556              ; draw dl=0.16@10<10>10 l=0.30x0.50x1.00
;00:04:20.250: pe=1.3048 eb=0.0242 ve=0.6236 vn=0.6204 vl=10.000 db=0.50
G1 X48.66 Y44.04 E131.1824              ; draw dl=0.43@10<10>10 l=0.30x0.50x1.00
;00:04:20.293: pe=1.3049 eb=0.0242 ve=0.6236 vn=0.6204 vl=10.000 db=0.50
G1 X48.61 Y43.80 E131.1977              ; draw dl=0.25@10<10>10 l=0.30x0.50x1.00
;00:04:20.318: pe=1.3050 eb=0.0242 ve=0.6236 vn=0.6205 vl=10.000 db=0.50
G1 X48.50 Y43.56 E131.2142              ; draw dl=0.26@10<10>10 l=0.30x0.50x1.00
;00:04:20.344: pe=1.3051 eb=0.0242 ve=0.6236 vn=0.6205 vl=10.000 db=0.50
G1 X48.28 Y43.36 E131.2327              ; draw dl=0.30@10<10>10 l=0.30x0.50x1.00
;00:04:20.374: pe=1.3052 eb=0.0242 ve=0.6236 vn=0.6206 vl=10.000 db=0.50
G1 X47.51 Y43.18 E131.2820              ; draw dl=0.79@10<10>0 l=0.30x0.50x1.00
;00:04:20.463: pe=1.3005 eb=0.0290 ve=0.0000 vn=0.4237 vl=0.000 db=0.54
G1 E128.4815 F2400                      ; retract de=-2.8005@40
;00:04:20.533: pe=-1.5008 eb=0.0299 ve=-40.0000 vn=0.0000 vl=0.000 db=0.55
G1 Z0.700 F420                          ; hopup dz=0.40@7 h=0.7
;00:04:20.590: pe=-1.5008 eb=0.0299 ve=0.0000 vn=0.0000 vl=0.000 db=0.36
G1 X46.50 Y43.18 F953                   ; move dl=1.01@0<16>0 de=0.0000 h=0.70
;00:04:20.685: pe=-1.5008 eb=0.0000 ve=0.0000 vn=0.0000 vl=0.000 db=0.00
G1 Z0.300 F420                          ; hopdn dz=-0.40@7 h=0.3
;00:04:20.742: pe=-1.5008 eb=0.0000 ve=0.0000 vn=0.0000 vl=0.000 db=0.00
G1 E131.2905 F1800                      ; restore de=2.8090@30
;00:04:20.836: pe=1.2890 eb=0.0192 ve=30.0000 vn=0.8079 vl=0.000 db=0.44
G1 X47.51 Y43.18 E131.3535 F600         ; draw dl=1.01@0<10>10 l=0.30x0.50x1.00
;00:04:20.947: pe=1.2855 eb=0.0235 ve=0.6236 vn=0.6110 vl=10.000 db=0.49
G1 X48.02 Y43.00 E131.3873              ; draw dl=0.54@10<10>10 l=0.30x0.50x1.00
;00:04:21.001: pe=1.2861 eb=0.0235 ve=0.6236 vn=0.6117 vl=10.000 db=0.49
G1 X48.41 Y42.38 E131.4329              ; draw dl=0.73@10<10>10 l=0.30x0.50x1.00
;00:04:21.074: pe=1.2870 eb=0.0236 ve=0.6236 vn=0.6121 vl=10.000 db=0.49
G1 X48.66 Y41.48 E131.4912              ; draw dl=0.93@10<10>0 l=0.30x0.50x1.00
;00:04:21.178: pe=1.2832 eb=0.0283 ve=0.0000 vn=0.4163 vl=0.000 db=0.54
G1 E128.7080 F2400                      ; retract de=-2.7832@40
;00:04:21.247: pe=-1.5008 eb=0.0291 ve=-40.0000 vn=0.0000 vl=0.000 db=0.55
G1 Z0.700 F420                          ; hopup dz=0.40@7 h=0.7
;00:04:21.305: pe=-1.5008 eb=0.0291 ve=0.0000 vn=0.0000 vl=0.000 db=0.36
G1 X49.72 Y42.69 F1203                  ; move dl=1.61@0<20>0 de=0.0000 h=0.70
;00:04:21.425: pe=-1.5008 eb=0.0000 ve=0.0000 vn=0.0000 vl=0.000 db=0.00
G1 Z0.300 F420                          ; hopdn dz=-0.40@7 h=0.3
;00:04:21.482: pe=-1.5008 eb=0.0000 ve=0.0000 vn=0.0000 vl=0.000 db=0.00
G1 E131.5311 F1800                      ; restore de=2.8232@30
;00:04:21.576: pe=1.3028 eb=0.0196 ve=30.0000 vn=0.8165 vl=0.000 db=0.45
G1 X51.86 Y42.69 E131.6646 F600         ; draw dl=2.14@0<10>10 l=0.30x0.50x1.00
;00:04:21.800: pe=1.2992 eb=0.0240 ve=0.6039 vn=0.6175 vl=9.683 db=0.50
G1 X51.78 Y43.22 E131.6980              ; draw dl=0.54@10<10>10 l=0.30x0.50x1.00
;00:04:21.854: pe=1.2995 eb=0.0240 ve=0.6236 vn=0.6179 vl=10.000 db=0.50
G1 X51.57 Y43.61 E131.7256              ; draw dl=0.44@10<10>10 l=0.30x0.50x1.00
;00:04:21.898: pe=1.2997 eb=0.0240 ve=0.6236 vn=0.6180 vl=10.000 db=0.50
G1 X51.23 Y43.86 E131.7519              ; draw dl=0.42@10<10>10 l=0.30x0.50x1.00
;00:04:21.940: pe=1.3000 eb=0.0240 ve=0.6236 vn=0.6181 vl=10.000 db=0.50
G1 X50.79 Y43.95 E131.7800              ; draw dl=0.45@10<10>10 l=0.30x0.50x1.00
;00:04:21.985: pe=1.3002 eb=0.0241 ve=0.6236 vn=0.6183 vl=10.000 db=0.50
G1 X50.36 Y43.86 E131.8073              ; draw dl=0.44@10<10>10 l=0.30x0.50x1.00
;00:04:22.029: pe=1.3005 eb=0.0241 ve=0.6236 vn=0.6184 vl=10.000 db=0.50
G1 X50.02 Y43.61 E131.8337              ; draw dl=0.42@10<10>10 l=0.30x0.50x1.00
;00:04:22.071: pe=1.3007 eb=0.0241 ve=0.6236 vn=0.6185 vl=10.000 db=0.50
G1 X49.80 Y43.22 E131.8616              ; draw dl=0.45@10<10>10 l=0.30x0.50x1.00
;00:04:22.116: pe=1.3009 eb=0.0241 ve=0.6236 vn=0.6186 vl=10.000 db=0.50
G1 X49.72 Y42.69 E131.8950              ; draw dl=0.54@10<10>10 l=0.30x0.50x1.00
;00:04:22.170: pe=1.3012 eb=0.0241 ve=0.6236 vn=0.6187 vl=10.000 db=0.50
G1 X49.80 Y42.15 E131.9291              ; draw dl=0.55@10<10>10 l=0.30x0.50x1.00
;00:04:22.224: pe=1.3014 eb=0.0241 ve=0.6236 vn=0.6188 vl=10.000 db=0.50
G1 X50.03 Y41.75 E131.9578              ; draw dl=0.46@10<10>10 l=0.30x0.50x1.00
;00:04:22.270: pe=1.3017 eb=0.0241 ve=0.6236 vn=0.6189 vl=10.000 db=0.50
G1 X50.38 Y41.51 E131.9843              ; draw dl=0.42@10<10>10 l=0.30x0.50x1.00
;00:04:22.313: pe=1.3018 eb=0.0241 ve=0.6236 vn=0.6190 vl=10.000 db=0.50
G1 X50.84 Y41.42 E132.0135              ; draw dl=0.47@10<10>10 l=0.30x0.50x1.00
;00:04:22.360: pe=1.3021 eb=0.0241 ve=0.6236 vn=0.6191 vl=10.000 db=0.50
G1 X51.18 Y41.47 E132.0350              ; draw dl=0.34@10<10>10 l=0.30x0.50x1.00
;00:04:22.394: pe=1.3022 eb=0.0241 ve=0.6236 vn=0.6192 vl=10.000 db=0.50
G1 X51.47 Y41.61 E132.0550              ; draw dl=0.32@10<10>10 l=0.30x0.50x1.00
;00:04:22.426: pe=1.3024 eb=0.0241 ve=0.6236 vn=0.6192 vl=10.000 db=0.50
G1 X51.68 Y41.83 E132.0740              ; draw dl=0.30@10<10>10 l=0.30x0.50x1.00
;00:04:22.457: pe=1.3025 eb=0.0241 ve=0.6236 vn=0.6193 vl=10.000 db=0.50
G1 X51.80 Y42.13 E132.0942              ; draw dl=0.32@10<10>0 l=0.30x0.50x1.00
;00:04:22.499: pe=1.2978 eb=0.0289 ve=0.0000 vn=0.4225 vl=0.000 db=0.54
G1 E129.2964 F2400                      ; retract de=-2.7978@40
;00:04:22.569: pe=-1.5008 eb=0.0297 ve=-40.0000 vn=0.0000 vl=0.000 db=0.55
G1 Z0.700 F420                          ; hopup dz=0.40@7 h=0.7
;00:04:22.626: pe=-1.5008 eb=0.0297 ve=0.0000 vn=0.0000 vl=0.000 db=0.36
G1 X52.92 Y43.26 F1197                  ; move dl=1.59@0<20>0 de=0.0000 h=0.70
;00:04:22.746: pe=-1.5008 eb=0.0000 ve=0.0000 vn=0.0000 vl=0.000 db=0.00
G1 Z0.300 F420                          ; hopdn dz=-0.40@7 h=0.3
;00:04:22.803: pe=-1.5008 eb=0.0000 ve=0.0000 vn=0.0000 vl=0.000 db=0.00
G1 E132.1005 F1800                      ; restore de=2.8041@30
;00:04:22.896: pe=1.2843 eb=0.0190 ve=30.0000 vn=0.8049 vl=0.000 db=0.44
G1 X54.61 Y43.26 E132.2059 F600         ; draw dl=1.69@0<10>0 l=0.30x0.50x1.00
;00:04:23.085: pe=1.2771 eb=0.0281 ve=0.0000 vn=0.4138 vl=0.000 db=0.54
G1 E129.4288 F2400                      ; retract de=-2.7771@40
;00:04:23.155: pe=-1.5008 eb=0.0288 ve=-40.0000 vn=0.0000 vl=0.000 db=0.54
G1 Z0.700 F420                          ; hopup dz=0.40@7 h=0.7
;00:04:23.212: pe=-1.5008 eb=0.0288 ve=0.0000 vn=0.0000 vl=0.000 db=0.36
G1 X54.61 Y42.55 F799                   ; move dl=0.71@0<13>0 de=0.0000 h=0.70
;00:04:23.292: pe=-1.5008 eb=0.0000 ve=0.0000 vn=0.0000 vl=0.000 db=0.00
G1 Z0.300 F420                          ; hopdn dz=-0.40@7 h=0.3
;00:04:23.349: pe=-1.5008 eb=0.0000 ve=0.0000 vn=0.0000 vl=0.000 db=0.00
G1 E132.2329 F1800                      ; restore de=2.8041@30
;00:04:23.442: pe=1.2843 eb=0.0190 ve=30.0000 vn=0.8049 vl=0.000 db=0.44
G1 X52.92 Y42.55 E132.3383 F600         ; draw dl=1.69@0<10>0 l=0.30x0.50x1.00
;00:04:23.631: pe=1.2771 eb=0.0281 ve=0.0000 vn=0.4138 vl=0.000 db=0.54
G1 E129.5611 F2400                      ; retract de=-2.7771@40
;00:04:23.701: pe=-1.5008 eb=0.0288 ve=-40.0000 vn=0.0000 vl=0.000 db=0.54
G1 Z0.700 F420                          ; hopup dz=0.40@7 h=0.7
;00:04:23.758: pe=-1.5008 eb=0.0288 ve=0.0000 vn=0.0000 vl=0.000 db=0.36
G1 X55.67 Y44.00 F1673                  ; move dl=3.11@0<28>0 de=0.0000 h=0.70
;00:04:23.925: pe=-1.5008 eb=0.0000 ve=0.0000 vn=0.0000 vl=0.000 db=0.00
G1 Z0.300 F420                          ; hopdn dz=-0.40@7 h=0.3
;00:04:23.982: pe=-1.5008 eb=0.0000 ve=0.0000 vn=0.0000 vl=0.000 db=0.00
G1 E132.3485 F1800                      ; restore de=2.7874@30
;00:04:24.075: pe=1.2681 eb=0.0186 ve=30.0000 vn=0.7941 vl=0.000 db=0.44
G1 X56.14 Y44.24 E132.3815 F600         ; draw dl=0.53@0<10>10 l=0.30x0.50x1.00
;00:04:24.138: pe=1.2645 eb=0.0229 ve=0.6236 vn=0.5957 vl=10.000 db=0.48
G1 X56.51 Y44.55 E132.4116              ; draw dl=0.48@10<10>10 l=0.30x0.50x1.00
;00:04:24.186: pe=1.2656 eb=0.0228 ve=0.6236 vn=0.6019 vl=10.000 db=0.48
G1 X56.76 Y44.88 E132.4374              ; draw dl=0.41@10<10>5 l=0.30x0.50x1.00
;00:04:24.230: pe=1.2651 eb=0.0242 ve=0.3015 vn=0.5422 vl=4.834 db=0.50
G1 X56.76 Y41.48 E132.6494              ; draw dl=3.40@5<10>0 l=0.30x0.50x1.00
;00:04:24.583: pe=1.2678 eb=0.0277 ve=0.0000 vn=0.4098 vl=0.000 db=0.53
G1 E129.8816 F2400                      ; retract de=-2.7678@40
;00:04:24.652: pe=-1.5008 eb=0.0284 ve=-40.0000 vn=0.0000 vl=0.000 db=0.54
G1 Z0.700 F420                          ; hopup dz=0.40@7 h=0.7
;00:04:24.709: pe=-1.5008 eb=0.0284 ve=0.0000 vn=0.0000 vl=0.000 db=0.35
G1 X57.82 Y41.71 F988                   ; move dl=1.08@0<16>0 de=0.0000 h=0.70
;00:04:24.808: pe=-1.5008 eb=0.0000 ve=0.0000 vn=0.0000 vl=0.000 db=0.00
G1 Z0.300 F420                          ; hopdn dz=-0.40@7 h=0.3
;00:04:24.865: pe=-1.5008 eb=0.0000 ve=0.0000 vn=0.0000 vl=0.000 db=0.00
G1 E132.4875 F1800                      ; restore de=2.6058@30
;00:04:24.952: pe=1.0912 eb=0.0138 ve=30.0000 vn=0.6800 vl=0.000 db=0.38
G1 X57.82 Y41.65 E132.4912 F232         ; draw dl=0.06@0<4>0 l=0.30x0.50x1.00
;00:04:24.976: pe=1.0843 eb=0.0213 ve=0.0000 vn=0.3049 vl=0.000 db=0.47
G1 E129.9069 F2400                      ; retract de=-2.5843@40
;00:04:25.040: pe=-1.5004 eb=0.0217 ve=-40.0000 vn=0.0000 vl=0.000 db=0.47
G1 Z0.700 F420                          ; hopup dz=0.40@7 h=0.7
;00:04:25.097: pe=-1.5004 eb=0.0217 ve=0.0000 vn=0.0000 vl=0.000 db=0.31
G1 X60.10 Y44.94 F1898                  ; move dl=4.00@0<32>0 de=0.0000 h=0.70
;00:04:25.287: pe=-1.5004 eb=0.0000 ve=0.0000 vn=0.0000 vl=0.000 db=0.00
G1 Z0.300 F420                          ; hopdn dz=-0.40@7 h=0.3
;00:04:25.344: pe=-1.5004 eb=0.0000 ve=0.0000 vn=0.0000 vl=0.000 db=0.00
G1 E132.6940 F1800                      ; restore de=2.7871@30
;00:04:25.437: pe=1.2682 eb=0.0186 ve=30.0000 vn=0.7942 vl=0.000 db=0.44
G1 X60.61 Y44.80 E132.7270 F600         ; draw dl=0.53@0<10>10 l=0.30x0.50x1.00
;00:04:25.500: pe=1.2646 eb=0.0229 ve=0.6236 vn=0.5958 vl=10.000 db=0.48
G1 X61.00 Y44.42 E132.7610              ; draw dl=0.54@10<10>10 l=0.30x0.50x1.00
;00:04:25.554: pe=1.2658 eb=0.0228 ve=0.6236 vn=0.6021 vl=10.000 db=0.48
G1 X61.24 Y43.86 E132.7990              ; draw dl=0.61@10<10>10 l=0.30x0.50x1.00
;00:04:25.615: pe=1.2671 eb=0.0228 ve=0.6236 vn=0.6029 vl=10.000 db=0.48
G1 X61.32 Y43.18 E132.8417              ; draw dl=0.68@10<10>10 l=0.30x0.50x1.00
;00:04:25.684: pe=1.2685 eb=0.0229 ve=0.6236 vn=0.6036 vl=10.000 db=0.48
G1 X61.24 Y42.51 E132.8837              ; draw dl=0.67@10<10>10 l=0.30x0.50x1.00
;00:04:25.751: pe=1.2698 eb=0.0229 ve=0.6236 vn=0.6042 vl=10.000 db=0.48
G1 X61.00 Y41.95 E132.9217              ; draw dl=0.61@10<10>10 l=0.30x0.50x1.00
;00:04:25.812: pe=1.2710 eb=0.0230 ve=0.6236 vn=0.6047 vl=10.000 db=0.48
G1 X60.61 Y41.56 E132.9561              ; draw dl=0.55@10<10>10 l=0.30x0.50x1.00
;00:04:25.867: pe=1.2720 eb=0.0230 ve=0.6236 vn=0.6052 vl=10.000 db=0.48
G1 X60.10 Y41.42 E132.9891              ; draw dl=0.53@10<10>10 l=0.30x0.50x1.00
;00:04:25.920: pe=1.2730 eb=0.0231 ve=0.6236 vn=0.6056 vl=10.000 db=0.49
G1 X59.58 Y41.56 E133.0227              ; draw dl=0.54@10<10>10 l=0.30x0.50x1.00
;00:04:25.974: pe=1.2739 eb=0.0231 ve=0.6236 vn=0.6061 vl=10.000 db=0.49
G1 X59.20 Y41.95 E133.0567              ; draw dl=0.54@10<10>10 l=0.30x0.50x1.00
;00:04:26.029: pe=1.2749 eb=0.0231 ve=0.6236 vn=0.6065 vl=10.000 db=0.49
G1 X58.96 Y42.51 E133.0947              ; draw dl=0.61@10<10>10 l=0.30x0.50x1.00
;00:04:26.090: pe=1.2759 eb=0.0232 ve=0.6236 vn=0.6070 vl=10.000 db=0.49
G1 X58.88 Y43.18 E133.1367              ; draw dl=0.67@10<10>10 l=0.30x0.50x1.00
;00:04:26.157: pe=1.2770 eb=0.0232 ve=0.6236 vn=0.6075 vl=10.000 db=0.49
G1 X58.96 Y43.85 E133.1788              ; draw dl=0.67@10<10>10 l=0.30x0.50x1.00
;00:04:26.225: pe=1.2781 eb=0.0232 ve=0.6236 vn=0.6080 vl=10.000 db=0.49
G1 X59.20 Y44.42 E133.2174              ; draw dl=0.62@10<10>10 l=0.30x0.50x1.00
;00:04:26.286: pe=1.2790 eb=0.0233 ve=0.6236 vn=0.6084 vl=10.000 db=0.49
G1 X59.58 Y44.80 E133.2509              ; draw dl=0.54@10<10>10 l=0.30x0.50x1.00
;00:04:26.340: pe=1.2798 eb=0.0233 ve=0.6236 vn=0.6088 vl=10.000 db=0.49
G1 X60.10 Y44.94 E133.2845              ; draw dl=0.54@10<10>0 l=0.30x0.50x1.00
