;gcode_flavor: flashforge
;machine_type: Adventurer 3 Series
;filament_diameter0: 1.75
;right_extruder_temperature: 210
;platform_temperature: 50
;extruder_fan: 100%
;case_fan: 100%
;base_print_speed: 60
;travel_speed: 100
;vertical_speed: 7
;retract_speed: 40
;restore_speed: 30
;layer_height: 0.30
;line_width: 0.50
;extrusion_ratio: 1.00
;command_line: ./gcodetest.py -Te=210 -Tp=50 -Fe=1.0 -Fc=1.0 -Kf=0.5 -Kb=2.0 -Re=1.0 -R -v
;start gcode
M118 X75.00 Y75.00 Z150.00 T0
M140 S50 T0
M104 S210 T0
M104 S0 T1
M107
M900 K0.000 T0
G90
G28
M132 X Y Z A B
G1 Z50.000 F420
G161 X Y F3300
M7 T0
M6 T0
M652 S255
M108 T0
M106
;preExtrude:0.20
;00:00:00.000: layer=0 h=0.20 w=0.50 r=1.00
;structure:pre-extrude
G1 X-55.00 Y-65.00 F6000                ; move dl=85.1@100(0<100>0) de=0.000@0.0(0.0<0.0>0.0) l=0.00x0.50x0.00 r=0.00
;00:00:01.051: pe=0.0000 eb=0.0000 ve=0.0000 vn=0.0000 vl=0.000 db=0.00
G1 Z0.200 F420                          ; hopup dz=0.20@7 h=0.2 r=0.00
;00:00:01.080: pe=0.0000 eb=0.0000 ve=0.0000 vn=0.0000 vl=0.000 db=0.00
G1 E4.7828 F1800                        ; restore de=4.7828@30.0 r=3.44
;00:00:01.239: pe=4.5896 eb=0.1932 ve=30.0000 vn=2.2990 vl=0.000 db=1.72
G1 X-55.00 Y55.00 E24.7389 F1200        ; draw dl=120.0@20(0<20>0) de=19.956@3.3(0.0<3.33>0.0) l=0.20x0.50x4.00 r=3.80
;00:00:07.279: pe=5.5703 eb=0.3103 ve=0.0000 vn=2.4214 vl=0.000 db=2.18
G1 E18.1686 F2400                       ; retract de=-6.5703@-40.0 r=4.55
;00:00:07.444: pe=-1.0273 eb=0.3376 ve=-40.0000 vn=0.0000 vl=0.000 db=2.27
G1 Z0.400 F420                          ; hopup dz=0.20@7 h=0.4 r=3.22
;00:00:07.472: pe=-1.0273 eb=0.3376 ve=0.0000 vn=0.0000 vl=0.000 db=1.61
;layer:0.30
;00:00:07.472: layer=1 h=0.30 w=0.50 r=1.00
;structure:brim
;structure:shell-outer
;00:00:07.472: text [(-43.0, 60), (None, None)] fsize=5 angle=0 'Kf=0.5 Kb=2.0 Re=1.0'
G1 X-42.50 Y59.88 F6000                 ; move dl=13.4@100(0<58>0) de=0.000@0.0(0.0<0.0>0.0) l=0.40x0.50x0.00 r=0.00
;00:00:07.820: pe=-1.0273 eb=0.0000 ve=0.0000 vn=0.0000 vl=0.000 db=0.00
G1 Z0.300 F420                          ; hopdn dz=-0.10@7 h=0.3 r=0.00
;00:00:07.834: pe=-1.0273 eb=0.0000 ve=0.0000 vn=0.0000 vl=0.000 db=0.00
G1 E20.2560 F1800                       ; restore de=2.0874@30.0 r=0.72
;00:00:07.904: pe=1.0473 eb=0.0127 ve=30.0000 vn=0.6519 vl=0.000 db=0.36
G1 X-42.50 Y56.48 E20.4680 F600         ; draw dl=3.4@10(0<10>0) de=0.212@0.59(0.0<0.62>0.0) l=0.30x0.50x1.00 r=0.85
;00:00:08.264: pe=1.0793 eb=0.0205 ve=0.0000 vn=0.3309 vl=0.000 db=0.46
G1 E18.3887 F2400                       ; retract de=-2.0793@-40.0 r=0.92
;00:00:08.316: pe=-1.0005 eb=0.0209 ve=-40.0000 vn=0.0000 vl=0.000 db=0.46
G1 Z0.500 F420                          ; hopup dz=0.20@7 h=0.5 r=0.72
;00:00:08.344: pe=-1.0005 eb=0.0209 ve=0.0000 vn=0.0000 vl=0.000 db=0.36
G1 X-40.04 Y56.48 F6000                 ; move dl=2.5@100(0<25>0) de=0.000@0.0(0.0<0.0>0.0) l=0.50x0.50x0.00 r=0.00
;00:00:08.493: pe=-1.0005 eb=0.0000 ve=0.0000 vn=0.0000 vl=0.000 db=0.00
G1 Z0.300 F420                          ; hopdn dz=-0.20@7 h=0.3 r=0.00
;00:00:08.522: pe=-1.0005 eb=0.0000 ve=0.0000 vn=0.0000 vl=0.000 db=0.00
G1 E20.4448 F1800                       ; restore de=2.0561@30.0 r=0.72
;00:00:08.590: pe=1.0429 eb=0.0126 ve=30.0000 vn=0.6491 vl=0.000 db=0.36
G1 X-41.53 Y58.51 E20.6018 F600         ; draw dl=2.5@10(0<10>0) de=0.157@0.58(0.0<0.62>0.0) l=0.30x0.50x1.00 r=0.85
;00:00:08.862: pe=1.0659 eb=0.0200 ve=0.0000 vn=0.3253 vl=0.000 db=0.45
G1 E18.5359 F2400                       ; retract de=-2.0659@-40.0 r=0.91
;00:00:08.914: pe=-1.0005 eb=0.0204 ve=-40.0000 vn=0.0000 vl=0.000 db=0.46
G1 Z0.500 F420                          ; hopup dz=0.20@7 h=0.5 r=0.71
;00:00:08.942: pe=-1.0005 eb=0.0204 ve=0.0000 vn=0.0000 vl=0.000 db=0.35
G1 X-42.50 Y57.67 F6000                 ; move dl=1.3@100(0<18>0) de=0.000@0.0(0.0<0.0>0.0) l=0.50x0.50x0.00 r=0.00
;00:00:09.050: pe=-1.0005 eb=0.0000 ve=0.0000 vn=0.0000 vl=0.000 db=0.00
G1 Z0.300 F420                          ; hopdn dz=-0.20@7 h=0.3 r=0.00
;00:00:09.078: pe=-1.0005 eb=0.0000 ve=0.0000 vn=0.0000 vl=0.000 db=0.00
G1 E20.5963 F1800                       ; restore de=2.0604@30.0 r=0.72
;00:00:09.147: pe=1.0471 eb=0.0127 ve=30.0000 vn=0.6517 vl=0.000 db=0.36
G1 X-39.98 Y59.88 E20.8053 F600         ; draw dl=3.4@10(0<10>0) de=0.209@0.59(0.0<0.62>0.0) l=0.30x0.50x1.00 r=0.85
;00:00:09.502: pe=1.0786 eb=0.0204 ve=0.0000 vn=0.3306 vl=0.000 db=0.46
G1 E18.7267 F2400                       ; retract de=-2.0786@-40.0 r=0.92
;00:00:09.554: pe=-1.0005 eb=0.0209 ve=-40.0000 vn=0.0000 vl=0.000 db=0.46
G1 Z0.500 F420                          ; hopup dz=0.20@7 h=0.5 r=0.72
;00:00:09.583: pe=-1.0005 eb=0.0209 ve=0.0000 vn=0.0000 vl=0.000 db=0.36
G1 X-37.73 Y59.90 F6000                 ; move dl=2.3@100(0<24>0) de=0.000@0.0(0.0<0.0>0.0) l=0.50x0.50x0.00 r=0.00
;00:00:09.725: pe=-1.0005 eb=0.0000 ve=0.0000 vn=0.0000 vl=0.000 db=0.00
G1 Z0.300 F420                          ; hopdn dz=-0.20@7 h=0.3 r=0.00
;00:00:09.753: pe=-1.0005 eb=0.0000 ve=0.0000 vn=0.0000 vl=0.000 db=0.00
G1 E20.7909 F1800                       ; restore de=2.0642@30.0 r=0.72
;00:00:09.822: pe=1.0509 eb=0.0128 ve=30.0000 vn=0.6540 vl=0.000 db=0.36
G1 X-37.88 Y59.90 E20.8003 F600         ; draw dl=0.1@10(0<10>10) de=0.009@0.37(0.0<0.62>0.62) l=0.30x0.50x1.00 r=1.24
;00:00:09.847: pe=1.0486 eb=0.0167 ve=0.6236 vn=0.4457 vl=10.000 db=0.41
G1 X-38.06 Y59.86 E20.8118              ; draw dl=0.2@10(10<10>10) de=0.011@0.62(0.62<0.62>0.62) l=0.30x0.50x1.00 r=0.75
;00:00:09.866: pe=1.0515 eb=0.0160 ve=0.6236 vn=0.4871 vl=10.000 db=0.40
G1 X-38.22 Y59.73 E20.8246              ; draw dl=0.2@10(10<10>10) de=0.013@0.62(0.62<0.62>0.62) l=0.30x0.50x1.00 r=0.79
;00:00:09.886: pe=1.0541 eb=0.0158 ve=0.6236 vn=0.5001 vl=10.000 db=0.40
G1 X-38.34 Y59.54 E20.8386              ; draw dl=0.2@10(10<10>10) de=0.014@0.62(0.62<0.62>0.62) l=0.30x0.50x1.00 r=0.81
;00:00:09.909: pe=1.0568 eb=0.0159 ve=0.6236 vn=0.5042 vl=10.000 db=0.40
G1 X-38.42 Y59.17 E20.8623              ; draw dl=0.4@10(10<10>10) de=0.024@0.62(0.62<0.62>0.62) l=0.30x0.50x1.00 r=0.81
;00:00:09.947: pe=1.0613 eb=0.0160 ve=0.6236 vn=0.5070 vl=10.000 db=0.40
G1 X-38.42 Y56.48 E21.0300              ; draw dl=2.7@10(10<10>0) de=0.168@0.6(0.62<0.62>0.0) l=0.30x0.50x1.00 r=0.85
;00:00:10.226: pe=1.0868 eb=0.0207 ve=0.0000 vn=0.3340 vl=0.000 db=0.46
G1 E18.9432 F2400                       ; retract de=-2.0868@-40.0 r=0.93
;00:00:10.278: pe=-1.0005 eb=0.0212 ve=-40.0000 vn=0.0000 vl=0.000 db=0.47
G1 Z0.500 F420                          ; hopup dz=0.20@7 h=0.5 r=0.72
;00:00:10.306: pe=-1.0005 eb=0.0212 ve=0.0000 vn=0.0000 vl=0.000 db=0.36
G1 X-38.92 Y58.76 F6000                 ; move dl=2.3@100(0<24>0) de=0.000@0.0(0.0<0.0>0.0) l=0.50x0.50x0.00 r=0.00
;00:00:10.451: pe=-1.0005 eb=0.0000 ve=0.0000 vn=0.0000 vl=0.000 db=0.00
G1 Z0.300 F420                          ; hopdn dz=-0.20@7 h=0.3 r=0.00
;00:00:10.480: pe=-1.0005 eb=0.0000 ve=0.0000 vn=0.0000 vl=0.000 db=0.00
G1 E20.9787 F1800                       ; restore de=2.0354@30.0 r=0.70
;00:00:10.548: pe=1.0228 eb=0.0122 ve=30.0000 vn=0.6357 vl=0.000 db=0.35
G1 X-37.84 Y58.76 E21.0460 F600         ; draw dl=1.1@10(0<10>0) de=0.067@0.53(0.0<0.62>0.0) l=0.30x0.50x1.00 r=0.89
;00:00:10.676: pe=1.0303 eb=0.0188 ve=0.0000 vn=0.3105 vl=0.000 db=0.44
G1 E19.0157 F2400                       ; retract de=-2.0303@-40.0 r=0.88
;00:00:10.727: pe=-1.0004 eb=0.0192 ve=-40.0000 vn=0.0000 vl=0.000 db=0.44
G1 Z0.500 F420                          ; hopup dz=0.20@7 h=0.5 r=0.69
;00:00:10.755: pe=-1.0004 eb=0.0192 ve=0.0000 vn=0.0000 vl=0.000 db=0.34
G1 X-36.66 Y58.26 F6000                 ; move dl=1.3@100(0<18>0) de=0.000@0.0(0.0<0.0>0.0) l=0.50x0.50x0.00 r=0.00
;00:00:10.862: pe=-1.0004 eb=0.0000 ve=0.0000 vn=0.0000 vl=0.000 db=0.00
G1 Z0.300 F420                          ; hopdn dz=-0.20@7 h=0.3 r=0.00
;00:00:10.891: pe=-1.0004 eb=0.0000 ve=0.0000 vn=0.0000 vl=0.000 db=0.00
G1 E21.0637 F1800                       ; restore de=2.0480@30.0 r=0.71
;00:00:10.959: pe=1.0351 eb=0.0125 ve=30.0000 vn=0.6438 vl=0.000 db=0.36
G1 X-34.97 Y58.26 E21.1691 F600         ; draw dl=1.7@10(0<10>0) de=0.105@0.56(0.0<0.62>0.0) l=0.30x0.50x1.00 r=0.87
;00:00:11.148: pe=1.0493 eb=0.0194 ve=0.0000 vn=0.3184 vl=0.000 db=0.45
G1 E19.1198 F2400                       ; retract de=-2.0493@-40.0 r=0.90
;00:00:11.200: pe=-1.0004 eb=0.0198 ve=-40.0000 vn=0.0000 vl=0.000 db=0.45
G1 Z0.500 F420                          ; hopup dz=0.20@7 h=0.5 r=0.70
;00:00:11.228: pe=-1.0004 eb=0.0198 ve=0.0000 vn=0.0000 vl=0.000 db=0.35
G1 X-34.97 Y57.55 F6000                 ; move dl=0.7@100(0<13>0) de=0.000@0.0(0.0<0.0>0.0) l=0.50x0.50x0.00 r=0.00
;00:00:11.308: pe=-1.0004 eb=0.0000 ve=0.0000 vn=0.0000 vl=0.000 db=0.00
G1 Z0.300 F420                          ; hopdn dz=-0.20@7 h=0.3 r=0.00
;00:00:11.337: pe=-1.0004 eb=0.0000 ve=0.0000 vn=0.0000 vl=0.000 db=0.00
G1 E21.1678 F1800                       ; restore de=2.0480@30.0 r=0.71
;00:00:11.405: pe=1.0351 eb=0.0125 ve=30.0000 vn=0.6438 vl=0.000 db=0.36
G1 X-36.66 Y57.55 E21.2732 F600         ; draw dl=1.7@10(0<10>0) de=0.105@0.56(0.0<0.62>0.0) l=0.30x0.50x1.00 r=0.87
;00:00:11.594: pe=1.0493 eb=0.0194 ve=0.0000 vn=0.3184 vl=0.000 db=0.45
G1 E19.2240 F2400                       ; retract de=-2.0493@-40.0 r=0.90
;00:00:11.645: pe=-1.0004 eb=0.0198 ve=-40.0000 vn=0.0000 vl=0.000 db=0.45
G1 Z0.500 F420                          ; hopup dz=0.20@7 h=0.5 r=0.70
;00:00:11.674: pe=-1.0004 eb=0.0198 ve=0.0000 vn=0.0000 vl=0.000 db=0.35
G1 X-32.69 Y59.94 F6000                 ; move dl=4.6@100(0<34>0) de=0.000@0.0(0.0<0.0>0.0) l=0.50x0.50x0.00 r=0.00
;00:00:11.878: pe=-1.0004 eb=0.0000 ve=0.0000 vn=0.0000 vl=0.000 db=0.00
G1 Z0.300 F420                          ; hopdn dz=-0.20@7 h=0.3 r=0.00
;00:00:11.906: pe=-1.0004 eb=0.0000 ve=0.0000 vn=0.0000 vl=0.000 db=0.00
G1 E21.2939 F1800                       ; restore de=2.0700@30.0 r=0.73
;00:00:11.975: pe=1.0565 eb=0.0130 ve=30.0000 vn=0.6572 vl=0.000 db=0.36
G1 X-32.18 Y59.80 E21.3269 F600         ; draw dl=0.5@10(0<10>10) de=0.033@0.52(0.0<0.62>0.62) l=0.30x0.50x1.00 r=0.91
;00:00:12.038: pe=1.0594 eb=0.0160 ve=0.6236 vn=0.5022 vl=10.000 db=0.40
G1 X-31.79 Y59.42 E21.3608              ; draw dl=0.5@10(10<10>10) de=0.034@0.62(0.62<0.62>0.62) l=0.30x0.50x1.00 r=0.81
;00:00:12.093: pe=1.0658 eb=0.0161 ve=0.6236 vn=0.5091 vl=10.000 db=0.41
G1 X-31.55 Y58.86 E21.3988              ; draw dl=0.6@10(10<10>10) de=0.038@0.62(0.62<0.62>0.62) l=0.30x0.50x1.00 r=0.82
;00:00:12.154: pe=1.0727 eb=0.0163 ve=0.6236 vn=0.5124 vl=10.000 db=0.41
G1 X-31.47 Y58.18 E21.4415              ; draw dl=0.7@10(10<10>10) de=0.043@0.62(0.62<0.62>0.62) l=0.30x0.50x1.00 r=0.82
;00:00:12.222: pe=1.0801 eb=0.0166 ve=0.6236 vn=0.5159 vl=10.000 db=0.41
G1 X-31.55 Y57.51 E21.4836              ; draw dl=0.7@10(10<10>10) de=0.042@0.62(0.62<0.62>0.62) l=0.30x0.50x1.00 r=0.83
;00:00:12.290: pe=1.0873 eb=0.0168 ve=0.6236 vn=0.5192 vl=10.000 db=0.41
G1 X-31.79 Y56.95 E21.5216              ; draw dl=0.6@10(10<10>10) de=0.038@0.62(0.62<0.62>0.62) l=0.30x0.50x1.00 r=0.84
;00:00:12.351: pe=1.0936 eb=0.0170 ve=0.6236 vn=0.5221 vl=10.000 db=0.42
G1 X-32.18 Y56.56 E21.5560              ; draw dl=0.6@10(10<10>10) de=0.034@0.62(0.62<0.62>0.62) l=0.30x0.50x1.00 r=0.84
;00:00:12.406: pe=1.0991 eb=0.0171 ve=0.6236 vn=0.5247 vl=10.000 db=0.42
G1 X-32.69 Y56.42 E21.5890              ; draw dl=0.5@10(10<10>10) de=0.033@0.62(0.62<0.62>0.62) l=0.30x0.50x1.00 r=0.84
;00:00:12.459: pe=1.1042 eb=0.0173 ve=0.6236 vn=0.5271 vl=10.000 db=0.42
G1 X-33.21 Y56.56 E21.6226              ; draw dl=0.5@10(10<10>10) de=0.034@0.62(0.62<0.62>0.62) l=0.30x0.50x1.00 r=0.85
;00:00:12.513: pe=1.1094 eb=0.0175 ve=0.6236 vn=0.5295 vl=10.000 db=0.42
G1 X-33.59 Y56.95 E21.6565              ; draw dl=0.5@10(10<10>10) de=0.034@0.62(0.62<0.62>0.62) l=0.30x0.50x1.00 r=0.85
;00:00:12.567: pe=1.1144 eb=0.0176 ve=0.6236 vn=0.5319 vl=10.000 db=0.42
G1 X-33.83 Y57.51 E21.6945              ; draw dl=0.6@10(10<10>10) de=0.038@0.62(0.62<0.62>0.62) l=0.30x0.50x1.00 r=0.86
;00:00:12.628: pe=1.1199 eb=0.0178 ve=0.6236 vn=0.5344 vl=10.000 db=0.43
G1 X-33.91 Y58.18 E21.7366              ; draw dl=0.7@10(10<10>10) de=0.042@0.62(0.62<0.62>0.62) l=0.30x0.50x1.00 r=0.86
;00:00:12.695: pe=1.1258 eb=0.0180 ve=0.6236 vn=0.5372 vl=10.000 db=0.43
G1 X-33.83 Y58.85 E21.7787              ; draw dl=0.7@10(10<10>10) de=0.042@0.62(0.62<0.62>0.62) l=0.30x0.50x1.00 r=0.86
;00:00:12.763: pe=1.1316 eb=0.0182 ve=0.6236 vn=0.5399 vl=10.000 db=0.43
G1 X-33.59 Y59.42 E21.8173              ; draw dl=0.6@10(10<10>10) de=0.039@0.62(0.62<0.62>0.62) l=0.30x0.50x1.00 r=0.87
;00:00:12.825: pe=1.1367 eb=0.0183 ve=0.6236 vn=0.5422 vl=10.000 db=0.43
G1 X-33.21 Y59.80 E21.8508              ; draw dl=0.5@10(10<10>10) de=0.034@0.62(0.62<0.62>0.62) l=0.30x0.50x1.00 r=0.87
;00:00:12.878: pe=1.1410 eb=0.0185 ve=0.6236 vn=0.5443 vl=10.000 db=0.43
G1 X-32.69 Y59.94 E21.8844              ; draw dl=0.5@10(10<10>0) de=0.034@0.53(0.62<0.62>0.0) l=0.30x0.50x1.00 r=1.00
;00:00:12.942: pe=1.1410 eb=0.0227 ve=0.0000 vn=0.3566 vl=0.000 db=0.48
G1 E19.7433 F2400                       ; retract de=-2.1410@-40.0 r=0.97
;00:00:12.996: pe=-1.0006 eb=0.0233 ve=-40.0000 vn=0.0000 vl=0.000 db=0.49
G1 Z0.500 F420                          ; hopup dz=0.20@7 h=0.5 r=0.75
;00:00:13.024: pe=-1.0006 eb=0.0233 ve=0.0000 vn=0.0000 vl=0.000 db=0.38
G1 X-30.41 Y56.71 F6000                 ; move dl=4.0@100(0<31>0) de=0.000@0.0(0.0<0.0>0.0) l=0.50x0.50x0.00 r=0.00
;00:00:13.213: pe=-1.0006 eb=0.0000 ve=0.0000 vn=0.0000 vl=0.000 db=0.00
G1 Z0.300 F420                          ; hopdn dz=-0.20@7 h=0.3 r=0.00
;00:00:13.242: pe=-1.0006 eb=0.0000 ve=0.0000 vn=0.0000 vl=0.000 db=0.00
G1 E21.6329 F1800                       ; restore de=1.8895@30.0 r=0.61
;00:00:13.305: pe=0.8799 eb=0.0091 ve=30.0000 vn=0.5427 vl=0.000 db=0.30
G1 X-30.41 Y56.65 E21.6366 F600         ; draw dl=0.1@10(0<4>0) de=0.004@0.16(0.0<0.24>0.0) l=0.30x0.50x1.00 r=2.14
;00:00:13.328: pe=0.8756 eb=0.0144 ve=0.0000 vn=0.2162 vl=0.000 db=0.38
G1 E19.7610 F2400                       ; retract de=-1.8756@-40.0 r=0.77
;00:00:13.375: pe=-1.0002 eb=0.0146 ve=-40.0000 vn=0.0000 vl=0.000 db=0.39
G1 Z0.500 F420                          ; hopup dz=0.20@7 h=0.5 r=0.60
;00:00:13.403: pe=-1.0002 eb=0.0146 ve=0.0000 vn=0.0000 vl=0.000 db=0.30
G1 X-27.36 Y59.88 F6000                 ; move dl=4.4@100(0<33>0) de=0.000@0.0(0.0<0.0>0.0) l=0.50x0.50x0.00 r=0.00
;00:00:13.603: pe=-1.0002 eb=0.0000 ve=0.0000 vn=0.0000 vl=0.000 db=0.00
G1 Z0.300 F420                          ; hopdn dz=-0.20@7 h=0.3 r=0.00
;00:00:13.632: pe=-1.0002 eb=0.0000 ve=0.0000 vn=0.0000 vl=0.000 db=0.00
G1 E21.8294 F1800                       ; restore de=2.0684@30.0 r=0.73
;00:00:13.701: pe=1.0553 eb=0.0129 ve=30.0000 vn=0.6565 vl=0.000 db=0.36
G1 X-29.11 Y59.88 E21.9385 F600         ; draw dl=1.8@10(0<10>10) de=0.109@0.59(0.0<0.62>0.62) l=0.30x0.50x1.00 r=0.84
;00:00:13.886: pe=1.0723 eb=0.0163 ve=0.6237 vn=0.5122 vl=10.000 db=0.41
G1 X-29.25 Y58.14 E22.0474              ; draw dl=1.7@10(10<10>5) de=0.109@0.61(0.62<0.62>0.3) l=0.30x0.50x1.00 r=0.84
;00:00:14.063: pe=1.0897 eb=0.0180 ve=0.3035 vn=0.4627 vl=4.866 db=0.43
G1 X-28.97 Y58.45 E22.0735              ; draw dl=0.4@10(5<10>10) de=0.026@0.59(0.3<0.62>0.62) l=0.30x0.50x1.00 r=0.82
;00:00:14.107: pe=1.0945 eb=0.0172 ve=0.6237 vn=0.5148 vl=10.000 db=0.42
G1 X-28.80 Y58.57 E22.0864              ; draw dl=0.2@10(10<10>10) de=0.013@0.62(0.62<0.62>0.62) l=0.30x0.50x1.00 r=0.83
;00:00:14.128: pe=1.0967 eb=0.0171 ve=0.6237 vn=0.5217 vl=10.000 db=0.42
G1 X-28.61 Y58.64 E22.0991              ; draw dl=0.2@10(10<10>10) de=0.013@0.62(0.62<0.62>0.62) l=0.30x0.50x1.00 r=0.84
;00:00:14.148: pe=1.0987 eb=0.0171 ve=0.6237 vn=0.5241 vl=10.000 db=0.42
G1 X-28.42 Y58.67 E22.1111              ; draw dl=0.2@10(10<10>10) de=0.012@0.62(0.62<0.62>0.62) l=0.30x0.50x1.00 r=0.84
;00:00:14.168: pe=1.1006 eb=0.0172 ve=0.6237 vn=0.5253 vl=10.000 db=0.42
G1 X-28.22 Y58.68 E22.1236              ; draw dl=0.2@10(10<10>10) de=0.012@0.62(0.62<0.62>0.62) l=0.30x0.50x1.00 r=0.84
;00:00:14.188: pe=1.1026 eb=0.0173 ve=0.6237 vn=0.5263 vl=10.000 db=0.42
G1 X-27.81 Y58.59 E22.1497              ; draw dl=0.4@10(10<10>10) de=0.026@0.62(0.62<0.62>0.62) l=0.30x0.50x1.00 r=0.85
;00:00:14.230: pe=1.1066 eb=0.0174 ve=0.6237 vn=0.5282 vl=10.000 db=0.42
G1 X-27.49 Y58.37 E22.1740              ; draw dl=0.4@10(10<10>10) de=0.024@0.62(0.62<0.62>0.62) l=0.30x0.50x1.00 r=0.85
;00:00:14.268: pe=1.1103 eb=0.0175 ve=0.6237 vn=0.5299 vl=10.000 db=0.42
G1 X-27.28 Y58.03 E22.1989              ; draw dl=0.4@10(10<10>10) de=0.025@0.62(0.62<0.62>0.62) l=0.30x0.50x1.00 r=0.85
;00:00:14.308: pe=1.1140 eb=0.0176 ve=0.6237 vn=0.5317 vl=10.000 db=0.42
G1 X-27.20 Y57.61 E22.2255              ; draw dl=0.4@10(10<10>10) de=0.027@0.62(0.62<0.62>0.62) l=0.30x0.50x1.00 r=0.85
;00:00:14.351: pe=1.1179 eb=0.0177 ve=0.6237 vn=0.5335 vl=10.000 db=0.43
G1 X-27.27 Y57.14 E22.2552              ; draw dl=0.5@10(10<10>10) de=0.030@0.62(0.62<0.62>0.62) l=0.30x0.50x1.00 r=0.86
;00:00:14.399: pe=1.1221 eb=0.0179 ve=0.6237 vn=0.5355 vl=10.000 db=0.43
G1 X-27.48 Y56.77 E22.2817              ; draw dl=0.4@10(10<10>10) de=0.027@0.62(0.62<0.62>0.62) l=0.30x0.50x1.00 r=0.86
;00:00:14.441: pe=1.1258 eb=0.0180 ve=0.6237 vn=0.5372 vl=10.000 db=0.43
G1 X-27.83 Y56.51 E22.3089              ; draw dl=0.4@10(10<10>10) de=0.027@0.62(0.62<0.62>0.62) l=0.30x0.50x1.00 r=0.86
;00:00:14.485: pe=1.1295 eb=0.0181 ve=0.6237 vn=0.5389 vl=10.000 db=0.43
G1 X-28.33 Y56.42 E22.3406              ; draw dl=0.5@10(10<10>10) de=0.032@0.62(0.62<0.62>0.62) l=0.30x0.50x1.00 r=0.87
;00:00:14.536: pe=1.1338 eb=0.0183 ve=0.6237 vn=0.5409 vl=10.000 db=0.43
G1 X-28.70 Y56.48 E22.3640              ; draw dl=0.4@10(10<10>10) de=0.023@0.62(0.62<0.62>0.62) l=0.30x0.50x1.00 r=0.87
;00:00:14.573: pe=1.1368 eb=0.0184 ve=0.6237 vn=0.5423 vl=10.000 db=0.43
G1 X-29.01 Y56.64 E22.3857              ; draw dl=0.3@10(10<10>10) de=0.022@0.62(0.62<0.62>0.62) l=0.30x0.50x1.00 r=0.87
;00:00:14.608: pe=1.1397 eb=0.0184 ve=0.6237 vn=0.5436 vl=10.000 db=0.43
G1 X-29.23 Y56.91 E22.4074              ; draw dl=0.3@10(10<10>10) de=0.022@0.62(0.62<0.62>0.62) l=0.30x0.50x1.00 r=0.87
;00:00:14.643: pe=1.1424 eb=0.0185 ve=0.6237 vn=0.5449 vl=10.000 db=0.43
G1 X-29.35 Y57.27 E22.4311              ; draw dl=0.4@10(10<10>0) de=0.024@0.49(0.62<0.62>0.0) l=0.30x0.50x1.00 r=1.05
;00:00:14.691: pe=1.1412 eb=0.0227 ve=0.0000 vn=0.3566 vl=0.000 db=0.48
G1 E20.2899 F2400                       ; retract de=-2.1412@-40.0 r=0.97
;00:00:14.744: pe=-1.0006 eb=0.0233 ve=-40.0000 vn=0.0000 vl=0.000 db=0.49
G1 Z0.500 F420                          ; hopup dz=0.20@7 h=0.5 r=0.76
;00:00:14.773: pe=-1.0006 eb=0.0233 ve=0.0000 vn=0.0000 vl=0.000 db=0.38
G1 X-22.82 Y59.88 F6000                 ; move dl=7.0@100(0<42>0) de=0.000@0.0(0.0<0.0>0.0) l=0.50x0.50x0.00 r=0.00
;00:00:15.024: pe=-1.0006 eb=0.0000 ve=0.0000 vn=0.0000 vl=0.000 db=0.00
G1 Z0.300 F420                          ; hopdn dz=-0.20@7 h=0.3 r=0.00
;00:00:15.053: pe=-1.0006 eb=0.0000 ve=0.0000 vn=0.0000 vl=0.000 db=0.00
G1 E22.3506 F1800                       ; restore de=2.0607@30.0 r=0.72
;00:00:15.122: pe=1.0474 eb=0.0127 ve=30.0000 vn=0.6519 vl=0.000 db=0.36
G1 X-22.82 Y56.48 E22.5626 F600         ; draw dl=3.4@10(0<10>0) de=0.212@0.59(0.0<0.62>0.0) l=0.30x0.50x1.00 r=0.85
;00:00:15.482: pe=1.0793 eb=0.0205 ve=0.0000 vn=0.3309 vl=0.000 db=0.46
G1 E20.4833 F2400                       ; retract de=-2.0793@-40.0 r=0.92
;00:00:15.534: pe=-1.0005 eb=0.0209 ve=-40.0000 vn=0.0000 vl=0.000 db=0.46
G1 Z0.500 F420                          ; hopup dz=0.20@7 h=0.5 r=0.72
;00:00:15.562: pe=-1.0005 eb=0.0209 ve=0.0000 vn=0.0000 vl=0.000 db=0.36
G1 X-20.36 Y56.48 F6000                 ; move dl=2.5@100(0<25>0) de=0.000@0.0(0.0<0.0>0.0) l=0.50x0.50x0.00 r=0.00
;00:00:15.711: pe=-1.0005 eb=0.0000 ve=0.0000 vn=0.0000 vl=0.000 db=0.00
G1 Z0.300 F420                          ; hopdn dz=-0.20@7 h=0.3 r=0.00
;00:00:15.740: pe=-1.0005 eb=0.0000 ve=0.0000 vn=0.0000 vl=0.000 db=0.00
G1 E22.5394 F1800                       ; restore de=2.0561@30.0 r=0.72
;00:00:15.808: pe=1.0430 eb=0.0126 ve=30.0000 vn=0.6491 vl=0.000 db=0.36
G1 X-21.85 Y58.51 E22.6965 F600         ; draw dl=2.5@10(0<10>0) de=0.157@0.58(0.0<0.62>0.0) l=0.30x0.50x1.00 r=0.85
;00:00:16.080: pe=1.0659 eb=0.0200 ve=0.0000 vn=0.3253 vl=0.000 db=0.45
G1 E20.6305 F2400                       ; retract de=-2.0659@-40.0 r=0.91
;00:00:16.132: pe=-1.0005 eb=0.0204 ve=-40.0000 vn=0.0000 vl=0.000 db=0.46
G1 Z0.500 F420                          ; hopup dz=0.20@7 h=0.5 r=0.71
;00:00:16.160: pe=-1.0005 eb=0.0204 ve=0.0000 vn=0.0000 vl=0.000 db=0.35
G1 X-22.82 Y57.67 F6000                 ; move dl=1.3@100(0<18>0) de=0.000@0.0(0.0<0.0>0.0) l=0.50x0.50x0.00 r=0.00
;00:00:16.268: pe=-1.0005 eb=0.0000 ve=0.0000 vn=0.0000 vl=0.000 db=0.00
G1 Z0.300 F420                          ; hopdn dz=-0.20@7 h=0.3 r=0.00
;00:00:16.296: pe=-1.0005 eb=0.0000 ve=0.0000 vn=0.0000 vl=0.000 db=0.00
G1 E22.6909 F1800                       ; restore de=2.0604@30.0 r=0.72
;00:00:16.365: pe=1.0472 eb=0.0127 ve=30.0000 vn=0.6517 vl=0.000 db=0.36
G1 X-20.30 Y59.88 E22.9000 F600         ; draw dl=3.4@10(0<10>0) de=0.209@0.59(0.0<0.62>0.0) l=0.30x0.50x1.00 r=0.85
;00:00:16.720: pe=1.0787 eb=0.0204 ve=0.0000 vn=0.3306 vl=0.000 db=0.46
G1 E20.8213 F2400                       ; retract de=-2.0787@-40.0 r=0.92
;00:00:16.772: pe=-1.0005 eb=0.0209 ve=-40.0000 vn=0.0000 vl=0.000 db=0.46
G1 Z0.500 F420                          ; hopup dz=0.20@7 h=0.5 r=0.72
;00:00:16.801: pe=-1.0005 eb=0.0209 ve=0.0000 vn=0.0000 vl=0.000 db=0.36
G1 X-19.24 Y59.88 F6000                 ; move dl=1.1@100(0<16>0) de=0.000@0.0(0.0<0.0>0.0) l=0.50x0.50x0.00 r=0.00
;00:00:16.898: pe=-1.0005 eb=0.0000 ve=0.0000 vn=0.0000 vl=0.000 db=0.00
G1 Z0.300 F420                          ; hopdn dz=-0.20@7 h=0.3 r=0.00
;00:00:16.927: pe=-1.0005 eb=0.0000 ve=0.0000 vn=0.0000 vl=0.000 db=0.00
G1 E22.8819 F1800                       ; restore de=2.0606@30.0 r=0.72
;00:00:16.996: pe=1.0474 eb=0.0127 ve=30.0000 vn=0.6519 vl=0.000 db=0.36
G1 X-19.24 Y56.48 E23.0940 F600         ; draw dl=3.4@10(0<10>0) de=0.212@0.59(0.0<0.62>0.0) l=0.30x0.50x1.00 r=0.85
;00:00:17.356: pe=1.0793 eb=0.0205 ve=0.0000 vn=0.3309 vl=0.000 db=0.46
G1 E21.0146 F2400                       ; retract de=-2.0793@-40.0 r=0.92
;00:00:17.408: pe=-1.0005 eb=0.0209 ve=-40.0000 vn=0.0000 vl=0.000 db=0.46
G1 Z0.500 F420                          ; hopup dz=0.20@7 h=0.5 r=0.72
;00:00:17.436: pe=-1.0005 eb=0.0209 ve=0.0000 vn=0.0000 vl=0.000 db=0.36
G1 X-19.24 Y56.98 F6000                 ; move dl=0.5@100(0<11>0) de=0.000@0.0(0.0<0.0>0.0) l=0.50x0.50x0.00 r=0.00
;00:00:17.503: pe=-1.0005 eb=0.0002 ve=0.0000 vn=0.0000 vl=0.000 db=0.03
G1 Z0.300 F420                          ; hopdn dz=-0.20@7 h=0.3 r=0.09
;00:00:17.532: pe=-1.0005 eb=0.0002 ve=0.0000 vn=0.0000 vl=0.000 db=0.04
G1 E23.0826 F1800                       ; restore de=2.0680@30.0 r=0.73
;00:00:17.601: pe=1.0547 eb=0.0129 ve=30.0000 vn=0.6562 vl=0.000 db=0.36
G1 X-18.99 Y56.74 E23.1042 F600         ; draw dl=0.3@10(0<10>10) de=0.022@0.48(0.0<0.62>0.62) l=0.30x0.50x1.00 r=0.97
;00:00:17.645: pe=1.0554 eb=0.0161 ve=0.6237 vn=0.4901 vl=10.000 db=0.41
G1 X-18.60 Y56.49 E23.1331              ; draw dl=0.5@10(10<10>10) de=0.029@0.62(0.62<0.62>0.62) l=0.30x0.50x1.00 r=0.80
;00:00:17.692: pe=1.0610 eb=0.0160 ve=0.6237 vn=0.5064 vl=10.000 db=0.40
G1 X-18.22 Y56.42 E23.1572              ; draw dl=0.4@10(10<10>10) de=0.024@0.62(0.62<0.62>0.62) l=0.30x0.50x1.00 r=0.81
;00:00:17.730: pe=1.0655 eb=0.0161 ve=0.6237 vn=0.5090 vl=10.000 db=0.41
G1 X-17.84 Y56.51 E23.1815              ; draw dl=0.4@10(10<10>10) de=0.024@0.62(0.62<0.62>0.62) l=0.30x0.50x1.00 r=0.82
;00:00:17.769: pe=1.0699 eb=0.0162 ve=0.6237 vn=0.5111 vl=10.000 db=0.41
G1 X-17.53 Y56.77 E23.2068              ; draw dl=0.4@10(10<10>10) de=0.025@0.62(0.62<0.62>0.62) l=0.30x0.50x1.00 r=0.82
;00:00:17.810: pe=1.0744 eb=0.0164 ve=0.6237 vn=0.5132 vl=10.000 db=0.41
G1 X-17.33 Y57.18 E23.2352              ; draw dl=0.5@10(10<10>10) de=0.028@0.62(0.62<0.62>0.62) l=0.30x0.50x1.00 r=0.83
;00:00:17.855: pe=1.0794 eb=0.0165 ve=0.6237 vn=0.5155 vl=10.000 db=0.41
G1 X-17.26 Y57.71 E23.2686              ; draw dl=0.5@10(10<10>10) de=0.033@0.62(0.62<0.62>0.62) l=0.30x0.50x1.00 r=0.83
;00:00:17.909: pe=1.0851 eb=0.0167 ve=0.6237 vn=0.5182 vl=10.000 db=0.41
G1 X-17.32 Y58.22 E23.3006              ; draw dl=0.5@10(10<10>10) de=0.032@0.62(0.62<0.62>0.62) l=0.30x0.50x1.00 r=0.83
;00:00:17.960: pe=1.0905 eb=0.0169 ve=0.6237 vn=0.5207 vl=10.000 db=0.42
G1 X-17.50 Y58.61 E23.3274              ; draw dl=0.4@10(10<10>10) de=0.027@0.62(0.62<0.62>0.62) l=0.30x0.50x1.00 r=0.84
;00:00:18.003: pe=1.0948 eb=0.0170 ve=0.6237 vn=0.5227 vl=10.000 db=0.42
G1 X-17.79 Y58.86 E23.3513              ; draw dl=0.4@10(10<10>10) de=0.024@0.62(0.62<0.62>0.62) l=0.30x0.50x1.00 r=0.84
;00:00:18.042: pe=1.0987 eb=0.0171 ve=0.6237 vn=0.5245 vl=10.000 db=0.42
G1 X-18.19 Y58.95 E23.3768              ; draw dl=0.4@10(10<10>10) de=0.026@0.62(0.62<0.62>0.62) l=0.30x0.50x1.00 r=0.84
;00:00:18.083: pe=1.1027 eb=0.0173 ve=0.6237 vn=0.5264 vl=10.000 db=0.42
G1 X-18.38 Y58.93 E23.3887              ; draw dl=0.2@10(10<10>10) de=0.012@0.62(0.62<0.62>0.62) l=0.30x0.50x1.00 r=0.85
;00:00:18.102: pe=1.1045 eb=0.0173 ve=0.6237 vn=0.5273 vl=10.000 db=0.42
G1 X-18.58 Y58.85 E23.4022              ; draw dl=0.2@10(10<10>10) de=0.013@0.62(0.62<0.62>0.62) l=0.30x0.50x1.00 r=0.85
;00:00:18.123: pe=1.1066 eb=0.0174 ve=0.6237 vn=0.5282 vl=10.000 db=0.42
G1 X-18.79 Y58.72 E23.4176              ; draw dl=0.2@10(10<10>10) de=0.015@0.62(0.62<0.62>0.62) l=0.30x0.50x1.00 r=0.85
;00:00:18.148: pe=1.1089 eb=0.0175 ve=0.6236 vn=0.5293 vl=10.000 db=0.42
G1 X-18.99 Y58.50 E23.4361              ; draw dl=0.3@10(10<10>10) de=0.019@0.62(0.62<0.62>0.62) l=0.30x0.50x1.00 r=0.85
;00:00:18.178: pe=1.1117 eb=0.0175 ve=0.6236 vn=0.5306 vl=10.000 db=0.42
G1 X-19.24 Y58.03 E23.4693              ; draw dl=0.5@10(10<10>0) de=0.033@0.53(0.62<0.62>0.0) l=0.30x0.50x1.00 r=0.97
;00:00:18.241: pe=1.1125 eb=0.0216 ve=0.0000 vn=0.3447 vl=0.000 db=0.47
G1 E21.3568 F2400                       ; retract de=-2.1125@-40.0 r=0.95
;00:00:18.294: pe=-1.0005 eb=0.0222 ve=-40.0000 vn=0.0000 vl=0.000 db=0.48
G1 Z0.500 F420                          ; hopup dz=0.20@7 h=0.5 r=0.74
;00:00:18.322: pe=-1.0005 eb=0.0222 ve=0.0000 vn=0.0000 vl=0.000 db=0.37
G1 X-16.20 Y58.26 F6000                 ; move dl=3.0@100(0<28>0) de=0.000@0.0(0.0<0.0>0.0) l=0.50x0.50x0.00 r=0.00
;00:00:18.488: pe=-1.0005 eb=0.0000 ve=0.0000 vn=0.0000 vl=0.000 db=0.00
G1 Z0.300 F420                          ; hopdn dz=-0.20@7 h=0.3 r=0.00
;00:00:18.516: pe=-1.0005 eb=0.0000 ve=0.0000 vn=0.0000 vl=0.000 db=0.00
G1 E23.4048 F1800                       ; restore de=2.0481@30.0 r=0.71
;00:00:18.585: pe=1.0351 eb=0.0125 ve=30.0000 vn=0.6439 vl=0.000 db=0.36
G1 X-14.51 Y58.26 E23.5102 F600         ; draw dl=1.7@10(0<10>0) de=0.105@0.56(0.0<0.62>0.0) l=0.30x0.50x1.00 r=0.87
;00:00:18.774: pe=1.0493 eb=0.0194 ve=0.0000 vn=0.3184 vl=0.000 db=0.45
G1 E21.4610 F2400                       ; retract de=-2.0493@-40.0 r=0.90
;00:00:18.825: pe=-1.0004 eb=0.0198 ve=-40.0000 vn=0.0000 vl=0.000 db=0.45
G1 Z0.500 F420                          ; hopup dz=0.20@7 h=0.5 r=0.70
;00:00:18.854: pe=-1.0004 eb=0.0198 ve=0.0000 vn=0.0000 vl=0.000 db=0.35
G1 X-14.51 Y57.55 F6000                 ; move dl=0.7@100(0<13>0) de=0.000@0.0(0.0<0.0>0.0) l=0.50x0.50x0.00 r=0.00
;00:00:18.933: pe=-1.0004 eb=0.0000 ve=0.0000 vn=0.0000 vl=0.000 db=0.00
G1 Z0.300 F420                          ; hopdn dz=-0.20@7 h=0.3 r=0.00
;00:00:18.962: pe=-1.0004 eb=0.0000 ve=0.0000 vn=0.0000 vl=0.000 db=0.00
G1 E23.5090 F1800                       ; restore de=2.0480@30.0 r=0.71
;00:00:19.030: pe=1.0351 eb=0.0125 ve=30.0000 vn=0.6438 vl=0.000 db=0.36
G1 X-16.20 Y57.55 E23.6144 F600         ; draw dl=1.7@10(0<10>0) de=0.105@0.56(0.0<0.62>0.0) l=0.30x0.50x1.00 r=0.87
;00:00:19.219: pe=1.0493 eb=0.0194 ve=0.0000 vn=0.3184 vl=0.000 db=0.45
G1 E21.5651 F2400                       ; retract de=-2.0493@-40.0 r=0.90
;00:00:19.271: pe=-1.0004 eb=0.0198 ve=-40.0000 vn=0.0000 vl=0.000 db=0.45
G1 Z0.500 F420                          ; hopup dz=0.20@7 h=0.5 r=0.70
;00:00:19.299: pe=-1.0004 eb=0.0198 ve=0.0000 vn=0.0000 vl=0.000 db=0.35
G1 X-13.45 Y59.44 F6000                 ; move dl=3.3@100(0<29>0) de=0.000@0.0(0.0<0.0>0.0) l=0.50x0.50x0.00 r=0.00
;00:00:19.472: pe=-1.0004 eb=0.0000 ve=0.0000 vn=0.0000 vl=0.000 db=0.00
G1 Z0.300 F420                          ; hopdn dz=-0.20@7 h=0.3 r=0.00
;00:00:19.501: pe=-1.0004 eb=0.0000 ve=0.0000 vn=0.0000 vl=0.000 db=0.00
G1 E23.6336 F1800                       ; restore de=2.0685@30.0 r=0.73
;00:00:19.570: pe=1.0551 eb=0.0129 ve=30.0000 vn=0.6564 vl=0.000 db=0.36
G1 X-13.26 Y59.65 E23.6513 F600         ; draw dl=0.3@10(0<10>10) de=0.018@0.46(0.0<0.62>0.62) l=0.30x0.50x1.00 r=1.01
;00:00:19.608: pe=1.0549 eb=0.0162 ve=0.6236 vn=0.4820 vl=10.000 db=0.41
G1 X-13.03 Y59.81 E23.6688              ; draw dl=0.3@10(10<10>10) de=0.017@0.62(0.62<0.62>0.62) l=0.30x0.50x1.00 r=0.79
;00:00:19.636: pe=1.0585 eb=0.0160 ve=0.6236 vn=0.5026 vl=10.000 db=0.40
G1 X-12.77 Y59.90 E23.6859              ; draw dl=0.3@10(10<10>10) de=0.017@0.62(0.62<0.62>0.62) l=0.30x0.50x1.00 r=0.81
;00:00:19.664: pe=1.0618 eb=0.0160 ve=0.6237 vn=0.5068 vl=10.000 db=0.40
G1 X-12.49 Y59.94 E23.7036              ; draw dl=0.3@10(10<10>10) de=0.018@0.62(0.62<0.62>0.62) l=0.30x0.50x1.00 r=0.81
;00:00:19.692: pe=1.0650 eb=0.0161 ve=0.6237 vn=0.5087 vl=10.000 db=0.41
G1 X-12.12 Y59.88 E23.7269              ; draw dl=0.4@10(10<10>10) de=0.023@0.62(0.62<0.62>0.62) l=0.30x0.50x1.00 r=0.82
;00:00:19.730: pe=1.0693 eb=0.0162 ve=0.6237 vn=0.5108 vl=10.000 db=0.41
G1 X-11.82 Y59.68 E23.7494              ; draw dl=0.4@10(10<10>10) de=0.022@0.62(0.62<0.62>0.62) l=0.30x0.50x1.00 r=0.82
;00:00:19.766: pe=1.0733 eb=0.0163 ve=0.6237 vn=0.5127 vl=10.000 db=0.41
G1 X-11.63 Y59.39 E23.7710              ; draw dl=0.3@10(10<10>10) de=0.022@0.62(0.62<0.62>0.62) l=0.30x0.50x1.00 r=0.82
;00:00:19.800: pe=1.0771 eb=0.0165 ve=0.6237 vn=0.5145 vl=10.000 db=0.41
G1 X-11.56 Y59.02 E23.7945              ; draw dl=0.4@10(10<10>10) de=0.023@0.62(0.62<0.62>0.62) l=0.30x0.50x1.00 r=0.83
;00:00:19.838: pe=1.0812 eb=0.0166 ve=0.6237 vn=0.5164 vl=10.000 db=0.41
G1 X-11.66 Y58.63 E23.8196              ; draw dl=0.4@10(10<10>10) de=0.025@0.62(0.62<0.62>0.62) l=0.30x0.50x1.00 r=0.83
;00:00:19.878: pe=1.0855 eb=0.0167 ve=0.6237 vn=0.5184 vl=10.000 db=0.41
G1 X-11.94 Y58.27 E23.8481              ; draw dl=0.5@10(10<10>10) de=0.028@0.62(0.62<0.62>0.62) l=0.30x0.50x1.00 r=0.83
;00:00:19.924: pe=1.0902 eb=0.0169 ve=0.6237 vn=0.5206 vl=10.000 db=0.41
G1 X-12.72 Y57.64 E23.9106              ; draw dl=1.0@10(10<10>10) de=0.063@0.62(0.62<0.62>0.62) l=0.30x0.50x1.00 r=0.84
;00:00:20.024: pe=1.1003 eb=0.0172 ve=0.6237 vn=0.5253 vl=10.000 db=0.42
G1 X-13.02 Y57.23 E23.9423              ; draw dl=0.5@10(10<10>10) de=0.032@0.62(0.62<0.62>0.62) l=0.30x0.50x1.00 r=0.84
;00:00:20.075: pe=1.1052 eb=0.0173 ve=0.6237 vn=0.5276 vl=10.000 db=0.42
G1 X-13.41 Y56.48 E23.9950              ; draw dl=0.8@10(10<10>7) de=0.053@0.62(0.62<0.62>0.46) l=0.30x0.50x1.00 r=0.86
;00:00:20.160: pe=1.1128 eb=0.0179 ve=0.4581 vn=0.5141 vl=7.345 db=0.43
G1 X-11.59 Y56.48 E24.1085              ; draw dl=1.8@10(7<10>0) de=0.114@0.59(0.46<0.62>0.0) l=0.30x0.50x1.00 r=0.89
;00:00:20.353: pe=1.1250 eb=0.0221 ve=0.0000 vn=0.3499 vl=0.000 db=0.48
G1 E21.9835 F2400                       ; retract de=-2.1250@-40.0 r=0.96
;00:00:20.406: pe=-1.0005 eb=0.0226 ve=-40.0000 vn=0.0000 vl=0.000 db=0.48
G1 Z0.500 F420                          ; hopup dz=0.20@7 h=0.5 r=0.74
;00:00:20.435: pe=-1.0005 eb=0.0226 ve=0.0000 vn=0.0000 vl=0.000 db=0.37
G1 X-10.49 Y56.71 F6000                 ; move dl=1.1@100(0<17>0) de=0.000@0.0(0.0<0.0>0.0) l=0.50x0.50x0.00 r=0.00
;00:00:20.535: pe=-1.0005 eb=0.0000 ve=0.0000 vn=0.0000 vl=0.000 db=0.00
G1 Z0.300 F420                          ; hopdn dz=-0.20@7 h=0.3 r=0.00
;00:00:20.564: pe=-1.0005 eb=0.0000 ve=0.0000 vn=0.0000 vl=0.000 db=0.00
G1 E23.8730 F1800                       ; restore de=1.8895@30.0 r=0.61
;00:00:20.627: pe=0.8799 eb=0.0091 ve=30.0000 vn=0.5427 vl=0.000 db=0.30
G1 X-10.49 Y56.65 E23.8767 F600         ; draw dl=0.1@10(0<4>0) de=0.004@0.16(0.0<0.24>0.0) l=0.30x0.50x1.00 r=2.14
;00:00:20.650: pe=0.8756 eb=0.0144 ve=0.0000 vn=0.2162 vl=0.000 db=0.38
G1 E22.0011 F2400                       ; retract de=-1.8756@-40.0 r=0.77
;00:00:20.697: pe=-1.0002 eb=0.0146 ve=-40.0000 vn=0.0000 vl=0.000 db=0.39
G1 Z0.500 F420                          ; hopup dz=0.20@7 h=0.5 r=0.60
;00:00:20.725: pe=-1.0002 eb=0.0146 ve=0.0000 vn=0.0000 vl=0.000 db=0.30
G1 X-8.21 Y59.94 F6000                  ; move dl=4.0@100(0<32>0) de=0.000@0.0(0.0<0.0>0.0) l=0.50x0.50x0.00 r=0.00
;00:00:20.915: pe=-1.0002 eb=0.0000 ve=0.0000 vn=0.0000 vl=0.000 db=0.00
G1 Z0.300 F420                          ; hopdn dz=-0.20@7 h=0.3 r=0.00
;00:00:20.944: pe=-1.0002 eb=0.0000 ve=0.0000 vn=0.0000 vl=0.000 db=0.00
G1 E24.0709 F1800                       ; restore de=2.0698@30.0 r=0.73
;00:00:21.013: pe=1.0566 eb=0.0130 ve=30.0000 vn=0.6572 vl=0.000 db=0.36
G1 X-7.70 Y59.80 E24.1039 F600          ; draw dl=0.5@10(0<10>10) de=0.033@0.52(0.0<0.62>0.62) l=0.30x0.50x1.00 r=0.91
;00:00:21.076: pe=1.0595 eb=0.0160 ve=0.6237 vn=0.5022 vl=10.000 db=0.40
G1 X-7.31 Y59.42 E24.1378               ; draw dl=0.5@10(10<10>10) de=0.034@0.62(0.62<0.62>0.62) l=0.30x0.50x1.00 r=0.81
;00:00:21.130: pe=1.0659 eb=0.0161 ve=0.6237 vn=0.5091 vl=10.000 db=0.41
G1 X-7.07 Y58.86 E24.1758               ; draw dl=0.6@10(10<10>10) de=0.038@0.62(0.62<0.62>0.62) l=0.30x0.50x1.00 r=0.82
;00:00:21.191: pe=1.0727 eb=0.0163 ve=0.6237 vn=0.5124 vl=10.000 db=0.41
G1 X-6.99 Y58.18 E24.2185               ; draw dl=0.7@10(10<10>10) de=0.043@0.62(0.62<0.62>0.62) l=0.30x0.50x1.00 r=0.82
;00:00:21.259: pe=1.0802 eb=0.0166 ve=0.6237 vn=0.5159 vl=10.000 db=0.41
G1 X-7.07 Y57.51 E24.2606               ; draw dl=0.7@10(10<10>10) de=0.042@0.62(0.62<0.62>0.62) l=0.30x0.50x1.00 r=0.83
;00:00:21.327: pe=1.0874 eb=0.0168 ve=0.6237 vn=0.5192 vl=10.000 db=0.41
G1 X-7.31 Y56.95 E24.2986               ; draw dl=0.6@10(10<10>10) de=0.038@0.62(0.62<0.62>0.62) l=0.30x0.50x1.00 r=0.84
;00:00:21.388: pe=1.0936 eb=0.0170 ve=0.6237 vn=0.5222 vl=10.000 db=0.42
G1 X-7.70 Y56.56 E24.3330               ; draw dl=0.6@10(10<10>10) de=0.034@0.62(0.62<0.62>0.62) l=0.30x0.50x1.00 r=0.84
;00:00:21.443: pe=1.0991 eb=0.0171 ve=0.6237 vn=0.5247 vl=10.000 db=0.42
G1 X-8.21 Y56.42 E24.3660               ; draw dl=0.5@10(10<10>10) de=0.033@0.62(0.62<0.62>0.62) l=0.30x0.50x1.00 r=0.84
;00:00:21.496: pe=1.1043 eb=0.0173 ve=0.6237 vn=0.5272 vl=10.000 db=0.42
G1 X-8.73 Y56.56 E24.3996               ; draw dl=0.5@10(10<10>10) de=0.034@0.62(0.62<0.62>0.62) l=0.30x0.50x1.00 r=0.85
;00:00:21.550: pe=1.1094 eb=0.0175 ve=0.6237 vn=0.5295 vl=10.000 db=0.42
G1 X-9.11 Y56.95 E24.4336               ; draw dl=0.5@10(10<10>10) de=0.034@0.62(0.62<0.62>0.62) l=0.30x0.50x1.00 r=0.85
;00:00:21.604: pe=1.1145 eb=0.0176 ve=0.6237 vn=0.5319 vl=10.000 db=0.42
G1 X-9.35 Y57.51 E24.4715               ; draw dl=0.6@10(10<10>10) de=0.038@0.62(0.62<0.62>0.62) l=0.30x0.50x1.00 r=0.86
;00:00:21.665: pe=1.1200 eb=0.0178 ve=0.6237 vn=0.5345 vl=10.000 db=0.43
G1 X-9.43 Y58.18 E24.5136               ; draw dl=0.7@10(10<10>10) de=0.042@0.62(0.62<0.62>0.62) l=0.30x0.50x1.00 r=0.86
;00:00:21.733: pe=1.1259 eb=0.0180 ve=0.6237 vn=0.5372 vl=10.000 db=0.43
G1 X-9.35 Y58.85 E24.5557               ; draw dl=0.7@10(10<10>10) de=0.042@0.62(0.62<0.62>0.62) l=0.30x0.50x1.00 r=0.86
;00:00:21.800: pe=1.1316 eb=0.0182 ve=0.6237 vn=0.5399 vl=10.000 db=0.43
G1 X-9.11 Y59.42 E24.5943               ; draw dl=0.6@10(10<10>10) de=0.039@0.62(0.62<0.62>0.62) l=0.30x0.50x1.00 r=0.87
;00:00:21.862: pe=1.1367 eb=0.0183 ve=0.6237 vn=0.5423 vl=10.000 db=0.43
G1 X-8.73 Y59.80 E24.6278               ; draw dl=0.5@10(10<10>10) de=0.034@0.62(0.62<0.62>0.62) l=0.30x0.50x1.00 r=0.87
;00:00:21.916: pe=1.1410 eb=0.0185 ve=0.6237 vn=0.5443 vl=10.000 db=0.43
G1 X-8.21 Y59.94 E24.6614               ; draw dl=0.5@10(10<10>0) de=0.034@0.53(0.62<0.62>0.0) l=0.30x0.50x1.00 r=1.00
;00:00:21.979: pe=1.1411 eb=0.0227 ve=0.0000 vn=0.3566 vl=0.000 db=0.48
G1 E22.5203 F2400                       ; retract de=-2.1411@-40.0 r=0.97
;00:00:22.033: pe=-1.0006 eb=0.0233 ve=-40.0000 vn=0.0000 vl=0.000 db=0.49
G1 Z0.500 F420                          ; hopup dz=0.20@7 h=0.5 r=0.76
;00:00:22.062: pe=-1.0006 eb=0.0233 ve=0.0000 vn=0.0000 vl=0.000 db=0.38
G1 X-2.62 Y56.48 F6000                  ; move dl=6.6@100(0<41>0) de=0.000@0.0(0.0<0.0>0.0) l=0.50x0.50x0.00 r=0.00
;00:00:22.305: pe=-1.0006 eb=0.0000 ve=0.0000 vn=0.0000 vl=0.000 db=0.00
G1 Z0.300 F420                          ; hopdn dz=-0.20@7 h=0.3 r=0.00
;00:00:22.333: pe=-1.0006 eb=0.0000 ve=0.0000 vn=0.0000 vl=0.000 db=0.00
G1 E24.5888 F1800                       ; restore de=2.0685@30.0 r=0.73
;00:00:22.402: pe=1.0550 eb=0.0129 ve=30.0000 vn=0.6563 vl=0.000 db=0.36
G1 X-2.62 Y59.88 E24.8008 F600          ; draw dl=3.4@10(0<10>10) de=0.212@0.61(0.0<0.62>0.62) l=0.30x0.50x1.00 r=0.84
;00:00:22.752: pe=1.0897 eb=0.0169 ve=0.6237 vn=0.5203 vl=10.000 db=0.41
;00:00:22.752: skipping empty move move dl=0.0@7(0<0>0) de=0.000@0.0(0.0<0.0>0.0) l=0.30x0.50x0.00
G1 X-1.39 Y59.88 E24.8775               ; draw dl=1.2@10(10<10>10) de=0.077@0.62(0.62<0.62>0.62) l=0.30x0.50x1.00 r=0.84
;00:00:22.875: pe=1.1020 eb=0.0172 ve=0.6237 vn=0.5261 vl=10.000 db=0.42
G1 X-1.00 Y59.78 E24.9027               ; draw dl=0.4@10(10<10>10) de=0.025@0.62(0.62<0.62>0.62) l=0.30x0.50x1.00 r=0.85
;00:00:22.916: pe=1.1059 eb=0.0174 ve=0.6237 vn=0.5279 vl=10.000 db=0.42
G1 X-0.69 Y59.58 E24.9257               ; draw dl=0.4@10(10<10>10) de=0.023@0.62(0.62<0.62>0.62) l=0.30x0.50x1.00 r=0.85
;00:00:22.953: pe=1.1094 eb=0.0175 ve=0.6237 vn=0.5295 vl=10.000 db=0.42
G1 X-0.59 Y59.45 E24.9359               ; draw dl=0.2@10(10<10>10) de=0.010@0.62(0.62<0.62>0.62) l=0.30x0.50x1.00 r=0.85
;00:00:22.969: pe=1.1109 eb=0.0175 ve=0.6237 vn=0.5302 vl=10.000 db=0.42
G1 X-0.46 Y59.04 E24.9627               ; draw dl=0.4@10(10<10>10) de=0.027@0.62(0.62<0.62>0.62) l=0.30x0.50x1.00 r=0.85
;00:00:23.012: pe=1.1149 eb=0.0176 ve=0.6237 vn=0.5321 vl=10.000 db=0.42
G1 X-0.51 Y58.80 E24.9780               ; draw dl=0.2@10(10<10>10) de=0.015@0.62(0.62<0.62>0.62) l=0.30x0.50x1.00 r=0.85
;00:00:23.036: pe=1.1171 eb=0.0177 ve=0.6237 vn=0.5331 vl=10.000 db=0.43
G1 X-0.62 Y58.56 E24.9945               ; draw dl=0.3@10(10<10>10) de=0.016@0.62(0.62<0.62>0.62) l=0.30x0.50x1.00 r=0.86
;00:00:23.063: pe=1.1195 eb=0.0178 ve=0.6237 vn=0.5342 vl=10.000 db=0.43
G1 X-0.84 Y58.36 E25.0130               ; draw dl=0.3@10(10<10>10) de=0.019@0.62(0.62<0.62>0.62) l=0.30x0.50x1.00 r=0.86
;00:00:23.093: pe=1.1221 eb=0.0179 ve=0.6237 vn=0.5355 vl=10.000 db=0.43
G1 X-1.61 Y58.18 E25.0623               ; draw dl=0.8@10(10<10>0) de=0.049@0.55(0.62<0.62>0.0) l=0.30x0.50x1.00 r=0.94
;00:00:23.182: pe=1.1249 eb=0.0221 ve=0.0000 vn=0.3498 vl=0.000 db=0.47
G1 E22.9375 F2400                       ; retract de=-2.1249@-40.0 r=0.96
;00:00:23.235: pe=-1.0005 eb=0.0226 ve=-40.0000 vn=0.0000 vl=0.000 db=0.48
G1 Z0.500 F420                          ; hopup dz=0.20@7 h=0.5 r=0.74
;00:00:23.263: pe=-1.0005 eb=0.0226 ve=0.0000 vn=0.0000 vl=0.000 db=0.37
G1 X-2.62 Y58.18 F6000                  ; move dl=1.0@100(0<16>0) de=0.000@0.0(0.0<0.0>0.0) l=0.50x0.50x0.00 r=0.00
;00:00:23.359: pe=-1.0005 eb=0.0000 ve=0.0000 vn=0.0000 vl=0.000 db=0.00
G1 Z0.300 F420                          ; hopdn dz=-0.20@7 h=0.3 r=0.00
;00:00:23.387: pe=-1.0005 eb=0.0000 ve=0.0000 vn=0.0000 vl=0.000 db=0.00
G1 E24.9979 F1800                       ; restore de=2.0605@30.0 r=0.72
;00:00:23.456: pe=1.0472 eb=0.0127 ve=30.0000 vn=0.6517 vl=0.000 db=0.36
G1 X-1.61 Y58.18 E25.0609 F600          ; draw dl=1.0@10(0<10>10) de=0.063@0.57(0.0<0.62>0.62) l=0.30x0.50x1.00 r=0.86
;00:00:23.567: pe=1.0562 eb=0.0158 ve=0.6237 vn=0.5045 vl=10.000 db=0.40
G1 X-1.10 Y58.00 E25.0947               ; draw dl=0.5@10(10<10>10) de=0.034@0.62(0.62<0.62>0.62) l=0.30x0.50x1.00 r=0.81
;00:00:23.621: pe=1.0626 eb=0.0160 ve=0.6237 vn=0.5076 vl=10.000 db=0.40
G1 X-0.71 Y57.38 E25.1403               ; draw dl=0.7@10(10<10>10) de=0.046@0.62(0.62<0.62>0.62) l=0.30x0.50x1.00 r=0.82
;00:00:23.694: pe=1.0709 eb=0.0163 ve=0.6237 vn=0.5115 vl=10.000 db=0.41
G1 X-0.46 Y56.48 E25.1986               ; draw dl=0.9@10(10<10>0) de=0.058@0.56(0.62<0.62>0.0) l=0.30x0.50x1.00 r=0.89
;00:00:23.798: pe=1.0772 eb=0.0204 ve=0.0000 vn=0.3300 vl=0.000 db=0.46
G1 E23.1214 F2400                       ; retract de=-2.0772@-40.0 r=0.92
;00:00:23.850: pe=-1.0005 eb=0.0209 ve=-40.0000 vn=0.0000 vl=0.000 db=0.46
G1 Z0.500 F420                          ; hopup dz=0.20@7 h=0.5 r=0.71
;00:00:23.878: pe=-1.0005 eb=0.0209 ve=0.0000 vn=0.0000 vl=0.000 db=0.36
G1 X0.61 Y57.69 F6000                   ; move dl=1.6@100(0<20>0) de=0.000@0.0(0.0<0.0>0.0) l=0.50x0.50x0.00 r=0.00
;00:00:23.999: pe=-1.0005 eb=0.0000 ve=0.0000 vn=0.0000 vl=0.000 db=0.00
G1 Z0.300 F420                          ; hopdn dz=-0.20@7 h=0.3 r=0.00
;00:00:24.027: pe=-1.0005 eb=0.0000 ve=0.0000 vn=0.0000 vl=0.000 db=0.00
G1 E25.1911 F1800                       ; restore de=2.0697@30.0 r=0.73
;00:00:24.096: pe=1.0563 eb=0.0130 ve=30.0000 vn=0.6570 vl=0.000 db=0.36
G1 X2.75 Y57.69 E25.3246 F600           ; draw dl=2.1@10(0<10>10) de=0.133@0.6(0.0<0.62>0.6) l=0.30x0.50x1.00 r=0.84
;00:00:24.320: pe=1.0775 eb=0.0165 ve=0.6039 vn=0.5144 vl=9.683 db=0.41
G1 X2.67 Y58.22 E25.3580                ; draw dl=0.5@10(10<10>10) de=0.033@0.62(0.6<0.62>0.62) l=0.30x0.50x1.00 r=0.83
;00:00:24.374: pe=1.0832 eb=0.0167 ve=0.6237 vn=0.5173 vl=10.000 db=0.41
G1 X2.46 Y58.61 E25.3856                ; draw dl=0.4@10(10<10>10) de=0.028@0.62(0.62<0.62>0.62) l=0.30x0.50x1.00 r=0.83
;00:00:24.418: pe=1.0879 eb=0.0168 ve=0.6237 vn=0.5195 vl=10.000 db=0.41
G1 X2.12 Y58.86 E25.4119                ; draw dl=0.4@10(10<10>10) de=0.026@0.62(0.62<0.62>0.62) l=0.30x0.50x1.00 r=0.83
;00:00:24.460: pe=1.0922 eb=0.0169 ve=0.6237 vn=0.5215 vl=10.000 db=0.42
G1 X1.68 Y58.95 E25.4399                ; draw dl=0.4@10(10<10>10) de=0.028@0.62(0.62<0.62>0.62) l=0.30x0.50x1.00 r=0.84
;00:00:24.505: pe=1.0968 eb=0.0171 ve=0.6237 vn=0.5236 vl=10.000 db=0.42
G1 X1.25 Y58.86 E25.4673                ; draw dl=0.4@10(10<10>10) de=0.027@0.62(0.62<0.62>0.62) l=0.30x0.50x1.00 r=0.84
;00:00:24.549: pe=1.1011 eb=0.0172 ve=0.6237 vn=0.5257 vl=10.000 db=0.42
G1 X0.91 Y58.61 E25.4937                ; draw dl=0.4@10(10<10>10) de=0.026@0.62(0.62<0.62>0.62) l=0.30x0.50x1.00 r=0.84
;00:00:24.591: pe=1.1052 eb=0.0173 ve=0.6237 vn=0.5276 vl=10.000 db=0.42
G1 X0.69 Y58.22 E25.5216                ; draw dl=0.4@10(10<10>10) de=0.028@0.62(0.62<0.62>0.62) l=0.30x0.50x1.00 r=0.85
;00:00:24.636: pe=1.1095 eb=0.0175 ve=0.6237 vn=0.5296 vl=10.000 db=0.42
G1 X0.61 Y57.69 E25.5550                ; draw dl=0.5@10(10<10>10) de=0.033@0.62(0.62<0.62>0.62) l=0.30x0.50x1.00 r=0.85
;00:00:24.690: pe=1.1144 eb=0.0176 ve=0.6237 vn=0.5319 vl=10.000 db=0.42
G1 X0.69 Y57.15 E25.5891                ; draw dl=0.5@10(10<10>10) de=0.034@0.62(0.62<0.62>0.62) l=0.30x0.50x1.00 r=0.85
;00:00:24.744: pe=1.1194 eb=0.0178 ve=0.6237 vn=0.5342 vl=10.000 db=0.43
G1 X0.92 Y56.75 E25.6178                ; draw dl=0.5@10(10<10>10) de=0.029@0.62(0.62<0.62>0.62) l=0.30x0.50x1.00 r=0.86
;00:00:24.791: pe=1.1234 eb=0.0179 ve=0.6237 vn=0.5361 vl=10.000 db=0.43
G1 X1.27 Y56.51 E25.6443                ; draw dl=0.4@10(10<10>10) de=0.026@0.62(0.62<0.62>0.62) l=0.30x0.50x1.00 r=0.86
;00:00:24.833: pe=1.1271 eb=0.0180 ve=0.6237 vn=0.5378 vl=10.000 db=0.43
G1 X1.73 Y56.42 E25.6735                ; draw dl=0.5@10(10<10>10) de=0.029@0.62(0.62<0.62>0.62) l=0.30x0.50x1.00 r=0.86
;00:00:24.880: pe=1.1311 eb=0.0182 ve=0.6237 vn=0.5397 vl=10.000 db=0.43
G1 X2.07 Y56.47 E25.6950                ; draw dl=0.3@10(10<10>10) de=0.021@0.62(0.62<0.62>0.62) l=0.30x0.50x1.00 r=0.87
;00:00:24.914: pe=1.1340 eb=0.0183 ve=0.6237 vn=0.5410 vl=10.000 db=0.43
G1 X2.36 Y56.61 E25.7151                ; draw dl=0.3@10(10<10>10) de=0.020@0.62(0.62<0.62>0.62) l=0.30x0.50x1.00 r=0.87
;00:00:24.946: pe=1.1366 eb=0.0183 ve=0.6237 vn=0.5422 vl=10.000 db=0.43
G1 X2.57 Y56.83 E25.7340                ; draw dl=0.3@10(10<10>10) de=0.019@0.62(0.62<0.62>0.62) l=0.30x0.50x1.00 r=0.87
;00:00:24.977: pe=1.1390 eb=0.0184 ve=0.6237 vn=0.5434 vl=10.000 db=0.43
G1 X2.69 Y57.13 E25.7542                ; draw dl=0.3@10(10<10>0) de=0.020@0.48(0.62<0.62>0.0) l=0.30x0.50x1.00 r=1.08
;00:00:25.019: pe=1.1375 eb=0.0226 ve=0.0000 vn=0.3551 vl=0.000 db=0.48
G1 E23.6167 F2400                       ; retract de=-2.1375@-40.0 r=0.97
;00:00:25.073: pe=-1.0006 eb=0.0231 ve=-40.0000 vn=0.0000 vl=0.000 db=0.49
G1 Z0.500 F420                          ; hopup dz=0.20@7 h=0.5 r=0.75
;00:00:25.101: pe=-1.0006 eb=0.0231 ve=0.0000 vn=0.0000 vl=0.000 db=0.38
G1 X3.81 Y58.26 F6000                   ; move dl=1.6@100(0<20>0) de=0.000@0.0(0.0<0.0>0.0) l=0.50x0.50x0.00 r=0.00
;00:00:25.221: pe=-1.0006 eb=0.0000 ve=0.0000 vn=0.0000 vl=0.000 db=0.00
G1 Z0.300 F420                          ; hopdn dz=-0.20@7 h=0.3 r=0.00
;00:00:25.249: pe=-1.0006 eb=0.0000 ve=0.0000 vn=0.0000 vl=0.000 db=0.00
G1 E25.6649 F1800                       ; restore de=2.0482@30.0 r=0.71
;00:00:25.318: pe=1.0351 eb=0.0125 ve=30.0000 vn=0.6439 vl=0.000 db=0.36
G1 X5.50 Y58.26 E25.7703 F600           ; draw dl=1.7@10(0<10>0) de=0.105@0.56(0.0<0.62>0.0) l=0.30x0.50x1.00 r=0.87
;00:00:25.507: pe=1.0493 eb=0.0194 ve=0.0000 vn=0.3184 vl=0.000 db=0.45
G1 E23.7210 F2400                       ; retract de=-2.0493@-40.0 r=0.90
;00:00:25.558: pe=-1.0004 eb=0.0198 ve=-40.0000 vn=0.0000 vl=0.000 db=0.45
G1 Z0.500 F420                          ; hopup dz=0.20@7 h=0.5 r=0.70
;00:00:25.587: pe=-1.0004 eb=0.0198 ve=0.0000 vn=0.0000 vl=0.000 db=0.35
G1 X5.50 Y57.55 F6000                   ; move dl=0.7@100(0<13>0) de=0.000@0.0(0.0<0.0>0.0) l=0.50x0.50x0.00 r=0.00
;00:00:25.666: pe=-1.0004 eb=0.0000 ve=0.0000 vn=0.0000 vl=0.000 db=0.00
G1 Z0.300 F420                          ; hopdn dz=-0.20@7 h=0.3 r=0.00
;00:00:25.695: pe=-1.0004 eb=0.0000 ve=0.0000 vn=0.0000 vl=0.000 db=0.00
G1 E25.7690 F1800                       ; restore de=2.0480@30.0 r=0.71
;00:00:25.763: pe=1.0351 eb=0.0125 ve=30.0000 vn=0.6439 vl=0.000 db=0.36
G1 X3.81 Y57.55 E25.8744 F600           ; draw dl=1.7@10(0<10>0) de=0.105@0.56(0.0<0.62>0.0) l=0.30x0.50x1.00 r=0.87
;00:00:25.952: pe=1.0493 eb=0.0194 ve=0.0000 vn=0.3184 vl=0.000 db=0.45
G1 E23.8251 F2400                       ; retract de=-2.0493@-40.0 r=0.90
;00:00:26.004: pe=-1.0004 eb=0.0198 ve=-40.0000 vn=0.0000 vl=0.000 db=0.45
G1 Z0.500 F420                          ; hopup dz=0.20@7 h=0.5 r=0.70
;00:00:26.032: pe=-1.0004 eb=0.0198 ve=0.0000 vn=0.0000 vl=0.000 db=0.35
G1 X6.56 Y59.00 F6000                   ; move dl=3.1@100(0<28>0) de=0.000@0.0(0.0<0.0>0.0) l=0.50x0.50x0.00 r=0.00
;00:00:26.199: pe=-1.0004 eb=0.0000 ve=0.0000 vn=0.0000 vl=0.000 db=0.00
G1 Z0.300 F420                          ; hopdn dz=-0.20@7 h=0.3 r=0.00
;00:00:26.228: pe=-1.0004 eb=0.0000 ve=0.0000 vn=0.0000 vl=0.000 db=0.00
G1 E25.8876 F1800                       ; restore de=2.0625@30.0 r=0.72
;00:00:26.297: pe=1.0492 eb=0.0128 ve=30.0000 vn=0.6530 vl=0.000 db=0.36
G1 X7.03 Y59.24 E25.9205 F600           ; draw dl=0.5@10(0<10>10) de=0.033@0.52(0.0<0.62>0.62) l=0.30x0.50x1.00 r=0.91
;00:00:26.359: pe=1.0524 eb=0.0158 ve=0.6237 vn=0.4990 vl=10.000 db=0.40
G1 X7.40 Y59.55 E25.9506                ; draw dl=0.5@10(10<10>10) de=0.030@0.62(0.62<0.62>0.62) l=0.30x0.50x1.00 r=0.81
;00:00:26.408: pe=1.0582 eb=0.0159 ve=0.6237 vn=0.5055 vl=10.000 db=0.40
G1 X7.65 Y59.88 E25.9764                ; draw dl=0.4@10(10<10>5) de=0.026@0.59(0.62<0.62>0.3) l=0.30x0.50x1.00 r=0.86
;00:00:26.452: pe=1.0618 eb=0.0172 ve=0.3015 vn=0.4493 vl=4.834 db=0.42
G1 X7.65 Y56.48 E26.1885                ; draw dl=3.4@10(5<10>0) de=0.212@0.6(0.3<0.62>0.0) l=0.30x0.50x1.00 r=0.84
;00:00:26.804: pe=1.0949 eb=0.0210 ve=0.0000 vn=0.3373 vl=0.000 db=0.46
G1 E24.0935 F2400                       ; retract de=-2.0949@-40.0 r=0.94
;00:00:26.857: pe=-1.0005 eb=0.0215 ve=-40.0000 vn=0.0000 vl=0.000 db=0.47
G1 Z0.500 F420                          ; hopup dz=0.20@7 h=0.5 r=0.73
;00:00:26.885: pe=-1.0005 eb=0.0215 ve=0.0000 vn=0.0000 vl=0.000 db=0.36
G1 X8.70 Y56.71 F6000                   ; move dl=1.1@100(0<16>0) de=0.000@0.0(0.0<0.0>0.0) l=0.50x0.50x0.00 r=0.00
;00:00:26.984: pe=-1.0005 eb=0.0000 ve=0.0000 vn=0.0000 vl=0.000 db=0.00
G1 Z0.300 F420                          ; hopdn dz=-0.20@7 h=0.3 r=0.00
;00:00:27.012: pe=-1.0005 eb=0.0000 ve=0.0000 vn=0.0000 vl=0.000 db=0.00
G1 E25.9830 F1800                       ; restore de=1.8895@30.0 r=0.61
;00:00:27.075: pe=0.8799 eb=0.0091 ve=30.0000 vn=0.5427 vl=0.000 db=0.30
G1 X8.70 Y56.65 E25.9867 F600           ; draw dl=0.1@10(0<4>0) de=0.004@0.16(0.0<0.24>0.0) l=0.30x0.50x1.00 r=2.14
;00:00:27.099: pe=0.8756 eb=0.0144 ve=0.0000 vn=0.2162 vl=0.000 db=0.38
G1 E24.1111 F2400                       ; retract de=-1.8756@-40.0 r=0.77
;00:00:27.145: pe=-1.0002 eb=0.0146 ve=-40.0000 vn=0.0000 vl=0.000 db=0.39
G1 Z0.500 F420                          ; hopup dz=0.20@7 h=0.5 r=0.60
;00:00:27.174: pe=-1.0002 eb=0.0146 ve=0.0000 vn=0.0000 vl=0.000 db=0.30
G1 X10.99 Y59.94 F6000                  ; move dl=4.0@100(0<32>0) de=0.000@0.0(0.0<0.0>0.0) l=0.50x0.50x0.00 r=0.00
;00:00:27.364: pe=-1.0002 eb=0.0000 ve=0.0000 vn=0.0000 vl=0.000 db=0.00
G1 Z0.300 F420                          ; hopdn dz=-0.20@7 h=0.3 r=0.00
;00:00:27.393: pe=-1.0002 eb=0.0000 ve=0.0000 vn=0.0000 vl=0.000 db=0.00
G1 E26.1809 F1800                       ; restore de=2.0698@30.0 r=0.73
;00:00:27.462: pe=1.0566 eb=0.0130 ve=30.0000 vn=0.6572 vl=0.000 db=0.36
G1 X11.50 Y59.80 E26.2139 F600          ; draw dl=0.5@10(0<10>10) de=0.033@0.52(0.0<0.62>0.62) l=0.30x0.50x1.00 r=0.91
;00:00:27.524: pe=1.0595 eb=0.0160 ve=0.6237 vn=0.5022 vl=10.000 db=0.40
G1 X11.89 Y59.42 E26.2478               ; draw dl=0.5@10(10<10>10) de=0.034@0.62(0.62<0.62>0.62) l=0.30x0.50x1.00 r=0.81
;00:00:27.579: pe=1.0659 eb=0.0161 ve=0.6237 vn=0.5091 vl=10.000 db=0.41
G1 X12.13 Y58.86 E26.2858               ; draw dl=0.6@10(10<10>10) de=0.038@0.62(0.62<0.62>0.62) l=0.30x0.50x1.00 r=0.82
;00:00:27.640: pe=1.0727 eb=0.0163 ve=0.6237 vn=0.5124 vl=10.000 db=0.41
G1 X12.21 Y58.18 E26.3285               ; draw dl=0.7@10(10<10>10) de=0.043@0.62(0.62<0.62>0.62) l=0.30x0.50x1.00 r=0.82
;00:00:27.708: pe=1.0802 eb=0.0166 ve=0.6237 vn=0.5159 vl=10.000 db=0.41
G1 X12.13 Y57.51 E26.3706               ; draw dl=0.7@10(10<10>10) de=0.042@0.62(0.62<0.62>0.62) l=0.30x0.50x1.00 r=0.83
;00:00:27.776: pe=1.0874 eb=0.0168 ve=0.6237 vn=0.5192 vl=10.000 db=0.41
G1 X11.89 Y56.95 E26.4086               ; draw dl=0.6@10(10<10>10) de=0.038@0.62(0.62<0.62>0.62) l=0.30x0.50x1.00 r=0.84
;00:00:27.837: pe=1.0936 eb=0.0170 ve=0.6237 vn=0.5222 vl=10.000 db=0.42
G1 X11.50 Y56.56 E26.4430               ; draw dl=0.6@10(10<10>10) de=0.034@0.62(0.62<0.62>0.62) l=0.30x0.50x1.00 r=0.84
;00:00:27.892: pe=1.0991 eb=0.0171 ve=0.6237 vn=0.5247 vl=10.000 db=0.42
G1 X10.99 Y56.42 E26.4760               ; draw dl=0.5@10(10<10>10) de=0.033@0.62(0.62<0.62>0.62) l=0.30x0.50x1.00 r=0.84
;00:00:27.945: pe=1.1043 eb=0.0173 ve=0.6237 vn=0.5272 vl=10.000 db=0.42
G1 X10.47 Y56.56 E26.5096               ; draw dl=0.5@10(10<10>10) de=0.034@0.62(0.62<0.62>0.62) l=0.30x0.50x1.00 r=0.85
;00:00:27.999: pe=1.1094 eb=0.0175 ve=0.6237 vn=0.5295 vl=10.000 db=0.42
G1 X10.09 Y56.95 E26.5435               ; draw dl=0.5@10(10<10>10) de=0.034@0.62(0.62<0.62>0.62) l=0.30x0.50x1.00 r=0.85
;00:00:28.053: pe=1.1145 eb=0.0176 ve=0.6237 vn=0.5319 vl=10.000 db=0.42
G1 X9.85 Y57.51 E26.5815                ; draw dl=0.6@10(10<10>10) de=0.038@0.62(0.62<0.62>0.62) l=0.30x0.50x1.00 r=0.86
;00:00:28.114: pe=1.1200 eb=0.0178 ve=0.6237 vn=0.5345 vl=10.000 db=0.43
G1 X9.77 Y58.18 E26.6236                ; draw dl=0.7@10(10<10>10) de=0.042@0.62(0.62<0.62>0.62) l=0.30x0.50x1.00 r=0.86
;00:00:28.181: pe=1.1259 eb=0.0180 ve=0.6237 vn=0.5372 vl=10.000 db=0.43
G1 X9.85 Y58.85 E26.6657                ; draw dl=0.7@10(10<10>10) de=0.042@0.62(0.62<0.62>0.62) l=0.30x0.50x1.00 r=0.86
;00:00:28.249: pe=1.1316 eb=0.0182 ve=0.6237 vn=0.5399 vl=10.000 db=0.43
G1 X10.09 Y59.42 E26.7043               ; draw dl=0.6@10(10<10>10) de=0.039@0.62(0.62<0.62>0.62) l=0.30x0.50x1.00 r=0.87
;00:00:28.311: pe=1.1367 eb=0.0183 ve=0.6237 vn=0.5423 vl=10.000 db=0.43
G1 X10.47 Y59.80 E26.7378               ; draw dl=0.5@10(10<10>10) de=0.034@0.62(0.62<0.62>0.62) l=0.30x0.50x1.00 r=0.87
;00:00:28.364: pe=1.1410 eb=0.0185 ve=0.6237 vn=0.5443 vl=10.000 db=0.43
G1 X10.99 Y59.94 E26.7714               ; draw dl=0.5@10(10<10>0) de=0.034@0.53(0.62<0.62>0.0) l=0.30x0.50x1.00 r=1.00
;00:00:28.428: pe=1.1411 eb=0.0227 ve=0.0000 vn=0.3566 vl=0.000 db=0.48
G1 E24.6303 F2400                       ; retract de=-2.1411@-40.0 r=0.97
;00:00:28.482: pe=-1.0006 eb=0.0233 ve=-40.0000 vn=0.0000 vl=0.000 db=0.49
G1 Z0.500 F420                          ; hopup dz=0.20@7 h=0.5 r=0.76
;00:00:28.510: pe=-1.0006 eb=0.0233 ve=0.0000 vn=0.0000 vl=0.000 db=0.38
;structure:brim
G1 X-45.00 Y60.00 F6000                 ; move dl=56.0@100(0<100>0) de=0.000@0.0(0.0<0.0>0.0) l=0.50x0.50x0.00 r=0.00
;00:00:29.270: pe=-1.0006 eb=0.0000 ve=0.0000 vn=0.0000 vl=0.000 db=0.00
G1 Z0.300 F420                          ; hopdn dz=-0.20@7 h=0.3 r=0.00
;00:00:29.299: pe=-1.0006 eb=0.0000 ve=0.0000 vn=0.0000 vl=0.000 db=0.00
G1 E26.7047 F1800                       ; restore de=2.0744@30.0 r=0.73
;00:00:29.368: pe=1.0607 eb=0.0131 ve=30.0000 vn=0.6603 vl=0.000 db=0.37
G1 X-45.00 Y-61.00 E34.2512 F600        ; draw dl=121.0@10(0<10>10) de=7.546@0.62(0.0<0.62>0.62) l=0.30x0.50x1.00 r=0.97
;00:00:41.478: pe=1.3110 eb=0.0245 ve=0.6237 vn=0.6232 vl=10.000 db=0.50
G1 X-45.50 Y-61.00 E34.2824             ; draw dl=0.5@10(10<10>10) de=0.031@0.62(0.62<0.62>0.62) l=0.30x0.50x1.00 r=1.00
;00:00:41.528: pe=1.3110 eb=0.0245 ve=0.6237 vn=0.6232 vl=10.000 db=0.50
G1 X-45.50 Y60.00 E41.8289              ; draw dl=121.0@10(10<10>0) de=7.547@0.62(0.62<0.62>0.0) l=0.30x0.50x1.00 r=1.00
;00:00:53.638: pe=1.3070 eb=0.0293 ve=0.0000 vn=0.4264 vl=0.000 db=0.55
G1 E39.5219 F2400                       ; retract de=-2.3070@-40.0 r=1.11
;00:00:53.696: pe=-1.0008 eb=0.0301 ve=-40.0000 vn=0.0000 vl=0.000 db=0.55
G1 Z0.500 F420                          ; hopup dz=0.20@7 h=0.5 r=0.86
;00:00:53.724: pe=-1.0008 eb=0.0301 ve=0.0000 vn=0.0000 vl=0.000 db=0.43
G1 X45.00 Y60.00 F6000                  ; move dl=90.5@100(0<100>0) de=0.000@0.0(0.0<0.0>0.0) l=0.50x0.50x0.00 r=0.00
;00:00:54.829: pe=-1.0008 eb=0.0000 ve=0.0000 vn=0.0000 vl=0.000 db=0.00
G1 Z0.300 F420                          ; hopdn dz=-0.20@7 h=0.3 r=0.00
;00:00:54.858: pe=-1.0008 eb=0.0000 ve=0.0000 vn=0.0000 vl=0.000 db=0.00
G1 E41.5965 F1800                       ; restore de=2.0747@30.0 r=0.73
;00:00:54.927: pe=1.0608 eb=0.0131 ve=30.0000 vn=0.6603 vl=0.000 db=0.37
G1 X45.00 Y-61.00 E49.1431 F600         ; draw dl=121.0@10(0<10>10) de=7.547@0.62(0.0<0.62>0.62) l=0.30x0.50x1.00 r=0.97
;00:01:07.037: pe=1.3110 eb=0.0245 ve=0.6237 vn=0.6232 vl=10.000 db=0.50
G1 X45.50 Y-61.00 E49.1742              ; draw dl=0.5@10(10<10>10) de=0.031@0.62(0.62<0.62>0.62) l=0.30x0.50x1.00 r=1.00
;00:01:07.087: pe=1.3110 eb=0.0245 ve=0.6237 vn=0.6233 vl=10.000 db=0.50
G1 X45.50 Y60.00 E56.7208               ; draw dl=121.0@10(10<10>0) de=7.547@0.62(0.62<0.62>0.0) l=0.30x0.50x1.00 r=1.00
;00:01:19.197: pe=1.3070 eb=0.0293 ve=0.0000 vn=0.4264 vl=0.000 db=0.55
G1 E54.4138 F2400                       ; retract de=-2.3070@-40.0 r=1.11
;00:01:19.255: pe=-1.0008 eb=0.0301 ve=-40.0000 vn=0.0000 vl=0.000 db=0.55
G1 Z0.500 F420                          ; hopup dz=0.20@7 h=0.5 r=0.86
;00:01:19.283: pe=-1.0008 eb=0.0301 ve=0.0000 vn=0.0000 vl=0.000 db=0.43
;00:01:19.283: Test Backpressure1 Kb=0.0-4.0 Re=0.5 ve=1.0 h=0.2 w=0.3
;structure:shell-outer
G1 X-45.00 Y55.00 F6000                 ; move dl=90.6@100(0<100>0) de=0.000@0.0(0.0<0.0>0.0) l=0.50x0.50x0.00 r=0.00
;00:01:20.390: pe=-1.0008 eb=0.0000 ve=0.0000 vn=0.0000 vl=0.000 db=0.00
G1 Z0.300 F420                          ; hopdn dz=-0.20@7 h=0.3 r=0.00
;00:01:20.418: pe=-1.0008 eb=0.0000 ve=0.0000 vn=0.0000 vl=0.000 db=0.00
G1 E56.4881 F1800                       ; restore de=2.0743@30.0 r=0.73
;00:01:20.487: pe=1.0604 eb=0.0131 ve=30.0000 vn=0.6600 vl=0.000 db=0.37
G1 X45.00 Y55.00 E62.1012 F600          ; draw dl=90.0@10(0<10>0) de=5.613@0.62(0.0<0.62>0.0) l=0.30x0.50x1.00 r=0.96
;00:01:29.507: pe=1.3031 eb=0.0291 ve=0.0000 vn=0.4247 vl=0.000 db=0.55
G1 E59.7981 F2400                       ; retract de=-2.3031@-40.0 r=1.11
;00:01:29.565: pe=-1.0008 eb=0.0300 ve=-40.0000 vn=0.0000 vl=0.000 db=0.55
G1 Z0.500 F420                          ; hopup dz=0.20@7 h=0.5 r=0.86
;00:01:29.593: pe=-1.0008 eb=0.0300 ve=0.0000 vn=0.0000 vl=0.000 db=0.43
G1 X-42.00 Y55.00 F6000                 ; move dl=87.0@100(0<100>0) de=0.000@0.0(0.0<0.0>0.0) l=0.50x0.50x0.00 r=0.00
;00:01:30.663: pe=-1.0008 eb=0.0000 ve=0.0000 vn=0.0000 vl=0.000 db=0.00
G1 X-40.00 Y55.00                       ; move dl=2.0@100(0<22>0) de=0.000@0.0(0.0<0.0>0.0) l=0.50x0.50x0.00 r=0.00
;00:01:30.798: pe=-1.0008 eb=0.0000 ve=0.0000 vn=0.0000 vl=0.000 db=0.00
G1 Z0.300 F420                          ; hopdn dz=-0.20@7 h=0.3 r=0.00
;00:01:30.826: pe=-1.0008 eb=0.0000 ve=0.0000 vn=0.0000 vl=0.000 db=0.00
G1 E61.8574 F1800                       ; restore de=2.0593@30.0 r=0.72
;00:01:30.895: pe=1.0457 eb=0.0127 ve=30.0000 vn=0.6508 vl=0.000 db=0.36
G1 X-40.00 Y52.00 E62.0445 F600         ; draw dl=3.0@10(0<10>0) de=0.187@0.58(0.0<0.62>0.0) l=0.30x0.50x1.00 r=0.85
;00:01:31.215: pe=1.0737 eb=0.0203 ve=0.0000 vn=0.3285 vl=0.000 db=0.45
G1 E59.9708 F2400                       ; retract de=-2.0737@-40.0 r=0.92
;00:01:31.267: pe=-1.0005 eb=0.0207 ve=-40.0000 vn=0.0000 vl=0.000 db=0.46
G1 Z0.500 F420                          ; hopup dz=0.20@7 h=0.5 r=0.71
;00:01:31.295: pe=-1.0005 eb=0.0207 ve=0.0000 vn=0.0000 vl=0.000 db=0.36
G1 X-38.00 Y55.00 F6000                 ; move dl=3.6@100(0<30>0) de=0.000@0.0(0.0<0.0>0.0) l=0.50x0.50x0.00 r=0.00
;00:01:31.475: pe=-1.0005 eb=0.0000 ve=0.0000 vn=0.0000 vl=0.000 db=0.00
G1 Z0.300 F420                          ; hopdn dz=-0.20@7 h=0.3 r=0.00
;00:01:31.504: pe=-1.0005 eb=0.0000 ve=0.0000 vn=0.0000 vl=0.000 db=0.00
G1 E62.0160 F1800                       ; restore de=2.0452@30.0 r=0.71
;00:01:31.572: pe=1.0323 eb=0.0124 ve=30.0000 vn=0.6419 vl=0.000 db=0.36
G1 X-38.00 Y53.50 E62.1096 F600         ; draw dl=1.5@10(0<10>0) de=0.094@0.55(0.0<0.62>0.0) l=0.30x0.50x1.00 r=0.87
;00:01:31.742: pe=1.0444 eb=0.0192 ve=0.0000 vn=0.3164 vl=0.000 db=0.44
G1 E60.0651 F2400                       ; retract de=-2.0444@-40.0 r=0.90
;00:01:31.793: pe=-1.0004 eb=0.0197 ve=-40.0000 vn=0.0000 vl=0.000 db=0.45
G1 Z0.500 F420                          ; hopup dz=0.20@7 h=0.5 r=0.69
;00:01:31.822: pe=-1.0004 eb=0.0197 ve=0.0000 vn=0.0000 vl=0.000 db=0.35
G1 X-36.00 Y55.00 F6000                 ; move dl=2.5@100(0<25>0) de=0.000@0.0(0.0<0.0>0.0) l=0.50x0.50x0.00 r=0.00
;00:01:31.972: pe=-1.0004 eb=0.0000 ve=0.0000 vn=0.0000 vl=0.000 db=0.00
G1 Z0.300 F420                          ; hopdn dz=-0.20@7 h=0.3 r=0.00
;00:01:32.000: pe=-1.0004 eb=0.0000 ve=0.0000 vn=0.0000 vl=0.000 db=0.00
G1 E62.1103 F1800                       ; restore de=2.0451@30.0 r=0.71
;00:01:32.069: pe=1.0323 eb=0.0124 ve=30.0000 vn=0.6419 vl=0.000 db=0.36
G1 X-36.00 Y53.50 E62.2038 F600         ; draw dl=1.5@10(0<10>0) de=0.094@0.55(0.0<0.62>0.0) l=0.30x0.50x1.00 r=0.87
;00:01:32.239: pe=1.0444 eb=0.0192 ve=0.0000 vn=0.3164 vl=0.000 db=0.44
G1 E60.1594 F2400                       ; retract de=-2.0444@-40.0 r=0.90
;00:01:32.290: pe=-1.0004 eb=0.0197 ve=-40.0000 vn=0.0000 vl=0.000 db=0.45
G1 Z0.500 F420                          ; hopup dz=0.20@7 h=0.5 r=0.69
;00:01:32.318: pe=-1.0004 eb=0.0197 ve=0.0000 vn=0.0000 vl=0.000 db=0.35
G1 X-34.00 Y55.00 F6000                 ; move dl=2.5@100(0<25>0) de=0.000@0.0(0.0<0.0>0.0) l=0.50x0.50x0.00 r=0.00
;00:01:32.468: pe=-1.0004 eb=0.0000 ve=0.0000 vn=0.0000 vl=0.000 db=0.00
G1 Z0.300 F420                          ; hopdn dz=-0.20@7 h=0.3 r=0.00
;00:01:32.497: pe=-1.0004 eb=0.0000 ve=0.0000 vn=0.0000 vl=0.000 db=0.00
G1 E62.2045 F1800                       ; restore de=2.0451@30.0 r=0.71
;00:01:32.565: pe=1.0323 eb=0.0124 ve=30.0000 vn=0.6419 vl=0.000 db=0.36
G1 X-34.00 Y53.50 E62.2981 F600         ; draw dl=1.5@10(0<10>0) de=0.094@0.55(0.0<0.62>0.0) l=0.30x0.50x1.00 r=0.87
;00:01:32.735: pe=1.0444 eb=0.0192 ve=0.0000 vn=0.3164 vl=0.000 db=0.44
G1 E60.2537 F2400                       ; retract de=-2.0444@-40.0 r=0.90
;00:01:32.786: pe=-1.0004 eb=0.0197 ve=-40.0000 vn=0.0000 vl=0.000 db=0.45
G1 Z0.500 F420                          ; hopup dz=0.20@7 h=0.5 r=0.69
;00:01:32.815: pe=-1.0004 eb=0.0197 ve=0.0000 vn=0.0000 vl=0.000 db=0.35
G1 X-32.00 Y55.00 F6000                 ; move dl=2.5@100(0<25>0) de=0.000@0.0(0.0<0.0>0.0) l=0.50x0.50x0.00 r=0.00
;00:01:32.965: pe=-1.0004 eb=0.0000 ve=0.0000 vn=0.0000 vl=0.000 db=0.00
G1 Z0.300 F420                          ; hopdn dz=-0.20@7 h=0.3 r=0.00
;00:01:32.993: pe=-1.0004 eb=0.0000 ve=0.0000 vn=0.0000 vl=0.000 db=0.00
G1 E62.2988 F1800                       ; restore de=2.0451@30.0 r=0.71
;00:01:33.061: pe=1.0323 eb=0.0124 ve=30.0000 vn=0.6419 vl=0.000 db=0.36
G1 X-32.00 Y53.50 E62.3924 F600         ; draw dl=1.5@10(0<10>0) de=0.094@0.55(0.0<0.62>0.0) l=0.30x0.50x1.00 r=0.87
;00:01:33.231: pe=1.0444 eb=0.0192 ve=0.0000 vn=0.3164 vl=0.000 db=0.44
G1 E60.3479 F2400                       ; retract de=-2.0444@-40.0 r=0.90
;00:01:33.283: pe=-1.0004 eb=0.0197 ve=-40.0000 vn=0.0000 vl=0.000 db=0.45
G1 Z0.500 F420                          ; hopup dz=0.20@7 h=0.5 r=0.69
;00:01:33.311: pe=-1.0004 eb=0.0197 ve=0.0000 vn=0.0000 vl=0.000 db=0.35
G1 X-30.00 Y55.00 F6000                 ; move dl=2.5@100(0<25>0) de=0.000@0.0(0.0<0.0>0.0) l=0.50x0.50x0.00 r=0.00
;00:01:33.461: pe=-1.0004 eb=0.0000 ve=0.0000 vn=0.0000 vl=0.000 db=0.00
G1 Z0.300 F420                          ; hopdn dz=-0.20@7 h=0.3 r=0.00
;00:01:33.490: pe=-1.0004 eb=0.0000 ve=0.0000 vn=0.0000 vl=0.000 db=0.00
G1 E62.4068 F1800                       ; restore de=2.0589@30.0 r=0.72
;00:01:33.558: pe=1.0457 eb=0.0127 ve=30.0000 vn=0.6508 vl=0.000 db=0.36
G1 X-30.00 Y52.00 E62.5939 F600         ; draw dl=3.0@10(0<10>0) de=0.187@0.58(0.0<0.62>0.0) l=0.30x0.50x1.00 r=0.85
;00:01:33.878: pe=1.0737 eb=0.0203 ve=0.0000 vn=0.3285 vl=0.000 db=0.45
G1 E60.5203 F2400                       ; retract de=-2.0737@-40.0 r=0.92
;00:01:33.930: pe=-1.0005 eb=0.0207 ve=-40.0000 vn=0.0000 vl=0.000 db=0.46
G1 Z0.500 F420                          ; hopup dz=0.20@7 h=0.5 r=0.71
;00:01:33.959: pe=-1.0005 eb=0.0207 ve=0.0000 vn=0.0000 vl=0.000 db=0.36
G1 X-28.00 Y55.00 F6000                 ; move dl=3.6@100(0<30>0) de=0.000@0.0(0.0<0.0>0.0) l=0.50x0.50x0.00 r=0.00
;00:01:34.139: pe=-1.0005 eb=0.0000 ve=0.0000 vn=0.0000 vl=0.000 db=0.00
G1 Z0.300 F420                          ; hopdn dz=-0.20@7 h=0.3 r=0.00
;00:01:34.167: pe=-1.0005 eb=0.0000 ve=0.0000 vn=0.0000 vl=0.000 db=0.00
G1 E62.5654 F1800                       ; restore de=2.0452@30.0 r=0.71
;00:01:34.236: pe=1.0323 eb=0.0124 ve=30.0000 vn=0.6419 vl=0.000 db=0.36
G1 X-28.00 Y53.50 E62.6590 F600         ; draw dl=1.5@10(0<10>0) de=0.094@0.55(0.0<0.62>0.0) l=0.30x0.50x1.00 r=0.87
;00:01:34.406: pe=1.0444 eb=0.0192 ve=0.0000 vn=0.3164 vl=0.000 db=0.44
G1 E60.6146 F2400                       ; retract de=-2.0444@-40.0 r=0.90
;00:01:34.457: pe=-1.0004 eb=0.0197 ve=-40.0000 vn=0.0000 vl=0.000 db=0.45
G1 Z0.500 F420                          ; hopup dz=0.20@7 h=0.5 r=0.69
;00:01:34.485: pe=-1.0004 eb=0.0197 ve=0.0000 vn=0.0000 vl=0.000 db=0.35
G1 X-26.00 Y55.00 F6000                 ; move dl=2.5@100(0<25>0) de=0.000@0.0(0.0<0.0>0.0) l=0.50x0.50x0.00 r=0.00
;00:01:34.635: pe=-1.0004 eb=0.0000 ve=0.0000 vn=0.0000 vl=0.000 db=0.00
G1 Z0.300 F420                          ; hopdn dz=-0.20@7 h=0.3 r=0.00
;00:01:34.664: pe=-1.0004 eb=0.0000 ve=0.0000 vn=0.0000 vl=0.000 db=0.00
G1 E62.6597 F1800                       ; restore de=2.0451@30.0 r=0.71
;00:01:34.732: pe=1.0323 eb=0.0124 ve=30.0000 vn=0.6419 vl=0.000 db=0.36
G1 X-26.00 Y53.50 E62.7532 F600         ; draw dl=1.5@10(0<10>0) de=0.094@0.55(0.0<0.62>0.0) l=0.30x0.50x1.00 r=0.87
;00:01:34.902: pe=1.0444 eb=0.0192 ve=0.0000 vn=0.3164 vl=0.000 db=0.44
G1 E60.7088 F2400                       ; retract de=-2.0444@-40.0 r=0.90
;00:01:34.953: pe=-1.0004 eb=0.0197 ve=-40.0000 vn=0.0000 vl=0.000 db=0.45
G1 Z0.500 F420                          ; hopup dz=0.20@7 h=0.5 r=0.69
;00:01:34.982: pe=-1.0004 eb=0.0197 ve=0.0000 vn=0.0000 vl=0.000 db=0.35
G1 X-24.00 Y55.00 F6000                 ; move dl=2.5@100(0<25>0) de=0.000@0.0(0.0<0.0>0.0) l=0.50x0.50x0.00 r=0.00
;00:01:35.132: pe=-1.0004 eb=0.0000 ve=0.0000 vn=0.0000 vl=0.000 db=0.00
G1 Z0.300 F420                          ; hopdn dz=-0.20@7 h=0.3 r=0.00
;00:01:35.160: pe=-1.0004 eb=0.0000 ve=0.0000 vn=0.0000 vl=0.000 db=0.00
G1 E62.7540 F1800                       ; restore de=2.0451@30.0 r=0.71
;00:01:35.228: pe=1.0323 eb=0.0124 ve=30.0000 vn=0.6419 vl=0.000 db=0.36
G1 X-24.00 Y53.50 E62.8475 F600         ; draw dl=1.5@10(0<10>0) de=0.094@0.55(0.0<0.62>0.0) l=0.30x0.50x1.00 r=0.87
;00:01:35.398: pe=1.0444 eb=0.0192 ve=0.0000 vn=0.3164 vl=0.000 db=0.44
G1 E60.8031 F2400                       ; retract de=-2.0444@-40.0 r=0.90
;00:01:35.450: pe=-1.0004 eb=0.0197 ve=-40.0000 vn=0.0000 vl=0.000 db=0.45
G1 Z0.500 F420                          ; hopup dz=0.20@7 h=0.5 r=0.69
;00:01:35.478: pe=-1.0004 eb=0.0197 ve=0.0000 vn=0.0000 vl=0.000 db=0.35
G1 X-22.00 Y55.00 F6000                 ; move dl=2.5@100(0<25>0) de=0.000@0.0(0.0<0.0>0.0) l=0.50x0.50x0.00 r=0.00
;00:01:35.628: pe=-1.0004 eb=0.0000 ve=0.0000 vn=0.0000 vl=0.000 db=0.00
G1 Z0.300 F420                          ; hopdn dz=-0.20@7 h=0.3 r=0.00
;00:01:35.657: pe=-1.0004 eb=0.0000 ve=0.0000 vn=0.0000 vl=0.000 db=0.00
G1 E62.8482 F1800                       ; restore de=2.0451@30.0 r=0.71
;00:01:35.725: pe=1.0323 eb=0.0124 ve=30.0000 vn=0.6419 vl=0.000 db=0.36
G1 X-22.00 Y53.50 E62.9418 F600         ; draw dl=1.5@10(0<10>0) de=0.094@0.55(0.0<0.62>0.0) l=0.30x0.50x1.00 r=0.87
;00:01:35.895: pe=1.0444 eb=0.0192 ve=0.0000 vn=0.3164 vl=0.000 db=0.44
G1 E60.8974 F2400                       ; retract de=-2.0444@-40.0 r=0.90
;00:01:35.946: pe=-1.0004 eb=0.0197 ve=-40.0000 vn=0.0000 vl=0.000 db=0.45
G1 Z0.500 F420                          ; hopup dz=0.20@7 h=0.5 r=0.69
;00:01:35.975: pe=-1.0004 eb=0.0197 ve=0.0000 vn=0.0000 vl=0.000 db=0.35
G1 X-20.00 Y55.00 F6000                 ; move dl=2.5@100(0<25>0) de=0.000@0.0(0.0<0.0>0.0) l=0.50x0.50x0.00 r=0.00
;00:01:36.125: pe=-1.0004 eb=0.0000 ve=0.0000 vn=0.0000 vl=0.000 db=0.00
G1 Z0.300 F420                          ; hopdn dz=-0.20@7 h=0.3 r=0.00
;00:01:36.153: pe=-1.0004 eb=0.0000 ve=0.0000 vn=0.0000 vl=0.000 db=0.00
G1 E62.9562 F1800                       ; restore de=2.0589@30.0 r=0.72
;00:01:36.222: pe=1.0457 eb=0.0127 ve=30.0000 vn=0.6508 vl=0.000 db=0.36
G1 X-20.00 Y52.00 E63.1434 F600         ; draw dl=3.0@10(0<10>0) de=0.187@0.58(0.0<0.62>0.0) l=0.30x0.50x1.00 r=0.85
;00:01:36.542: pe=1.0737 eb=0.0203 ve=0.0000 vn=0.3285 vl=0.000 db=0.45
G1 E61.0697 F2400                       ; retract de=-2.0737@-40.0 r=0.92
;00:01:36.594: pe=-1.0005 eb=0.0207 ve=-40.0000 vn=0.0000 vl=0.000 db=0.46
G1 Z0.500 F420                          ; hopup dz=0.20@7 h=0.5 r=0.71
;00:01:36.622: pe=-1.0005 eb=0.0207 ve=0.0000 vn=0.0000 vl=0.000 db=0.36
G1 X-18.00 Y55.00 F6000                 ; move dl=3.6@100(0<30>0) de=0.000@0.0(0.0<0.0>0.0) l=0.50x0.50x0.00 r=0.00
;00:01:36.802: pe=-1.0005 eb=0.0000 ve=0.0000 vn=0.0000 vl=0.000 db=0.00
G1 Z0.300 F420                          ; hopdn dz=-0.20@7 h=0.3 r=0.00
;00:01:36.831: pe=-1.0005 eb=0.0000 ve=0.0000 vn=0.0000 vl=0.000 db=0.00
G1 E63.1149 F1800                       ; restore de=2.0452@30.0 r=0.71
;00:01:36.899: pe=1.0323 eb=0.0124 ve=30.0000 vn=0.6419 vl=0.000 db=0.36
G1 X-18.00 Y53.50 E63.2084 F600         ; draw dl=1.5@10(0<10>0) de=0.094@0.55(0.0<0.62>0.0) l=0.30x0.50x1.00 r=0.87
;00:01:37.069: pe=1.0444 eb=0.0192 ve=0.0000 vn=0.3164 vl=0.000 db=0.44
G1 E61.1640 F2400                       ; retract de=-2.0444@-40.0 r=0.90
;00:01:37.120: pe=-1.0004 eb=0.0197 ve=-40.0000 vn=0.0000 vl=0.000 db=0.45
G1 Z0.500 F420                          ; hopup dz=0.20@7 h=0.5 r=0.69
;00:01:37.149: pe=-1.0004 eb=0.0197 ve=0.0000 vn=0.0000 vl=0.000 db=0.35
G1 X-16.00 Y55.00 F6000                 ; move dl=2.5@100(0<25>0) de=0.000@0.0(0.0<0.0>0.0) l=0.50x0.50x0.00 r=0.00
;00:01:37.299: pe=-1.0004 eb=0.0000 ve=0.0000 vn=0.0000 vl=0.000 db=0.00
G1 Z0.300 F420                          ; hopdn dz=-0.20@7 h=0.3 r=0.00
;00:01:37.327: pe=-1.0004 eb=0.0000 ve=0.0000 vn=0.0000 vl=0.000 db=0.00
G1 E63.2091 F1800                       ; restore de=2.0451@30.0 r=0.71
;00:01:37.395: pe=1.0323 eb=0.0124 ve=30.0000 vn=0.6419 vl=0.000 db=0.36
G1 X-16.00 Y53.50 E63.3027 F600         ; draw dl=1.5@10(0<10>0) de=0.094@0.55(0.0<0.62>0.0) l=0.30x0.50x1.00 r=0.87
;00:01:37.565: pe=1.0444 eb=0.0192 ve=0.0000 vn=0.3164 vl=0.000 db=0.44
G1 E61.2583 F2400                       ; retract de=-2.0444@-40.0 r=0.90
;00:01:37.617: pe=-1.0004 eb=0.0197 ve=-40.0000 vn=0.0000 vl=0.000 db=0.45
G1 Z0.500 F420                          ; hopup dz=0.20@7 h=0.5 r=0.69
;00:01:37.645: pe=-1.0004 eb=0.0197 ve=0.0000 vn=0.0000 vl=0.000 db=0.35
G1 X-14.00 Y55.00 F6000                 ; move dl=2.5@100(0<25>0) de=0.000@0.0(0.0<0.0>0.0) l=0.50x0.50x0.00 r=0.00
;00:01:37.795: pe=-1.0004 eb=0.0000 ve=0.0000 vn=0.0000 vl=0.000 db=0.00
G1 Z0.300 F420                          ; hopdn dz=-0.20@7 h=0.3 r=0.00
;00:01:37.824: pe=-1.0004 eb=0.0000 ve=0.0000 vn=0.0000 vl=0.000 db=0.00
G1 E63.3034 F1800                       ; restore de=2.0451@30.0 r=0.71
;00:01:37.892: pe=1.0323 eb=0.0124 ve=30.0000 vn=0.6419 vl=0.000 db=0.36
G1 X-14.00 Y53.50 E63.3969 F600         ; draw dl=1.5@10(0<10>0) de=0.094@0.55(0.0<0.62>0.0) l=0.30x0.50x1.00 r=0.87
;00:01:38.062: pe=1.0444 eb=0.0192 ve=0.0000 vn=0.3164 vl=0.000 db=0.44
G1 E61.3525 F2400                       ; retract de=-2.0444@-40.0 r=0.90
;00:01:38.113: pe=-1.0004 eb=0.0197 ve=-40.0000 vn=0.0000 vl=0.000 db=0.45
G1 Z0.500 F420                          ; hopup dz=0.20@7 h=0.5 r=0.69
;00:01:38.142: pe=-1.0004 eb=0.0197 ve=0.0000 vn=0.0000 vl=0.000 db=0.35
G1 X-12.00 Y55.00 F6000                 ; move dl=2.5@100(0<25>0) de=0.000@0.0(0.0<0.0>0.0) l=0.50x0.50x0.00 r=0.00
;00:01:38.292: pe=-1.0004 eb=0.0000 ve=0.0000 vn=0.0000 vl=0.000 db=0.00
G1 Z0.300 F420                          ; hopdn dz=-0.20@7 h=0.3 r=0.00
;00:01:38.320: pe=-1.0004 eb=0.0000 ve=0.0000 vn=0.0000 vl=0.000 db=0.00
G1 E63.3977 F1800                       ; restore de=2.0451@30.0 r=0.71
;00:01:38.388: pe=1.0323 eb=0.0124 ve=30.0000 vn=0.6419 vl=0.000 db=0.36
G1 X-12.00 Y53.50 E63.4912 F600         ; draw dl=1.5@10(0<10>0) de=0.094@0.55(0.0<0.62>0.0) l=0.30x0.50x1.00 r=0.87
;00:01:38.558: pe=1.0444 eb=0.0192 ve=0.0000 vn=0.3164 vl=0.000 db=0.44
G1 E61.4468 F2400                       ; retract de=-2.0444@-40.0 r=0.90
;00:01:38.609: pe=-1.0004 eb=0.0197 ve=-40.0000 vn=0.0000 vl=0.000 db=0.45
G1 Z0.500 F420                          ; hopup dz=0.20@7 h=0.5 r=0.69
;00:01:38.638: pe=-1.0004 eb=0.0197 ve=0.0000 vn=0.0000 vl=0.000 db=0.35
G1 X-10.00 Y55.00 F6000                 ; move dl=2.5@100(0<25>0) de=0.000@0.0(0.0<0.0>0.0) l=0.50x0.50x0.00 r=0.00
;00:01:38.788: pe=-1.0004 eb=0.0000 ve=0.0000 vn=0.0000 vl=0.000 db=0.00
G1 Z0.300 F420                          ; hopdn dz=-0.20@7 h=0.3 r=0.00
;00:01:38.817: pe=-1.0004 eb=0.0000 ve=0.0000 vn=0.0000 vl=0.000 db=0.00
G1 E63.5057 F1800                       ; restore de=2.0589@30.0 r=0.72
;00:01:38.885: pe=1.0457 eb=0.0127 ve=30.0000 vn=0.6508 vl=0.000 db=0.36
G1 X-10.00 Y52.00 E63.6928 F600         ; draw dl=3.0@10(0<10>0) de=0.187@0.58(0.0<0.62>0.0) l=0.30x0.50x1.00 r=0.85
;00:01:39.205: pe=1.0737 eb=0.0203 ve=0.0000 vn=0.3285 vl=0.000 db=0.45
G1 E61.6191 F2400                       ; retract de=-2.0737@-40.0 r=0.92
;00:01:39.257: pe=-1.0005 eb=0.0207 ve=-40.0000 vn=0.0000 vl=0.000 db=0.46
G1 Z0.500 F420                          ; hopup dz=0.20@7 h=0.5 r=0.71
;00:01:39.286: pe=-1.0005 eb=0.0207 ve=0.0000 vn=0.0000 vl=0.000 db=0.36
G1 X-8.00 Y55.00 F6000                  ; move dl=3.6@100(0<30>0) de=0.000@0.0(0.0<0.0>0.0) l=0.50x0.50x0.00 r=0.00
;00:01:39.466: pe=-1.0005 eb=0.0000 ve=0.0000 vn=0.0000 vl=0.000 db=0.00
G1 Z0.300 F420                          ; hopdn dz=-0.20@7 h=0.3 r=0.00
;00:01:39.494: pe=-1.0005 eb=0.0000 ve=0.0000 vn=0.0000 vl=0.000 db=0.00
G1 E63.6643 F1800                       ; restore de=2.0452@30.0 r=0.71
;00:01:39.563: pe=1.0323 eb=0.0124 ve=30.0000 vn=0.6419 vl=0.000 db=0.36
G1 X-8.00 Y53.50 E63.7578 F600          ; draw dl=1.5@10(0<10>0) de=0.094@0.55(0.0<0.62>0.0) l=0.30x0.50x1.00 r=0.87
;00:01:39.733: pe=1.0444 eb=0.0192 ve=0.0000 vn=0.3164 vl=0.000 db=0.44
G1 E61.7134 F2400                       ; retract de=-2.0444@-40.0 r=0.90
;00:01:39.784: pe=-1.0004 eb=0.0197 ve=-40.0000 vn=0.0000 vl=0.000 db=0.45
G1 Z0.500 F420                          ; hopup dz=0.20@7 h=0.5 r=0.69
;00:01:39.812: pe=-1.0004 eb=0.0197 ve=0.0000 vn=0.0000 vl=0.000 db=0.35
G1 X-6.00 Y55.00 F6000                  ; move dl=2.5@100(0<25>0) de=0.000@0.0(0.0<0.0>0.0) l=0.50x0.50x0.00 r=0.00
;00:01:39.962: pe=-1.0004 eb=0.0000 ve=0.0000 vn=0.0000 vl=0.000 db=0.00
G1 Z0.300 F420                          ; hopdn dz=-0.20@7 h=0.3 r=0.00
;00:01:39.991: pe=-1.0004 eb=0.0000 ve=0.0000 vn=0.0000 vl=0.000 db=0.00
G1 E63.7586 F1800                       ; restore de=2.0451@30.0 r=0.71
;00:01:40.059: pe=1.0323 eb=0.0124 ve=30.0000 vn=0.6419 vl=0.000 db=0.36
G1 X-6.00 Y53.50 E63.8521 F600          ; draw dl=1.5@10(0<10>0) de=0.094@0.55(0.0<0.62>0.0) l=0.30x0.50x1.00 r=0.87
;00:01:40.229: pe=1.0444 eb=0.0192 ve=0.0000 vn=0.3164 vl=0.000 db=0.44
G1 E61.8077 F2400                       ; retract de=-2.0444@-40.0 r=0.90
;00:01:40.280: pe=-1.0004 eb=0.0197 ve=-40.0000 vn=0.0000 vl=0.000 db=0.45
G1 Z0.500 F420                          ; hopup dz=0.20@7 h=0.5 r=0.69
;00:01:40.309: pe=-1.0004 eb=0.0197 ve=0.0000 vn=0.0000 vl=0.000 db=0.35
G1 X-4.00 Y55.00 F6000                  ; move dl=2.5@100(0<25>0) de=0.000@0.0(0.0<0.0>0.0) l=0.50x0.50x0.00 r=0.00
;00:01:40.459: pe=-1.0004 eb=0.0000 ve=0.0000 vn=0.0000 vl=0.000 db=0.00
G1 Z0.300 F420                          ; hopdn dz=-0.20@7 h=0.3 r=0.00
;00:01:40.487: pe=-1.0004 eb=0.0000 ve=0.0000 vn=0.0000 vl=0.000 db=0.00
G1 E63.8528 F1800                       ; restore de=2.0451@30.0 r=0.71
;00:01:40.555: pe=1.0323 eb=0.0124 ve=30.0000 vn=0.6419 vl=0.000 db=0.36
G1 X-4.00 Y53.50 E63.9464 F600          ; draw dl=1.5@10(0<10>0) de=0.094@0.55(0.0<0.62>0.0) l=0.30x0.50x1.00 r=0.87
;00:01:40.725: pe=1.0444 eb=0.0192 ve=0.0000 vn=0.3164 vl=0.000 db=0.44
G1 E61.9020 F2400                       ; retract de=-2.0444@-40.0 r=0.90
;00:01:40.776: pe=-1.0004 eb=0.0197 ve=-40.0000 vn=0.0000 vl=0.000 db=0.45
G1 Z0.500 F420                          ; hopup dz=0.20@7 h=0.5 r=0.69
;00:01:40.805: pe=-1.0004 eb=0.0197 ve=0.0000 vn=0.0000 vl=0.000 db=0.35
G1 X-2.00 Y55.00 F6000                  ; move dl=2.5@100(0<25>0) de=0.000@0.0(0.0<0.0>0.0) l=0.50x0.50x0.00 r=0.00
;00:01:40.955: pe=-1.0004 eb=0.0000 ve=0.0000 vn=0.0000 vl=0.000 db=0.00
G1 Z0.300 F420                          ; hopdn dz=-0.20@7 h=0.3 r=0.00
;00:01:40.984: pe=-1.0004 eb=0.0000 ve=0.0000 vn=0.0000 vl=0.000 db=0.00
G1 E63.9471 F1800                       ; restore de=2.0451@30.0 r=0.71
;00:01:41.052: pe=1.0323 eb=0.0124 ve=30.0000 vn=0.6419 vl=0.000 db=0.36
G1 X-2.00 Y53.50 E64.0406 F600          ; draw dl=1.5@10(0<10>0) de=0.094@0.55(0.0<0.62>0.0) l=0.30x0.50x1.00 r=0.87
;00:01:41.222: pe=1.0444 eb=0.0192 ve=0.0000 vn=0.3164 vl=0.000 db=0.44
G1 E61.9962 F2400                       ; retract de=-2.0444@-40.0 r=0.90
;00:01:41.273: pe=-1.0004 eb=0.0197 ve=-40.0000 vn=0.0000 vl=0.000 db=0.45
G1 Z0.500 F420                          ; hopup dz=0.20@7 h=0.5 r=0.69
;00:01:41.301: pe=-1.0004 eb=0.0197 ve=0.0000 vn=0.0000 vl=0.000 db=0.35
G1 X0.00 Y55.00 F6000                   ; move dl=2.5@100(0<25>0) de=0.000@0.0(0.0<0.0>0.0) l=0.50x0.50x0.00 r=0.00
;00:01:41.451: pe=-1.0004 eb=0.0000 ve=0.0000 vn=0.0000 vl=0.000 db=0.00
G1 Z0.300 F420                          ; hopdn dz=-0.20@7 h=0.3 r=0.00
;00:01:41.480: pe=-1.0004 eb=0.0000 ve=0.0000 vn=0.0000 vl=0.000 db=0.00
G1 E64.0551 F1800                       ; restore de=2.0589@30.0 r=0.72
;00:01:41.549: pe=1.0457 eb=0.0127 ve=30.0000 vn=0.6508 vl=0.000 db=0.36
G1 X0.00 Y52.00 E64.2422 F600           ; draw dl=3.0@10(0<10>0) de=0.187@0.58(0.0<0.62>0.0) l=0.30x0.50x1.00 r=0.85
;00:01:41.869: pe=1.0737 eb=0.0203 ve=0.0000 vn=0.3285 vl=0.000 db=0.45
G1 E62.1686 F2400                       ; retract de=-2.0737@-40.0 r=0.92
;00:01:41.921: pe=-1.0005 eb=0.0207 ve=-40.0000 vn=0.0000 vl=0.000 db=0.46
G1 Z0.500 F420                          ; hopup dz=0.20@7 h=0.5 r=0.71
;00:01:41.949: pe=-1.0005 eb=0.0207 ve=0.0000 vn=0.0000 vl=0.000 db=0.36
G1 X2.00 Y55.00 F6000                   ; move dl=3.6@100(0<30>0) de=0.000@0.0(0.0<0.0>0.0) l=0.50x0.50x0.00 r=0.00
;00:01:42.129: pe=-1.0005 eb=0.0000 ve=0.0000 vn=0.0000 vl=0.000 db=0.00
G1 Z0.300 F420                          ; hopdn dz=-0.20@7 h=0.3 r=0.00
;00:01:42.158: pe=-1.0005 eb=0.0000 ve=0.0000 vn=0.0000 vl=0.000 db=0.00
G1 E64.2137 F1800                       ; restore de=2.0452@30.0 r=0.71
;00:01:42.226: pe=1.0323 eb=0.0124 ve=30.0000 vn=0.6419 vl=0.000 db=0.36
G1 X2.00 Y53.50 E64.3073 F600           ; draw dl=1.5@10(0<10>0) de=0.094@0.55(0.0<0.62>0.0) l=0.30x0.50x1.00 r=0.87
;00:01:42.396: pe=1.0444 eb=0.0192 ve=0.0000 vn=0.3164 vl=0.000 db=0.44
G1 E62.2629 F2400                       ; retract de=-2.0444@-40.0 r=0.90
;00:01:42.447: pe=-1.0004 eb=0.0197 ve=-40.0000 vn=0.0000 vl=0.000 db=0.45
G1 Z0.500 F420                          ; hopup dz=0.20@7 h=0.5 r=0.69
;00:01:42.476: pe=-1.0004 eb=0.0197 ve=0.0000 vn=0.0000 vl=0.000 db=0.35
G1 X4.00 Y55.00 F6000                   ; move dl=2.5@100(0<25>0) de=0.000@0.0(0.0<0.0>0.0) l=0.50x0.50x0.00 r=0.00
;00:01:42.626: pe=-1.0004 eb=0.0000 ve=0.0000 vn=0.0000 vl=0.000 db=0.00
G1 Z0.300 F420                          ; hopdn dz=-0.20@7 h=0.3 r=0.00
;00:01:42.654: pe=-1.0004 eb=0.0000 ve=0.0000 vn=0.0000 vl=0.000 db=0.00
G1 E64.3080 F1800                       ; restore de=2.0451@30.0 r=0.71
;00:01:42.722: pe=1.0323 eb=0.0124 ve=30.0000 vn=0.6419 vl=0.000 db=0.36
G1 X4.00 Y53.50 E64.4015 F600           ; draw dl=1.5@10(0<10>0) de=0.094@0.55(0.0<0.62>0.0) l=0.30x0.50x1.00 r=0.87
;00:01:42.892: pe=1.0444 eb=0.0192 ve=0.0000 vn=0.3164 vl=0.000 db=0.44
G1 E62.3571 F2400                       ; retract de=-2.0444@-40.0 r=0.90
;00:01:42.943: pe=-1.0004 eb=0.0197 ve=-40.0000 vn=0.0000 vl=0.000 db=0.45
G1 Z0.500 F420                          ; hopup dz=0.20@7 h=0.5 r=0.69
;00:01:42.972: pe=-1.0004 eb=0.0197 ve=0.0000 vn=0.0000 vl=0.000 db=0.35
G1 X6.00 Y55.00 F6000                   ; move dl=2.5@100(0<25>0) de=0.000@0.0(0.0<0.0>0.0) l=0.50x0.50x0.00 r=0.00
;00:01:43.122: pe=-1.0004 eb=0.0000 ve=0.0000 vn=0.0000 vl=0.000 db=0.00
G1 Z0.300 F420                          ; hopdn dz=-0.20@7 h=0.3 r=0.00
;00:01:43.151: pe=-1.0004 eb=0.0000 ve=0.0000 vn=0.0000 vl=0.000 db=0.00
G1 E64.4022 F1800                       ; restore de=2.0451@30.0 r=0.71
;00:01:43.219: pe=1.0323 eb=0.0124 ve=30.0000 vn=0.6419 vl=0.000 db=0.36
G1 X6.00 Y53.50 E64.4958 F600           ; draw dl=1.5@10(0<10>0) de=0.094@0.55(0.0<0.62>0.0) l=0.30x0.50x1.00 r=0.87
;00:01:43.389: pe=1.0444 eb=0.0192 ve=0.0000 vn=0.3164 vl=0.000 db=0.44
G1 E62.4514 F2400                       ; retract de=-2.0444@-40.0 r=0.90
;00:01:43.440: pe=-1.0004 eb=0.0197 ve=-40.0000 vn=0.0000 vl=0.000 db=0.45
G1 Z0.500 F420                          ; hopup dz=0.20@7 h=0.5 r=0.69
;00:01:43.468: pe=-1.0004 eb=0.0197 ve=0.0000 vn=0.0000 vl=0.000 db=0.35
G1 X8.00 Y55.00 F6000                   ; move dl=2.5@100(0<25>0) de=0.000@0.0(0.0<0.0>0.0) l=0.50x0.50x0.00 r=0.00
;00:01:43.618: pe=-1.0004 eb=0.0000 ve=0.0000 vn=0.0000 vl=0.000 db=0.00
G1 Z0.300 F420                          ; hopdn dz=-0.20@7 h=0.3 r=0.00
;00:01:43.647: pe=-1.0004 eb=0.0000 ve=0.0000 vn=0.0000 vl=0.000 db=0.00
G1 E64.4965 F1800                       ; restore de=2.0451@30.0 r=0.71
;00:01:43.715: pe=1.0323 eb=0.0124 ve=30.0000 vn=0.6419 vl=0.000 db=0.36
G1 X8.00 Y53.50 E64.5901 F600           ; draw dl=1.5@10(0<10>0) de=0.094@0.55(0.0<0.62>0.0) l=0.30x0.50x1.00 r=0.87
;00:01:43.885: pe=1.0444 eb=0.0192 ve=0.0000 vn=0.3164 vl=0.000 db=0.44
G1 E62.5457 F2400                       ; retract de=-2.0444@-40.0 r=0.90
;00:01:43.936: pe=-1.0004 eb=0.0197 ve=-40.0000 vn=0.0000 vl=0.000 db=0.45
G1 Z0.500 F420                          ; hopup dz=0.20@7 h=0.5 r=0.69
;00:01:43.965: pe=-1.0004 eb=0.0197 ve=0.0000 vn=0.0000 vl=0.000 db=0.35
G1 X10.00 Y55.00 F6000                  ; move dl=2.5@100(0<25>0) de=0.000@0.0(0.0<0.0>0.0) l=0.50x0.50x0.00 r=0.00
;00:01:44.115: pe=-1.0004 eb=0.0000 ve=0.0000 vn=0.0000 vl=0.000 db=0.00
G1 Z0.300 F420                          ; hopdn dz=-0.20@7 h=0.3 r=0.00
;00:01:44.143: pe=-1.0004 eb=0.0000 ve=0.0000 vn=0.0000 vl=0.000 db=0.00
G1 E64.6045 F1800                       ; restore de=2.0589@30.0 r=0.72
;00:01:44.212: pe=1.0457 eb=0.0127 ve=30.0000 vn=0.6508 vl=0.000 db=0.36
G1 X10.00 Y52.00 E64.7916 F600          ; draw dl=3.0@10(0<10>0) de=0.187@0.58(0.0<0.62>0.0) l=0.30x0.50x1.00 r=0.85
;00:01:44.532: pe=1.0737 eb=0.0203 ve=0.0000 vn=0.3285 vl=0.000 db=0.45
G1 E62.7180 F2400                       ; retract de=-2.0737@-40.0 r=0.92
;00:01:44.584: pe=-1.0005 eb=0.0207 ve=-40.0000 vn=0.0000 vl=0.000 db=0.46
G1 Z0.500 F420                          ; hopup dz=0.20@7 h=0.5 r=0.71
;00:01:44.613: pe=-1.0005 eb=0.0207 ve=0.0000 vn=0.0000 vl=0.000 db=0.36
G1 X12.00 Y55.00 F6000                  ; move dl=3.6@100(0<30>0) de=0.000@0.0(0.0<0.0>0.0) l=0.50x0.50x0.00 r=0.00
;00:01:44.793: pe=-1.0005 eb=0.0000 ve=0.0000 vn=0.0000 vl=0.000 db=0.00
G1 Z0.300 F420                          ; hopdn dz=-0.20@7 h=0.3 r=0.00
;00:01:44.821: pe=-1.0005 eb=0.0000 ve=0.0000 vn=0.0000 vl=0.000 db=0.00
G1 E64.7631 F1800                       ; restore de=2.0452@30.0 r=0.71
;00:01:44.889: pe=1.0323 eb=0.0124 ve=30.0000 vn=0.6419 vl=0.000 db=0.36
G1 X12.00 Y53.50 E64.8567 F600          ; draw dl=1.5@10(0<10>0) de=0.094@0.55(0.0<0.62>0.0) l=0.30x0.50x1.00 r=0.87
;00:01:45.059: pe=1.0444 eb=0.0192 ve=0.0000 vn=0.3164 vl=0.000 db=0.44
G1 E62.8123 F2400                       ; retract de=-2.0444@-40.0 r=0.90
;00:01:45.111: pe=-1.0004 eb=0.0197 ve=-40.0000 vn=0.0000 vl=0.000 db=0.45
G1 Z0.500 F420                          ; hopup dz=0.20@7 h=0.5 r=0.69
;00:01:45.139: pe=-1.0004 eb=0.0197 ve=0.0000 vn=0.0000 vl=0.000 db=0.35
G1 X14.00 Y55.00 F6000                  ; move dl=2.5@100(0<25>0) de=0.000@0.0(0.0<0.0>0.0) l=0.50x0.50x0.00 r=0.00
;00:01:45.289: pe=-1.0004 eb=0.0000 ve=0.0000 vn=0.0000 vl=0.000 db=0.00
G1 Z0.300 F420                          ; hopdn dz=-0.20@7 h=0.3 r=0.00
;00:01:45.318: pe=-1.0004 eb=0.0000 ve=0.0000 vn=0.0000 vl=0.000 db=0.00
G1 E64.8574 F1800                       ; restore de=2.0451@30.0 r=0.71
;00:01:45.386: pe=1.0323 eb=0.0124 ve=30.0000 vn=0.6419 vl=0.000 db=0.36
G1 X14.00 Y53.50 E64.9510 F600          ; draw dl=1.5@10(0<10>0) de=0.094@0.55(0.0<0.62>0.0) l=0.30x0.50x1.00 r=0.87
;00:01:45.556: pe=1.0444 eb=0.0192 ve=0.0000 vn=0.3164 vl=0.000 db=0.44
G1 E62.9065 F2400                       ; retract de=-2.0444@-40.0 r=0.90
;00:01:45.607: pe=-1.0004 eb=0.0197 ve=-40.0000 vn=0.0000 vl=0.000 db=0.45
G1 Z0.500 F420                          ; hopup dz=0.20@7 h=0.5 r=0.69
;00:01:45.636: pe=-1.0004 eb=0.0197 ve=0.0000 vn=0.0000 vl=0.000 db=0.35
G1 X16.00 Y55.00 F6000                  ; move dl=2.5@100(0<25>0) de=0.000@0.0(0.0<0.0>0.0) l=0.50x0.50x0.00 r=0.00
;00:01:45.786: pe=-1.0004 eb=0.0000 ve=0.0000 vn=0.0000 vl=0.000 db=0.00
G1 Z0.300 F420                          ; hopdn dz=-0.20@7 h=0.3 r=0.00
;00:01:45.814: pe=-1.0004 eb=0.0000 ve=0.0000 vn=0.0000 vl=0.000 db=0.00
G1 E64.9517 F1800                       ; restore de=2.0451@30.0 r=0.71
;00:01:45.882: pe=1.0323 eb=0.0124 ve=30.0000 vn=0.6419 vl=0.000 db=0.36
G1 X16.00 Y53.50 E65.0452 F600          ; draw dl=1.5@10(0<10>0) de=0.094@0.55(0.0<0.62>0.0) l=0.30x0.50x1.00 r=0.87
;00:01:46.052: pe=1.0444 eb=0.0192 ve=0.0000 vn=0.3164 vl=0.000 db=0.44
G1 E63.0008 F2400                       ; retract de=-2.0444@-40.0 r=0.90
;00:01:46.103: pe=-1.0004 eb=0.0197 ve=-40.0000 vn=0.0000 vl=0.000 db=0.45
G1 Z0.500 F420                          ; hopup dz=0.20@7 h=0.5 r=0.69
;00:01:46.132: pe=-1.0004 eb=0.0197 ve=0.0000 vn=0.0000 vl=0.000 db=0.35
G1 X18.00 Y55.00 F6000                  ; move dl=2.5@100(0<25>0) de=0.000@0.0(0.0<0.0>0.0) l=0.50x0.50x0.00 r=0.00
;00:01:46.282: pe=-1.0004 eb=0.0000 ve=0.0000 vn=0.0000 vl=0.000 db=0.00
G1 Z0.300 F420                          ; hopdn dz=-0.20@7 h=0.3 r=0.00
;00:01:46.311: pe=-1.0004 eb=0.0000 ve=0.0000 vn=0.0000 vl=0.000 db=0.00
G1 E65.0459 F1800                       ; restore de=2.0451@30.0 r=0.71
;00:01:46.379: pe=1.0323 eb=0.0124 ve=30.0000 vn=0.6419 vl=0.000 db=0.36
G1 X18.00 Y53.50 E65.1395 F600          ; draw dl=1.5@10(0<10>0) de=0.094@0.55(0.0<0.62>0.0) l=0.30x0.50x1.00 r=0.87
;00:01:46.549: pe=1.0444 eb=0.0192 ve=0.0000 vn=0.3164 vl=0.000 db=0.44
G1 E63.0951 F2400                       ; retract de=-2.0444@-40.0 r=0.90
;00:01:46.600: pe=-1.0004 eb=0.0197 ve=-40.0000 vn=0.0000 vl=0.000 db=0.45
G1 Z0.500 F420                          ; hopup dz=0.20@7 h=0.5 r=0.69
;00:01:46.628: pe=-1.0004 eb=0.0197 ve=0.0000 vn=0.0000 vl=0.000 db=0.35
G1 X20.00 Y55.00 F6000                  ; move dl=2.5@100(0<25>0) de=0.000@0.0(0.0<0.0>0.0) l=0.50x0.50x0.00 r=0.00
;00:01:46.778: pe=-1.0004 eb=0.0000 ve=0.0000 vn=0.0000 vl=0.000 db=0.00
G1 Z0.300 F420                          ; hopdn dz=-0.20@7 h=0.3 r=0.00
;00:01:46.807: pe=-1.0004 eb=0.0000 ve=0.0000 vn=0.0000 vl=0.000 db=0.00
G1 E65.1540 F1800                       ; restore de=2.0589@30.0 r=0.72
;00:01:46.876: pe=1.0457 eb=0.0127 ve=30.0000 vn=0.6508 vl=0.000 db=0.36
G1 X20.00 Y52.00 E65.3411 F600          ; draw dl=3.0@10(0<10>0) de=0.187@0.58(0.0<0.62>0.0) l=0.30x0.50x1.00 r=0.85
;00:01:47.196: pe=1.0737 eb=0.0203 ve=0.0000 vn=0.3285 vl=0.000 db=0.45
G1 E63.2674 F2400                       ; retract de=-2.0737@-40.0 r=0.92
;00:01:47.247: pe=-1.0005 eb=0.0207 ve=-40.0000 vn=0.0000 vl=0.000 db=0.46
G1 Z0.500 F420                          ; hopup dz=0.20@7 h=0.5 r=0.71
;00:01:47.276: pe=-1.0005 eb=0.0207 ve=0.0000 vn=0.0000 vl=0.000 db=0.36
G1 X22.00 Y55.00 F6000                  ; move dl=3.6@100(0<30>0) de=0.000@0.0(0.0<0.0>0.0) l=0.50x0.50x0.00 r=0.00
;00:01:47.456: pe=-1.0005 eb=0.0000 ve=0.0000 vn=0.0000 vl=0.000 db=0.00
G1 Z0.300 F420                          ; hopdn dz=-0.20@7 h=0.3 r=0.00
;00:01:47.485: pe=-1.0005 eb=0.0000 ve=0.0000 vn=0.0000 vl=0.000 db=0.00
G1 E65.3126 F1800                       ; restore de=2.0452@30.0 r=0.71
;00:01:47.553: pe=1.0323 eb=0.0124 ve=30.0000 vn=0.6419 vl=0.000 db=0.36
G1 X22.00 Y53.50 E65.4061 F600          ; draw dl=1.5@10(0<10>0) de=0.094@0.55(0.0<0.62>0.0) l=0.30x0.50x1.00 r=0.87
;00:01:47.723: pe=1.0444 eb=0.0192 ve=0.0000 vn=0.3164 vl=0.000 db=0.44
G1 E63.3617 F2400                       ; retract de=-2.0444@-40.0 r=0.90
;00:01:47.774: pe=-1.0004 eb=0.0197 ve=-40.0000 vn=0.0000 vl=0.000 db=0.45
G1 Z0.500 F420                          ; hopup dz=0.20@7 h=0.5 r=0.69
;00:01:47.803: pe=-1.0004 eb=0.0197 ve=0.0000 vn=0.0000 vl=0.000 db=0.35
G1 X24.00 Y55.00 F6000                  ; move dl=2.5@100(0<25>0) de=0.000@0.0(0.0<0.0>0.0) l=0.50x0.50x0.00 r=0.00
;00:01:47.953: pe=-1.0004 eb=0.0000 ve=0.0000 vn=0.0000 vl=0.000 db=0.00
G1 Z0.300 F420                          ; hopdn dz=-0.20@7 h=0.3 r=0.00
;00:01:47.981: pe=-1.0004 eb=0.0000 ve=0.0000 vn=0.0000 vl=0.000 db=0.00
G1 E65.4068 F1800                       ; restore de=2.0451@30.0 r=0.71
;00:01:48.049: pe=1.0323 eb=0.0124 ve=30.0000 vn=0.6419 vl=0.000 db=0.36
G1 X24.00 Y53.50 E65.5004 F600          ; draw dl=1.5@10(0<10>0) de=0.094@0.55(0.0<0.62>0.0) l=0.30x0.50x1.00 r=0.87
;00:01:48.219: pe=1.0444 eb=0.0192 ve=0.0000 vn=0.3164 vl=0.000 db=0.44
G1 E63.4560 F2400                       ; retract de=-2.0444@-40.0 r=0.90
;00:01:48.270: pe=-1.0004 eb=0.0197 ve=-40.0000 vn=0.0000 vl=0.000 db=0.45
G1 Z0.500 F420                          ; hopup dz=0.20@7 h=0.5 r=0.69
;00:01:48.299: pe=-1.0004 eb=0.0197 ve=0.0000 vn=0.0000 vl=0.000 db=0.35
G1 X26.00 Y55.00 F6000                  ; move dl=2.5@100(0<25>0) de=0.000@0.0(0.0<0.0>0.0) l=0.50x0.50x0.00 r=0.00
;00:01:48.449: pe=-1.0004 eb=0.0000 ve=0.0000 vn=0.0000 vl=0.000 db=0.00
G1 Z0.300 F420                          ; hopdn dz=-0.20@7 h=0.3 r=0.00
;00:01:48.478: pe=-1.0004 eb=0.0000 ve=0.0000 vn=0.0000 vl=0.000 db=0.00
G1 E65.5011 F1800                       ; restore de=2.0451@30.0 r=0.71
;00:01:48.546: pe=1.0323 eb=0.0124 ve=30.0000 vn=0.6419 vl=0.000 db=0.36
G1 X26.00 Y53.50 E65.5947 F600          ; draw dl=1.5@10(0<10>0) de=0.094@0.55(0.0<0.62>0.0) l=0.30x0.50x1.00 r=0.87
;00:01:48.716: pe=1.0444 eb=0.0192 ve=0.0000 vn=0.3164 vl=0.000 db=0.44
G1 E63.5502 F2400                       ; retract de=-2.0444@-40.0 r=0.90
;00:01:48.767: pe=-1.0004 eb=0.0197 ve=-40.0000 vn=0.0000 vl=0.000 db=0.45
G1 Z0.500 F420                          ; hopup dz=0.20@7 h=0.5 r=0.69
;00:01:48.795: pe=-1.0004 eb=0.0197 ve=0.0000 vn=0.0000 vl=0.000 db=0.35
G1 X28.00 Y55.00 F6000                  ; move dl=2.5@100(0<25>0) de=0.000@0.0(0.0<0.0>0.0) l=0.50x0.50x0.00 r=0.00
;00:01:48.945: pe=-1.0004 eb=0.0000 ve=0.0000 vn=0.0000 vl=0.000 db=0.00
G1 Z0.300 F420                          ; hopdn dz=-0.20@7 h=0.3 r=0.00
;00:01:48.974: pe=-1.0004 eb=0.0000 ve=0.0000 vn=0.0000 vl=0.000 db=0.00
G1 E65.5954 F1800                       ; restore de=2.0451@30.0 r=0.71
;00:01:49.042: pe=1.0323 eb=0.0124 ve=30.0000 vn=0.6419 vl=0.000 db=0.36
G1 X28.00 Y53.50 E65.6889 F600          ; draw dl=1.5@10(0<10>0) de=0.094@0.55(0.0<0.62>0.0) l=0.30x0.50x1.00 r=0.87
;00:01:49.212: pe=1.0444 eb=0.0192 ve=0.0000 vn=0.3164 vl=0.000 db=0.44
G1 E63.6445 F2400                       ; retract de=-2.0444@-40.0 r=0.90
;00:01:49.263: pe=-1.0004 eb=0.0197 ve=-40.0000 vn=0.0000 vl=0.000 db=0.45
G1 Z0.500 F420                          ; hopup dz=0.20@7 h=0.5 r=0.69
;00:01:49.292: pe=-1.0004 eb=0.0197 ve=0.0000 vn=0.0000 vl=0.000 db=0.35
G1 X30.00 Y55.00 F6000                  ; move dl=2.5@100(0<25>0) de=0.000@0.0(0.0<0.0>0.0) l=0.50x0.50x0.00 r=0.00
;00:01:49.442: pe=-1.0004 eb=0.0000 ve=0.0000 vn=0.0000 vl=0.000 db=0.00
G1 Z0.300 F420                          ; hopdn dz=-0.20@7 h=0.3 r=0.00
;00:01:49.470: pe=-1.0004 eb=0.0000 ve=0.0000 vn=0.0000 vl=0.000 db=0.00
G1 E65.7034 F1800                       ; restore de=2.0589@30.0 r=0.72
;00:01:49.539: pe=1.0457 eb=0.0127 ve=30.0000 vn=0.6508 vl=0.000 db=0.36
G1 X30.00 Y52.00 E65.8905 F600          ; draw dl=3.0@10(0<10>0) de=0.187@0.58(0.0<0.62>0.0) l=0.30x0.50x1.00 r=0.85
;00:01:49.859: pe=1.0737 eb=0.0203 ve=0.0000 vn=0.3285 vl=0.000 db=0.45
G1 E63.8168 F2400                       ; retract de=-2.0737@-40.0 r=0.92
;00:01:49.911: pe=-1.0005 eb=0.0207 ve=-40.0000 vn=0.0000 vl=0.000 db=0.46
G1 Z0.500 F420                          ; hopup dz=0.20@7 h=0.5 r=0.71
;00:01:49.939: pe=-1.0005 eb=0.0207 ve=0.0000 vn=0.0000 vl=0.000 db=0.36
G1 X32.00 Y55.00 F6000                  ; move dl=3.6@100(0<30>0) de=0.000@0.0(0.0<0.0>0.0) l=0.50x0.50x0.00 r=0.00
;00:01:50.120: pe=-1.0005 eb=0.0000 ve=0.0000 vn=0.0000 vl=0.000 db=0.00
G1 Z0.300 F420                          ; hopdn dz=-0.20@7 h=0.3 r=0.00
;00:01:50.148: pe=-1.0005 eb=0.0000 ve=0.0000 vn=0.0000 vl=0.000 db=0.00
G1 E65.8620 F1800                       ; restore de=2.0452@30.0 r=0.71
;00:01:50.216: pe=1.0323 eb=0.0124 ve=30.0000 vn=0.6419 vl=0.000 db=0.36
G1 X32.00 Y53.50 E65.9555 F600          ; draw dl=1.5@10(0<10>0) de=0.094@0.55(0.0<0.62>0.0) l=0.30x0.50x1.00 r=0.87
;00:01:50.386: pe=1.0444 eb=0.0192 ve=0.0000 vn=0.3164 vl=0.000 db=0.44
G1 E63.9111 F2400                       ; retract de=-2.0444@-40.0 r=0.90
;00:01:50.437: pe=-1.0004 eb=0.0197 ve=-40.0000 vn=0.0000 vl=0.000 db=0.45
G1 Z0.500 F420                          ; hopup dz=0.20@7 h=0.5 r=0.69
;00:01:50.466: pe=-1.0004 eb=0.0197 ve=0.0000 vn=0.0000 vl=0.000 db=0.35
G1 X34.00 Y55.00 F6000                  ; move dl=2.5@100(0<25>0) de=0.000@0.0(0.0<0.0>0.0) l=0.50x0.50x0.00 r=0.00
;00:01:50.616: pe=-1.0004 eb=0.0000 ve=0.0000 vn=0.0000 vl=0.000 db=0.00
G1 Z0.300 F420                          ; hopdn dz=-0.20@7 h=0.3 r=0.00
;00:01:50.645: pe=-1.0004 eb=0.0000 ve=0.0000 vn=0.0000 vl=0.000 db=0.00
G1 E65.9563 F1800                       ; restore de=2.0451@30.0 r=0.71
;00:01:50.713: pe=1.0323 eb=0.0124 ve=30.0000 vn=0.6419 vl=0.000 db=0.36
G1 X34.00 Y53.50 E66.0498 F600          ; draw dl=1.5@10(0<10>0) de=0.094@0.55(0.0<0.62>0.0) l=0.30x0.50x1.00 r=0.87
;00:01:50.883: pe=1.0444 eb=0.0192 ve=0.0000 vn=0.3164 vl=0.000 db=0.44
G1 E64.0054 F2400                       ; retract de=-2.0444@-40.0 r=0.90
;00:01:50.934: pe=-1.0004 eb=0.0197 ve=-40.0000 vn=0.0000 vl=0.000 db=0.45
G1 Z0.500 F420                          ; hopup dz=0.20@7 h=0.5 r=0.69
;00:01:50.962: pe=-1.0004 eb=0.0197 ve=0.0000 vn=0.0000 vl=0.000 db=0.35
G1 X36.00 Y55.00 F6000                  ; move dl=2.5@100(0<25>0) de=0.000@0.0(0.0<0.0>0.0) l=0.50x0.50x0.00 r=0.00
;00:01:51.112: pe=-1.0004 eb=0.0000 ve=0.0000 vn=0.0000 vl=0.000 db=0.00
G1 Z0.300 F420                          ; hopdn dz=-0.20@7 h=0.3 r=0.00
;00:01:51.141: pe=-1.0004 eb=0.0000 ve=0.0000 vn=0.0000 vl=0.000 db=0.00
G1 E66.0505 F1800                       ; restore de=2.0451@30.0 r=0.71
;00:01:51.209: pe=1.0323 eb=0.0124 ve=30.0000 vn=0.6419 vl=0.000 db=0.36
G1 X36.00 Y53.50 E66.1441 F600          ; draw dl=1.5@10(0<10>0) de=0.094@0.55(0.0<0.62>0.0) l=0.30x0.50x1.00 r=0.87
;00:01:51.379: pe=1.0444 eb=0.0192 ve=0.0000 vn=0.3164 vl=0.000 db=0.44
G1 E64.0997 F2400                       ; retract de=-2.0444@-40.0 r=0.90
;00:01:51.430: pe=-1.0004 eb=0.0197 ve=-40.0000 vn=0.0000 vl=0.000 db=0.45
G1 Z0.500 F420                          ; hopup dz=0.20@7 h=0.5 r=0.69
;00:01:51.459: pe=-1.0004 eb=0.0197 ve=0.0000 vn=0.0000 vl=0.000 db=0.35
G1 X38.00 Y55.00 F6000                  ; move dl=2.5@100(0<25>0) de=0.000@0.0(0.0<0.0>0.0) l=0.50x0.50x0.00 r=0.00
;00:01:51.609: pe=-1.0004 eb=0.0000 ve=0.0000 vn=0.0000 vl=0.000 db=0.00
G1 Z0.300 F420                          ; hopdn dz=-0.20@7 h=0.3 r=0.00
;00:01:51.637: pe=-1.0004 eb=0.0000 ve=0.0000 vn=0.0000 vl=0.000 db=0.00
G1 E66.1448 F1800                       ; restore de=2.0451@30.0 r=0.71
;00:01:51.706: pe=1.0323 eb=0.0124 ve=30.0000 vn=0.6419 vl=0.000 db=0.36
G1 X38.00 Y53.50 E66.2383 F600          ; draw dl=1.5@10(0<10>0) de=0.094@0.55(0.0<0.62>0.0) l=0.30x0.50x1.00 r=0.87
;00:01:51.876: pe=1.0444 eb=0.0192 ve=0.0000 vn=0.3164 vl=0.000 db=0.44
G1 E64.1939 F2400                       ; retract de=-2.0444@-40.0 r=0.90
;00:01:51.927: pe=-1.0004 eb=0.0197 ve=-40.0000 vn=0.0000 vl=0.000 db=0.45
G1 Z0.500 F420                          ; hopup dz=0.20@7 h=0.5 r=0.69
;00:01:51.955: pe=-1.0004 eb=0.0197 ve=0.0000 vn=0.0000 vl=0.000 db=0.35
G1 X40.00 Y55.00 F6000                  ; move dl=2.5@100(0<25>0) de=0.000@0.0(0.0<0.0>0.0) l=0.50x0.50x0.00 r=0.00
;00:01:52.105: pe=-1.0004 eb=0.0000 ve=0.0000 vn=0.0000 vl=0.000 db=0.00
G1 Z0.300 F420                          ; hopdn dz=-0.20@7 h=0.3 r=0.00
;00:01:52.134: pe=-1.0004 eb=0.0000 ve=0.0000 vn=0.0000 vl=0.000 db=0.00
G1 E66.2528 F1800                       ; restore de=2.0589@30.0 r=0.72
;00:01:52.202: pe=1.0457 eb=0.0127 ve=30.0000 vn=0.6508 vl=0.000 db=0.36
G1 X40.00 Y52.00 E66.4399 F600          ; draw dl=3.0@10(0<10>0) de=0.187@0.58(0.0<0.62>0.0) l=0.30x0.50x1.00 r=0.85
;00:01:52.522: pe=1.0737 eb=0.0203 ve=0.0000 vn=0.3285 vl=0.000 db=0.45
G1 E64.3663 F2400                       ; retract de=-2.0737@-40.0 r=0.92
;00:01:52.574: pe=-1.0005 eb=0.0207 ve=-40.0000 vn=0.0000 vl=0.000 db=0.46
G1 Z0.500 F420                          ; hopup dz=0.20@7 h=0.5 r=0.71
;00:01:52.603: pe=-1.0005 eb=0.0207 ve=0.0000 vn=0.0000 vl=0.000 db=0.36
;structure:brim
;structure:shell-outer
;00:01:52.603: text [(46.0, 55), (None, None)] fsize=5 angle=0 'Kb=0.0-4.0\nRe=0.5\nve=1.0\nh=0.2\nw=0.3'
G1 X46.50 Y54.88 F6000                  ; move dl=7.1@100(0<42>0) de=0.000@0.0(0.0<0.0>0.0) l=0.50x0.50x0.00 r=0.00
;00:01:52.856: pe=-1.0005 eb=0.0000 ve=0.0000 vn=0.0000 vl=0.000 db=0.00
G1 Z0.300 F420                          ; hopdn dz=-0.20@7 h=0.3 r=0.00
;00:01:52.884: pe=-1.0005 eb=0.0000 ve=0.0000 vn=0.0000 vl=0.000 db=0.00
G1 E66.4269 F1800                       ; restore de=2.0606@30.0 r=0.72
;00:01:52.953: pe=1.0474 eb=0.0127 ve=30.0000 vn=0.6519 vl=0.000 db=0.36
G1 X46.50 Y51.48 E66.6390 F600          ; draw dl=3.4@10(0<10>0) de=0.212@0.59(0.0<0.62>0.0) l=0.30x0.50x1.00 r=0.85
;00:01:53.313: pe=1.0794 eb=0.0205 ve=0.0000 vn=0.3309 vl=0.000 db=0.46
G1 E64.5596 F2400                       ; retract de=-2.0794@-40.0 r=0.92
;00:01:53.365: pe=-1.0005 eb=0.0209 ve=-40.0000 vn=0.0000 vl=0.000 db=0.46
G1 Z0.500 F420                          ; hopup dz=0.20@7 h=0.5 r=0.72
;00:01:53.394: pe=-1.0005 eb=0.0209 ve=0.0000 vn=0.0000 vl=0.000 db=0.36
G1 X48.96 Y51.48 F6000                  ; move dl=2.5@100(0<25>0) de=0.000@0.0(0.0<0.0>0.0) l=0.50x0.50x0.00 r=0.00
;00:01:53.542: pe=-1.0005 eb=0.0000 ve=0.0000 vn=0.0000 vl=0.000 db=0.00
G1 Z0.300 F420                          ; hopdn dz=-0.20@7 h=0.3 r=0.00
;00:01:53.571: pe=-1.0005 eb=0.0000 ve=0.0000 vn=0.0000 vl=0.000 db=0.00
G1 E66.6157 F1800                       ; restore de=2.0562@30.0 r=0.72
;00:01:53.640: pe=1.0430 eb=0.0126 ve=30.0000 vn=0.6491 vl=0.000 db=0.36
G1 X47.47 Y53.51 E66.7728 F600          ; draw dl=2.5@10(0<10>0) de=0.157@0.58(0.0<0.62>0.0) l=0.30x0.50x1.00 r=0.85
;00:01:53.911: pe=1.0660 eb=0.0200 ve=0.0000 vn=0.3253 vl=0.000 db=0.45
G1 E64.7068 F2400                       ; retract de=-2.0660@-40.0 r=0.91
;00:01:53.963: pe=-1.0005 eb=0.0204 ve=-40.0000 vn=0.0000 vl=0.000 db=0.46
G1 Z0.500 F420                          ; hopup dz=0.20@7 h=0.5 r=0.71
;00:01:53.992: pe=-1.0005 eb=0.0204 ve=0.0000 vn=0.0000 vl=0.000 db=0.35
G1 X46.50 Y52.67 F6000                  ; move dl=1.3@100(0<18>0) de=0.000@0.0(0.0<0.0>0.0) l=0.50x0.50x0.00 r=0.00
;00:01:54.099: pe=-1.0005 eb=0.0000 ve=0.0000 vn=0.0000 vl=0.000 db=0.00
G1 Z0.300 F420                          ; hopdn dz=-0.20@7 h=0.3 r=0.00
;00:01:54.128: pe=-1.0005 eb=0.0000 ve=0.0000 vn=0.0000 vl=0.000 db=0.00
G1 E66.7673 F1800                       ; restore de=2.0604@30.0 r=0.72
;00:01:54.196: pe=1.0472 eb=0.0127 ve=30.0000 vn=0.6518 vl=0.000 db=0.36
G1 X49.02 Y54.88 E66.9763 F600          ; draw dl=3.4@10(0<10>0) de=0.209@0.59(0.0<0.62>0.0) l=0.30x0.50x1.00 r=0.85
;00:01:54.551: pe=1.0787 eb=0.0204 ve=0.0000 vn=0.3306 vl=0.000 db=0.46
G1 E64.8976 F2400                       ; retract de=-2.0787@-40.0 r=0.92
;00:01:54.603: pe=-1.0005 eb=0.0209 ve=-40.0000 vn=0.0000 vl=0.000 db=0.46
G1 Z0.500 F420                          ; hopup dz=0.20@7 h=0.5 r=0.72
;00:01:54.632: pe=-1.0005 eb=0.0209 ve=0.0000 vn=0.0000 vl=0.000 db=0.36
G1 X50.08 Y54.88 F6000                  ; move dl=1.1@100(0<16>0) de=0.000@0.0(0.0<0.0>0.0) l=0.50x0.50x0.00 r=0.00
