; HEADER_BLOCK_START
; generated by OrcaSlicer
; HEADER_BLOCK_END

; EXECUTABLE_BLOCK_START
;start gcode
M118 X75.00 Y75.00 Z150.00 T0
M140 S50 T0
M104 S210 T0
M104 S0 T1
M107
M900 K0.000 T0
G90
G28
M132 X Y Z A B
G1 Z50.000 F420
G161 X Y F3300
M7 T0
M6 T0
M651 S255
M108 T0
M106

G1 Z.2 F420
;LAYER_CHANGE
;Z:0.2
;HEIGHT:0.2
;TYPE:Custom
G1 X-40 Y-74 F6000
G1 E5 F1800
G1 X40 Y-74 E11.65203 F1200
G1 E6.65203 F2400
G1 Z.4 F420
;LAYER_CHANGE
;Z:0.2
;HEIGHT:0.2
;TYPE:Outer wall
G1 X-69.5 Y69.88 F6000
G1 Z.2 F420
G1 E11.65203 F1800
G1 X-68.53 Y69.88 E11.69236 F600
G1 X-68.14 Y69.78 E11.70909
G1 X-67.83 Y69.58 E11.72443
G1 X-67.73 Y69.45 E11.73125
G1 X-67.6 Y69.04 E11.74913
G1 X-67.65 Y68.8 E11.75933
G1 X-67.72 Y68.56 E11.76972
G1 X-67.98 Y68.36 E11.78336
G1 X-68.49 Y68.18 E11.80584
G1 X-69.5 Y68.18 E11.84783
G1 E6.84783 F2400
G1 Z.4 F420
G1 X-68.49 Y68.18 F6000
G1 Z.2 F420
G1 E11.84783 F1800
G1 X-67.72 Y68.01 E11.88062 F600
G1 X-67.5 Y67.81 E11.89298
G1 X-67.39 Y67.56 E11.90433
G1 X-67.34 Y67.32 E11.91452
G1 X-67.47 Y66.91 E11.93241
G1 X-67.57 Y66.78 E11.93923
G1 X-67.88 Y66.59 E11.95434
G1 X-68.27 Y66.48 E11.97119
G1 X-69.5 Y66.48 E12.02233
G1 X-69.5 Y69.88 E12.16368
G1 E7.16368 F2400
G1 Z.4 F420
G1 X-66.28 Y66.48 F6000
G1 Z.2 F420
G1 E12.16368 F1800
G1 X-66.28 Y68.89 E12.26388 F600
G1 E7.26388 F2400
G1 Z.4 F420
G1 X-66.28 Y68.2 F6000
G1 Z.2 F420
G1 E12.26388 F1800
G1 X-66.03 Y68.55 E12.28176 F600
G1 X-65.82 Y68.76 E12.29411
G1 X-65.62 Y68.88 E12.3038
G1 X-65.43 Y68.94 E12.31209
G1 X-65.27 Y68.95 E12.31875
G1 X-65.22 Y68.95 E12.32083
G1 X-65.17 Y68.94 E12.32295
G1 E7.32295 F2400
G1 Z.4 F420
G1 X-64.11 Y69.88 F6000
G1 Z.2 F420
G1 E12.32295 F1800
G1 X-64.11 Y66.48 E12.46431 F600
G1 E7.46431 F2400
G1 Z.4 F420
G1 X-64.11 Y68.18 F6000
G1 Z.2 F420
G1 E12.46431 F1800
G1 X-63.1 Y68.18 E12.5063 F600
G1 X-62.33 Y68.36 E12.53918
G1 X-62.11 Y68.56 E12.55154
G1 X-62 Y68.8 E12.56251
G1 X-61.95 Y69.04 E12.5727
G1 X-62.08 Y69.45 E12.59059
G1 X-62.18 Y69.58 E12.59741
G1 X-62.49 Y69.78 E12.61274
G1 X-62.88 Y69.88 E12.62948
G1 X-64.11 Y69.88 E12.68062
G1 E7.68062 F2400
G1 Z.4 F420
G1 X-60.88 Y66.48 F6000
G1 Z.2 F420
G1 E12.68062 F1800
G1 X-59.36 Y69.88 E12.83546 F600
G1 X-57.83 Y66.48 E12.99047
G1 E7.99047 F2400
G1 Z.4 F420
G1 X-58.36 Y67.68 F6000
G1 Z.2 F420
G1 E12.99047 F1800
G1 X-60.34 Y67.68 E13.07278 F600
G1 E8.07278 F2400
G1 Z.4 F420
G1 X-56.77 Y69 F6000
G1 Z.2 F420
G1 E13.07278 F1800
G1 X-56.3 Y69.24 E13.09473 F600
G1 X-55.93 Y69.55 E13.11479
G1 X-55.68 Y69.88 E13.13201
G1 X-55.68 Y66.48 E13.27336
G1 E8.27336 F2400
G1 Z.4 F420
G1 X-51.31 Y69.88 F6000
G1 Z.2 F420
G1 E13.27336 F1800
G1 X-51.31 Y66.48 E13.41472 F600
G1 E8.41472 F2400
G1 Z.4 F420
G1 X-48.85 Y66.48 F6000
G1 Z.2 F420
G1 E13.41472 F1800
G1 X-50.34 Y68.51 E13.51941 F600
G1 E8.51941 F2400
G1 Z.4 F420
G1 X-51.31 Y67.67 F6000
G1 Z.2 F420
G1 E13.51941 F1800
G1 X-48.79 Y69.88 E13.65876 F600
G1 E8.65876 F2400
G1 Z.4 F420
G1 X-46.54 Y69.9 F6000
G1 Z.2 F420
G1 E13.65876 F1800
G1 X-46.69 Y69.9 E13.665 F600
G1 X-46.87 Y69.86 E13.67266
G1 X-47.03 Y69.73 E13.68123
G1 X-47.15 Y69.54 E13.69058
G1 X-47.23 Y69.17 E13.70631
G1 X-47.23 Y66.48 E13.81815
G1 E8.81815 F2400
G1 Z.4 F420
G1 X-47.73 Y68.76 F6000
G1 Z.2 F420
G1 E13.81815 F1800
G1 X-46.65 Y68.76 E13.86305 F600
G1 E8.86305 F2400
G1 Z.4 F420
G1 X-45.48 Y68.26 F6000
G1 Z.2 F420
G1 E13.86305 F1800
G1 X-43.79 Y68.26 E13.93331 F600
G1 E8.93331 F2400
G1 Z.4 F420
G1 X-43.79 Y67.55 F6000
G1 Z.2 F420
G1 E13.93331 F1800
G1 X-45.48 Y67.55 E14.00358 F600
G1 E9.00358 F2400
G1 Z.4 F420
G1 X-41.51 Y69.94 F6000
G1 Z.2 F420
G1 E14.00358 F1800
G1 X-41 Y69.8 E14.02556 F600
G1 X-40.61 Y69.42 E14.0482
G1 X-40.37 Y68.86 E14.07353
G1 X-40.29 Y68.18 E14.102
G1 X-40.37 Y67.51 E14.13005
G1 X-40.61 Y66.95 E14.15538
G1 X-41 Y66.56 E14.17831
G1 X-41.51 Y66.42 E14.2003
G1 X-42.03 Y66.56 E14.22269
G1 X-42.41 Y66.95 E14.24533
G1 X-42.65 Y67.51 E14.27066
G1 X-42.73 Y68.18 E14.29871
G1 X-42.65 Y68.85 E14.32676
G1 X-42.41 Y69.42 E14.35248
G1 X-42.03 Y69.8 E14.37482
G1 X-41.51 Y69.94 E14.39721
G1 E9.39721 F2400
G1 Z.4 F420
G1 X-39.22 Y66.71 F6000
G1 Z.2 F420
G1 E14.39721 F1800
G1 X-39.22 Y66.65 E14.3997 F600
G1 E9.3997 F2400
G1 Z.4 F420
G1 X-36.94 Y69.94 F6000
G1 Z.2 F420
G1 E14.3997 F1800
G1 X-36.43 Y69.8 E14.42169 F600
G1 X-36.04 Y69.42 E14.44433
G1 X-35.8 Y68.86 E14.46966
G1 X-35.72 Y68.18 E14.49812
G1 X-35.8 Y67.51 E14.52618
G1 X-36.04 Y66.95 E14.55151
G1 X-36.43 Y66.56 E14.57444
G1 X-36.94 Y66.42 E14.59643
G1 X-37.46 Y66.56 E14.61882
G1 X-37.84 Y66.95 E14.64145
G1 X-38.08 Y67.51 E14.66678
G1 X-38.16 Y68.18 E14.69484
G1 X-38.08 Y68.85 E14.72289
G1 X-37.84 Y69.42 E14.7486
G1 X-37.46 Y69.8 E14.77095
G1 X-36.94 Y69.94 E14.79334
G1 E9.79334 F2400
G1 Z.4 F420
G1 X-31.34 Y69.88 F6000
G1 Z.2 F420
G1 E14.79334 F1800
G1 X-31.34 Y66.48 E14.93469 F600
G1 E9.93469 F2400
G1 Z.4 F420
G1 X-28.88 Y66.48 F6000
G1 Z.2 F420
G1 E14.93469 F1800
G1 X-30.37 Y68.51 E15.03938 F600
G1 E10.03938 F2400
G1 Z.4 F420
G1 X-31.34 Y67.67 F6000
G1 Z.2 F420
G1 E15.03938 F1800
G1 X-28.82 Y69.88 E15.17873 F600
G1 E10.17873 F2400
G1 Z.4 F420
G1 X-27.76 Y69.88 F6000
G1 Z.2 F420
G1 E15.17873 F1800
G1 X-27.76 Y66.48 E15.32009 F600
G1 E10.32009 F2400
G1 Z.4 F420
G1 X-27.76 Y66.98 F6000
G1 Z.2 F420
G1 E15.32009 F1800
G1 X-27.51 Y66.74 E15.3345 F600
G1 X-27.12 Y66.49 E15.35376
G1 X-26.74 Y66.42 E15.36982
G1 X-26.36 Y66.51 E15.38606
G1 X-26.05 Y66.77 E15.40288
G1 X-25.85 Y67.18 E15.42185
G1 X-25.78 Y67.71 E15.44407
G1 X-25.84 Y68.22 E15.46542
G1 X-26.02 Y68.61 E15.48328
G1 X-26.31 Y68.86 E15.4992
G1 X-26.71 Y68.95 E15.51624
G1 X-26.9 Y68.93 E15.52419
G1 X-27.1 Y68.85 E15.53314
G1 X-27.31 Y68.72 E15.54341
G1 X-27.51 Y68.5 E15.55577
G1 X-27.76 Y68.03 E15.5779
G1 E10.5779 F2400
G1 Z.4 F420
G1 X-24.72 Y68.26 F6000
G1 Z.2 F420
G1 E15.5779 F1800
G1 X-23.03 Y68.26 E15.64817 F600
G1 E10.64817 F2400
G1 Z.4 F420
G1 X-23.03 Y67.55 F6000
G1 Z.2 F420
G1 E15.64817 F1800
G1 X-24.72 Y67.55 E15.71843 F600
G1 E10.71843 F2400
G1 Z.4 F420
G1 X-20.75 Y69.94 F6000
G1 Z.2 F420
G1 E15.71843 F1800
G1 X-20.24 Y69.8 E15.74042 F600
G1 X-19.85 Y69.42 E15.76305
G1 X-19.61 Y68.86 E15.78838
G1 X-19.53 Y68.18 E15.81685
G1 X-19.61 Y67.51 E15.8449
G1 X-19.85 Y66.95 E15.87023
G1 X-20.24 Y66.56 E15.89316
G1 X-20.75 Y66.42 E15.91515
G1 X-21.27 Y66.56 E15.93754
G1 X-21.65 Y66.95 E15.96018
G1 X-21.89 Y67.51 E15.98551
G1 X-21.97 Y68.18 E16.01356
G1 X-21.89 Y68.85 E16.04162
G1 X-21.65 Y69.42 E16.06733
G1 X-21.27 Y69.8 E16.08967
G1 X-20.75 Y69.94 E16.11206
G1 E11.11206 F2400
G1 Z.4 F420
G1 X-18.46 Y66.71 F6000
G1 Z.2 F420
G1 E16.11206 F1800
G1 X-18.46 Y66.65 E16.11455 F600
G1 E11.11455 F2400
G1 Z.4 F420
G1 X-16.18 Y69.94 F6000
G1 Z.2 F420
G1 E16.11455 F1800
G1 X-15.67 Y69.8 E16.13654 F600
G1 X-15.28 Y69.42 E16.15918
G1 X-15.04 Y68.86 E16.18451
G1 X-14.96 Y68.18 E16.21298
G1 X-15.04 Y67.51 E16.24103
G1 X-15.28 Y66.95 E16.26636
G1 X-15.67 Y66.56 E16.28929
G1 X-16.18 Y66.42 E16.31128
G1 X-16.7 Y66.56 E16.33367
G1 X-17.08 Y66.95 E16.35631
G1 X-17.32 Y67.51 E16.38164
G1 X-17.4 Y68.18 E16.40969
G1 X-17.32 Y68.85 E16.43774
G1 X-17.08 Y69.42 E16.46345
G1 X-16.7 Y69.8 E16.4858
G1 X-16.18 Y69.94 E16.50819
G1 E11.50819 F2400
G1 Z.4 F420
G1 X-10.59 Y66.48 F6000
G1 Z.2 F420
G1 E16.50819 F1800
G1 X-10.59 Y69.88 E16.64954 F600
G1 X-9.36 Y69.88 E16.70068
G1 X-8.97 Y69.78 E16.71742
G1 X-8.66 Y69.58 E16.73276
G1 X-8.56 Y69.45 E16.73958
G1 X-8.43 Y69.04 E16.75746
G1 X-8.48 Y68.8 E16.76765
G1 X-8.59 Y68.56 E16.77863
G1 X-8.81 Y68.36 E16.79099
G1 X-9.58 Y68.18 E16.82386
G1 E11.82386 F2400
G1 Z.4 F420
G1 X-10.59 Y68.18 F6000
G1 Z.2 F420
G1 E16.82386 F1800
G1 X-9.58 Y68.18 E16.86585 F600
G1 X-9.07 Y68 E16.88834
G1 X-8.68 Y67.38 E16.91879
G1 X-8.43 Y66.48 E16.95763
G1 E11.95763 F2400
G1 Z.4 F420
G1 X-7.36 Y67.69 F6000
G1 Z.2 F420
G1 E16.95763 F1800
G1 X-5.22 Y67.69 E17.0466 F600
G1 X-5.3 Y68.22 E17.06888
G1 X-5.51 Y68.61 E17.0873
G1 X-5.85 Y68.86 E17.10484
G1 X-6.29 Y68.95 E17.12351
G1 X-6.72 Y68.86 E17.14178
G1 X-7.06 Y68.61 E17.15932
G1 X-7.28 Y68.22 E17.17794
G1 X-7.36 Y67.69 E17.20022
G1 X-7.28 Y67.15 E17.22292
G1 X-7.05 Y66.75 E17.2421
G1 X-6.7 Y66.51 E17.25975
G1 X-6.24 Y66.42 E17.27923
G1 X-5.9 Y66.47 E17.29352
G1 X-5.61 Y66.61 E17.30691
G1 X-5.4 Y66.83 E17.31956
G1 X-5.28 Y67.13 E17.33299
G1 E12.33299 F2400
G1 Z.4 F420
G1 X-4.16 Y68.26 F6000
G1 Z.2 F420
G1 E17.33299 F1800
G1 X-2.47 Y68.26 E17.40325 F600
G1 E12.40325 F2400
G1 Z.4 F420
G1 X-2.47 Y67.55 F6000
G1 Z.2 F420
G1 E17.40325 F1800
G1 X-4.16 Y67.55 E17.47351 F600
G1 E12.47351 F2400
G1 Z.4 F420
G1 X.58 Y69.88 F6000
G1 Z.2 F420
G1 E17.47351 F1800
G1 X-1.17 Y69.88 E17.54627 F600
G1 X-1.31 Y68.14 E17.61885
G1 X-1.03 Y68.45 E17.63621
G1 X-.86 Y68.57 E17.64486
G1 X-.67 Y68.64 E17.65328
G1 X-.48 Y68.67 E17.66128
G1 X-.28 Y68.68 E17.6696
G1 X.13 Y68.59 E17.68705
G1 X.45 Y68.37 E17.7032
G1 X.66 Y68.03 E17.71981
G1 X.74 Y67.61 E17.73759
G1 X.67 Y67.14 E17.75735
G1 X.46 Y66.77 E17.77503
G1 X.11 Y66.51 E17.79316
G1 X-.39 Y66.42 E17.81428
G1 X-.76 Y66.48 E17.82987
G1 X-1.07 Y66.64 E17.84437
G1 X-1.29 Y66.91 E17.85885
G1 X-1.41 Y67.27 E17.87463
G1 E12.87463 F2400
G1 Z.4 F420
G1 X1.8 Y66.71 F6000
G1 Z.2 F420
G1 E17.87463 F1800
G1 X1.8 Y66.65 E17.87712 F600
G1 E12.87712 F2400
G1 Z.4 F420
G1 X4.08 Y69.94 F6000
G1 Z.2 F420
G1 E17.87712 F1800
G1 X4.59 Y69.8 E17.89911 F600
G1 X4.98 Y69.42 E17.92175
G1 X5.22 Y68.86 E17.94708
G1 X5.3 Y68.18 E17.97555
G1 X5.22 Y67.51 E18.0036
G1 X4.98 Y66.95 E18.02893
G1 X4.59 Y66.56 E18.05186
G1 X4.08 Y66.42 E18.07385
G1 X3.56 Y66.56 E18.09624
G1 X3.18 Y66.95 E18.11887
G1 X2.94 Y67.51 E18.1442
G1 X2.86 Y68.18 E18.17226
G1 X2.94 Y68.85 E18.20031
G1 X3.18 Y69.42 E18.22602
G1 X3.56 Y69.8 E18.24837
G1 X4.08 Y69.94 E18.27076
G1 E13.27076 F2400
G1 Z.4 F420
;TYPE:Brim
G1 X-70.5 Y65 F6000
G1 Z.2 F420
G1 E18.27076 F1800
G1 X-70.5 Y-67 E23.75868 F600
G1 X-71 Y-67 E23.77946
G1 X-71 Y65 E29.26739
G1 E24.26739 F2400
G1 Z.4 F420
G1 X70.5 Y65 F6000
G1 Z.2 F420
G1 E29.26739 F1800
G1 X70.5 Y-67 E34.75531 F600
G1 X70 Y-67 E34.7761
G1 X70 Y65 E40.26402
G1 E35.26402 F2400
G1 Z.4 F420
;TYPE:Outer wall
G1 X-69.5 Y63.89 F6000
G1 Z.2 F420
G1 E40.26402 F1800
G1 X-68.48 Y61.48 E40.37282 F600
G1 X-67.46 Y63.89 E40.48162
G1 E35.48162 F2400
G1 Z.4 F420
G1 X-66.4 Y62.69 F6000
G1 Z.2 F420
G1 E40.48162 F1800
G1 X-64.26 Y62.69 E40.57059 F600
G1 X-64.34 Y63.22 E40.59288
G1 X-64.55 Y63.61 E40.61129
G1 X-64.89 Y63.86 E40.62884
G1 X-65.33 Y63.95 E40.64751
G1 X-65.76 Y63.86 E40.66577
G1 X-66.1 Y63.61 E40.68332
G1 X-66.32 Y63.22 E40.70194
G1 X-66.4 Y62.69 E40.72422
G1 X-66.32 Y62.15 E40.74692
G1 X-66.09 Y61.75 E40.7661
G1 X-65.74 Y61.51 E40.78374
G1 X-65.28 Y61.42 E40.80323
G1 X-64.94 Y61.47 E40.81752
G1 X-64.65 Y61.61 E40.83091
G1 X-64.44 Y61.83 E40.84355
G1 X-64.32 Y62.13 E40.85699
G1 E35.85699 F2400
G1 Z.4 F420
G1 X-63.2 Y63.26 F6000
G1 Z.2 F420
G1 E40.85699 F1800
G1 X-61.51 Y63.26 E40.92725 F600
G1 E35.92725 F2400
G1 Z.4 F420
G1 X-61.51 Y62.55 F6000
G1 Z.2 F420
G1 E40.92725 F1800
G1 X-63.2 Y62.55 E40.99751 F600
G1 E35.99751 F2400
G1 Z.4 F420
G1 X-59.23 Y64.94 F6000
G1 Z.2 F420
G1 E40.99751 F1800
G1 X-58.72 Y64.8 E41.0195 F600
G1 X-58.33 Y64.42 E41.04214
G1 X-58.09 Y63.86 E41.06746
G1 X-58.01 Y63.18 E41.09593
G1 X-58.09 Y62.51 E41.12398
G1 X-58.33 Y61.95 E41.14931
G1 X-58.72 Y61.56 E41.17224
G1 X-59.23 Y61.42 E41.19423
G1 X-59.75 Y61.56 E41.21662
G1 X-60.13 Y61.95 E41.23926
G1 X-60.37 Y62.51 E41.26459
G1 X-60.45 Y63.18 E41.29264
G1 X-60.37 Y63.85 E41.3207
G1 X-60.13 Y64.42 E41.34641
G1 X-59.75 Y64.8 E41.36875
G1 X-59.23 Y64.94 E41.39114
G1 E36.39114 F2400
G1 Z.4 F420
G1 X-56.94 Y61.71 F6000
G1 Z.2 F420
G1 E41.39114 F1800
G1 X-56.94 Y61.65 E41.39364 F600
G1 E36.39364 F2400
G1 Z.4 F420
G1 X-55.88 Y64 F6000
G1 Z.2 F420
G1 E41.39364 F1800
G1 X-55.41 Y64.24 E41.41558 F600
G1 X-55.04 Y64.55 E41.43565
G1 X-54.79 Y64.88 E41.45286
G1 X-54.79 Y61.48 E41.59421
G1 E36.59421 F2400
G1 Z.4 F420
G1 X-53.73 Y62.9 F6000
G1 Z.2 F420
G1 E41.59421 F1800
G1 X-51.86 Y62.9 E41.67196 F600
G1 E36.67196 F2400
G1 Z.4 F420
G1 X-50.8 Y64.44 F6000
G1 Z.2 F420
G1 E41.67196 F1800
G1 X-50.61 Y64.65 E41.68373 F600
G1 X-50.38 Y64.81 E41.69538
G1 X-50.12 Y64.9 E41.70682
G1 X-49.84 Y64.94 E41.71858
G1 X-49.47 Y64.88 E41.73416
G1 X-49.17 Y64.68 E41.74915
G1 X-48.98 Y64.39 E41.76357
G1 X-48.91 Y64.02 E41.77922
G1 X-49.01 Y63.63 E41.79596
G1 X-49.29 Y63.27 E41.81492
G1 X-50.07 Y62.64 E41.85661
G1 X-50.37 Y62.23 E41.87773
G1 X-50.76 Y61.48 E41.91287
G1 X-48.94 Y61.48 E41.98854
G1 E36.98854 F2400
G1 Z.4 F420
G1 X-47.85 Y61.71 F6000
G1 Z.2 F420
G1 E41.98854 F1800
G1 X-47.85 Y61.65 E41.99104 F600
G1 E36.99104 F2400
G1 Z.4 F420
G1 X-44.75 Y64.17 F6000
G1 Z.2 F420
G1 E41.99104 F1800
G1 X-45.06 Y64.74 E42.01801 F600
G1 X-45.65 Y64.94 E42.04391
G1 X-46.16 Y64.82 E42.0657
G1 X-46.51 Y64.47 E42.08627
G1 X-46.72 Y63.87 E42.1127
G1 X-46.79 Y63.05 E42.14692
G1 X-46.72 Y62.36 E42.17575
G1 X-46.5 Y61.84 E42.19923
G1 X-46.16 Y61.53 E42.21836
G1 X-45.69 Y61.42 E42.23842
G1 X-45.24 Y61.51 E42.2575
G1 X-44.92 Y61.76 E42.27439
G1 X-44.74 Y62.13 E42.29149
G1 X-44.67 Y62.56 E42.30961
G1 X-44.74 Y62.96 E42.32649
G1 X-44.93 Y63.31 E42.34305
G1 X-45.24 Y63.54 E42.35909
G1 X-45.64 Y63.62 E42.37605
G1 X-46.1 Y63.53 E42.39554
G1 X-46.52 Y63.28 E42.41586
G1 X-46.79 Y63.05 E42.43061
G1 E37.43061 F2400
G1 Z.4 F420
G1 X-40.3 Y63.89 F6000
G1 Z.2 F420
G1 E42.43061 F1800
G1 X-39.28 Y61.48 E42.53941 F600
G1 X-38.26 Y63.89 E42.64821
G1 E37.64821 F2400
G1 Z.4 F420
G1 X-37.19 Y64.88 F6000
G1 Z.2 F420
G1 E42.64821 F1800
G1 X-37.19 Y61.48 E42.78957 F600
G1 E37.78957 F2400
G1 Z.4 F420
G1 X-36.13 Y63.26 F6000
G1 Z.2 F420
G1 E42.78957 F1800
G1 X-34.44 Y63.26 E42.85983 F600
G1 E37.85983 F2400
G1 Z.4 F420
G1 X-34.44 Y62.55 F6000
G1 Z.2 F420
G1 E42.85983 F1800
G1 X-36.13 Y62.55 E42.93009 F600
G1 E37.93009 F2400
G1 Z.4 F420
G1 X-33.38 Y64 F6000
G1 Z.2 F420
G1 E42.93009 F1800
G1 X-32.91 Y64.24 E42.95203 F600
G1 X-32.54 Y64.55 E42.9721
G1 X-32.29 Y64.88 E42.98931
G1 X-32.29 Y61.48 E43.13067
G1 E38.13067 F2400
G1 Z.4 F420
G1 X-30.01 Y64.94 F6000
G1 Z.2 F420
G1 E43.13067 F1800
G1 X-29.5 Y64.8 E43.15265 F600
G1 X-29.11 Y64.42 E43.17529
G1 X-28.87 Y63.86 E43.20062
G1 X-28.79 Y63.18 E43.22909
G1 X-28.87 Y62.51 E43.25714
G1 X-29.11 Y61.95 E43.28247
G1 X-29.5 Y61.56 E43.3054
G1 X-30.01 Y61.42 E43.32739
G1 X-30.53 Y61.56 E43.34978
G1 X-30.91 Y61.95 E43.37242
G1 X-31.15 Y62.51 E43.39775
G1 X-31.23 Y63.18 E43.4258
G1 X-31.15 Y63.85 E43.45385
G1 X-30.91 Y64.42 E43.47957
G1 X-30.53 Y64.8 E43.50191
G1 X-30.01 Y64.94 E43.5243
G1 E38.5243 F2400
G1 Z.4 F420
;TYPE:Outer wall
G1 X-70 Y60 F6000
G1 Z.2 F420
G1 E43.5243 F1800
G1 X70 Y60 E49.34482 F600
G1 E44.34482 F2400
G1 Z.4 F420
G1 X-72 Y60 F6000
G1 X-70 Y60
G1 Z.2 F420
G1 E49.34482 F1800
G1 X-70 Y57 E49.46955 F600
G1 E44.46955 F2400
G1 Z.3 F420
G1 X-62 Y60 F6000
G1 X-60 Y60
G1 Z.2 F420
G1 E49.46955 F1800
G1 X-60 Y57 E49.59427 F600
G1 E44.59427 F2400
G1 Z.3 F420
G1 X-2 Y60 F6000
G1 X0 Y60
G1 Z.2 F420
G1 E49.59427 F1800
G1 X0 Y57 E49.719 F600
G1 E44.719 F2400
G1 Z.3 F420
G1 X2 Y60 F6000
G1 Z.2 F420
G1 E49.719 F1800
G1 X2 Y58.5 E49.78136 F600
G1 E44.78136 F2400
G1 Z.3 F420
G1 X4 Y60 F6000
G1 Z.2 F420
G1 E49.78136 F1800
G1 X4 Y58.5 E49.84373 F600
G1 E44.84373 F2400
G1 Z.3 F420
G1 X6 Y60 F6000
G1 Z.2 F420
G1 E49.84373 F1800
G1 X6 Y58.5 E49.90609 F600
G1 E44.90609 F2400
G1 Z.3 F420
G1 X8 Y60 F6000
G1 Z.2 F420
G1 E49.90609 F1800
G1 X8 Y58.5 E49.96845 F600
G1 E44.96845 F2400
G1 Z.3 F420
G1 X10 Y60 F6000
G1 Z.2 F420
G1 E49.96845 F1800
G1 X10 Y57 E50.09318 F600
G1 E45.09318 F2400
G1 Z.3 F420
G1 X12 Y60 F6000
G1 Z.2 F420
G1 E50.09318 F1800
G1 X12 Y58.5 E50.15554 F600
G1 E45.15554 F2400
G1 Z.3 F420
G1 X14 Y60 F6000
G1 Z.2 F420
G1 E50.15554 F1800
G1 X14 Y58.5 E50.2179 F600
G1 E45.2179 F2400
G1 Z.3 F420
G1 X16 Y60 F6000
G1 Z.2 F420
G1 E50.2179 F1800
G1 X16 Y58.5 E50.28027 F600
G1 E45.28027 F2400
G1 Z.3 F420
G1 X18 Y60 F6000
G1 Z.2 F420
G1 E50.28027 F1800
G1 X18 Y58.5 E50.34263 F600
G1 E45.34263 F2400
G1 Z.3 F420
G1 X20 Y60 F6000
G1 Z.2 F420
G1 E50.34263 F1800
G1 X20 Y57 E50.46736 F600
G1 E45.46736 F2400
G1 Z.3 F420
G1 X22 Y60 F6000
G1 Z.2 F420
G1 E50.46736 F1800
