; HEADER_BLOCK_START
; generated by OrcaSlicer
; HEADER_BLOCK_END

; EXECUTABLE_BLOCK_START
;start gcode
M118 X75.00 Y75.00 Z150.00 T0
M140 S50 T0
M104 S210 T0
M104 S0 T1
M107
M900 K0.000 T0
G90
G28
M132 X Y Z A B
G1 Z50.000 F420
G161 X Y F3300
M7 T0
M6 T0
M651 S255
M108 T0
M106

;00:00:00.000 0.0mm: skipping empty move GMove(dx=0.0, dy=0.0, dz=0.0, de=0.0, v=7.0, h=0.0, w=0.5, r=0.0, v0=0.0, v1=0.0)
G1 Z.2 F420                             ; dt=0.029 hopup(0.4x0.5x0) dz=0.20@7 re=0 rn=0.00(0.00<0.00>0.00)
;00:00:00.029 0.0mm: pe=-5.0000 eb=0.0000 ve=0.0000 vn=0.0000 vl=0.000 db=0.00
;LAYER_CHANGE
;Z:0.2
;HEIGHT:0.2
;00:00:00.029 0.0mm: layer=0 z=0.00 h=0.20 w=0.50 r=1.00
;TYPE:Custom
G1 X-40 Y-74 F6000                      ; dt=1.041 move(0.2x0.5x0) dl=84.1@100(0<100>0) re=0 rn=0.00(0.00<0.00>0.00)
;00:00:01.070 84.1mm: pe=-5.0000 eb=0.0000 ve=0.0000 vn=0.0000 vl=0.000 db=0.00
;00:00:01.070 84.1mm: skipping empty move GMove(dx=0.0, dy=0.0, dz=0.0, de=0.0, v=7.0, h=0.2, w=0.5, r=0.0, v0=0.0, v1=0.0)
G1 E5 F1800                             ; dt=0.227 restore(0.2x0.5x1) de=5.0000@30(0<30>0) re=306.25 rn=0.00(0.00<0.00>0.00)
;00:00:01.296 84.1mm: pe=-0.0000 eb=0.0000 ve=0.0000 vn=0.0000 vl=0.000 db=0.00
G1 X40 Y-74 E11.65203 F1200             ; dt=4.040 draw(0.2x0.5x2) dl=80.0@20(0<20>0) de=6.6520@1.66(0<1.66>0) re=2 rn=2.00(2.00<2.00>2.00)
;00:00:05.336 164.1mm: pe=0.0000 eb=0.0653 ve=0.0000 vn=0.0000 vl=0.000 db=1.00
G1 E6.65203 F2400                       ; dt=0.212 retract(0.2x0.5x-1) de=-5.0000@-40(0<-35.36>0) re=-306.25 rn=0.00(0.00<0.00>0.00)
;00:00:05.549 164.1mm: pe=-5.0000 eb=0.0653 ve=0.0000 vn=0.0000 vl=0.000 db=1.00
G1 Z.4 F420                             ; dt=0.029 hopup(0.4x0.5x0) dz=0.20@7 re=0 rn=0.00(0.00<0.00>0.00)
;00:00:05.577 164.1mm: pe=-5.0000 eb=0.0653 ve=0.0000 vn=0.0000 vl=0.000 db=0.71
;LAYER_CHANGE
;Z:0.2
;HEIGHT:0.2
;00:00:05.577 164.1mm: layer=1 z=0.00 h=0.20 w=0.50 r=1.00
;TYPE:Outer wall
;00:00:05.577 164.1mm: text [(-70, 70), (None, None)] fsize=5 angle=0 'BrPA1 Kf=0.0 Kb=0.0 Re=5.0'
G1 X-69.5 Y69.88 F6000                  ; dt=2.008 move(0.4x0.5x0) dl=180.8@100(0<100>0) re=0 rn=0.00(0.00<0.00>0.00)
;00:00:07.585 344.9mm: pe=-5.0000 eb=0.0000 ve=0.0000 vn=0.0000 vl=0.000 db=0.00
G1 Z.2 F420                             ; dt=0.029 hopdn(0.2x0.5x0) dz=-0.20@7 re=0 rn=0.00(0.00<0.00>0.00)
;00:00:07.614 344.9mm: pe=-5.0000 eb=0.0000 ve=0.0000 vn=0.0000 vl=0.000 db=0.00
G1 E11.65203 F1800                      ; dt=0.227 restore(0.2x0.5x1) de=5.0000@30(0<30>0) re=306.25 rn=0.00(0.00<0.00>0.00)
;00:00:07.840 344.9mm: pe=-0.0000 eb=0.0000 ve=0.0000 vn=0.0000 vl=0.000 db=0.00
G1 X-68.53 Y69.88 E11.69236 F600        ; dt=0.107 draw(0.2x0.5x1) dl=1.0@10(0<10>10) de=0.0403@0.42(0<0.42>0.42) re=1 rn=1.00(1.00<1.00>1.00)
;00:00:07.947 345.9mm: pe=0.0000 eb=0.0127 ve=0.4158 vn=0.4158 vl=10.000 db=0.44
G1 X-68.14 Y69.78 E11.70909             ; dt=0.040 draw(0.2x0.5x1) dl=0.4@10(10<10>10) de=0.0167@0.42(0.42<0.42>0.42) re=1 rn=1.00(1.00<1.00>1.00)
;00:00:07.988 346.3mm: pe=0.0000 eb=0.0142 ve=0.4158 vn=0.4158 vl=10.000 db=0.47
G1 X-67.83 Y69.58 E11.72443             ; dt=0.037 draw(0.2x0.5x1) dl=0.4@10(10<10>10) de=0.0153@0.42(0.42<0.42>0.42) re=1 rn=1.00(1.00<1.00>1.00)
;00:00:08.025 346.7mm: pe=0.0000 eb=0.0150 ve=0.4158 vn=0.4158 vl=10.000 db=0.48
G1 X-67.73 Y69.45 E11.73125             ; dt=0.016 draw(0.2x0.5x1) dl=0.2@10(10<10>10) de=0.0068@0.42(0.42<0.42>0.42) re=1 rn=1.00(1.00<1.00>1.00)
;00:00:08.041 346.8mm: pe=0.0000 eb=0.0153 ve=0.4158 vn=0.4158 vl=10.000 db=0.48
G1 X-67.6 Y69.04 E11.74913              ; dt=0.043 draw(0.2x0.5x1) dl=0.4@10(10<10>10) de=0.0179@0.42(0.42<0.42>0.42) re=1 rn=1.00(1.00<1.00>1.00)
;00:00:08.084 347.3mm: pe=0.0000 eb=0.0157 ve=0.4157 vn=0.4157 vl=10.000 db=0.49
G1 X-67.65 Y68.8 E11.75933              ; dt=0.025 draw(0.2x0.5x1) dl=0.2@10(10<10>10) de=0.0102@0.42(0.42<0.42>0.42) re=1 rn=1.00(1.00<1.00>1.00)
;00:00:08.109 347.5mm: pe=0.0000 eb=0.0159 ve=0.4157 vn=0.4157 vl=10.000 db=0.49
G1 X-67.72 Y68.56 E11.76972             ; dt=0.025 draw(0.2x0.5x1) dl=0.2@10(10<10>10) de=0.0104@0.42(0.42<0.42>0.42) re=1 rn=1.00(1.00<1.00>1.00)
;00:00:08.134 347.8mm: pe=0.0000 eb=0.0160 ve=0.4158 vn=0.4158 vl=10.000 db=0.50
G1 X-67.98 Y68.36 E11.78336             ; dt=0.033 draw(0.2x0.5x1) dl=0.3@10(10<10>10) de=0.0136@0.42(0.42<0.42>0.42) re=1 rn=1.00(1.00<1.00>1.00)
;00:00:08.166 348.1mm: pe=0.0000 eb=0.0161 ve=0.4158 vn=0.4158 vl=10.000 db=0.50
G1 X-68.49 Y68.18 E11.80584             ; dt=0.054 draw(0.2x0.5x1) dl=0.5@10(10<10>10) de=0.0225@0.42(0.42<0.42>0.42) re=1 rn=1.00(1.00<1.00>1.00)
;00:00:08.220 348.6mm: pe=0.0000 eb=0.0162 ve=0.4157 vn=0.4157 vl=10.000 db=0.50
G1 X-69.5 Y68.18 E11.84783              ; dt=0.111 draw(0.2x0.5x1) dl=1.0@10(10<10>0) de=0.0420@0.42(0.42<0.42>0) re=1 rn=1.00(1.00<1.00>1.00)
;00:00:08.331 349.6mm: pe=0.0000 eb=0.0163 ve=0.0000 vn=0.0000 vl=0.000 db=0.50
G1 E6.84783 F2400                       ; dt=0.212 retract(0.2x0.5x-1) de=-5.0000@-40(0<-35.36>0) re=-306.25 rn=0.00(0.00<0.00>0.00)
;00:00:08.544 349.6mm: pe=-5.0000 eb=0.0163 ve=0.0000 vn=0.0000 vl=0.000 db=0.50
G1 Z.4 F420                             ; dt=0.029 hopup(0.4x0.5x0) dz=0.20@7 re=0 rn=0.00(0.00<0.00>0.00)
;00:00:08.572 349.6mm: pe=-5.0000 eb=0.0163 ve=0.0000 vn=0.0000 vl=0.000 db=0.35
G1 X-68.49 Y68.18 F6000                 ; dt=0.095 move(0.4x0.5x0) dl=1.0@100(0<16>0) re=0 rn=0.00(0.00<0.00>0.00)
;00:00:08.667 350.6mm: pe=-5.0000 eb=0.0000 ve=0.0000 vn=0.0000 vl=0.000 db=0.00
G1 Z.2 F420                             ; dt=0.029 hopdn(0.2x0.5x0) dz=-0.20@7 re=0 rn=0.00(0.00<0.00>0.00)
;00:00:08.696 350.6mm: pe=-5.0000 eb=0.0000 ve=0.0000 vn=0.0000 vl=0.000 db=0.00
G1 E11.84783 F1800                      ; dt=0.227 restore(0.2x0.5x1) de=5.0000@30(0<30>0) re=306.25 rn=0.00(0.00<0.00>0.00)
;00:00:08.923 350.6mm: pe=-0.0000 eb=0.0000 ve=0.0000 vn=0.0000 vl=0.000 db=0.00
G1 X-67.72 Y68.01 E11.88062 F600        ; dt=0.089 draw(0.2x0.5x1) dl=0.8@10(0<10>10) de=0.0328@0.42(0<0.42>0.42) re=1 rn=1.00(1.00<1.00>1.00)
;00:00:09.012 351.4mm: pe=0.0000 eb=0.0116 ve=0.4158 vn=0.4158 vl=10.000 db=0.42
G1 X-67.5 Y67.81 E11.89298              ; dt=0.030 draw(0.2x0.5x1) dl=0.3@10(10<10>10) de=0.0124@0.42(0.42<0.42>0.42) re=1 rn=1.00(1.00<1.00>1.00)
;00:00:09.041 351.7mm: pe=0.0000 eb=0.0132 ve=0.4157 vn=0.4157 vl=10.000 db=0.45
G1 X-67.39 Y67.56 E11.90433             ; dt=0.027 draw(0.2x0.5x1) dl=0.3@10(10<10>10) de=0.0114@0.42(0.42<0.42>0.42) re=1 rn=1.00(1.00<1.00>1.00)
;00:00:09.069 352.0mm: pe=0.0000 eb=0.0142 ve=0.4157 vn=0.4157 vl=10.000 db=0.47
G1 X-67.34 Y67.32 E11.91452             ; dt=0.025 draw(0.2x0.5x1) dl=0.2@10(10<10>10) de=0.0102@0.42(0.42<0.42>0.42) re=1 rn=1.00(1.00<1.00>1.00)
;00:00:09.093 352.3mm: pe=0.0000 eb=0.0148 ve=0.4157 vn=0.4157 vl=10.000 db=0.48
G1 X-67.47 Y66.91 E11.93241             ; dt=0.043 draw(0.2x0.5x1) dl=0.4@10(10<10>10) de=0.0179@0.42(0.42<0.42>0.42) re=1 rn=1.00(1.00<1.00>1.00)
;00:00:09.136 352.7mm: pe=0.0000 eb=0.0154 ve=0.4157 vn=0.4157 vl=10.000 db=0.49
G1 X-67.57 Y66.78 E11.93923             ; dt=0.016 draw(0.2x0.5x1) dl=0.2@10(10<10>10) de=0.0068@0.42(0.42<0.42>0.42) re=1 rn=1.00(1.00<1.00>1.00)
;00:00:09.153 352.8mm: pe=0.0000 eb=0.0156 ve=0.4158 vn=0.4158 vl=10.000 db=0.49
G1 X-67.88 Y66.59 E11.95434             ; dt=0.036 draw(0.2x0.5x1) dl=0.4@10(10<10>10) de=0.0151@0.42(0.42<0.42>0.42) re=1 rn=1.00(1.00<1.00>1.00)
;00:00:09.189 353.2mm: pe=0.0000 eb=0.0159 ve=0.4157 vn=0.4157 vl=10.000 db=0.49
G1 X-68.27 Y66.48 E11.97119             ; dt=0.041 draw(0.2x0.5x1) dl=0.4@10(10<10>10) de=0.0168@0.42(0.42<0.42>0.42) re=1 rn=1.00(1.00<1.00>1.00)
;00:00:09.229 353.6mm: pe=0.0000 eb=0.0161 ve=0.4158 vn=0.4158 vl=10.000 db=0.50
G1 X-69.5 Y66.48 E12.02233              ; dt=0.123 draw(0.2x0.5x1) dl=1.2@10(10<10>10) de=0.0511@0.42(0.42<0.42>0.42) re=1 rn=1.00(1.00<1.00>1.00)
;00:00:09.352 354.8mm: pe=0.0000 eb=0.0163 ve=0.4157 vn=0.4157 vl=10.000 db=0.50
G1 X-69.5 Y69.88 E12.16368              ; dt=0.350 draw(0.2x0.5x1) dl=3.4@10(10<10>0) de=0.1414@0.42(0.42<0.42>0) re=1 rn=1.00(1.00<1.00>1.00)
;00:00:09.702 358.2mm: pe=0.0000 eb=0.0163 ve=0.0000 vn=0.0000 vl=0.000 db=0.50
G1 E7.16368 F2400                       ; dt=0.212 retract(0.2x0.5x-1) de=-5.0000@-40(0<-35.36>0) re=-306.25 rn=0.00(0.00<0.00>0.00)
;00:00:09.915 358.2mm: pe=-5.0000 eb=0.0163 ve=0.0000 vn=0.0000 vl=0.000 db=0.50
G1 Z.4 F420                             ; dt=0.029 hopup(0.4x0.5x0) dz=0.20@7 re=0 rn=0.00(0.00<0.00>0.00)
;00:00:09.943 358.2mm: pe=-5.0000 eb=0.0163 ve=0.0000 vn=0.0000 vl=0.000 db=0.35
G1 X-66.28 Y66.48 F6000                 ; dt=0.205 move(0.4x0.5x0) dl=4.7@100(0<34>0) re=0 rn=0.00(0.00<0.00>0.00)
;00:00:10.148 362.9mm: pe=-5.0000 eb=0.0000 ve=0.0000 vn=0.0000 vl=0.000 db=0.00
G1 Z.2 F420                             ; dt=0.029 hopdn(0.2x0.5x0) dz=-0.20@7 re=0 rn=0.00(0.00<0.00>0.00)
;00:00:10.177 362.9mm: pe=-5.0000 eb=0.0000 ve=0.0000 vn=0.0000 vl=0.000 db=0.00
G1 E12.16368 F1800                      ; dt=0.227 restore(0.2x0.5x1) de=5.0000@30(0<30>0) re=306.25 rn=0.00(0.00<0.00>0.00)
;00:00:10.404 362.9mm: pe=-0.0000 eb=0.0000 ve=0.0000 vn=0.0000 vl=0.000 db=0.00
G1 X-66.28 Y68.89 E12.26388 F600        ; dt=0.261 draw(0.2x0.5x1) dl=2.4@10(0<10>0) de=0.1002@0.42(0<0.42>0) re=1 rn=1.00(1.00<1.00>1.00)
;00:00:10.665 365.3mm: pe=0.0000 eb=0.0158 ve=0.0000 vn=0.0000 vl=0.000 db=0.49
G1 E7.26388 F2400                       ; dt=0.212 retract(0.2x0.5x-1) de=-5.0000@-40(0<-35.36>0) re=-306.25 rn=0.00(0.00<0.00>0.00)
;00:00:10.877 365.3mm: pe=-5.0000 eb=0.0158 ve=0.0000 vn=0.0000 vl=0.000 db=0.49
G1 Z.4 F420                             ; dt=0.029 hopup(0.4x0.5x0) dz=0.20@7 re=0 rn=0.00(0.00<0.00>0.00)
;00:00:10.905 365.3mm: pe=-5.0000 eb=0.0158 ve=0.0000 vn=0.0000 vl=0.000 db=0.35
G1 X-66.28 Y68.2 F6000                  ; dt=0.079 move(0.4x0.5x0) dl=0.7@100(0<13>0) re=0 rn=0.00(0.00<0.00>0.00)
;00:00:10.984 366.0mm: pe=-5.0000 eb=0.0000 ve=0.0000 vn=0.0000 vl=0.000 db=0.00
G1 Z.2 F420                             ; dt=0.029 hopdn(0.2x0.5x0) dz=-0.20@7 re=0 rn=0.00(0.00<0.00>0.00)
;00:00:11.013 366.0mm: pe=-5.0000 eb=0.0000 ve=0.0000 vn=0.0000 vl=0.000 db=0.00
G1 E12.26388 F1800                      ; dt=0.227 restore(0.2x0.5x1) de=5.0000@30(0<30>0) re=306.25 rn=0.00(0.00<0.00>0.00)
;00:00:11.239 366.0mm: pe=-0.0000 eb=0.0000 ve=0.0000 vn=0.0000 vl=0.000 db=0.00
G1 X-66.03 Y68.55 E12.28176 F600        ; dt=0.053 draw(0.2x0.5x1) dl=0.4@10(0<10>10) de=0.0179@0.42(0<0.42>0.42) re=1 rn=1.00(1.00<1.00>1.00)
;00:00:11.292 366.5mm: pe=0.0000 eb=0.0085 ve=0.4157 vn=0.4157 vl=10.000 db=0.36
G1 X-65.82 Y68.76 E12.29411             ; dt=0.030 draw(0.2x0.5x1) dl=0.3@10(10<10>10) de=0.0123@0.42(0.42<0.42>0.42) re=1 rn=1.00(1.00<1.00>1.00)
;00:00:11.322 366.8mm: pe=0.0000 eb=0.0112 ve=0.4157 vn=0.4157 vl=10.000 db=0.41
G1 X-65.62 Y68.88 E12.3038              ; dt=0.023 draw(0.2x0.5x1) dl=0.2@10(10<10>10) de=0.0097@0.42(0.42<0.42>0.42) re=1 rn=1.00(1.00<1.00>1.00)
;00:00:11.345 367.0mm: pe=0.0000 eb=0.0126 ve=0.4158 vn=0.4158 vl=10.000 db=0.44
G1 X-65.43 Y68.94 E12.31209             ; dt=0.020 draw(0.2x0.5x1) dl=0.2@10(10<10>10) de=0.0083@0.42(0.42<0.42>0.42) re=1 rn=1.00(1.00<1.00>1.00)
;00:00:11.365 367.2mm: pe=0.0000 eb=0.0135 ve=0.4158 vn=0.4158 vl=10.000 db=0.45
G1 X-65.27 Y68.95 E12.31875             ; dt=0.016 draw(0.2x0.5x1) dl=0.2@10(10<10>10) de=0.0067@0.42(0.42<0.42>0.42) re=1 rn=1.00(1.00<1.00>1.00)
;00:00:11.381 367.3mm: pe=0.0000 eb=0.0140 ve=0.4158 vn=0.4158 vl=10.000 db=0.46
G1 X-65.22 Y68.95 E12.32083             ; dt=0.006 draw(0.2x0.5x1) dl=0.1@10(10<10>7) de=0.0021@0.42(0.42<0.42>0.3) re=1 rn=1.00(1.00<1.00>1.00)
;00:00:11.387 367.4mm: pe=0.0000 eb=0.0142 ve=0.2969 vn=0.2969 vl=7.141 db=0.47
G1 X-65.17 Y68.94 E12.32295             ; dt=0.014 draw(0.2x0.5x1) dl=0.1@10(7<7>0) de=0.0021@0.42(0.3<0.3>0) re=1 rn=1.00(1.00<1.00>1.00)
;00:00:11.401 367.4mm: pe=0.0000 eb=0.0143 ve=0.0000 vn=0.0000 vl=0.000 db=0.47
G1 E7.32295 F2400                       ; dt=0.212 retract(0.2x0.5x-1) de=-5.0000@-40(0<-35.36>0) re=-306.25 rn=0.00(0.00<0.00>0.00)
;00:00:11.614 367.4mm: pe=-5.0000 eb=0.0143 ve=0.0000 vn=0.0000 vl=0.000 db=0.47
G1 Z.4 F420                             ; dt=0.029 hopup(0.4x0.5x0) dz=0.20@7 re=0 rn=0.00(0.00<0.00>0.00)
;00:00:11.642 367.4mm: pe=-5.0000 eb=0.0143 ve=0.0000 vn=0.0000 vl=0.000 db=0.33
G1 X-64.11 Y69.88 F6000                 ; dt=0.113 move(0.4x0.5x0) dl=1.4@100(0<19>0) re=0 rn=0.00(0.00<0.00>0.00)
;00:00:11.755 368.9mm: pe=-5.0000 eb=0.0000 ve=0.0000 vn=0.0000 vl=0.000 db=0.00
G1 Z.2 F420                             ; dt=0.029 hopdn(0.2x0.5x0) dz=-0.20@7 re=0 rn=0.00(0.00<0.00>0.00)
;00:00:11.784 368.9mm: pe=-5.0000 eb=0.0000 ve=0.0000 vn=0.0000 vl=0.000 db=0.00
G1 E12.32295 F1800                      ; dt=0.227 restore(0.2x0.5x1) de=5.0000@30(0<30>0) re=306.25 rn=0.00(0.00<0.00>0.00)
;00:00:12.010 368.9mm: pe=-0.0000 eb=0.0000 ve=0.0000 vn=0.0000 vl=0.000 db=0.00
G1 X-64.11 Y66.48 E12.46431 F600        ; dt=0.360 draw(0.2x0.5x1) dl=3.4@10(0<10>0) de=0.1414@0.42(0<0.42>0) re=1 rn=1.00(1.00<1.00>1.00)
;00:00:12.370 372.3mm: pe=0.0000 eb=0.0162 ve=0.0000 vn=0.0000 vl=0.000 db=0.50
G1 E7.46431 F2400                       ; dt=0.212 retract(0.2x0.5x-1) de=-5.0000@-40(0<-35.36>0) re=-306.25 rn=0.00(0.00<0.00>0.00)
;00:00:12.582 372.3mm: pe=-5.0000 eb=0.0162 ve=0.0000 vn=0.0000 vl=0.000 db=0.50
G1 Z.4 F420                             ; dt=0.029 hopup(0.4x0.5x0) dz=0.20@7 re=0 rn=0.00(0.00<0.00>0.00)
;00:00:12.611 372.3mm: pe=-5.0000 eb=0.0162 ve=0.0000 vn=0.0000 vl=0.000 db=0.35
G1 X-64.11 Y68.18 F6000                 ; dt=0.124 move(0.4x0.5x0) dl=1.7@100(0<21>0) re=0 rn=0.00(0.00<0.00>0.00)
;00:00:12.735 374.0mm: pe=-5.0000 eb=0.0000 ve=0.0000 vn=0.0000 vl=0.000 db=0.00
G1 Z.2 F420                             ; dt=0.029 hopdn(0.2x0.5x0) dz=-0.20@7 re=0 rn=0.00(0.00<0.00>0.00)
;00:00:12.763 374.0mm: pe=-5.0000 eb=0.0000 ve=0.0000 vn=0.0000 vl=0.000 db=0.00
G1 E12.46431 F1800                      ; dt=0.227 restore(0.2x0.5x1) de=5.0000@30(0<30>0) re=306.25 rn=0.00(0.00<0.00>0.00)
;00:00:12.990 374.0mm: pe=-0.0000 eb=0.0000 ve=0.0000 vn=0.0000 vl=0.000 db=0.00
G1 X-63.1 Y68.18 E12.5063 F600          ; dt=0.111 draw(0.2x0.5x1) dl=1.0@10(0<10>10) de=0.0420@0.42(0<0.42>0.42) re=1 rn=1.00(1.00<1.00>1.00)
;00:00:13.101 375.0mm: pe=0.0000 eb=0.0129 ve=0.4158 vn=0.4158 vl=10.000 db=0.44
G1 X-62.33 Y68.36 E12.53918             ; dt=0.079 draw(0.2x0.5x1) dl=0.8@10(10<10>10) de=0.0329@0.42(0.42<0.42>0.42) re=1 rn=1.00(1.00<1.00>1.00)
;00:00:13.180 375.8mm: pe=0.0000 eb=0.0151 ve=0.4158 vn=0.4158 vl=10.000 db=0.48
G1 X-62.11 Y68.56 E12.55154             ; dt=0.030 draw(0.2x0.5x1) dl=0.3@10(10<10>10) de=0.0124@0.42(0.42<0.42>0.42) re=1 rn=1.00(1.00<1.00>1.00)
;00:00:13.210 376.1mm: pe=0.0000 eb=0.0155 ve=0.4157 vn=0.4157 vl=10.000 db=0.49
G1 X-62 Y68.8 E12.56251                 ; dt=0.026 draw(0.2x0.5x1) dl=0.3@10(10<10>10) de=0.0110@0.42(0.42<0.42>0.42) re=1 rn=1.00(1.00<1.00>1.00)
;00:00:13.236 376.3mm: pe=0.0000 eb=0.0157 ve=0.4157 vn=0.4157 vl=10.000 db=0.49
G1 X-61.95 Y69.04 E12.5727              ; dt=0.025 draw(0.2x0.5x1) dl=0.2@10(10<10>10) de=0.0102@0.42(0.42<0.42>0.42) re=1 rn=1.00(1.00<1.00>1.00)
;00:00:13.261 376.6mm: pe=0.0000 eb=0.0159 ve=0.4157 vn=0.4157 vl=10.000 db=0.49
G1 X-62.08 Y69.45 E12.59059             ; dt=0.043 draw(0.2x0.5x1) dl=0.4@10(10<10>10) de=0.0179@0.42(0.42<0.42>0.42) re=1 rn=1.00(1.00<1.00>1.00)
;00:00:13.304 377.0mm: pe=0.0000 eb=0.0161 ve=0.4157 vn=0.4157 vl=10.000 db=0.50
G1 X-62.18 Y69.58 E12.59741             ; dt=0.016 draw(0.2x0.5x1) dl=0.2@10(10<10>10) de=0.0068@0.42(0.42<0.42>0.42) re=1 rn=1.00(1.00<1.00>1.00)
;00:00:13.320 377.2mm: pe=0.0000 eb=0.0161 ve=0.4158 vn=0.4158 vl=10.000 db=0.50
G1 X-62.49 Y69.78 E12.61274             ; dt=0.037 draw(0.2x0.5x1) dl=0.4@10(10<10>10) de=0.0153@0.42(0.42<0.42>0.42) re=1 rn=1.00(1.00<1.00>1.00)
;00:00:13.357 377.5mm: pe=0.0000 eb=0.0162 ve=0.4158 vn=0.4158 vl=10.000 db=0.50
