; HEADER_BLOCK_START
; generated by OrcaSlicer
; HEADER_BLOCK_END

; EXECUTABLE_BLOCK_START
;start gcode
M118 X75.00 Y75.00 Z150.00 T0
M140 S50 T0
M104 S210 T0
M104 S0 T1
M107
M900 K0.000 T0
G90
G28
M132 X Y Z A B
G1 Z50.000 F420
G161 X Y F3300
M7 T0
M6 T0
M651 S255
M108 T0
M106

;00:00:00.000 0.0mm: skipping empty move GMove(dx=0.0, dy=0.0, dz=0.0, de=0.0, v=7.0, h=0.0, w=0.5, r=0.0, v0=0.0, v1=0.0)
G1 Z.2 F420                             ; dt=0.029 hopup(0.4x0.5x0) dz=0.20@7 re=0 rn=0.00(0.00<0.00>0.00)
;00:00:00.029 0.0mm: pe=-5.0000 eb=0.0000 ve=0.0000 vn=0.0000 vl=0.000 db=0.00
;LAYER_CHANGE
;Z:0.2
;HEIGHT:0.2
;00:00:00.029 0.0mm: layer=0 z=0.00 h=0.20 w=0.50 r=1.00
;TYPE:Custom
G1 X-40 Y-74 F6000                      ; dt=1.041 move(0.2x0.5x0) dl=84.1@100(0<100>0) re=0 rn=0.00(0.00<0.00>0.00)
;00:00:01.070 84.1mm: pe=-5.0000 eb=0.0000 ve=0.0000 vn=0.0000 vl=0.000 db=0.00
;00:00:01.070 84.1mm: skipping empty move GMove(dx=0.0, dy=0.0, dz=0.0, de=0.0, v=7.0, h=0.2, w=0.5, r=0.0, v0=0.0, v1=0.0)
G1 E5 F1800                             ; dt=0.227 restore(0.2x0.5x1) de=5.0000@30(0<30>0) re=306.25 rn=0.00(0.00<0.00>0.00)
;00:00:01.296 84.1mm: pe=-0.0000 eb=0.0000 ve=0.0000 vn=0.0000 vl=0.000 db=0.00
G1 X40 Y-74 E11.65203 F1200             ; dt=4.040 draw(0.2x0.5x2) dl=80.0@20(0<20>0) de=6.6520@1.66(0<1.66>0) re=2 rn=1.09(0.01<1.09>3.45)
;00:00:05.336 164.1mm: pe=3.0158 eb=0.0755 ve=0.0000 vn=1.4158 vl=0.000 db=1.08
G1 E6.65203 F2400                       ; dt=0.212 retract(0.2x0.5x-1) de=-5.0000@-40(0<-35.36>0) re=-306.25 rn=4.11(16.43<0.01>0.00)
;00:00:05.549 164.1mm: pe=-2.0514 eb=0.1426 ve=0.0000 vn=0.0000 vl=0.000 db=1.48
G1 Z.4 F420                             ; dt=0.029 hopup(0.4x0.5x0) dz=0.20@7 re=0 rn=0.00(0.00<0.00>0.00)
;00:00:05.577 164.1mm: pe=-2.0514 eb=0.1426 ve=0.0000 vn=0.0000 vl=0.000 db=1.04
;LAYER_CHANGE
;Z:0.2
;HEIGHT:0.2
;00:00:05.577 164.1mm: layer=1 z=0.00 h=0.20 w=0.50 r=1.00
;TYPE:Outer wall
;00:00:05.577 164.1mm: text [(-70, 70), (None, None)] fsize=5 angle=0 'BrPA2 Kf=1.0 Kb=2.0 Re=5.0'
G1 X-69.5 Y69.88 F6000                  ; dt=2.008 move(0.4x0.5x0) dl=180.8@100(0<100>0) re=0 rn=0.00(0.00<0.00>0.00)
;00:00:07.585 344.9mm: pe=-2.0514 eb=0.0000 ve=0.0000 vn=0.0000 vl=0.000 db=0.00
G1 Z.2 F420                             ; dt=0.029 hopdn(0.2x0.5x0) dz=-0.20@7 re=0 rn=0.00(0.00<0.00>0.00)
;00:00:07.614 344.9mm: pe=-2.0514 eb=0.0000 ve=0.0000 vn=0.0000 vl=0.000 db=0.00
G1 E11.65203 F1800                      ; dt=0.227 restore(0.2x0.5x1) de=5.0000@30(0<30>0) re=306.25 rn=5.50(0.00<2.55>21.45)
;00:00:07.840 344.9mm: pe=2.8589 eb=0.0897 ve=0.0000 vn=1.2589 vl=0.000 db=1.17
G1 X-68.53 Y69.88 E11.69236 F600        ; dt=0.107 draw(0.2x0.5x1) dl=1.0@10(0<10>10) de=0.0403@0.42(0<0.42>0.42) re=1 rn=3.21(6.00<2.89>2.89)
;00:00:07.947 345.9mm: pe=2.7696 eb=0.1149 ve=0.4158 vn=1.1696 vl=10.000 db=1.33
G1 X-68.14 Y69.78 E11.70909             ; dt=0.040 draw(0.2x0.5x1) dl=0.4@10(10<10>10) de=0.0167@0.42(0.42<0.42>0.42) re=1 rn=2.78(2.78<2.78>2.78)
;00:00:07.988 346.3mm: pe=2.7399 eb=0.1168 ve=0.4158 vn=1.1399 vl=10.000 db=1.34
G1 X-67.83 Y69.58 E11.72443             ; dt=0.037 draw(0.2x0.5x1) dl=0.4@10(10<10>10) de=0.0153@0.42(0.42<0.42>0.42) re=1 rn=2.71(2.71<2.71>2.71)
;00:00:08.025 346.7mm: pe=2.7137 eb=0.1173 ve=0.4158 vn=1.1137 vl=10.000 db=1.34
G1 X-67.73 Y69.45 E11.73125             ; dt=0.016 draw(0.2x0.5x1) dl=0.2@10(10<10>10) de=0.0068@0.42(0.42<0.42>0.42) re=1 rn=2.66(2.66<2.66>2.66)
;00:00:08.041 346.8mm: pe=2.7023 eb=0.1172 ve=0.4158 vn=1.1023 vl=10.000 db=1.34
G1 X-67.6 Y69.04 E11.74913              ; dt=0.043 draw(0.2x0.5x1) dl=0.4@10(10<10>10) de=0.0179@0.42(0.42<0.42>0.42) re=1 rn=2.62(2.62<2.62>2.62)
;00:00:08.084 347.3mm: pe=2.6735 eb=0.1161 ve=0.4157 vn=1.0735 vl=10.000 db=1.33
G1 X-67.65 Y68.8 E11.75933              ; dt=0.025 draw(0.2x0.5x1) dl=0.2@10(10<10>10) de=0.0102@0.42(0.42<0.42>0.42) re=1 rn=2.56(2.56<2.56>2.56)
;00:00:08.109 347.5mm: pe=2.6575 eb=0.1151 ve=0.4157 vn=1.0575 vl=10.000 db=1.33
G1 X-67.72 Y68.56 E11.76972             ; dt=0.025 draw(0.2x0.5x1) dl=0.2@10(10<10>10) de=0.0104@0.42(0.42<0.42>0.42) re=1 rn=2.52(2.52<2.52>2.52)
;00:00:08.134 347.8mm: pe=2.6417 eb=0.1138 ve=0.4158 vn=1.0417 vl=10.000 db=1.32
G1 X-67.98 Y68.36 E11.78336             ; dt=0.033 draw(0.2x0.5x1) dl=0.3@10(10<10>10) de=0.0136@0.42(0.42<0.42>0.42) re=1 rn=2.48(2.48<2.48>2.48)
;00:00:08.166 348.1mm: pe=2.6215 eb=0.1118 ve=0.4158 vn=1.0215 vl=10.000 db=1.31
G1 X-68.49 Y68.18 E11.80584             ; dt=0.054 draw(0.2x0.5x1) dl=0.5@10(10<10>10) de=0.0225@0.42(0.42<0.42>0.42) re=1 rn=2.42(2.42<2.42>2.42)
;00:00:08.220 348.6mm: pe=2.5896 eb=0.1078 ve=0.4157 vn=0.9896 vl=10.000 db=1.28
G1 X-69.5 Y68.18 E11.84783              ; dt=0.111 draw(0.2x0.5x1) dl=1.0@10(10<10>0) de=0.0420@0.42(0.42<0.42>0) re=1 rn=2.53(2.32<2.32>4.49)
;00:00:08.331 349.6mm: pe=2.5252 eb=0.1083 ve=0.0000 vn=0.9252 vl=0.000 db=1.29
G1 E6.84783 F2400                       ; dt=0.212 retract(0.2x0.5x-1) de=-5.0000@-40(0<-35.36>0) re=-306.25 rn=2.19(8.75<0.00>0.00)
;00:00:08.544 349.6mm: pe=-2.5105 eb=0.1440 ve=0.0000 vn=0.0000 vl=0.000 db=1.49
G1 Z.4 F420                             ; dt=0.029 hopup(0.4x0.5x0) dz=0.20@7 re=0 rn=0.00(0.00<0.00>0.00)
;00:00:08.572 349.6mm: pe=-2.5105 eb=0.1440 ve=0.0000 vn=0.0000 vl=0.000 db=1.05
G1 X-68.49 Y68.18 F6000                 ; dt=0.095 move(0.4x0.5x0) dl=1.0@100(0<16>0) re=0 rn=0.00(0.00<0.00>0.00)
;00:00:08.667 350.6mm: pe=-2.5105 eb=0.0212 ve=0.0000 vn=0.0000 vl=0.000 db=0.40
G1 Z.2 F420                             ; dt=0.029 hopdn(0.2x0.5x0) dz=-0.20@7 re=0 rn=0.00(0.00<0.00>0.00)
;00:00:08.696 350.6mm: pe=-2.5105 eb=0.0212 ve=0.0000 vn=0.0000 vl=0.000 db=0.57
G1 E11.84783 F1800                      ; dt=0.227 restore(0.2x0.5x1) de=5.0000@30(0<30>0) re=306.25 rn=2.68(0.00<0.30>13.84)
;00:00:08.923 350.6mm: pe=2.4457 eb=0.0651 ve=0.0000 vn=0.8457 vl=0.000 db=1.00
G1 X-67.72 Y68.01 E11.88062 F600        ; dt=0.089 draw(0.2x0.5x1) dl=0.8@10(0<10>10) de=0.0328@0.42(0<0.42>0.42) re=1 rn=2.23(4.03<1.97>1.97)
;00:00:09.012 351.4mm: pe=2.4053 eb=0.0696 ve=0.4158 vn=0.8053 vl=10.000 db=1.03
G1 X-67.5 Y67.81 E11.89298              ; dt=0.030 draw(0.2x0.5x1) dl=0.3@10(10<10>10) de=0.0124@0.42(0.42<0.42>0.42) re=1 rn=1.92(1.92<1.92>1.92)
;00:00:09.041 351.7mm: pe=2.3939 eb=0.0680 ve=0.4157 vn=0.7939 vl=10.000 db=1.02
G1 X-67.39 Y67.56 E11.90433             ; dt=0.027 draw(0.2x0.5x1) dl=0.3@10(10<10>10) de=0.0114@0.42(0.42<0.42>0.42) re=1 rn=1.90(1.90<1.90>1.90)
;00:00:09.069 352.0mm: pe=2.3837 eb=0.0665 ve=0.4157 vn=0.7837 vl=10.000 db=1.01
G1 X-67.34 Y67.32 E11.91452             ; dt=0.025 draw(0.2x0.5x1) dl=0.2@10(10<10>10) de=0.0102@0.42(0.42<0.42>0.42) re=1 rn=1.87(1.87<1.87>1.87)
;00:00:09.093 352.3mm: pe=2.3748 eb=0.0651 ve=0.4157 vn=0.7748 vl=10.000 db=1.00
G1 X-67.47 Y66.91 E11.93241             ; dt=0.043 draw(0.2x0.5x1) dl=0.4@10(10<10>10) de=0.0179@0.42(0.42<0.42>0.42) re=1 rn=1.84(1.84<1.84>1.84)
;00:00:09.136 352.7mm: pe=2.3597 eb=0.0627 ve=0.4157 vn=0.7597 vl=10.000 db=0.98
G1 X-67.57 Y66.78 E11.93923             ; dt=0.016 draw(0.2x0.5x1) dl=0.2@10(10<10>10) de=0.0068@0.42(0.42<0.42>0.42) re=1 rn=1.82(1.82<1.82>1.82)
;00:00:09.153 352.8mm: pe=2.3541 eb=0.0618 ve=0.4158 vn=0.7541 vl=10.000 db=0.97
G1 X-67.88 Y66.59 E11.95434             ; dt=0.036 draw(0.2x0.5x1) dl=0.4@10(10<10>10) de=0.0151@0.42(0.42<0.42>0.42) re=1 rn=1.80(1.80<1.80>1.80)
;00:00:09.189 353.2mm: pe=2.3421 eb=0.0598 ve=0.4157 vn=0.7421 vl=10.000 db=0.96
G1 X-68.27 Y66.48 E11.97119             ; dt=0.041 draw(0.2x0.5x1) dl=0.4@10(10<10>10) de=0.0168@0.42(0.42<0.42>0.42) re=1 rn=1.77(1.77<1.77>1.77)
;00:00:09.229 353.6mm: pe=2.3291 eb=0.0577 ve=0.4158 vn=0.7291 vl=10.000 db=0.94
G1 X-69.5 Y66.48 E12.02233              ; dt=0.123 draw(0.2x0.5x1) dl=1.2@10(10<10>10) de=0.0511@0.42(0.42<0.42>0.42) re=1 rn=1.71(1.71<1.71>1.71)
;00:00:09.352 354.8mm: pe=2.2929 eb=0.0516 ve=0.4157 vn=0.6929 vl=10.000 db=0.89
G1 X-69.5 Y69.88 E12.16368              ; dt=0.350 draw(0.2x0.5x1) dl=3.4@10(10<10>0) de=0.1414@0.42(0.42<0.42>0) re=1 rn=1.62(1.58<1.58>2.99)
;00:00:09.702 358.2mm: pe=2.2054 eb=0.0461 ve=0.0000 vn=0.6054 vl=0.000 db=0.84
G1 E7.16368 F2400                       ; dt=0.212 retract(0.2x0.5x-1) de=-5.0000@-40(0<-35.36>0) re=-306.25 rn=1.16(4.65<0.00>0.00)
;00:00:09.915 358.2mm: pe=-2.8136 eb=0.0651 ve=0.0000 vn=0.0000 vl=0.000 db=1.00
G1 Z.4 F420                             ; dt=0.029 hopup(0.4x0.5x0) dz=0.20@7 re=0 rn=0.00(0.00<0.00>0.00)
;00:00:09.943 358.2mm: pe=-2.8136 eb=0.0651 ve=0.0000 vn=0.0000 vl=0.000 db=0.71
G1 X-66.28 Y66.48 F6000                 ; dt=0.205 move(0.4x0.5x0) dl=4.7@100(0<34>0) re=0 rn=0.00(0.00<0.00>0.00)
;00:00:10.148 362.9mm: pe=-2.8136 eb=0.0000 ve=0.0000 vn=0.0000 vl=0.000 db=0.00
G1 Z.2 F420                             ; dt=0.029 hopdn(0.2x0.5x0) dz=-0.20@7 re=0 rn=0.00(0.00<0.00>0.00)
;00:00:10.177 362.9mm: pe=-2.8136 eb=0.0000 ve=0.0000 vn=0.0000 vl=0.000 db=0.00
G1 E12.16368 F1800                      ; dt=0.227 restore(0.2x0.5x1) de=5.0000@30(0<30>0) re=306.25 rn=2.81(0.00<1.03>11.94)
;00:00:10.404 362.9mm: pe=2.1406 eb=0.0458 ve=0.0000 vn=0.5406 vl=0.000 db=0.84
G1 X-66.28 Y68.89 E12.26388 F600        ; dt=0.261 draw(0.2x0.5x1) dl=2.4@10(0<10>0) de=0.1002@0.42(0<0.42>0) re=1 rn=1.51(2.58<1.40>2.76)
;00:00:10.665 365.3mm: pe=2.0896 eb=0.0413 ve=0.0000 vn=0.4991 vl=0.000 db=0.80
G1 E7.26388 F2400                       ; dt=0.212 retract(0.2x0.5x-1) de=-5.0000@-40(0<-35.36>0) re=-306.25 rn=0.85(3.39<0.00>0.00)
;00:00:10.877 365.3mm: pe=-2.9242 eb=0.0551 ve=0.0000 vn=0.0000 vl=0.000 db=0.92
G1 Z.4 F420                             ; dt=0.029 hopup(0.4x0.5x0) dz=0.20@7 re=0 rn=0.00(0.00<0.00>0.00)
;00:00:10.905 365.3mm: pe=-2.9242 eb=0.0551 ve=0.0000 vn=0.0000 vl=0.000 db=0.65
G1 X-66.28 Y68.2 F6000                  ; dt=0.079 move(0.4x0.5x0) dl=0.7@100(0<13>0) re=0 rn=0.00(0.00<0.00>0.00)
;00:00:10.984 366.0mm: pe=-2.9242 eb=0.0056 ve=0.0000 vn=0.0000 vl=0.000 db=0.21
G1 Z.2 F420                             ; dt=0.029 hopdn(0.2x0.5x0) dz=-0.20@7 re=0 rn=0.00(0.00<0.00>0.00)
;00:00:11.013 366.0mm: pe=-2.9242 eb=0.0056 ve=0.0000 vn=0.0000 vl=0.000 db=0.29
G1 E12.26388 F1800                      ; dt=0.227 restore(0.2x0.5x1) de=5.0000@30(0<30>0) re=306.25 rn=2.23(0.00<0.44>10.83)
;00:00:11.239 366.0mm: pe=2.0393 eb=0.0420 ve=0.0000 vn=0.4393 vl=0.000 db=0.80
G1 X-66.03 Y68.55 E12.28176 F600        ; dt=0.053 draw(0.2x0.5x1) dl=0.4@10(0<10>10) de=0.0179@0.42(0<0.42>0.42) re=1 rn=1.35(2.10<1.12>1.12)
;00:00:11.292 366.5mm: pe=2.0331 eb=0.0377 ve=0.4157 vn=0.5144 vl=10.000 db=0.76
G1 X-65.82 Y68.76 E12.29411             ; dt=0.030 draw(0.2x0.5x1) dl=0.3@10(10<10>10) de=0.0123@0.42(0.42<0.42>0.42) re=1 rn=1.30(1.30<1.30>1.30)
;00:00:11.322 366.8mm: pe=2.0294 eb=0.0353 ve=0.4157 vn=0.5598 vl=10.000 db=0.73
G1 X-65.62 Y68.88 E12.3038              ; dt=0.023 draw(0.2x0.5x1) dl=0.2@10(10<10>10) de=0.0097@0.42(0.42<0.42>0.42) re=1 rn=1.37(1.37<1.37>1.37)
;00:00:11.345 367.0mm: pe=2.0259 eb=0.0344 ve=0.4158 vn=0.5753 vl=10.000 db=0.73
G1 X-65.43 Y68.94 E12.31209             ; dt=0.020 draw(0.2x0.5x1) dl=0.2@10(10<10>10) de=0.0083@0.42(0.42<0.42>0.42) re=1 rn=1.39(1.39<1.39>1.39)
;00:00:11.365 367.2mm: pe=2.0226 eb=0.0339 ve=0.4158 vn=0.5816 vl=10.000 db=0.72
G1 X-65.27 Y68.95 E12.31875             ; dt=0.016 draw(0.2x0.5x1) dl=0.2@10(10<10>10) de=0.0067@0.42(0.42<0.42>0.42) re=1 rn=1.40(1.40<1.40>1.40)
;00:00:11.381 367.3mm: pe=2.0200 eb=0.0337 ve=0.4158 vn=0.5841 vl=10.000 db=0.72
G1 X-65.22 Y68.95 E12.32083             ; dt=0.006 draw(0.2x0.5x1) dl=0.1@10(10<10>7) de=0.0021@0.42(0.42<0.42>0.3) re=1 rn=1.63(1.40<1.40>1.63)
;00:00:11.387 367.4mm: pe=2.0187 eb=0.0341 ve=0.2969 vn=0.5744 vl=7.141 db=0.72
G1 X-65.17 Y68.94 E12.32295             ; dt=0.014 draw(0.2x0.5x1) dl=0.1@10(7<7>0) de=0.0021@0.42(0.3<0.3>0) re=1 rn=3.61(1.93<1.93>3.61)
;00:00:11.401 367.4mm: pe=2.0131 eb=0.0386 ve=0.0000 vn=0.4755 vl=0.000 db=0.77
G1 E7.32295 F2400                       ; dt=0.212 retract(0.2x0.5x-1) de=-5.0000@-40(0<-35.36>0) re=-306.25 rn=0.67(2.68<0.00>0.00)
;00:00:11.614 367.4mm: pe=-2.9978 eb=0.0496 ve=0.0000 vn=0.0000 vl=0.000 db=0.87
G1 Z.4 F420                             ; dt=0.029 hopup(0.4x0.5x0) dz=0.20@7 re=0 rn=0.00(0.00<0.00>0.00)
;00:00:11.642 367.4mm: pe=-2.9978 eb=0.0496 ve=0.0000 vn=0.0000 vl=0.000 db=0.62
G1 X-64.11 Y69.88 F6000                 ; dt=0.113 move(0.4x0.5x0) dl=1.4@100(0<19>0) re=0 rn=0.00(0.00<0.00>0.00)
;00:00:11.755 368.9mm: pe=-2.9978 eb=0.0000 ve=0.0000 vn=0.0000 vl=0.000 db=0.00
G1 Z.2 F420                             ; dt=0.029 hopdn(0.2x0.5x0) dz=-0.20@7 re=0 rn=0.00(0.00<0.00>0.00)
;00:00:11.784 368.9mm: pe=-2.9978 eb=0.0000 ve=0.0000 vn=0.0000 vl=0.000 db=0.00
G1 E12.32295 F1800                      ; dt=0.227 restore(0.2x0.5x1) de=5.0000@30(0<30>0) re=306.25 rn=2.39(0.00<0.76>10.58)
;00:00:12.010 368.9mm: pe=1.9631 eb=0.0390 ve=0.0000 vn=0.4169 vl=0.000 db=0.77
G1 X-64.11 Y66.48 E12.46431 F600        ; dt=0.360 draw(0.2x0.5x1) dl=3.4@10(0<10>0) de=0.1414@0.42(0<0.42>0) re=1 rn=1.37(1.84<1.32>2.52)
;00:00:12.370 372.3mm: pe=1.9111 eb=0.0348 ve=0.0000 vn=0.4501 vl=0.000 db=0.73
G1 E7.46431 F2400                       ; dt=0.212 retract(0.2x0.5x-1) de=-5.0000@-40(0<-35.36>0) re=-306.25 rn=0.51(2.03<0.00>0.00)
;00:00:12.582 372.3mm: pe=-3.0972 eb=0.0431 ve=0.0000 vn=0.0000 vl=0.000 db=0.81
G1 Z.4 F420                             ; dt=0.029 hopup(0.4x0.5x0) dz=0.20@7 re=0 rn=0.00(0.00<0.00>0.00)
;00:00:12.611 372.3mm: pe=-3.0972 eb=0.0431 ve=0.0000 vn=0.0000 vl=0.000 db=0.57
G1 X-64.11 Y68.18 F6000                 ; dt=0.124 move(0.4x0.5x0) dl=1.7@100(0<21>0) re=0 rn=0.00(0.00<0.00>0.00)
;00:00:12.735 374.0mm: pe=-3.0972 eb=0.0000 ve=0.0000 vn=0.0000 vl=0.000 db=0.00
G1 Z.2 F420                             ; dt=0.029 hopdn(0.2x0.5x0) dz=-0.20@7 re=0 rn=0.00(0.00<0.00>0.00)
;00:00:12.763 374.0mm: pe=-3.0972 eb=0.0000 ve=0.0000 vn=0.0000 vl=0.000 db=0.00
G1 E12.46431 F1800                      ; dt=0.227 restore(0.2x0.5x1) de=5.0000@30(0<30>0) re=306.25 rn=2.19(0.00<0.63>9.90)
;00:00:12.990 374.0mm: pe=1.8671 eb=0.0357 ve=0.0000 vn=0.3886 vl=0.000 db=0.74
G1 X-63.1 Y68.18 E12.5063 F600          ; dt=0.111 draw(0.2x0.5x1) dl=1.0@10(0<10>10) de=0.0420@0.42(0<0.42>0.42) re=1 rn=1.22(1.71<1.17>1.17)
;00:00:13.101 375.0mm: pe=1.8578 eb=0.0286 ve=0.4158 vn=0.5339 vl=10.000 db=0.66
G1 X-62.33 Y68.36 E12.53918             ; dt=0.079 draw(0.2x0.5x1) dl=0.8@10(10<10>10) de=0.0329@0.42(0.42<0.42>0.42) re=1 rn=1.29(1.29<1.29>1.29)
;00:00:13.180 375.8mm: pe=1.8481 eb=0.0280 ve=0.4158 vn=0.5395 vl=10.000 db=0.65
G1 X-62.11 Y68.56 E12.55154             ; dt=0.030 draw(0.2x0.5x1) dl=0.3@10(10<10>10) de=0.0124@0.42(0.42<0.42>0.42) re=1 rn=1.30(1.30<1.30>1.30)
;00:00:13.210 376.1mm: pe=1.8445 eb=0.0278 ve=0.4157 vn=0.5389 vl=10.000 db=0.65
G1 X-62 Y68.8 E12.56251                 ; dt=0.026 draw(0.2x0.5x1) dl=0.3@10(10<10>10) de=0.0110@0.42(0.42<0.42>0.42) re=1 rn=1.29(1.29<1.29>1.29)
;00:00:13.236 376.3mm: pe=1.8412 eb=0.0277 ve=0.4157 vn=0.5381 vl=10.000 db=0.65
G1 X-61.95 Y69.04 E12.5727              ; dt=0.025 draw(0.2x0.5x1) dl=0.2@10(10<10>10) de=0.0102@0.42(0.42<0.42>0.42) re=1 rn=1.29(1.29<1.29>1.29)
;00:00:13.261 376.6mm: pe=1.8382 eb=0.0276 ve=0.4157 vn=0.5373 vl=10.000 db=0.65
G1 X-62.08 Y69.45 E12.59059             ; dt=0.043 draw(0.2x0.5x1) dl=0.4@10(10<10>10) de=0.0179@0.42(0.42<0.42>0.42) re=1 rn=1.29(1.29<1.29>1.29)
;00:00:13.304 377.0mm: pe=1.8330 eb=0.0275 ve=0.4157 vn=0.5358 vl=10.000 db=0.65
G1 X-62.18 Y69.58 E12.59741             ; dt=0.016 draw(0.2x0.5x1) dl=0.2@10(10<10>10) de=0.0068@0.42(0.42<0.42>0.42) re=1 rn=1.29(1.29<1.29>1.29)
;00:00:13.320 377.2mm: pe=1.8311 eb=0.0274 ve=0.4158 vn=0.5353 vl=10.000 db=0.65
G1 X-62.49 Y69.78 E12.61274             ; dt=0.037 draw(0.2x0.5x1) dl=0.4@10(10<10>10) de=0.0153@0.42(0.42<0.42>0.42) re=1 rn=1.29(1.29<1.29>1.29)
;00:00:13.357 377.5mm: pe=1.8267 eb=0.0273 ve=0.4158 vn=0.5340 vl=10.000 db=0.65
