; HEADER_BLOCK_START
; generated by OrcaSlicer
; HEADER_BLOCK_END

; EXECUTABLE_BLOCK_START
;start gcode
M118 X75.00 Y75.00 Z150.00 T0
M140 S50 T0
M104 S210 T0
M104 S0 T1
M107
M900 K0.000 T0
G90
G28
M132 X Y Z A B
G1 Z50.000 F420
G161 X Y F3300
M7 T0
M6 T0
M651 S255
M108 T0
M106

G1 Z.2 F420
;LAYER_CHANGE
;Z:0.2
;HEIGHT:0.2
;TYPE:Custom
G1 X-40 Y-74 F6000
G1 E5 F1800
G1 X40 Y-74 E11.65203 F1200
G1 E6.65203 F2400
G1 Z.4 F420
;LAYER_CHANGE
;Z:0.2
;HEIGHT:0.2
;TYPE:Outer wall
G1 X-69.5 Y69.88 F6000
G1 Z.2 F420
G1 E11.65203 F1800
G1 X-68.53 Y69.88 E11.69236 F600
G1 X-68.14 Y69.78 E11.70909
G1 X-67.83 Y69.58 E11.72443
G1 X-67.73 Y69.45 E11.73125
G1 X-67.6 Y69.04 E11.74913
G1 X-67.65 Y68.8 E11.75933
G1 X-67.72 Y68.56 E11.76972
G1 X-67.98 Y68.36 E11.78336
G1 X-68.49 Y68.18 E11.80584
G1 X-69.5 Y68.18 E11.84783
G1 E6.84783 F2400
G1 Z.4 F420
G1 X-68.49 Y68.18 F6000
G1 Z.2 F420
G1 E11.84783 F1800
G1 X-67.72 Y68.01 E11.88062 F600
G1 X-67.5 Y67.81 E11.89298
G1 X-67.39 Y67.56 E11.90433
G1 X-67.34 Y67.32 E11.91452
G1 X-67.47 Y66.91 E11.93241
G1 X-67.57 Y66.78 E11.93923
G1 X-67.88 Y66.59 E11.95434
G1 X-68.27 Y66.48 E11.97119
G1 X-69.5 Y66.48 E12.02233
G1 X-69.5 Y69.88 E12.16368
G1 E7.16368 F2400
G1 Z.4 F420
G1 X-66.28 Y66.48 F6000
G1 Z.2 F420
G1 E12.16368 F1800
G1 X-66.28 Y68.89 E12.26388 F600
G1 E7.26388 F2400
G1 Z.4 F420
G1 X-66.28 Y68.2 F6000
G1 Z.2 F420
G1 E12.26388 F1800
G1 X-66.03 Y68.55 E12.28176 F600
G1 X-65.82 Y68.76 E12.29411
G1 X-65.62 Y68.88 E12.3038
G1 X-65.43 Y68.94 E12.31209
G1 X-65.27 Y68.95 E12.31875
G1 X-65.22 Y68.95 E12.32083
G1 X-65.17 Y68.94 E12.32295
G1 E7.32295 F2400
G1 Z.4 F420
G1 X-64.11 Y69.88 F6000
G1 Z.2 F420
G1 E12.32295 F1800
G1 X-64.11 Y66.48 E12.46431 F600
G1 E7.46431 F2400
G1 Z.4 F420
G1 X-64.11 Y68.18 F6000
G1 Z.2 F420
G1 E12.46431 F1800
G1 X-63.1 Y68.18 E12.5063 F600
G1 X-62.33 Y68.36 E12.53918
G1 X-62.11 Y68.56 E12.55154
G1 X-62 Y68.8 E12.56251
G1 X-61.95 Y69.04 E12.5727
G1 X-62.08 Y69.45 E12.59059
G1 X-62.18 Y69.58 E12.59741
G1 X-62.49 Y69.78 E12.61274
G1 X-62.88 Y69.88 E12.62948
G1 X-64.11 Y69.88 E12.68062
G1 E7.68062 F2400
G1 Z.4 F420
G1 X-60.88 Y66.48 F6000
G1 Z.2 F420
G1 E12.68062 F1800
G1 X-59.36 Y69.88 E12.83546 F600
G1 X-57.83 Y66.48 E12.99047
G1 E7.99047 F2400
G1 Z.4 F420
G1 X-58.36 Y67.68 F6000
G1 Z.2 F420
G1 E12.99047 F1800
G1 X-60.34 Y67.68 E13.07278 F600
G1 E8.07278 F2400
G1 Z.4 F420
G1 X-56.77 Y69.44 F6000
G1 Z.2 F420
G1 E13.07278 F1800
G1 X-56.58 Y69.65 E13.08456 F600
G1 X-56.35 Y69.81 E13.09621
G1 X-56.09 Y69.9 E13.10764
G1 X-55.81 Y69.94 E13.1194
G1 X-55.44 Y69.88 E13.13499
G1 X-55.14 Y69.68 E13.14998
G1 X-54.95 Y69.39 E13.16439
G1 X-54.88 Y69.02 E13.18005
G1 X-54.98 Y68.63 E13.19679
G1 X-55.26 Y68.27 E13.21575
G1 X-56.04 Y67.64 E13.25743
G1 X-56.34 Y67.23 E13.27856
G1 X-56.73 Y66.48 E13.3137
G1 X-54.91 Y66.48 E13.38937
G1 E8.38937 F2400
G1 Z.4 F420
G1 X-50.51 Y69.88 F6000
G1 Z.2 F420
G1 E13.38937 F1800
G1 X-50.51 Y66.48 E13.53072 F600
G1 E8.53072 F2400
G1 Z.4 F420
G1 X-48.05 Y66.48 F6000
G1 Z.2 F420
G1 E13.53072 F1800
G1 X-49.54 Y68.51 E13.63542 F600
G1 E8.63542 F2400
G1 Z.4 F420
G1 X-50.51 Y67.67 F6000
G1 Z.2 F420
G1 E13.63542 F1800
G1 X-47.99 Y69.88 E13.77477 F600
G1 E8.77477 F2400
G1 Z.4 F420
G1 X-45.74 Y69.9 F6000
G1 Z.2 F420
G1 E13.77477 F1800
G1 X-45.89 Y69.9 E13.781 F600
G1 X-46.07 Y69.86 E13.78867
G1 X-46.23 Y69.73 E13.79724
G1 X-46.35 Y69.54 E13.80658
G1 X-46.43 Y69.17 E13.82232
G1 X-46.43 Y66.48 E13.93416
G1 E8.93416 F2400
G1 Z.4 F420
G1 X-46.93 Y68.76 F6000
G1 Z.2 F420
G1 E13.93416 F1800
G1 X-45.85 Y68.76 E13.97906 F600
G1 E8.97906 F2400
G1 Z.4 F420
G1 X-44.67 Y68.26 F6000
G1 Z.2 F420
G1 E13.97906 F1800
G1 X-42.98 Y68.26 E14.04932 F600
G1 E9.04932 F2400
G1 Z.4 F420
G1 X-42.98 Y67.55 F6000
G1 Z.2 F420
G1 E14.04932 F1800
G1 X-44.67 Y67.55 E14.11958 F600
G1 E9.11958 F2400
G1 Z.4 F420
G1 X-41.92 Y69 F6000
G1 Z.2 F420
G1 E14.11958 F1800
G1 X-41.45 Y69.24 E14.14152 F600
G1 X-41.08 Y69.55 E14.16159
G1 X-40.83 Y69.88 E14.1788
G1 X-40.83 Y66.48 E14.32016
G1 E9.32016 F2400
G1 Z.4 F420
G1 X-39.77 Y66.71 F6000
G1 Z.2 F420
G1 E14.32016 F1800
G1 X-39.77 Y66.65 E14.32265 F600
G1 E9.32265 F2400
G1 Z.4 F420
G1 X-37.49 Y69.94 F6000
G1 Z.2 F420
G1 E14.32265 F1800
G1 X-36.98 Y69.8 E14.34464 F600
G1 X-36.59 Y69.42 E14.36728
G1 X-36.35 Y68.86 E14.39261
G1 X-36.27 Y68.18 E14.42108
G1 X-36.35 Y67.51 E14.44913
G1 X-36.59 Y66.95 E14.47446
G1 X-36.98 Y66.56 E14.49739
G1 X-37.49 Y66.42 E14.51938
G1 X-38.01 Y66.56 E14.54177
G1 X-38.39 Y66.95 E14.56441
G1 X-38.63 Y67.51 E14.58974
G1 X-38.71 Y68.18 E14.61779
G1 X-38.63 Y68.85 E14.64584
G1 X-38.39 Y69.42 E14.67155
G1 X-38.01 Y69.8 E14.6939
G1 X-37.49 Y69.94 E14.71629
G1 E9.71629 F2400
G1 Z.4 F420
G1 X-31.89 Y69.88 F6000
G1 Z.2 F420
G1 E14.71629 F1800
G1 X-31.89 Y66.48 E14.85764 F600
G1 E9.85764 F2400
G1 Z.4 F420
G1 X-29.43 Y66.48 F6000
G1 Z.2 F420
G1 E14.85764 F1800
G1 X-30.92 Y68.51 E14.96233 F600
G1 E9.96233 F2400
G1 Z.4 F420
G1 X-31.89 Y67.67 F6000
G1 Z.2 F420
G1 E14.96233 F1800
G1 X-29.37 Y69.88 E15.10168 F600
G1 E10.10168 F2400
G1 Z.4 F420
G1 X-28.31 Y69.88 F6000
G1 Z.2 F420
G1 E15.10168 F1800
G1 X-28.31 Y66.48 E15.24304 F600
G1 E10.24304 F2400
G1 Z.4 F420
G1 X-28.31 Y66.98 F6000
G1 Z.2 F420
G1 E15.24304 F1800
G1 X-28.06 Y66.74 E15.25745 F600
G1 X-27.67 Y66.49 E15.27671
G1 X-27.29 Y66.42 E15.29277
G1 X-26.91 Y66.51 E15.30901
G1 X-26.6 Y66.77 E15.32583
G1 X-26.4 Y67.18 E15.3448
G1 X-26.33 Y67.71 E15.36702
G1 X-26.39 Y68.22 E15.38837
G1 X-26.57 Y68.61 E15.40623
G1 X-26.86 Y68.86 E15.42215
G1 X-27.26 Y68.95 E15.43919
G1 X-27.45 Y68.93 E15.44714
G1 X-27.65 Y68.85 E15.45609
G1 X-27.86 Y68.72 E15.46636
G1 X-28.06 Y68.5 E15.47872
G1 X-28.31 Y68.03 E15.50085
G1 E10.50085 F2400
G1 Z.4 F420
G1 X-25.27 Y68.26 F6000
G1 Z.2 F420
G1 E15.50085 F1800
G1 X-23.58 Y68.26 E15.57112 F600
G1 E10.57112 F2400
G1 Z.4 F420
G1 X-23.58 Y67.55 F6000
G1 Z.2 F420
G1 E15.57112 F1800
G1 X-25.27 Y67.55 E15.64138 F600
G1 E10.64138 F2400
G1 Z.4 F420
G1 X-22.52 Y69.44 F6000
G1 Z.2 F420
G1 E15.64138 F1800
G1 X-22.33 Y69.65 E15.65315 F600
G1 X-22.1 Y69.81 E15.6648
G1 X-21.84 Y69.9 E15.67624
G1 X-21.56 Y69.94 E15.688
G1 X-21.19 Y69.88 E15.70358
G1 X-20.89 Y69.68 E15.71857
G1 X-20.7 Y69.39 E15.73299
G1 X-20.63 Y69.02 E15.74864
G1 X-20.73 Y68.63 E15.76538
G1 X-21.01 Y68.27 E15.78434
G1 X-21.79 Y67.64 E15.82603
G1 X-22.09 Y67.23 E15.84715
G1 X-22.48 Y66.48 E15.88229
G1 X-20.66 Y66.48 E15.95796
G1 E10.95796 F2400
G1 Z.4 F420
G1 X-19.57 Y66.71 F6000
G1 Z.2 F420
G1 E15.95796 F1800
G1 X-19.57 Y66.65 E15.96046 F600
G1 E10.96046 F2400
G1 Z.4 F420
G1 X-17.28 Y69.94 F6000
G1 Z.2 F420
G1 E15.96046 F1800
G1 X-16.77 Y69.8 E15.98245 F600
G1 X-16.38 Y69.42 E16.00508
G1 X-16.14 Y68.86 E16.03041
G1 X-16.06 Y68.18 E16.05888
G1 X-16.14 Y67.51 E16.08693
G1 X-16.38 Y66.95 E16.11226
G1 X-16.77 Y66.56 E16.13519
G1 X-17.28 Y66.42 E16.15718
G1 X-17.8 Y66.56 E16.17957
G1 X-18.18 Y66.95 E16.20221
G1 X-18.42 Y67.51 E16.22754
G1 X-18.5 Y68.18 E16.25559
G1 X-18.42 Y68.85 E16.28364
G1 X-18.18 Y69.42 E16.30936
G1 X-17.8 Y69.8 E16.3317
G1 X-17.28 Y69.94 E16.35409
G1 E11.35409 F2400
G1 Z.4 F420
G1 X-11.69 Y66.48 F6000
G1 Z.2 F420
G1 E16.35409 F1800
G1 X-11.69 Y69.88 E16.49544 F600
G1 X-10.46 Y69.88 E16.54658
G1 X-10.07 Y69.78 E16.56332
G1 X-9.76 Y69.58 E16.57866
G1 X-9.66 Y69.45 E16.58548
G1 X-9.53 Y69.04 E16.60336
G1 X-9.58 Y68.8 E16.61355
G1 X-9.69 Y68.56 E16.62453
G1 X-9.91 Y68.36 E16.63689
G1 X-10.68 Y68.18 E16.66977
G1 E11.66977 F2400
G1 Z.4 F420
G1 X-11.69 Y68.18 F6000
G1 Z.2 F420
G1 E16.66976 F1800
G1 X-10.68 Y68.18 E16.71176 F600
G1 X-10.17 Y68 E16.73424
G1 X-9.78 Y67.38 E16.76469
G1 X-9.53 Y66.48 E16.80353
G1 E11.80353 F2400
G1 Z.4 F420
G1 X-8.47 Y67.69 F6000
G1 Z.2 F420
G1 E16.80353 F1800
G1 X-6.33 Y67.69 E16.8925 F600
G1 X-6.41 Y68.22 E16.91478
G1 X-6.62 Y68.61 E16.9332
G1 X-6.96 Y68.86 E16.95074
G1 X-7.4 Y68.95 E16.96942
G1 X-7.83 Y68.86 E16.98768
G1 X-8.17 Y68.61 E17.00523
G1 X-8.39 Y68.22 E17.02384
G1 X-8.47 Y67.69 E17.04613
G1 X-8.39 Y67.15 E17.06882
G1 X-8.16 Y66.75 E17.08801
G1 X-7.81 Y66.51 E17.10565
G1 X-7.35 Y66.42 E17.12514
G1 X-7.01 Y66.47 E17.13942
G1 X-6.72 Y66.61 E17.15281
G1 X-6.51 Y66.83 E17.16546
G1 X-6.39 Y67.13 E17.17889
G1 E12.17889 F2400
G1 Z.4 F420
G1 X-5.27 Y68.26 F6000
G1 Z.2 F420
G1 E17.17889 F1800
G1 X-3.58 Y68.26 E17.24915 F600
G1 E12.24915 F2400
G1 Z.4 F420
G1 X-3.58 Y67.55 F6000
G1 Z.2 F420
G1 E17.24915 F1800
G1 X-5.27 Y67.55 E17.31941 F600
G1 E12.31941 F2400
G1 Z.4 F420
G1 X-.53 Y69.88 F6000
G1 Z.2 F420
G1 E17.31941 F1800
G1 X-2.28 Y69.88 E17.39217 F600
G1 X-2.42 Y68.14 E17.46475
G1 X-2.14 Y68.45 E17.48211
G1 X-1.97 Y68.57 E17.49076
G1 X-1.78 Y68.64 E17.49918
G1 X-1.58 Y68.67 E17.50759
G1 X-1.39 Y68.68 E17.5155
G1 X-.97 Y68.59 E17.53336
G1 X-.66 Y68.37 E17.54916
G1 X-.45 Y68.03 E17.56578
G1 X-.36 Y67.61 E17.58364
G1 X-.44 Y67.14 E17.60346
G1 X-.64 Y66.77 E17.62094
G1 X-1 Y66.51 E17.6394
G1 X-1.5 Y66.42 E17.66053
G1 X-1.86 Y66.48 E17.6757
G1 X-2.17 Y66.64 E17.6902
G1 X-2.39 Y66.91 E17.70468
G1 X-2.52 Y67.27 E17.7206
G1 E12.7206 F2400
G1 Z.4 F420
G1 X.7 Y66.71 F6000
G1 Z.2 F420
G1 E17.7206 F1800
G1 X.7 Y66.65 E17.72309 F600
G1 E12.72309 F2400
G1 Z.4 F420
G1 X2.98 Y69.94 F6000
G1 Z.2 F420
G1 E17.72309 F1800
G1 X3.49 Y69.8 E17.74508 F600
G1 X3.88 Y69.42 E17.76772
G1 X4.12 Y68.86 E17.79305
G1 X4.2 Y68.18 E17.82151
G1 X4.12 Y67.51 E17.84957
G1 X3.88 Y66.95 E17.8749
G1 X3.49 Y66.56 E17.89783
G1 X2.98 Y66.42 E17.91982
G1 X2.46 Y66.56 E17.94221
G1 X2.08 Y66.95 E17.96484
G1 X1.84 Y67.51 E17.99017
G1 X1.76 Y68.18 E18.01823
G1 X1.84 Y68.85 E18.04628
G1 X2.08 Y69.42 E18.07199
G1 X2.46 Y69.8 E18.09434
G1 X2.98 Y69.94 E18.11672
G1 E13.11672 F2400
G1 Z.4 F420
;TYPE:Brim
G1 X-70.5 Y65 F6000
G1 Z.2 F420
G1 E18.11672 F1800
G1 X-70.5 Y-67 E23.60465 F600
G1 X-71 Y-67 E23.62543
G1 X-71 Y65 E29.11336
G1 E24.11336 F2400
G1 Z.4 F420
G1 X70.5 Y65 F6000
G1 Z.2 F420
G1 E29.11336 F1800
G1 X70.5 Y-67 E34.60128 F600
G1 X70 Y-67 E34.62207
G1 X70 Y65 E40.10999
G1 E35.10999 F2400
G1 Z.4 F420
;TYPE:Outer wall
G1 X-69.5 Y63.89 F6000
G1 Z.2 F420
G1 E40.10999 F1800
G1 X-68.48 Y61.48 E40.21879 F600
G1 X-67.46 Y63.89 E40.32759
G1 E35.32759 F2400
G1 Z.4 F420
G1 X-66.4 Y62.69 F6000
G1 Z.2 F420
G1 E40.32759 F1800
G1 X-64.26 Y62.69 E40.41656 F600
G1 X-64.34 Y63.22 E40.43885
G1 X-64.55 Y63.61 E40.45726
G1 X-64.89 Y63.86 E40.47481
G1 X-65.33 Y63.95 E40.49348
G1 X-65.76 Y63.86 E40.51174
G1 X-66.1 Y63.61 E40.52929
G1 X-66.32 Y63.22 E40.54791
G1 X-66.4 Y62.69 E40.57019
G1 X-66.32 Y62.15 E40.59289
G1 X-66.09 Y61.75 E40.61207
G1 X-65.74 Y61.51 E40.62971
G1 X-65.28 Y61.42 E40.6492
G1 X-64.94 Y61.47 E40.66349
G1 X-64.65 Y61.61 E40.67688
G1 X-64.44 Y61.83 E40.68952
G1 X-64.32 Y62.13 E40.70295
G1 E35.70295 F2400
G1 Z.4 F420
G1 X-63.2 Y63.26 F6000
G1 Z.2 F420
G1 E40.70295 F1800
G1 X-61.51 Y63.26 E40.77322 F600
G1 E35.77322 F2400
G1 Z.4 F420
G1 X-61.51 Y62.55 F6000
G1 Z.2 F420
G1 E40.77322 F1800
G1 X-63.2 Y62.55 E40.84348 F600
G1 E35.84348 F2400
G1 Z.4 F420
G1 X-59.23 Y64.94 F6000
G1 Z.2 F420
G1 E40.84348 F1800
G1 X-58.72 Y64.8 E40.86547 F600
G1 X-58.33 Y64.42 E40.8881
G1 X-58.09 Y63.86 E40.91343
G1 X-58.01 Y63.18 E40.9419
G1 X-58.09 Y62.51 E40.96995
G1 X-58.33 Y61.95 E40.99528
G1 X-58.72 Y61.56 E41.01821
G1 X-59.23 Y61.42 E41.0402
G1 X-59.75 Y61.56 E41.06259
G1 X-60.13 Y61.95 E41.08523
G1 X-60.37 Y62.51 E41.11056
G1 X-60.45 Y63.18 E41.13861
G1 X-60.37 Y63.85 E41.16667
G1 X-60.13 Y64.42 E41.19238
G1 X-59.75 Y64.8 E41.21472
G1 X-59.23 Y64.94 E41.23711
G1 E36.23711 F2400
G1 Z.4 F420
G1 X-56.94 Y61.71 F6000
G1 Z.2 F420
G1 E41.23711 F1800
G1 X-56.94 Y61.65 E41.23961 F600
G1 E36.2396 F2400
G1 Z.4 F420
G1 X-55.88 Y64 F6000
G1 Z.2 F420
G1 E41.2396 F1800
G1 X-55.41 Y64.24 E41.26155 F600
G1 X-55.04 Y64.55 E41.28161
G1 X-54.79 Y64.88 E41.29883
G1 X-54.79 Y61.48 E41.44018
G1 E36.44018 F2400
G1 Z.4 F420
G1 X-53.73 Y62.9 F6000
G1 Z.2 F420
G1 E41.44018 F1800
G1 X-51.86 Y62.9 E41.51793 F600
G1 E36.51793 F2400
G1 Z.4 F420
G1 X-50.8 Y64.44 F6000
G1 Z.2 F420
G1 E41.51793 F1800
G1 X-50.61 Y64.65 E41.5297 F600
G1 X-50.38 Y64.81 E41.54135
G1 X-50.12 Y64.9 E41.55279
G1 X-49.84 Y64.94 E41.56455
G1 X-49.47 Y64.88 E41.58013
G1 X-49.17 Y64.68 E41.59512
G1 X-48.98 Y64.39 E41.60954
G1 X-48.91 Y64.02 E41.62519
G1 X-49.01 Y63.63 E41.64193
G1 X-49.29 Y63.27 E41.66089
G1 X-50.07 Y62.64 E41.70258
G1 X-50.37 Y62.23 E41.7237
G1 X-50.76 Y61.48 E41.75884
G1 X-48.94 Y61.48 E41.83451
G1 E36.83451 F2400
G1 Z.4 F420
G1 X-47.85 Y61.71 F6000
G1 Z.2 F420
G1 E41.83451 F1800
G1 X-47.85 Y61.65 E41.83701 F600
G1 E36.83701 F2400
G1 Z.4 F420
G1 X-44.75 Y64.17 F6000
G1 Z.2 F420
G1 E41.83701 F1800
G1 X-45.06 Y64.74 E41.86398 F600
G1 X-45.65 Y64.94 E41.88988
G1 X-46.16 Y64.82 E41.91166
G1 X-46.51 Y64.47 E41.93224
G1 X-46.72 Y63.87 E41.95867
G1 X-46.79 Y63.05 E41.99289
G1 X-46.72 Y62.36 E42.02172
G1 X-46.5 Y61.84 E42.0452
G1 X-46.16 Y61.53 E42.06432
G1 X-45.69 Y61.42 E42.08439
G1 X-45.24 Y61.51 E42.10347
G1 X-44.92 Y61.76 E42.12035
G1 X-44.74 Y62.13 E42.13746
G1 X-44.67 Y62.56 E42.15557
G1 X-44.74 Y62.96 E42.17246
G1 X-44.93 Y63.31 E42.18901
G1 X-45.24 Y63.54 E42.20506
G1 X-45.64 Y63.62 E42.22202
G1 X-46.1 Y63.53 E42.24151
G1 X-46.52 Y63.28 E42.26183
G1 X-46.79 Y63.05 E42.27658
G1 E37.27658 F2400
G1 Z.4 F420
G1 X-40.3 Y63.89 F6000
G1 Z.2 F420
G1 E42.27658 F1800
G1 X-39.28 Y61.48 E42.38538 F600
G1 X-38.26 Y63.89 E42.49418
G1 E37.49418 F2400
G1 Z.4 F420
G1 X-37.19 Y64.88 F6000
G1 Z.2 F420
G1 E42.49418 F1800
G1 X-37.19 Y61.48 E42.63553 F600
G1 E37.63553 F2400
G1 Z.4 F420
G1 X-36.13 Y63.26 F6000
G1 Z.2 F420
G1 E42.63553 F1800
G1 X-34.44 Y63.26 E42.7058 F600
G1 E37.7058 F2400
G1 Z.4 F420
G1 X-34.44 Y62.55 F6000
G1 Z.2 F420
G1 E42.7058 F1800
G1 X-36.13 Y62.55 E42.77606 F600
G1 E37.77606 F2400
G1 Z.4 F420
G1 X-33.38 Y64 F6000
G1 Z.2 F420
G1 E42.77606 F1800
G1 X-32.91 Y64.24 E42.798 F600
G1 X-32.54 Y64.55 E42.81807
G1 X-32.29 Y64.88 E42.83528
G1 X-32.29 Y61.48 E42.97664
G1 E37.97664 F2400
G1 Z.4 F420
G1 X-30.01 Y64.94 F6000
G1 Z.2 F420
G1 E42.97664 F1800
G1 X-29.5 Y64.8 E42.99862 F600
G1 X-29.11 Y64.42 E43.02126
G1 X-28.87 Y63.86 E43.04659
G1 X-28.79 Y63.18 E43.07506
G1 X-28.87 Y62.51 E43.10311
G1 X-29.11 Y61.95 E43.12844
G1 X-29.5 Y61.56 E43.15137
G1 X-30.01 Y61.42 E43.17336
G1 X-30.53 Y61.56 E43.19575
G1 X-30.91 Y61.95 E43.21839
G1 X-31.15 Y62.51 E43.24372
G1 X-31.23 Y63.18 E43.27177
G1 X-31.15 Y63.85 E43.29982
G1 X-30.91 Y64.42 E43.32554
G1 X-30.53 Y64.8 E43.34788
G1 X-30.01 Y64.94 E43.37027
G1 E38.37027 F2400
G1 Z.4 F420
;TYPE:Outer wall
G1 X-70 Y60 F6000
G1 Z.2 F420
G1 E43.37027 F1800
G1 X70 Y60 E49.19079 F600
G1 E44.19079 F2400
G1 Z.4 F420
G1 X-72 Y60 F6000
G1 X-70 Y60
G1 Z.2 F420
G1 E49.19079 F1800
G1 X-70 Y57 E49.31552 F600
G1 E44.31552 F2400
G1 Z.3 F420
G1 X-62 Y60 F6000
G1 X-60 Y60
G1 Z.2 F420
G1 E49.31552 F1800
G1 X-60 Y57 E49.44024 F600
G1 E44.44024 F2400
G1 Z.3 F420
G1 X-2 Y60 F6000
G1 X0 Y60
G1 Z.2 F420
G1 E49.44024 F1800
G1 X0 Y57 E49.56497 F600
G1 E44.56497 F2400
G1 Z.3 F420
G1 X2 Y60 F6000
G1 Z.2 F420
G1 E49.56497 F1800
G1 X2 Y58.5 E49.62733 F600
G1 E44.62733 F2400
G1 Z.3 F420
G1 X4 Y60 F6000
G1 Z.2 F420
G1 E49.62733 F1800
G1 X4 Y58.5 E49.6897 F600
G1 E44.6897 F2400
G1 Z.3 F420
G1 X6 Y60 F6000
G1 Z.2 F420
G1 E49.6897 F1800
G1 X6 Y58.5 E49.75206 F600
G1 E44.75206 F2400
G1 Z.3 F420
G1 X8 Y60 F6000
G1 Z.2 F420
G1 E49.75206 F1800
G1 X8 Y58.5 E49.81442 F600
G1 E44.81442 F2400
G1 Z.3 F420
G1 X10 Y60 F6000
G1 Z.2 F420
G1 E49.81442 F1800
G1 X10 Y57 E49.93915 F600
G1 E44.93915 F2400
G1 Z.3 F420
G1 X12 Y60 F6000
G1 Z.2 F420
G1 E49.93915 F1800
G1 X12 Y58.5 E50.00151 F600
G1 E45.00151 F2400
G1 Z.3 F420
G1 X14 Y60 F6000
G1 Z.2 F420
G1 E50.00151 F1800
G1 X14 Y58.5 E50.06387 F600
G1 E45.06387 F2400
G1 Z.3 F420
G1 X16 Y60 F6000
G1 Z.2 F420
G1 E50.06387 F1800
G1 X16 Y58.5 E50.12624 F600
G1 E45.12624 F2400
G1 Z.3 F420
G1 X18 Y60 F6000
G1 Z.2 F420
G1 E50.12624 F1800
G1 X18 Y58.5 E50.1886 F600
G1 E45.1886 F2400
G1 Z.3 F420
G1 X20 Y60 F6000
G1 Z.2 F420
G1 E50.1886 F1800
G1 X20 Y57 E50.31333 F600
G1 E45.31332 F2400
G1 Z.3 F420
G1 X22 Y60 F6000
G1 Z.2 F420
G1 E50.31332 F1800
G1 X22 Y58.5 E50.37569 F600
G1 E45.37569 F2400
G1 Z.3 F420
G1 X24 Y60 F6000
G1 Z.2 F420
