;gcode_flavor: flashforge
;machine_type: Adventurer 3 Series
;filament_diameter0: 1.75
;right_extruder_temperature: 210
;platform_temperature: 50
;extruder_fan: 100%
;case_fan: 100%
;base_print_speed: 60
;travel_speed: 100
;vertical_speed: 7
;retract_speed: 40
;restore_speed: 30
;layer_height: 0.30
;line_width: 0.50
;extrusion_ratio: 1.00
;command_line: ./gcodetest.py -Te 210 -Tp 50 -Fe 1.0 -Fc 1.0 -Kf=0.0 -Kb=0.0 -Re=5.0 -n 1
;start gcode
M118 X75.00 Y75.00 Z150.00 T0
M140 S50 T0
M104 S210 T0
M104 S0 T1
M107
M900 K0.000 T0
G90
G28
M132 X Y Z A B
G1 Z50.000 F420
G161 X Y F3300
M7 T0
M6 T0
M652 S255
M108 T0
M106
;preExtrude:0.20
;structure:pre-extrude
G1 X-57.00 Y-65.00 F6000
G1 Z0.200 F420
G1 X-57.00 Y55.00 E19.9561 F1200
G1 E14.9561 F2400
G1 Z0.400 F420
;layer:0.30
;structure:shell-outer
G1 X-45.00 Y26.00 F6000
G1 Z0.300 F420
G1 E19.9561 F1800
G1 X45.00 Y26.00 E25.5687 F600
G1 E20.5687 F2400
G1 Z0.500 F420
G1 X-42.00 Y26.00 F6000
G1 X-40.00 Y26.00
G1 Z0.300 F420
G1 E25.5687 F1800
G1 X-40.00 Y23.00 E25.7558 F600
G1 E20.7558 F2400
G1 Z0.500 F420
G1 X-38.00 Y26.00 F6000
G1 Z0.300 F420
G1 E25.7558 F1800
G1 X-38.00 Y24.50 E25.8494 F600
G1 E20.8494 F2400
G1 Z0.500 F420
G1 X-36.00 Y26.00 F6000
G1 Z0.300 F420
G1 E25.8494 F1800
G1 X-36.00 Y24.50 E25.9429 F600
G1 E20.9429 F2400
G1 Z0.500 F420
G1 X-34.00 Y26.00 F6000
G1 Z0.300 F420
G1 E25.9429 F1800
G1 X-34.00 Y24.50 E26.0364 F600
G1 E21.0364 F2400
G1 Z0.500 F420
G1 X-32.00 Y26.00 F6000
G1 Z0.300 F420
G1 E26.0364 F1800
G1 X-32.00 Y24.50 E26.1300 F600
G1 E21.1300 F2400
G1 Z0.500 F420
G1 X-30.00 Y26.00 F6000
G1 Z0.300 F420
G1 E26.1300 F1800
G1 X-30.00 Y23.00 E26.3171 F600
G1 E21.3171 F2400
G1 Z0.500 F420
G1 X-28.00 Y26.00 F6000
G1 Z0.300 F420
G1 E26.3171 F1800
G1 X-28.00 Y24.50 E26.4106 F600
G1 E21.4106 F2400
G1 Z0.500 F420
G1 X-26.00 Y26.00 F6000
G1 Z0.300 F420
G1 E26.4106 F1800
G1 X-26.00 Y24.50 E26.5042 F600
G1 E21.5042 F2400
G1 Z0.500 F420
G1 X-24.00 Y26.00 F6000
G1 Z0.300 F420
G1 E26.5042 F1800
G1 X-24.00 Y24.50 E26.5977 F600
G1 E21.5977 F2400
G1 Z0.500 F420
G1 X-22.00 Y26.00 F6000
G1 Z0.300 F420
G1 E26.5977 F1800
G1 X-22.00 Y24.50 E26.6913 F600
G1 E21.6913 F2400
G1 Z0.500 F420
G1 X-20.00 Y26.00 F6000
G1 Z0.300 F420
G1 E26.6913 F1800
G1 X-20.00 Y23.00 E26.8783 F600
G1 E21.8783 F2400
G1 Z0.500 F420
G1 X-18.00 Y26.00 F6000
G1 Z0.300 F420
G1 E26.8783 F1800
G1 X-18.00 Y24.50 E26.9719 F600
G1 E21.9719 F2400
G1 Z0.500 F420
G1 X-16.00 Y26.00 F6000
G1 Z0.300 F420
G1 E26.9719 F1800
G1 X-16.00 Y24.50 E27.0654 F600
G1 E22.0654 F2400
G1 Z0.500 F420
G1 X-14.00 Y26.00 F6000
G1 Z0.300 F420
G1 E27.0654 F1800
G1 X-14.00 Y24.50 E27.1590 F600
G1 E22.1590 F2400
G1 Z0.500 F420
G1 X-12.00 Y26.00 F6000
G1 Z0.300 F420
G1 E27.1590 F1800
G1 X-12.00 Y24.50 E27.2525 F600
G1 E22.2525 F2400
G1 Z0.500 F420
G1 X-10.00 Y26.00 F6000
G1 Z0.300 F420
G1 E27.2525 F1800
G1 X-10.00 Y23.00 E27.4396 F600
G1 E22.4396 F2400
G1 Z0.500 F420
G1 X-8.00 Y26.00 F6000
G1 Z0.300 F420
G1 E27.4396 F1800
G1 X-8.00 Y24.50 E27.5332 F600
G1 E22.5332 F2400
G1 Z0.500 F420
G1 X-6.00 Y26.00 F6000
G1 Z0.300 F420
G1 E27.5332 F1800
G1 X-6.00 Y24.50 E27.6267 F600
G1 E22.6267 F2400
G1 Z0.500 F420
G1 X-4.00 Y26.00 F6000
G1 Z0.300 F420
G1 E27.6267 F1800
G1 X-4.00 Y24.50 E27.7202 F600
G1 E22.7202 F2400
G1 Z0.500 F420
G1 X-2.00 Y26.00 F6000
G1 Z0.300 F420
G1 E27.7202 F1800
G1 X-2.00 Y24.50 E27.8138 F600
G1 E22.8138 F2400
G1 Z0.500 F420
G1 X0.00 Y26.00 F6000
G1 Z0.300 F420
G1 E27.8138 F1800
G1 X0.00 Y23.00 E28.0009 F600
G1 E23.0009 F2400
G1 Z0.500 F420
G1 X2.00 Y26.00 F6000
G1 Z0.300 F420
G1 E28.0009 F1800
G1 X2.00 Y24.50 E28.0944 F600
G1 E23.0944 F2400
G1 Z0.500 F420
G1 X4.00 Y26.00 F6000
G1 Z0.300 F420
G1 E28.0944 F1800
G1 X4.00 Y24.50 E28.1880 F600
G1 E23.1880 F2400
G1 Z0.500 F420
G1 X6.00 Y26.00 F6000
G1 Z0.300 F420
G1 E28.1880 F1800
G1 X6.00 Y24.50 E28.2815 F600
G1 E23.2815 F2400
G1 Z0.500 F420
G1 X8.00 Y26.00 F6000
G1 Z0.300 F420
G1 E28.2815 F1800
G1 X8.00 Y24.50 E28.3750 F600
G1 E23.3750 F2400
G1 Z0.500 F420
G1 X10.00 Y26.00 F6000
G1 Z0.300 F420
G1 E28.3750 F1800
G1 X10.00 Y23.00 E28.5621 F600
G1 E23.5621 F2400
G1 Z0.500 F420
G1 X12.00 Y26.00 F6000
G1 Z0.300 F420
G1 E28.5621 F1800
G1 X12.00 Y24.50 E28.6557 F600
G1 E23.6557 F2400
G1 Z0.500 F420
G1 X14.00 Y26.00 F6000
G1 Z0.300 F420
G1 E28.6557 F1800
G1 X14.00 Y24.50 E28.7492 F600
G1 E23.7492 F2400
G1 Z0.500 F420
G1 X16.00 Y26.00 F6000
G1 Z0.300 F420
G1 E28.7492 F1800
G1 X16.00 Y24.50 E28.8428 F600
G1 E23.8428 F2400
G1 Z0.500 F420
G1 X18.00 Y26.00 F6000
G1 Z0.300 F420
G1 E28.8428 F1800
G1 X18.00 Y24.50 E28.9363 F600
G1 E23.9363 F2400
G1 Z0.500 F420
G1 X20.00 Y26.00 F6000
G1 Z0.300 F420
G1 E28.9363 F1800
G1 X20.00 Y23.00 E29.1234 F600
G1 E24.1234 F2400
G1 Z0.500 F420
G1 X22.00 Y26.00 F6000
G1 Z0.300 F420
G1 E29.1234 F1800
G1 X22.00 Y24.50 E29.2169 F600
G1 E24.2169 F2400
G1 Z0.500 F420
G1 X24.00 Y26.00 F6000
G1 Z0.300 F420
G1 E29.2169 F1800
G1 X24.00 Y24.50 E29.3105 F600
G1 E24.3105 F2400
G1 Z0.500 F420
G1 X26.00 Y26.00 F6000
G1 Z0.300 F420
G1 E29.3105 F1800
G1 X26.00 Y24.50 E29.4040 F600
G1 E24.4040 F2400
G1 Z0.500 F420
G1 X28.00 Y26.00 F6000
G1 Z0.300 F420
G1 E29.4040 F1800
G1 X28.00 Y24.50 E29.4976 F600
G1 E24.4976 F2400
G1 Z0.500 F420
G1 X30.00 Y26.00 F6000
G1 Z0.300 F420
G1 E29.4976 F1800
G1 X30.00 Y23.00 E29.6847 F600
G1 E24.6847 F2400
G1 Z0.500 F420
G1 X32.00 Y26.00 F6000
G1 Z0.300 F420
G1 E29.6847 F1800
G1 X32.00 Y24.50 E29.7782 F600
G1 E24.7782 F2400
G1 Z0.500 F420
G1 X34.00 Y26.00 F6000
G1 Z0.300 F420
G1 E29.7782 F1800
G1 X34.00 Y24.50 E29.8718 F600
G1 E24.8718 F2400
G1 Z0.500 F420
G1 X36.00 Y26.00 F6000
G1 Z0.300 F420
G1 E29.8718 F1800
G1 X36.00 Y24.50 E29.9653 F600
G1 E24.9653 F2400
G1 Z0.500 F420
G1 X38.00 Y26.00 F6000
G1 Z0.300 F420
G1 E29.9653 F1800
G1 X38.00 Y24.50 E30.0588 F600
G1 E25.0588 F2400
G1 Z0.500 F420
G1 X40.00 Y26.00 F6000
G1 Z0.300 F420
G1 E30.0588 F1800
G1 X40.00 Y23.00 E30.2459 F600
G1 E25.2459 F2400
G1 Z0.500 F420
;structure:brim
;structure:shell-outer
G1 X47.69 Y25.90 F6000
G1 Z0.300 F420
G1 E30.2459 F1800
G1 X47.54 Y25.90 E30.2553 F600
G1 X47.36 Y25.86 E30.2668
G1 X47.20 Y25.73 E30.2796
G1 X47.08 Y25.54 E30.2937
G1 X47.00 Y25.17 E30.3173
G1 X47.00 Y22.48 E30.4850
G1 E25.4850 F2400
G1 Z0.500 F420
G1 X46.50 Y24.76 F6000
G1 Z0.300 F420
G1 E30.4850 F1800
G1 X47.58 Y24.76 E30.5524 F600
G1 E25.5524 F2400
G1 Z0.500 F420
G1 X48.75 Y25.88 F6000
G1 Z0.300 F420
G1 E30.5524 F1800
G1 X48.75 Y22.48 E30.7644 F600
G1 E25.7644 F2400
G1 Z0.500 F420
G1 X51.21 Y22.48 F6000
G1 Z0.300 F420
G1 E30.7644 F1800
G1 X49.72 Y24.51 E30.9214 F600
G1 E25.9214 F2400
G1 Z0.500 F420
G1 X48.75 Y23.67 F6000
G1 Z0.300 F420
G1 E30.9214 F1800
G1 X51.28 Y25.88 E31.1309 F600
G1 E26.1309 F2400
G1 Z0.500 F420
G1 X53.53 Y25.90 F6000
G1 Z0.300 F420
G1 E31.1309 F1800
G1 X53.38 Y25.90 E31.1403 F600
G1 X53.20 Y25.86 E31.1518
G1 X53.04 Y25.73 E31.1646
G1 X52.92 Y25.54 E31.1786
G1 X52.84 Y25.17 E31.2023
G1 X52.84 Y22.48 E31.3700
G1 E26.3700 F2400
G1 Z0.500 F420
G1 X52.34 Y24.76 F6000
G1 Z0.300 F420
G1 E31.3700 F1800
G1 X53.42 Y24.76 E31.4374 F600
G1 E26.4374 F2400
G1 Z0.500 F420
G1 X54.59 Y24.26 F6000
G1 Z0.300 F420
G1 E31.4374 F1800
G1 X56.28 Y24.26 E31.5427 F600
G1 E26.5428 F2400
G1 Z0.500 F420
G1 X56.28 Y23.55 F6000
G1 Z0.300 F420
G1 E31.5428 F1800
G1 X54.59 Y23.55 E31.6481 F600
G1 E26.6481 F2400
G1 Z0.500 F420
G1 X58.56 Y25.94 F6000
G1 Z0.300 F420
G1 E31.6481 F1800
G1 X59.07 Y25.80 E31.6811 F600
G1 X59.46 Y25.42 E31.7151
G1 X59.70 Y24.86 E31.7531
G1 X59.78 Y24.18 E31.7958
G1 X59.70 Y23.51 E31.8379
G1 X59.46 Y22.95 E31.8758
G1 X59.07 Y22.56 E31.9102
G1 X58.56 Y22.42 E31.9432
G1 X58.04 Y22.56 E31.9768
G1 X57.66 Y22.95 E32.0108
G1 X57.42 Y23.51 E32.0488
G1 X57.34 Y24.18 E32.0908
G1 X57.42 Y24.85 E32.1329
G1 X57.66 Y25.42 E32.1715
G1 X58.04 Y25.80 E32.2050
G1 X58.56 Y25.94 E32.2386
G1 E27.2386 F2400
G1 Z0.500 F420
G1 X46.50 Y19.89 F6000
G1 Z0.300 F420
G1 E32.2386 F1800
G1 X47.52 Y17.48 E32.4018 F600
G1 X48.54 Y19.89 E32.5650
G1 E27.5650 F2400
G1 Z0.500 F420
G1 X49.60 Y19.89 F6000
G1 Z0.300 F420
G1 E32.5650 F1800
G1 X51.60 Y17.48 E32.7603 F600
G1 E27.7603 F2400
G1 Z0.500 F420
G1 X49.60 Y17.48 F6000
G1 Z0.300 F420
G1 E32.7603 F1800
G1 X51.60 Y19.89 E32.9556 F600
G1 E27.9556 F2400
G1 Z0.500 F420
G1 X53.88 Y20.94 F6000
G1 Z0.300 F420
G1 E32.9556 F1800
G1 X54.39 Y20.80 E32.9886 F600
G1 X54.78 Y20.42 E33.0226
G1 X55.02 Y19.86 E33.0606
G1 X55.10 Y19.18 E33.1033
G1 X55.02 Y18.51 E33.1453
G1 X54.78 Y17.95 E33.1833
G1 X54.39 Y17.56 E33.2177
G1 X53.88 Y17.42 E33.2507
G1 X53.36 Y17.56 E33.2843
G1 X52.98 Y17.95 E33.3183
G1 X52.74 Y18.51 E33.3563
G1 X52.66 Y19.18 E33.3983
G1 X52.74 Y19.85 E33.4404
G1 X52.98 Y20.42 E33.4790
G1 X53.36 Y20.80 E33.5125
G1 X53.88 Y20.94 E33.5461
G1 E28.5461 F2400
G1 Z0.500 F420
G1 X56.17 Y19.26 F6000
G1 Z0.300 F420
G1 E33.5461 F1800
G1 X57.86 Y19.26 E33.6515 F600
G1 E28.6515 F2400
G1 Z0.500 F420
G1 X57.86 Y18.55 F6000
G1 Z0.300 F420
G1 E33.6515 F1800
G1 X56.17 Y18.55 E33.7569 F600
G1 E28.7569 F2400
G1 Z0.500 F420
G1 X58.92 Y20.00 F6000
G1 Z0.300 F420
G1 E33.7569 F1800
G1 X59.39 Y20.24 E33.7898 F600
G1 X59.76 Y20.55 E33.8199
G1 X60.01 Y20.88 E33.8457
G1 X60.01 Y17.48 E34.0577
G1 E29.0577 F2400
G1 Z0.500 F420
G1 X62.29 Y20.94 F6000
G1 Z0.300 F420
G1 E34.0577 F1800
G1 X62.80 Y20.80 E34.0907 F600
G1 X63.19 Y20.42 E34.1247
G1 X63.43 Y19.86 E34.1627
G1 X63.51 Y19.18 E34.2054
G1 X63.43 Y18.51 E34.2475
G1 X63.19 Y17.95 E34.2855
G1 X62.80 Y17.56 E34.3199
G1 X62.29 Y17.42 E34.3528
G1 X61.77 Y17.56 E34.3864
G1 X61.39 Y17.95 E34.4204
G1 X61.15 Y18.51 E34.4584
G1 X61.07 Y19.18 E34.5005
G1 X61.15 Y19.85 E34.5425
G1 X61.39 Y20.42 E34.5811
G1 X61.77 Y20.80 E34.6146
G1 X62.29 Y20.94 E34.6482
G1 E29.6482 F2400
G1 Z0.500 F420
G1 X64.57 Y18.90 F6000
G1 Z0.300 F420
G1 E34.6482 F1800
G1 X66.44 Y18.90 E34.7648 F600
G1 E29.7648 F2400
G1 Z0.500 F420
G1 X69.49 Y20.88 F6000
G1 Z0.300 F420
G1 E34.7648 F1800
G1 X67.74 Y20.88 E34.8740 F600
G1 X67.60 Y19.14 E34.9828
G1 X67.88 Y19.45 E35.0089
G1 X68.05 Y19.57 E35.0219
G1 X68.24 Y19.64 E35.0345
G1 X68.43 Y19.67 E35.0465
G1 X68.63 Y19.68 E35.0590
G1 X69.04 Y19.59 E35.0851
G1 X69.36 Y19.37 E35.1094
G1 X69.57 Y19.03 E35.1343
G1 X69.65 Y18.61 E35.1609
G1 X69.58 Y18.14 E35.1906
G1 X69.37 Y17.77 E35.2171
G1 X69.02 Y17.51 E35.2443
G1 X68.52 Y17.42 E35.2760
G1 X68.15 Y17.48 E35.2994
G1 X67.84 Y17.64 E35.3211
G1 X67.62 Y17.91 E35.3428
G1 X67.50 Y18.27 E35.3665
G1 E30.3665 F2400
G1 Z0.500 F420
G1 X71.93 Y20.94 F6000
G1 Z0.300 F420
G1 E35.3665 F1800
G1 X72.44 Y20.80 E35.3995 F600
G1 X72.83 Y20.42 E35.4334
G1 X73.07 Y19.86 E35.4714
G1 X73.15 Y19.18 E35.5141
G1 X73.07 Y18.51 E35.5562
G1 X72.83 Y17.95 E35.5942
G1 X72.44 Y17.56 E35.6286
G1 X71.93 Y17.42 E35.6616
G1 X71.41 Y17.56 E35.6951
G1 X71.03 Y17.95 E35.7291
G1 X70.79 Y18.51 E35.7671
G1 X70.71 Y19.18 E35.8092
G1 X70.79 Y19.85 E35.8513
G1 X71.03 Y20.42 E35.8898
G1 X71.41 Y20.80 E35.9233
G1 X71.93 Y20.94 E35.9569
G1 E30.9569 F2400
G1 Z0.500 F420
G1 X46.50 Y14.89 F6000
G1 Z0.300 F420
G1 E35.9569 F1800
G1 X47.52 Y12.48 E36.1201 F600
G1 X48.54 Y14.89 E36.2833
G1 E31.2833 F2400
G1 Z0.500 F420
G1 X49.60 Y14.89 F6000
G1 Z0.300 F420
G1 E36.2833 F1800
G1 X51.60 Y12.48 E36.4786 F600
G1 E31.4786 F2400
G1 Z0.500 F420
G1 X49.60 Y12.48 F6000
G1 Z0.300 F420
G1 E36.4786 F1800
G1 X51.60 Y14.89 E36.6740 F600
G1 E31.6740 F2400
G1 Z0.500 F420
G1 X52.66 Y15.00 F6000
G1 Z0.300 F420
G1 E36.6740 F1800
G1 X53.13 Y15.24 E36.7069 F600
G1 X53.50 Y15.55 E36.7370
G1 X53.75 Y15.88 E36.7628
G1 X53.75 Y12.48 E36.9748
G1 E31.9748 F2400
G1 Z0.500 F420
G1 X54.81 Y14.26 F6000
G1 Z0.300 F420
G1 E36.9748 F1800
G1 X56.50 Y14.26 E37.0802 F600
G1 E32.0802 F2400
G1 Z0.500 F420
G1 X56.50 Y13.55 F6000
G1 Z0.300 F420
G1 E37.0802 F1800
G1 X54.81 Y13.55 E37.1856 F600
G1 E32.1856 F2400
G1 Z0.500 F420
G1 X57.56 Y15.44 F6000
G1 Z0.300 F420
G1 E37.1856 F1800
G1 X57.75 Y15.65 E37.2033 F600
G1 X57.98 Y15.81 E37.2208
G1 X58.24 Y15.90 E37.2379
G1 X58.52 Y15.94 E37.2555
G1 X58.89 Y15.88 E37.2789
G1 X59.19 Y15.68 E37.3014
G1 X59.38 Y15.39 E37.3230
G1 X59.45 Y15.02 E37.3465
G1 X59.35 Y14.63 E37.3716
G1 X59.07 Y14.27 E37.4001
G1 X58.29 Y13.64 E37.4626
G1 X57.99 Y13.23 E37.4943
G1 X57.60 Y12.48 E37.5470
G1 X59.42 Y12.48 E37.6605
G1 E32.6605 F2400
G1 Z0.500 F420
G1 X61.73 Y15.94 F6000
G1 Z0.300 F420
G1 E37.6605 F1800
G1 X62.24 Y15.80 E37.6935 F600
G1 X62.63 Y15.42 E37.7275
G1 X62.87 Y14.86 E37.7655
G1 X62.95 Y14.18 E37.8082
G1 X62.87 Y13.51 E37.8503
G1 X62.63 Y12.95 E37.8883
G1 X62.24 Y12.56 E37.9227
G1 X61.73 Y12.42 E37.9557
G1 X61.21 Y12.56 E37.9892
G1 X60.83 Y12.95 E38.0232
G1 X60.59 Y13.51 E38.0612
G1 X60.51 Y14.18 E38.1033
G1 X60.59 Y14.85 E38.1454
G1 X60.83 Y15.42 E38.1840
G1 X61.21 Y15.80 E38.2175
G1 X61.73 Y15.94 E38.2511
G1 E33.2511 F2400
G1 Z0.500 F420
G1 X64.02 Y13.90 F6000
G1 Z0.300 F420
G1 E38.2511 F1800
G1 X65.89 Y13.90 E38.3677 F600
G1 E33.3677 F2400
G1 Z0.500 F420
G1 X66.95 Y15.00 F6000
G1 Z0.300 F420
G1 E38.3677 F1800
G1 X67.42 Y15.24 E38.4006 F600
G1 X67.79 Y15.55 E38.4307
G1 X68.04 Y15.88 E38.4565
G1 X68.04 Y12.48 E38.6686
G1 E33.6686 F2400
G1 Z0.500 F420
G1 X70.32 Y15.94 F6000
G1 Z0.300 F420
G1 E38.6686 F1800
G1 X70.83 Y15.80 E38.7016 F600
G1 X71.22 Y15.42 E38.7355
G1 X71.46 Y14.86 E38.7735
G1 X71.54 Y14.18 E38.8162
G1 X71.46 Y13.51 E38.8583
G1 X71.22 Y12.95 E38.8963
G1 X70.83 Y12.56 E38.9307
G1 X70.32 Y12.42 E38.9637
G1 X69.80 Y12.56 E38.9973
G1 X69.42 Y12.95 E39.0313
G1 X69.18 Y13.51 E39.0693
G1 X69.10 Y14.18 E39.1113
G1 X69.18 Y14.85 E39.1534
G1 X69.42 Y15.42 E39.1920
G1 X69.80 Y15.80 E39.2255
G1 X70.32 Y15.94 E39.2591
G1 E34.2591 F2400
G1 Z0.500 F420
G1 X73.82 Y15.94 F6000
G1 Z0.300 F420
G1 E39.2591 F1800
G1 X74.33 Y15.80 E39.2921 F600
G1 X74.72 Y15.42 E39.3260
G1 X74.96 Y14.86 E39.3640
G1 X75.04 Y14.18 E39.4067
G1 X74.96 Y13.51 E39.4488
G1 X74.72 Y12.95 E39.4868
G1 X74.33 Y12.56 E39.5212
G1 X73.82 Y12.42 E39.5542
G1 X73.30 Y12.56 E39.5878
G1 X72.92 Y12.95 E39.6218
G1 X72.68 Y13.51 E39.6598
G1 X72.60 Y14.18 E39.7018
G1 X72.68 Y14.85 E39.7439
G1 X72.92 Y15.42 E39.7825
G1 X73.30 Y15.80 E39.8160
G1 X73.82 Y15.94 E39.8496
G1 E34.8496 F2400
G1 Z0.500 F420
M900 K0 T0
;structure:shell-inner
G1 X-45.00 Y22.00 F6000
G1 Z0.300 F420
G1 E39.8496 F1800
G1 X-40.00 Y22.00 E40.1615 F300
G1 X-20.00 Y22.00 E41.4088 F600
G1 X20.00 Y22.00 E43.9036 F1200
G1 X40.00 Y22.00 E45.1510 F600
G1 X45.00 Y22.00 E45.4629 F300
G1 E40.4629 F2400
G1 Z0.500 F420
G1 X-45.00 Y20.00 F6000
G1 Z0.300 F420
G1 E45.4629 F1800
G1 X-40.00 Y20.00 E45.7747 F300
G1 X-20.00 Y20.00 E47.0221 F840
G1 X20.00 Y20.00 E49.5169 F1680
G1 X40.00 Y20.00 E50.7643 F840
G1 X45.00 Y20.00 E51.0761 F300
G1 E46.0761 F2400
G1 Z0.500 F420
G1 X-45.00 Y18.00 F6000
G1 Z0.300 F420
G1 E51.0761 F1800
G1 X-40.00 Y18.00 E51.3879 F300
G1 X-20.00 Y18.00 E52.6353 F1080
G1 X20.00 Y18.00 E55.1301 F2160
G1 X40.00 Y18.00 E56.3775 F1080
G1 X45.00 Y18.00 E56.6894 F300
G1 E51.6894 F2400
G1 Z0.500 F420
G1 X-45.00 Y16.00 F6000
G1 Z0.300 F420
G1 E56.6894 F1800
G1 X-40.00 Y16.00 E57.0012 F300
G1 X-20.00 Y16.00 E58.2486 F1320
G1 X20.00 Y16.00 E60.7434 F2640
G1 X40.00 Y16.00 E61.9908 F1320
G1 X45.00 Y16.00 E62.3026 F300
G1 E57.3026 F2400
G1 Z0.500 F420
G1 X-45.00 Y14.00 F6000
G1 Z0.300 F420
G1 E62.3026 F1800
G1 X-40.00 Y14.00 E62.6144 F300
G1 X-20.00 Y14.00 E63.8618 F1560
G1 X20.00 Y14.00 E66.3566 F3120
G1 X40.00 Y14.00 E67.6040 F1560
G1 X45.00 Y14.00 E67.9158 F300
G1 E62.9158 F2400
G1 Z0.500 F420
G1 X-45.00 Y12.00 F6000
G1 Z0.300 F420
G1 E67.9158 F1800
G1 X-40.00 Y12.00 E68.2277 F300
G1 X-20.00 Y12.00 E69.4751 F1800
G1 X20.00 Y12.00 E71.9699 F3600
G1 X40.00 Y12.00 E73.2173 F1800
G1 X45.00 Y12.00 E73.5291 F300
G1 E68.5291 F2400
G1 Z0.500 F420
G1 X-45.00 Y10.00 F6000
G1 Z0.300 F420
G1 E73.5291 F1800
G1 X-40.00 Y10.00 E73.8409 F300
G1 X-20.00 Y10.00 E75.0883 F2040
G1 X20.00 Y10.00 E77.5831 F4080
G1 X40.00 Y10.00 E78.8305 F2040
G1 X45.00 Y10.00 E79.1423 F300
G1 E74.1423 F2400
G1 Z0.500 F420
G1 X-45.00 Y8.00 F6000
G1 Z0.300 F420
G1 E79.1423 F1800
G1 X-40.00 Y8.00 E79.4542 F300
G1 X-20.00 Y8.00 E80.7016 F2280
G1 X20.00 Y8.00 E83.1964 F4560
G1 X40.00 Y8.00 E84.4437 F2280
G1 X45.00 Y8.00 E84.7556 F300
G1 E79.7556 F2400
G1 Z0.500 F420
G1 X-45.00 Y6.00 F6000
G1 Z0.300 F420
G1 E84.7556 F1800
G1 X-40.00 Y6.00 E85.0674 F300
G1 X-20.00 Y6.00 E86.3148 F2520
G1 X20.00 Y6.00 E88.8096 F5040
G1 X40.00 Y6.00 E90.0570 F2520
G1 X45.00 Y6.00 E90.3688 F300
G1 E85.3688 F2400
G1 Z0.500 F420
G1 X-45.00 Y4.00 F6000
G1 Z0.300 F420
G1 E90.3688 F1800
G1 X-40.00 Y4.00 E90.6807 F300
G1 X-20.00 Y4.00 E91.9281 F2760
G1 X20.00 Y4.00 E94.4229 F5520
G1 X40.00 Y4.00 E95.6702 F2760
G1 X45.00 Y4.00 E95.9821 F300
G1 E90.9821 F2400
G1 Z0.500 F420
G1 X-45.00 Y2.00 F6000
G1 Z0.300 F420
G1 E95.9821 F1800
G1 X-40.00 Y2.00 E96.2939 F300
G1 X-20.00 Y2.00 E97.5413 F3000
G1 X20.00 Y2.00 E100.0361 F6000
G1 X40.00 Y2.00 E101.2835 F3000
G1 X45.00 Y2.00 E101.5953 F300
G1 E96.5953 F2400
G1 Z0.500 F420
G1 E99.0953 F1800
;end gcode
M107
M104 S0 T0
M140 S0 T0
G162 Z F1800
G28 X Y
M132 X Y A B
M652
G91
M18
