;gcode_flavor: flashforge
;machine_type: Adventurer 3 Series
;filament_diameter0: 1.75
;right_extruder_temperature: 210
;platform_temperature: 50
;extruder_fan: 100%
;case_fan: 100%
;base_print_speed: 60
;travel_speed: 100
;vertical_speed: 7
;retract_speed: 40
;restore_speed: 30
;layer_height: 0.30
;line_width: 0.50
;extrusion_ratio: 1.00
;command_line: ./gcodetest.py -Te 210 -Tp 50 -Fe 1.0 -Fc 1.0 -Kf=0.0 -Kb=0.0 -Re=5.0 -n 2
;start gcode
M118 X75.00 Y75.00 Z150.00 T0
M140 S50 T0
M104 S210 T0
M104 S0 T1
M107
M900 K0.000 T0
G90
G28
M132 X Y Z A B
G1 Z50.000 F420
G161 X Y F3300
M7 T0
M6 T0
M652 S255
M108 T0
M106
;preExtrude:0.20
;structure:pre-extrude
G1 X-59.00 Y-65.00 F6000
G1 Z0.200 F420
G1 X-59.00 Y55.00 E19.9561 F1200
G1 E14.9561 F2400
G1 Z0.400 F420
;layer:0.30
;structure:shell-outer
G1 X-45.00 Y-3.00 F6000
G1 Z0.300 F420
G1 E19.9561 F1800
G1 X45.00 Y-3.00 E25.5687 F600
G1 E20.5687 F2400
G1 Z0.500 F420
G1 X-42.00 Y-3.00 F6000
G1 X-40.00 Y-3.00
G1 Z0.300 F420
G1 E25.5687 F1800
G1 X-40.00 Y-6.00 E25.7558 F600
G1 E20.7558 F2400
G1 Z0.500 F420
G1 X-38.00 Y-3.00 F6000
G1 Z0.300 F420
G1 E25.7558 F1800
G1 X-38.00 Y-4.50 E25.8494 F600
G1 E20.8494 F2400
G1 Z0.500 F420
G1 X-36.00 Y-3.00 F6000
G1 Z0.300 F420
G1 E25.8494 F1800
G1 X-36.00 Y-4.50 E25.9429 F600
G1 E20.9429 F2400
G1 Z0.500 F420
G1 X-34.00 Y-3.00 F6000
G1 Z0.300 F420
G1 E25.9429 F1800
G1 X-34.00 Y-4.50 E26.0364 F600
G1 E21.0364 F2400
G1 Z0.500 F420
G1 X-32.00 Y-3.00 F6000
G1 Z0.300 F420
G1 E26.0364 F1800
G1 X-32.00 Y-4.50 E26.1300 F600
G1 E21.1300 F2400
G1 Z0.500 F420
G1 X-30.00 Y-3.00 F6000
G1 Z0.300 F420
G1 E26.1300 F1800
G1 X-30.00 Y-6.00 E26.3171 F600
G1 E21.3171 F2400
G1 Z0.500 F420
G1 X-28.00 Y-3.00 F6000
G1 Z0.300 F420
G1 E26.3171 F1800
G1 X-28.00 Y-4.50 E26.4106 F600
G1 E21.4106 F2400
G1 Z0.500 F420
G1 X-26.00 Y-3.00 F6000
G1 Z0.300 F420
G1 E26.4106 F1800
G1 X-26.00 Y-4.50 E26.5042 F600
G1 E21.5042 F2400
G1 Z0.500 F420
G1 X-24.00 Y-3.00 F6000
G1 Z0.300 F420
G1 E26.5042 F1800
G1 X-24.00 Y-4.50 E26.5977 F600
G1 E21.5977 F2400
G1 Z0.500 F420
G1 X-22.00 Y-3.00 F6000
G1 Z0.300 F420
G1 E26.5977 F1800
G1 X-22.00 Y-4.50 E26.6913 F600
G1 E21.6913 F2400
G1 Z0.500 F420
G1 X-20.00 Y-3.00 F6000
G1 Z0.300 F420
G1 E26.6913 F1800
G1 X-20.00 Y-6.00 E26.8783 F600
G1 E21.8783 F2400
G1 Z0.500 F420
G1 X-18.00 Y-3.00 F6000
G1 Z0.300 F420
G1 E26.8783 F1800
G1 X-18.00 Y-4.50 E26.9719 F600
G1 E21.9719 F2400
G1 Z0.500 F420
G1 X-16.00 Y-3.00 F6000
G1 Z0.300 F420
G1 E26.9719 F1800
G1 X-16.00 Y-4.50 E27.0654 F600
G1 E22.0654 F2400
G1 Z0.500 F420
G1 X-14.00 Y-3.00 F6000
G1 Z0.300 F420
G1 E27.0654 F1800
G1 X-14.00 Y-4.50 E27.1590 F600
G1 E22.1590 F2400
G1 Z0.500 F420
G1 X-12.00 Y-3.00 F6000
G1 Z0.300 F420
G1 E27.1590 F1800
G1 X-12.00 Y-4.50 E27.2525 F600
G1 E22.2525 F2400
G1 Z0.500 F420
G1 X-10.00 Y-3.00 F6000
G1 Z0.300 F420
G1 E27.2525 F1800
G1 X-10.00 Y-6.00 E27.4396 F600
G1 E22.4396 F2400
G1 Z0.500 F420
G1 X-8.00 Y-3.00 F6000
G1 Z0.300 F420
G1 E27.4396 F1800
G1 X-8.00 Y-4.50 E27.5332 F600
G1 E22.5332 F2400
G1 Z0.500 F420
G1 X-6.00 Y-3.00 F6000
G1 Z0.300 F420
G1 E27.5332 F1800
G1 X-6.00 Y-4.50 E27.6267 F600
G1 E22.6267 F2400
G1 Z0.500 F420
G1 X-4.00 Y-3.00 F6000
G1 Z0.300 F420
G1 E27.6267 F1800
G1 X-4.00 Y-4.50 E27.7202 F600
G1 E22.7202 F2400
G1 Z0.500 F420
G1 X-2.00 Y-3.00 F6000
G1 Z0.300 F420
G1 E27.7202 F1800
G1 X-2.00 Y-4.50 E27.8138 F600
G1 E22.8138 F2400
G1 Z0.500 F420
G1 X0.00 Y-3.00 F6000
G1 Z0.300 F420
G1 E27.8138 F1800
G1 X0.00 Y-6.00 E28.0009 F600
G1 E23.0009 F2400
G1 Z0.500 F420
G1 X2.00 Y-3.00 F6000
G1 Z0.300 F420
G1 E28.0009 F1800
G1 X2.00 Y-4.50 E28.0944 F600
G1 E23.0944 F2400
G1 Z0.500 F420
G1 X4.00 Y-3.00 F6000
G1 Z0.300 F420
G1 E28.0944 F1800
G1 X4.00 Y-4.50 E28.1880 F600
G1 E23.1880 F2400
G1 Z0.500 F420
G1 X6.00 Y-3.00 F6000
G1 Z0.300 F420
G1 E28.1880 F1800
G1 X6.00 Y-4.50 E28.2815 F600
G1 E23.2815 F2400
G1 Z0.500 F420
G1 X8.00 Y-3.00 F6000
G1 Z0.300 F420
G1 E28.2815 F1800
G1 X8.00 Y-4.50 E28.3750 F600
G1 E23.3750 F2400
G1 Z0.500 F420
G1 X10.00 Y-3.00 F6000
G1 Z0.300 F420
G1 E28.3750 F1800
G1 X10.00 Y-6.00 E28.5621 F600
G1 E23.5621 F2400
G1 Z0.500 F420
G1 X12.00 Y-3.00 F6000
G1 Z0.300 F420
G1 E28.5621 F1800
G1 X12.00 Y-4.50 E28.6557 F600
G1 E23.6557 F2400
G1 Z0.500 F420
G1 X14.00 Y-3.00 F6000
G1 Z0.300 F420
G1 E28.6557 F1800
G1 X14.00 Y-4.50 E28.7492 F600
G1 E23.7492 F2400
G1 Z0.500 F420
G1 X16.00 Y-3.00 F6000
G1 Z0.300 F420
G1 E28.7492 F1800
G1 X16.00 Y-4.50 E28.8428 F600
G1 E23.8428 F2400
G1 Z0.500 F420
G1 X18.00 Y-3.00 F6000
G1 Z0.300 F420
G1 E28.8428 F1800
G1 X18.00 Y-4.50 E28.9363 F600
G1 E23.9363 F2400
G1 Z0.500 F420
G1 X20.00 Y-3.00 F6000
G1 Z0.300 F420
G1 E28.9363 F1800
G1 X20.00 Y-6.00 E29.1234 F600
G1 E24.1234 F2400
G1 Z0.500 F420
G1 X22.00 Y-3.00 F6000
G1 Z0.300 F420
G1 E29.1234 F1800
G1 X22.00 Y-4.50 E29.2169 F600
G1 E24.2169 F2400
G1 Z0.500 F420
G1 X24.00 Y-3.00 F6000
G1 Z0.300 F420
G1 E29.2169 F1800
G1 X24.00 Y-4.50 E29.3105 F600
G1 E24.3105 F2400
G1 Z0.500 F420
G1 X26.00 Y-3.00 F6000
G1 Z0.300 F420
G1 E29.3105 F1800
G1 X26.00 Y-4.50 E29.4040 F600
G1 E24.4040 F2400
G1 Z0.500 F420
G1 X28.00 Y-3.00 F6000
G1 Z0.300 F420
G1 E29.4040 F1800
G1 X28.00 Y-4.50 E29.4976 F600
G1 E24.4976 F2400
G1 Z0.500 F420
G1 X30.00 Y-3.00 F6000
G1 Z0.300 F420
G1 E29.4976 F1800
G1 X30.00 Y-6.00 E29.6847 F600
G1 E24.6847 F2400
G1 Z0.500 F420
G1 X32.00 Y-3.00 F6000
G1 Z0.300 F420
G1 E29.6847 F1800
G1 X32.00 Y-4.50 E29.7782 F600
G1 E24.7782 F2400
G1 Z0.500 F420
G1 X34.00 Y-3.00 F6000
G1 Z0.300 F420
G1 E29.7782 F1800
G1 X34.00 Y-4.50 E29.8718 F600
G1 E24.8718 F2400
G1 Z0.500 F420
G1 X36.00 Y-3.00 F6000
G1 Z0.300 F420
G1 E29.8718 F1800
G1 X36.00 Y-4.50 E29.9653 F600
G1 E24.9653 F2400
G1 Z0.500 F420
G1 X38.00 Y-3.00 F6000
G1 Z0.300 F420
G1 E29.9653 F1800
G1 X38.00 Y-4.50 E30.0588 F600
G1 E25.0588 F2400
G1 Z0.500 F420
G1 X40.00 Y-3.00 F6000
G1 Z0.300 F420
G1 E30.0588 F1800
G1 X40.00 Y-6.00 E30.2459 F600
G1 E25.2459 F2400
G1 Z0.500 F420
;structure:brim
;structure:shell-outer
G1 X47.69 Y-3.10 F6000
G1 Z0.300 F420
G1 E30.2459 F1800
G1 X47.54 Y-3.10 E30.2553 F600
G1 X47.36 Y-3.14 E30.2668
G1 X47.20 Y-3.27 E30.2796
G1 X47.08 Y-3.46 E30.2937
G1 X47.00 Y-3.83 E30.3173
G1 X47.00 Y-6.52 E30.4850
G1 E25.4850 F2400
G1 Z0.500 F420
G1 X46.50 Y-4.24 F6000
G1 Z0.300 F420
G1 E30.4850 F1800
G1 X47.58 Y-4.24 E30.5524 F600
G1 E25.5524 F2400
G1 Z0.500 F420
G1 X48.75 Y-3.12 F6000
G1 Z0.300 F420
G1 E30.5524 F1800
G1 X48.75 Y-6.52 E30.7644 F600
G1 E25.7644 F2400
G1 Z0.500 F420
G1 X51.21 Y-6.52 F6000
G1 Z0.300 F420
G1 E30.7644 F1800
G1 X49.72 Y-4.49 E30.9214 F600
G1 E25.9214 F2400
G1 Z0.500 F420
G1 X48.75 Y-5.33 F6000
G1 Z0.300 F420
G1 E30.9214 F1800
G1 X51.28 Y-3.12 E31.1309 F600
G1 E26.1309 F2400
G1 Z0.500 F420
G1 X53.53 Y-3.10 F6000
G1 Z0.300 F420
G1 E31.1309 F1800
G1 X53.38 Y-3.10 E31.1403 F600
G1 X53.20 Y-3.14 E31.1518
G1 X53.04 Y-3.27 E31.1646
G1 X52.92 Y-3.46 E31.1786
G1 X52.84 Y-3.83 E31.2023
G1 X52.84 Y-6.52 E31.3700
G1 E26.3700 F2400
G1 Z0.500 F420
G1 X52.34 Y-4.24 F6000
G1 Z0.300 F420
G1 E31.3700 F1800
G1 X53.42 Y-4.24 E31.4374 F600
G1 E26.4374 F2400
G1 Z0.500 F420
G1 X54.59 Y-4.74 F6000
G1 Z0.300 F420
G1 E31.4374 F1800
G1 X56.28 Y-4.74 E31.5427 F600
G1 E26.5428 F2400
G1 Z0.500 F420
G1 X56.28 Y-5.45 F6000
G1 Z0.300 F420
G1 E31.5428 F1800
G1 X54.59 Y-5.45 E31.6481 F600
G1 E26.6481 F2400
G1 Z0.500 F420
G1 X57.34 Y-4.00 F6000
G1 Z0.300 F420
G1 E31.6481 F1800
G1 X57.81 Y-3.76 E31.6811 F600
G1 X58.18 Y-3.45 E31.7112
G1 X58.43 Y-3.12 E31.7370
G1 X58.43 Y-6.52 E31.9490
G1 E26.9490 F2400
G1 Z0.500 F420
G1 X60.71 Y-3.06 F6000
G1 Z0.300 F420
G1 E31.9490 F1800
G1 X61.22 Y-3.20 E31.9820 F600
G1 X61.61 Y-3.58 E32.0159
G1 X61.85 Y-4.14 E32.0539
G1 X61.93 Y-4.82 E32.0966
G1 X61.85 Y-5.49 E32.1387
G1 X61.61 Y-6.05 E32.1767
G1 X61.22 Y-6.44 E32.2111
G1 X60.71 Y-6.58 E32.2441
G1 X60.19 Y-6.44 E32.2777
G1 X59.81 Y-6.05 E32.3116
G1 X59.57 Y-5.49 E32.3496
G1 X59.49 Y-4.82 E32.3917
G1 X59.57 Y-4.15 E32.4338
G1 X59.81 Y-3.58 E32.4724
G1 X60.19 Y-3.20 E32.5059
G1 X60.71 Y-3.06 E32.5395
G1 E27.5395 F2400
G1 Z0.500 F420
G1 X64.21 Y-3.06 F6000
G1 Z0.300 F420
G1 E32.5395 F1800
G1 X64.72 Y-3.20 E32.5724 F600
G1 X65.11 Y-3.58 E32.6064
G1 X65.35 Y-4.14 E32.6444
G1 X65.43 Y-4.82 E32.6871
G1 X65.35 Y-5.49 E32.7292
G1 X65.11 Y-6.05 E32.7672
G1 X64.72 Y-6.44 E32.8016
G1 X64.21 Y-6.58 E32.8345
G1 X63.69 Y-6.44 E32.8681
G1 X63.31 Y-6.05 E32.9021
G1 X63.07 Y-5.49 E32.9401
G1 X62.99 Y-4.82 E32.9822
G1 X63.07 Y-4.15 E33.0242
G1 X63.31 Y-3.58 E33.0628
G1 X63.69 Y-3.20 E33.0963
G1 X64.21 Y-3.06 E33.1299
G1 E28.1299 F2400
G1 Z0.500 F420
G1 X46.50 Y-9.11 F6000
G1 Z0.300 F420
G1 E33.1299 F1800
G1 X47.52 Y-11.52 E33.2931 F600
G1 X48.54 Y-9.11 E33.4563
G1 E28.4563 F2400
G1 Z0.500 F420
G1 X49.60 Y-9.11 F6000
G1 Z0.300 F420
G1 E33.4563 F1800
G1 X51.60 Y-11.52 E33.6516 F600
G1 E28.6516 F2400
G1 Z0.500 F420
G1 X49.60 Y-11.52 F6000
G1 Z0.300 F420
G1 E33.6516 F1800
G1 X51.60 Y-9.11 E33.8469 F600
G1 E28.8469 F2400
G1 Z0.500 F420
G1 X53.88 Y-8.06 F6000
G1 Z0.300 F420
G1 E33.8469 F1800
G1 X54.39 Y-8.20 E33.8799 F600
G1 X54.78 Y-8.58 E33.9139
G1 X55.02 Y-9.14 E33.9519
G1 X55.10 Y-9.82 E33.9946
G1 X55.02 Y-10.49 E34.0367
G1 X54.78 Y-11.05 E34.0747
G1 X54.39 Y-11.44 E34.1091
G1 X53.88 Y-11.58 E34.1420
G1 X53.36 Y-11.44 E34.1756
G1 X52.98 Y-11.05 E34.2096
G1 X52.74 Y-10.49 E34.2476
G1 X52.66 Y-9.82 E34.2897
G1 X52.74 Y-9.15 E34.3317
G1 X52.98 Y-8.58 E34.3703
G1 X53.36 Y-8.20 E34.4038
G1 X53.88 Y-8.06 E34.4374
G1 E29.4374 F2400
G1 Z0.500 F420
G1 X56.17 Y-9.74 F6000
G1 Z0.300 F420
G1 E34.4374 F1800
G1 X57.86 Y-9.74 E34.5428 F600
G1 E29.5428 F2400
G1 Z0.500 F420
G1 X57.86 Y-10.45 F6000
G1 Z0.300 F420
G1 E34.5428 F1800
G1 X56.17 Y-10.45 E34.6482 F600
G1 E29.6482 F2400
G1 Z0.500 F420
G1 X58.92 Y-9.00 F6000
G1 Z0.300 F420
G1 E34.6482 F1800
G1 X59.39 Y-8.76 E34.6811 F600
G1 X59.76 Y-8.45 E34.7112
G1 X60.01 Y-8.12 E34.7370
G1 X60.01 Y-11.52 E34.9491
G1 E29.9491 F2400
G1 Z0.500 F420
G1 X62.29 Y-8.06 F6000
G1 Z0.300 F420
G1 E34.9491 F1800
G1 X62.80 Y-8.20 E34.9820 F600
G1 X63.19 Y-8.58 E35.0160
G1 X63.43 Y-9.14 E35.0540
G1 X63.51 Y-9.82 E35.0967
G1 X63.43 Y-10.49 E35.1388
G1 X63.19 Y-11.05 E35.1768
G1 X62.80 Y-11.44 E35.2112
G1 X62.29 Y-11.58 E35.2442
G1 X61.77 Y-11.44 E35.2777
G1 X61.39 Y-11.05 E35.3117
G1 X61.15 Y-10.49 E35.3497
G1 X61.07 Y-9.82 E35.3918
G1 X61.15 Y-9.15 E35.4339
G1 X61.39 Y-8.58 E35.4724
G1 X61.77 Y-8.20 E35.5059
G1 X62.29 Y-8.06 E35.5395
G1 E30.5395 F2400
G1 Z0.500 F420
G1 X64.57 Y-10.10 F6000
G1 Z0.300 F420
G1 E35.5395 F1800
G1 X66.44 Y-10.10 E35.6561 F600
G1 E30.6561 F2400
G1 Z0.500 F420
G1 X69.49 Y-8.12 F6000
G1 Z0.300 F420
G1 E35.6561 F1800
G1 X67.74 Y-8.12 E35.7653 F600
G1 X67.60 Y-9.86 E35.8741
G1 X67.88 Y-9.55 E35.9002
G1 X68.05 Y-9.43 E35.9132
G1 X68.24 Y-9.36 E35.9258
G1 X68.43 Y-9.33 E35.9378
G1 X68.63 Y-9.32 E35.9503
G1 X69.04 Y-9.41 E35.9765
G1 X69.36 Y-9.63 E36.0007
G1 X69.57 Y-9.97 E36.0256
G1 X69.65 Y-10.39 E36.0523
G1 X69.58 Y-10.86 E36.0819
G1 X69.37 Y-11.23 E36.1084
G1 X69.02 Y-11.49 E36.1356
G1 X68.52 Y-11.58 E36.1673
G1 X68.15 Y-11.52 E36.1907
G1 X67.84 Y-11.36 E36.2124
G1 X67.62 Y-11.09 E36.2341
G1 X67.50 Y-10.73 E36.2578
G1 E31.2578 F2400
G1 Z0.500 F420
G1 X71.93 Y-8.06 F6000
G1 Z0.300 F420
G1 E36.2578 F1800
G1 X72.44 Y-8.20 E36.2908 F600
G1 X72.83 Y-8.58 E36.3247
G1 X73.07 Y-9.14 E36.3627
G1 X73.15 Y-9.82 E36.4054
G1 X73.07 Y-10.49 E36.4475
G1 X72.83 Y-11.05 E36.4855
G1 X72.44 Y-11.44 E36.5199
G1 X71.93 Y-11.58 E36.5529
G1 X71.41 Y-11.44 E36.5865
G1 X71.03 Y-11.05 E36.6204
G1 X70.79 Y-10.49 E36.6584
G1 X70.71 Y-9.82 E36.7005
G1 X70.79 Y-9.15 E36.7426
G1 X71.03 Y-8.58 E36.7811
G1 X71.41 Y-8.20 E36.8147
G1 X71.93 Y-8.06 E36.8482
G1 E31.8482 F2400
G1 Z0.500 F420
G1 X46.50 Y-14.11 F6000
G1 Z0.300 F420
G1 E36.8482 F1800
G1 X47.52 Y-16.52 E37.0114 F600
G1 X48.54 Y-14.11 E37.1747
G1 E32.1747 F2400
G1 Z0.500 F420
G1 X49.60 Y-14.11 F6000
G1 Z0.300 F420
G1 E37.1747 F1800
G1 X51.60 Y-16.52 E37.3700 F600
G1 E32.3700 F2400
G1 Z0.500 F420
G1 X49.60 Y-16.52 F6000
G1 Z0.300 F420
G1 E37.3700 F1800
G1 X51.60 Y-14.11 E37.5653 F600
G1 E32.5653 F2400
G1 Z0.500 F420
G1 X52.66 Y-14.00 F6000
G1 Z0.300 F420
G1 E37.5653 F1800
G1 X53.13 Y-13.76 E37.5982 F600
G1 X53.50 Y-13.45 E37.6283
G1 X53.75 Y-13.12 E37.6541
G1 X53.75 Y-16.52 E37.8661
G1 E32.8661 F2400
G1 Z0.500 F420
G1 X54.81 Y-14.74 F6000
G1 Z0.300 F420
G1 E37.8661 F1800
G1 X56.50 Y-14.74 E37.9715 F600
G1 E32.9715 F2400
G1 Z0.500 F420
G1 X56.50 Y-15.45 F6000
G1 Z0.300 F420
G1 E37.9715 F1800
G1 X54.81 Y-15.45 E38.0769 F600
G1 E33.0769 F2400
G1 Z0.500 F420
G1 X57.56 Y-13.56 F6000
G1 Z0.300 F420
G1 E38.0769 F1800
G1 X57.75 Y-13.35 E38.0946 F600
G1 X57.98 Y-13.19 E38.1121
G1 X58.24 Y-13.10 E38.1292
G1 X58.52 Y-13.06 E38.1469
G1 X58.89 Y-13.12 E38.1702
G1 X59.19 Y-13.32 E38.1927
G1 X59.38 Y-13.61 E38.2144
G1 X59.45 Y-13.98 E38.2378
G1 X59.35 Y-14.37 E38.2630
G1 X59.07 Y-14.73 E38.2914
G1 X58.29 Y-15.36 E38.3539
G1 X57.99 Y-15.77 E38.3856
G1 X57.60 Y-16.52 E38.4383
G1 X59.42 Y-16.52 E38.5519
G1 E33.5519 F2400
G1 Z0.500 F420
G1 X61.73 Y-13.06 F6000
G1 Z0.300 F420
G1 E38.5519 F1800
G1 X62.24 Y-13.20 E38.5848 F600
G1 X62.63 Y-13.58 E38.6188
G1 X62.87 Y-14.14 E38.6568
G1 X62.95 Y-14.82 E38.6995
G1 X62.87 Y-15.49 E38.7416
G1 X62.63 Y-16.05 E38.7796
G1 X62.24 Y-16.44 E38.8140
G1 X61.73 Y-16.58 E38.8470
G1 X61.21 Y-16.44 E38.8806
G1 X60.83 Y-16.05 E38.9145
G1 X60.59 Y-15.49 E38.9525
G1 X60.51 Y-14.82 E38.9946
G1 X60.59 Y-14.15 E39.0367
G1 X60.83 Y-13.58 E39.0753
G1 X61.21 Y-13.20 E39.1088
G1 X61.73 Y-13.06 E39.1424
G1 E34.1424 F2400
G1 Z0.500 F420
G1 X64.02 Y-15.10 F6000
G1 Z0.300 F420
G1 E39.1424 F1800
G1 X65.89 Y-15.10 E39.2590 F600
G1 E34.2590 F2400
G1 Z0.500 F420
G1 X66.95 Y-14.00 F6000
G1 Z0.300 F420
G1 E39.2590 F1800
G1 X67.42 Y-13.76 E39.2919 F600
G1 X67.79 Y-13.45 E39.3220
G1 X68.04 Y-13.12 E39.3479
G1 X68.04 Y-16.52 E39.5599
G1 E34.5599 F2400
G1 Z0.500 F420
G1 X70.32 Y-13.06 F6000
G1 Z0.300 F420
G1 E39.5599 F1800
G1 X70.83 Y-13.20 E39.5929 F600
G1 X71.22 Y-13.58 E39.6269
G1 X71.46 Y-14.14 E39.6649
G1 X71.54 Y-14.82 E39.7076
G1 X71.46 Y-15.49 E39.7496
G1 X71.22 Y-16.05 E39.7876
G1 X70.83 Y-16.44 E39.8220
G1 X70.32 Y-16.58 E39.8550
G1 X69.80 Y-16.44 E39.8886
G1 X69.42 Y-16.05 E39.9226
G1 X69.18 Y-15.49 E39.9606
G1 X69.10 Y-14.82 E40.0027
G1 X69.18 Y-14.15 E40.0447
G1 X69.42 Y-13.58 E40.0833
G1 X69.80 Y-13.20 E40.1168
G1 X70.32 Y-13.06 E40.1504
G1 E35.1504 F2400
G1 Z0.500 F420
G1 X73.82 Y-13.06 F6000
G1 Z0.300 F420
G1 E40.1504 F1800
G1 X74.33 Y-13.20 E40.1834 F600
G1 X74.72 Y-13.58 E40.2174
G1 X74.96 Y-14.14 E40.2554
G1 X75.04 Y-14.82 E40.2981
G1 X74.96 Y-15.49 E40.3401
G1 X74.72 Y-16.05 E40.3781
G1 X74.33 Y-16.44 E40.4125
G1 X73.82 Y-16.58 E40.4455
G1 X73.30 Y-16.44 E40.4791
G1 X72.92 Y-16.05 E40.5131
G1 X72.68 Y-15.49 E40.5511
G1 X72.60 Y-14.82 E40.5932
G1 X72.68 Y-14.15 E40.6352
G1 X72.92 Y-13.58 E40.6738
G1 X73.30 Y-13.20 E40.7073
G1 X73.82 Y-13.06 E40.7409
G1 E35.7409 F2400
G1 Z0.500 F420
M900 K100 T0
;structure:shell-inner
G1 X-45.00 Y-7.00 F6000
G1 Z0.300 F420
G1 E40.7409 F1800
G1 X-40.00 Y-7.00 E41.0528 F300
G1 X-20.00 Y-7.00 E42.3002 F600
G1 X20.00 Y-7.00 E44.7949 F1200
G1 X40.00 Y-7.00 E46.0423 F600
G1 X45.00 Y-7.00 E46.3542 F300
G1 E41.3542 F2400
G1 Z0.500 F420
G1 X-45.00 Y-9.00 F6000
G1 Z0.300 F420
G1 E46.3542 F1800
G1 X-40.00 Y-9.00 E46.6660 F300
G1 X-20.00 Y-9.00 E47.9134 F840
G1 X20.00 Y-9.00 E50.4082 F1680
G1 X40.00 Y-9.00 E51.6556 F840
G1 X45.00 Y-9.00 E51.9674 F300
G1 E46.9674 F2400
G1 Z0.500 F420
G1 X-45.00 Y-11.00 F6000
G1 Z0.300 F420
G1 E51.9674 F1800
G1 X-40.00 Y-11.00 E52.2793 F300
G1 X-20.00 Y-11.00 E53.5267 F1080
G1 X20.00 Y-11.00 E56.0214 F2160
G1 X40.00 Y-11.00 E57.2688 F1080
G1 X45.00 Y-11.00 E57.5807 F300
G1 E52.5807 F2400
G1 Z0.500 F420
G1 X-45.00 Y-13.00 F6000
G1 Z0.300 F420
G1 E57.5807 F1800
G1 X-40.00 Y-13.00 E57.8925 F300
G1 X-20.00 Y-13.00 E59.1399 F1320
G1 X20.00 Y-13.00 E61.6347 F2640
G1 X40.00 Y-13.00 E62.8821 F1320
G1 X45.00 Y-13.00 E63.1939 F300
G1 E58.1939 F2400
G1 Z0.500 F420
G1 X-45.00 Y-15.00 F6000
G1 Z0.300 F420
G1 E63.1939 F1800
G1 X-40.00 Y-15.00 E63.5058 F300
G1 X-20.00 Y-15.00 E64.7532 F1560
G1 X20.00 Y-15.00 E67.2479 F3120
G1 X40.00 Y-15.00 E68.4953 F1560
G1 X45.00 Y-15.00 E68.8072 F300
G1 E63.8072 F2400
G1 Z0.500 F420
G1 X-45.00 Y-17.00 F6000
G1 Z0.300 F420
G1 E68.8072 F1800
G1 X-40.00 Y-17.00 E69.1190 F300
G1 X-20.00 Y-17.00 E70.3664 F1800
G1 X20.00 Y-17.00 E72.8612 F3600
G1 X40.00 Y-17.00 E74.1086 F1800
G1 X45.00 Y-17.00 E74.4204 F300
G1 E69.4204 F2400
G1 Z0.500 F420
G1 X-45.00 Y-19.00 F6000
G1 Z0.300 F420
G1 E74.4204 F1800
G1 X-40.00 Y-19.00 E74.7323 F300
G1 X-20.00 Y-19.00 E75.9797 F2040
G1 X20.00 Y-19.00 E78.4744 F4080
G1 X40.00 Y-19.00 E79.7218 F2040
G1 X45.00 Y-19.00 E80.0337 F300
G1 E75.0337 F2400
G1 Z0.500 F420
G1 X-45.00 Y-21.00 F6000
G1 Z0.300 F420
G1 E80.0337 F1800
G1 X-40.00 Y-21.00 E80.3455 F300
G1 X-20.00 Y-21.00 E81.5929 F2280
G1 X20.00 Y-21.00 E84.0877 F4560
G1 X40.00 Y-21.00 E85.3351 F2280
G1 X45.00 Y-21.00 E85.6469 F300
G1 E80.6469 F2400
G1 Z0.500 F420
G1 X-45.00 Y-23.00 F6000
G1 Z0.300 F420
G1 E85.6469 F1800
G1 X-40.00 Y-23.00 E85.9588 F300
G1 X-20.00 Y-23.00 E87.2061 F2520
G1 X20.00 Y-23.00 E89.7009 F5040
G1 X40.00 Y-23.00 E90.9483 F2520
G1 X45.00 Y-23.00 E91.2602 F300
G1 E86.2602 F2400
G1 Z0.500 F420
G1 X-45.00 Y-25.00 F6000
G1 Z0.300 F420
G1 E91.2602 F1800
G1 X-40.00 Y-25.00 E91.5720 F300
G1 X-20.00 Y-25.00 E92.8194 F2760
G1 X20.00 Y-25.00 E95.3142 F5520
G1 X40.00 Y-25.00 E96.5616 F2760
G1 X45.00 Y-25.00 E96.8734 F300
G1 E91.8734 F2400
G1 Z0.500 F420
G1 X-45.00 Y-27.00 F6000
G1 Z0.300 F420
G1 E96.8734 F1800
G1 X-40.00 Y-27.00 E97.1853 F300
G1 X-20.00 Y-27.00 E98.4326 F3000
G1 X20.00 Y-27.00 E100.9274 F6000
G1 X40.00 Y-27.00 E102.1748 F3000
G1 X45.00 Y-27.00 E102.4867 F300
G1 E97.4867 F2400
G1 Z0.500 F420
M900 K0 T0
G1 E99.9867 F1800
;end gcode
M107
M104 S0 T0
M140 S0 T0
G162 Z F1800
G28 X Y
M132 X Y A B
M652
G91
M18
