;gcode_flavor: flashforge
;machine_type: Adventurer 3 Series
;filament_diameter0: 1.75
;right_extruder_temperature: 210
;platform_temperature: 50
;extruder_fan: 100%
;case_fan: 100%
;base_print_speed: 60
;travel_speed: 100
;vertical_speed: 7
;retract_speed: 40
;restore_speed: 30
;layer_height: 0.30
;line_width: 0.50
;extrusion_ratio: 1.00
;command_line: ./gcodetest.py -Te 210 -Tp 50 -Fe 1.0 -Fc 1.0 -Kf=0.0 -Kb=0.0 -Re=5.0 -n 1 -v
;start gcode
M118 X75.00 Y75.00 Z150.00 T0
M140 S50 T0
M104 S210 T0
M104 S0 T1
M107
M900 K0.000 T0
G90
G28
M132 X Y Z A B
G1 Z50.000 F420
G161 X Y F3300
M7 T0
M6 T0
M652 S255
M108 T0
M106
;preExtrude:0.20
;00:00:00.000: layer=0 h=0.20 w=0.50 r=1.00
;structure:pre-extrude
G1 X-57.00 Y-65.00 F6000                ; move dl=86.5@100(0<100>0) de=0.000@0.0(0.0<0.0>0.0) l=0.00x0.50x0.00 r=0.00
;00:00:01.065: pe=0.0000 eb=0.0000 ve=0.0000 vn=0.0000 vl=0.000 db=0.00
G1 Z0.200 F420                          ; hopup dz=0.20@7 h=0.2 r=0.00
;00:00:01.093: pe=0.0000 eb=0.0000 ve=0.0000 vn=0.0000 vl=0.000 db=0.00
;00:00:01.093: skipping empty move move dl=0.0@7(0<0>0) de=0.000@0.0(0.0<0.0>0.0) l=0.20x0.50x0.00
G1 X-57.00 Y55.00 E19.9561 F1200        ; draw dl=120.0@20(0<20>0) de=19.956@3.3(0.0<3.33>0.0) l=0.20x0.50x4.00 r=4.00
;00:00:07.133: pe=0.0000 eb=0.2612 ve=0.0000 vn=0.0000 vl=0.000 db=2.00
G1 E14.9561 F2400                       ; retract de=-5.0000@-40.0 r=4.00
;00:00:07.258: pe=-5.0000 eb=0.2612 ve=-40.0000 vn=0.0000 vl=0.000 db=2.00
G1 Z0.400 F420                          ; hopup dz=0.20@7 h=0.4 r=2.83
;00:00:07.287: pe=-5.0000 eb=0.2612 ve=0.0000 vn=0.0000 vl=0.000 db=1.41
;layer:0.30
;00:00:07.287: layer=1 h=0.30 w=0.50 r=1.00
;00:00:07.287: Test fKf fKf=0.0 vx0=10-50 vx1=20-100
;structure:shell-outer
G1 X-45.00 Y26.00 F6000                 ; move dl=31.4@100(0<89>0) de=0.000@0.0(0.0<0.0>0.0) l=0.40x0.50x0.00 r=0.00
;00:00:07.818: pe=-5.0000 eb=0.0000 ve=0.0000 vn=0.0000 vl=0.000 db=0.00
G1 Z0.300 F420                          ; hopdn dz=-0.10@7 h=0.3 r=0.00
;00:00:07.832: pe=-5.0000 eb=0.0000 ve=0.0000 vn=0.0000 vl=0.000 db=0.00
G1 E19.9561 F1800                       ; restore de=5.0000@30.0 r=0.00
;00:00:07.999: pe=-0.0000 eb=0.0000 ve=30.0000 vn=0.0000 vl=0.000 db=0.00
G1 X45.00 Y26.00 E25.5687 F600          ; draw dl=90.0@10(0<10>0) de=5.613@0.62(0.0<0.62>0.0) l=0.30x0.50x1.00 r=1.00
;00:00:17.019: pe=0.0000 eb=0.0245 ve=0.0000 vn=0.0000 vl=0.000 db=0.50
G1 E20.5687 F2400                       ; retract de=-5.0000@-40.0 r=1.00
;00:00:17.144: pe=-5.0000 eb=0.0245 ve=-40.0000 vn=0.0000 vl=0.000 db=0.50
G1 Z0.500 F420                          ; hopup dz=0.20@7 h=0.5 r=0.77
;00:00:17.173: pe=-5.0000 eb=0.0245 ve=0.0000 vn=0.0000 vl=0.000 db=0.39
G1 X-42.00 Y26.00 F6000                 ; move dl=87.0@100(0<100>0) de=0.000@0.0(0.0<0.0>0.0) l=0.50x0.50x0.00 r=0.00
;00:00:18.243: pe=-5.0000 eb=0.0000 ve=0.0000 vn=0.0000 vl=0.000 db=0.00
G1 X-40.00 Y26.00                       ; move dl=2.0@100(0<22>0) de=0.000@0.0(0.0<0.0>0.0) l=0.50x0.50x0.00 r=0.00
;00:00:18.377: pe=-5.0000 eb=0.0000 ve=0.0000 vn=0.0000 vl=0.000 db=0.00
G1 Z0.300 F420                          ; hopdn dz=-0.20@7 h=0.3 r=0.00
;00:00:18.405: pe=-5.0000 eb=0.0000 ve=0.0000 vn=0.0000 vl=0.000 db=0.00
G1 E25.5687 F1800                       ; restore de=5.0000@30.0 r=0.00
;00:00:18.572: pe=-0.0000 eb=0.0000 ve=30.0000 vn=0.0000 vl=0.000 db=0.00
G1 X-40.00 Y23.00 E25.7558 F600         ; draw dl=3.0@10(0<10>0) de=0.187@0.58(0.0<0.62>0.0) l=0.30x0.50x1.00 r=1.00
;00:00:18.892: pe=0.0000 eb=0.0241 ve=0.0000 vn=0.0000 vl=0.000 db=0.50
G1 E20.7558 F2400                       ; retract de=-5.0000@-40.0 r=0.99
;00:00:19.017: pe=-5.0000 eb=0.0241 ve=-40.0000 vn=0.0000 vl=0.000 db=0.50
G1 Z0.500 F420                          ; hopup dz=0.20@7 h=0.5 r=0.77
;00:00:19.046: pe=-5.0000 eb=0.0241 ve=0.0000 vn=0.0000 vl=0.000 db=0.38
G1 X-38.00 Y26.00 F6000                 ; move dl=3.6@100(0<30>0) de=0.000@0.0(0.0<0.0>0.0) l=0.50x0.50x0.00 r=0.00
;00:00:19.226: pe=-5.0000 eb=0.0000 ve=0.0000 vn=0.0000 vl=0.000 db=0.00
G1 Z0.300 F420                          ; hopdn dz=-0.20@7 h=0.3 r=0.00
;00:00:19.254: pe=-5.0000 eb=0.0000 ve=0.0000 vn=0.0000 vl=0.000 db=0.00
G1 E25.7558 F1800                       ; restore de=5.0000@30.0 r=0.00
;00:00:19.421: pe=-0.0000 eb=0.0000 ve=30.0000 vn=0.0000 vl=0.000 db=0.00
G1 X-38.00 Y24.50 E25.8494 F600         ; draw dl=1.5@10(0<10>0) de=0.094@0.55(0.0<0.62>0.0) l=0.30x0.50x1.00 r=1.00
;00:00:19.591: pe=0.0000 eb=0.0218 ve=0.0000 vn=0.0000 vl=0.000 db=0.47
G1 E20.8494 F2400                       ; retract de=-5.0000@-40.0 r=0.94
;00:00:19.716: pe=-5.0000 eb=0.0218 ve=-40.0000 vn=0.0000 vl=0.000 db=0.47
G1 Z0.500 F420                          ; hopup dz=0.20@7 h=0.5 r=0.73
;00:00:19.745: pe=-5.0000 eb=0.0218 ve=0.0000 vn=0.0000 vl=0.000 db=0.37
G1 X-36.00 Y26.00 F6000                 ; move dl=2.5@100(0<25>0) de=0.000@0.0(0.0<0.0>0.0) l=0.50x0.50x0.00 r=0.00
;00:00:19.895: pe=-5.0000 eb=0.0000 ve=0.0000 vn=0.0000 vl=0.000 db=0.00
G1 Z0.300 F420                          ; hopdn dz=-0.20@7 h=0.3 r=0.00
;00:00:19.923: pe=-5.0000 eb=0.0000 ve=0.0000 vn=0.0000 vl=0.000 db=0.00
G1 E25.8494 F1800                       ; restore de=5.0000@30.0 r=0.00
;00:00:20.090: pe=-0.0000 eb=0.0000 ve=30.0000 vn=0.0000 vl=0.000 db=0.00
G1 X-36.00 Y24.50 E25.9429 F600         ; draw dl=1.5@10(0<10>0) de=0.094@0.55(0.0<0.62>0.0) l=0.30x0.50x1.00 r=1.00
;00:00:20.260: pe=0.0000 eb=0.0218 ve=0.0000 vn=0.0000 vl=0.000 db=0.47
G1 E20.9429 F2400                       ; retract de=-5.0000@-40.0 r=0.94
;00:00:20.385: pe=-5.0000 eb=0.0218 ve=-40.0000 vn=0.0000 vl=0.000 db=0.47
G1 Z0.500 F420                          ; hopup dz=0.20@7 h=0.5 r=0.73
;00:00:20.413: pe=-5.0000 eb=0.0218 ve=0.0000 vn=0.0000 vl=0.000 db=0.37
G1 X-34.00 Y26.00 F6000                 ; move dl=2.5@100(0<25>0) de=0.000@0.0(0.0<0.0>0.0) l=0.50x0.50x0.00 r=0.00
;00:00:20.563: pe=-5.0000 eb=0.0000 ve=0.0000 vn=0.0000 vl=0.000 db=0.00
G1 Z0.300 F420                          ; hopdn dz=-0.20@7 h=0.3 r=0.00
;00:00:20.592: pe=-5.0000 eb=0.0000 ve=0.0000 vn=0.0000 vl=0.000 db=0.00
G1 E25.9429 F1800                       ; restore de=5.0000@30.0 r=0.00
;00:00:20.759: pe=-0.0000 eb=0.0000 ve=30.0000 vn=0.0000 vl=0.000 db=0.00
G1 X-34.00 Y24.50 E26.0364 F600         ; draw dl=1.5@10(0<10>0) de=0.094@0.55(0.0<0.62>0.0) l=0.30x0.50x1.00 r=1.00
;00:00:20.929: pe=0.0000 eb=0.0218 ve=0.0000 vn=0.0000 vl=0.000 db=0.47
G1 E21.0364 F2400                       ; retract de=-5.0000@-40.0 r=0.94
;00:00:21.054: pe=-5.0000 eb=0.0218 ve=-40.0000 vn=0.0000 vl=0.000 db=0.47
G1 Z0.500 F420                          ; hopup dz=0.20@7 h=0.5 r=0.73
;00:00:21.082: pe=-5.0000 eb=0.0218 ve=0.0000 vn=0.0000 vl=0.000 db=0.37
G1 X-32.00 Y26.00 F6000                 ; move dl=2.5@100(0<25>0) de=0.000@0.0(0.0<0.0>0.0) l=0.50x0.50x0.00 r=0.00
;00:00:21.232: pe=-5.0000 eb=0.0000 ve=0.0000 vn=0.0000 vl=0.000 db=0.00
G1 Z0.300 F420                          ; hopdn dz=-0.20@7 h=0.3 r=0.00
;00:00:21.261: pe=-5.0000 eb=0.0000 ve=0.0000 vn=0.0000 vl=0.000 db=0.00
G1 E26.0364 F1800                       ; restore de=5.0000@30.0 r=0.00
;00:00:21.427: pe=-0.0000 eb=0.0000 ve=30.0000 vn=0.0000 vl=0.000 db=0.00
G1 X-32.00 Y24.50 E26.1300 F600         ; draw dl=1.5@10(0<10>0) de=0.094@0.55(0.0<0.62>0.0) l=0.30x0.50x1.00 r=1.00
;00:00:21.597: pe=0.0000 eb=0.0218 ve=0.0000 vn=0.0000 vl=0.000 db=0.47
G1 E21.1300 F2400                       ; retract de=-5.0000@-40.0 r=0.94
;00:00:21.722: pe=-5.0000 eb=0.0218 ve=-40.0000 vn=0.0000 vl=0.000 db=0.47
G1 Z0.500 F420                          ; hopup dz=0.20@7 h=0.5 r=0.73
;00:00:21.751: pe=-5.0000 eb=0.0218 ve=0.0000 vn=0.0000 vl=0.000 db=0.37
G1 X-30.00 Y26.00 F6000                 ; move dl=2.5@100(0<25>0) de=0.000@0.0(0.0<0.0>0.0) l=0.50x0.50x0.00 r=0.00
;00:00:21.901: pe=-5.0000 eb=0.0000 ve=0.0000 vn=0.0000 vl=0.000 db=0.00
G1 Z0.300 F420                          ; hopdn dz=-0.20@7 h=0.3 r=0.00
;00:00:21.930: pe=-5.0000 eb=0.0000 ve=0.0000 vn=0.0000 vl=0.000 db=0.00
G1 E26.1300 F1800                       ; restore de=5.0000@30.0 r=0.00
;00:00:22.096: pe=-0.0000 eb=0.0000 ve=30.0000 vn=0.0000 vl=0.000 db=0.00
G1 X-30.00 Y23.00 E26.3171 F600         ; draw dl=3.0@10(0<10>0) de=0.187@0.58(0.0<0.62>0.0) l=0.30x0.50x1.00 r=1.00
;00:00:22.416: pe=0.0000 eb=0.0241 ve=0.0000 vn=0.0000 vl=0.000 db=0.50
G1 E21.3171 F2400                       ; retract de=-5.0000@-40.0 r=0.99
;00:00:22.541: pe=-5.0000 eb=0.0241 ve=-40.0000 vn=0.0000 vl=0.000 db=0.50
G1 Z0.500 F420                          ; hopup dz=0.20@7 h=0.5 r=0.77
;00:00:22.570: pe=-5.0000 eb=0.0241 ve=0.0000 vn=0.0000 vl=0.000 db=0.38
G1 X-28.00 Y26.00 F6000                 ; move dl=3.6@100(0<30>0) de=0.000@0.0(0.0<0.0>0.0) l=0.50x0.50x0.00 r=0.00
;00:00:22.750: pe=-5.0000 eb=0.0000 ve=0.0000 vn=0.0000 vl=0.000 db=0.00
G1 Z0.300 F420                          ; hopdn dz=-0.20@7 h=0.3 r=0.00
;00:00:22.779: pe=-5.0000 eb=0.0000 ve=0.0000 vn=0.0000 vl=0.000 db=0.00
G1 E26.3171 F1800                       ; restore de=5.0000@30.0 r=0.00
;00:00:22.945: pe=-0.0000 eb=0.0000 ve=30.0000 vn=0.0000 vl=0.000 db=0.00
G1 X-28.00 Y24.50 E26.4106 F600         ; draw dl=1.5@10(0<10>0) de=0.094@0.55(0.0<0.62>0.0) l=0.30x0.50x1.00 r=1.00
;00:00:23.115: pe=0.0000 eb=0.0218 ve=0.0000 vn=0.0000 vl=0.000 db=0.47
G1 E21.4106 F2400                       ; retract de=-5.0000@-40.0 r=0.94
;00:00:23.240: pe=-5.0000 eb=0.0218 ve=-40.0000 vn=0.0000 vl=0.000 db=0.47
G1 Z0.500 F420                          ; hopup dz=0.20@7 h=0.5 r=0.73
;00:00:23.269: pe=-5.0000 eb=0.0218 ve=0.0000 vn=0.0000 vl=0.000 db=0.37
G1 X-26.00 Y26.00 F6000                 ; move dl=2.5@100(0<25>0) de=0.000@0.0(0.0<0.0>0.0) l=0.50x0.50x0.00 r=0.00
;00:00:23.419: pe=-5.0000 eb=0.0000 ve=0.0000 vn=0.0000 vl=0.000 db=0.00
G1 Z0.300 F420                          ; hopdn dz=-0.20@7 h=0.3 r=0.00
;00:00:23.447: pe=-5.0000 eb=0.0000 ve=0.0000 vn=0.0000 vl=0.000 db=0.00
G1 E26.4106 F1800                       ; restore de=5.0000@30.0 r=0.00
;00:00:23.614: pe=-0.0000 eb=0.0000 ve=30.0000 vn=0.0000 vl=0.000 db=0.00
G1 X-26.00 Y24.50 E26.5042 F600         ; draw dl=1.5@10(0<10>0) de=0.094@0.55(0.0<0.62>0.0) l=0.30x0.50x1.00 r=1.00
;00:00:23.784: pe=0.0000 eb=0.0218 ve=0.0000 vn=0.0000 vl=0.000 db=0.47
G1 E21.5042 F2400                       ; retract de=-5.0000@-40.0 r=0.94
;00:00:23.909: pe=-5.0000 eb=0.0218 ve=-40.0000 vn=0.0000 vl=0.000 db=0.47
G1 Z0.500 F420                          ; hopup dz=0.20@7 h=0.5 r=0.73
;00:00:23.938: pe=-5.0000 eb=0.0218 ve=0.0000 vn=0.0000 vl=0.000 db=0.37
G1 X-24.00 Y26.00 F6000                 ; move dl=2.5@100(0<25>0) de=0.000@0.0(0.0<0.0>0.0) l=0.50x0.50x0.00 r=0.00
;00:00:24.088: pe=-5.0000 eb=0.0000 ve=0.0000 vn=0.0000 vl=0.000 db=0.00
G1 Z0.300 F420                          ; hopdn dz=-0.20@7 h=0.3 r=0.00
;00:00:24.116: pe=-5.0000 eb=0.0000 ve=0.0000 vn=0.0000 vl=0.000 db=0.00
G1 E26.5042 F1800                       ; restore de=5.0000@30.0 r=0.00
;00:00:24.283: pe=-0.0000 eb=0.0000 ve=30.0000 vn=0.0000 vl=0.000 db=0.00
G1 X-24.00 Y24.50 E26.5977 F600         ; draw dl=1.5@10(0<10>0) de=0.094@0.55(0.0<0.62>0.0) l=0.30x0.50x1.00 r=1.00
;00:00:24.453: pe=0.0000 eb=0.0218 ve=0.0000 vn=0.0000 vl=0.000 db=0.47
G1 E21.5977 F2400                       ; retract de=-5.0000@-40.0 r=0.94
;00:00:24.578: pe=-5.0000 eb=0.0218 ve=-40.0000 vn=0.0000 vl=0.000 db=0.47
G1 Z0.500 F420                          ; hopup dz=0.20@7 h=0.5 r=0.73
;00:00:24.606: pe=-5.0000 eb=0.0218 ve=0.0000 vn=0.0000 vl=0.000 db=0.37
G1 X-22.00 Y26.00 F6000                 ; move dl=2.5@100(0<25>0) de=0.000@0.0(0.0<0.0>0.0) l=0.50x0.50x0.00 r=0.00
;00:00:24.756: pe=-5.0000 eb=0.0000 ve=0.0000 vn=0.0000 vl=0.000 db=0.00
G1 Z0.300 F420                          ; hopdn dz=-0.20@7 h=0.3 r=0.00
;00:00:24.785: pe=-5.0000 eb=0.0000 ve=0.0000 vn=0.0000 vl=0.000 db=0.00
G1 E26.5977 F1800                       ; restore de=5.0000@30.0 r=0.00
;00:00:24.952: pe=-0.0000 eb=0.0000 ve=30.0000 vn=0.0000 vl=0.000 db=0.00
G1 X-22.00 Y24.50 E26.6913 F600         ; draw dl=1.5@10(0<10>0) de=0.094@0.55(0.0<0.62>0.0) l=0.30x0.50x1.00 r=1.00
;00:00:25.122: pe=0.0000 eb=0.0218 ve=0.0000 vn=0.0000 vl=0.000 db=0.47
G1 E21.6913 F2400                       ; retract de=-5.0000@-40.0 r=0.94
;00:00:25.247: pe=-5.0000 eb=0.0218 ve=-40.0000 vn=0.0000 vl=0.000 db=0.47
G1 Z0.500 F420                          ; hopup dz=0.20@7 h=0.5 r=0.73
;00:00:25.275: pe=-5.0000 eb=0.0218 ve=0.0000 vn=0.0000 vl=0.000 db=0.37
G1 X-20.00 Y26.00 F6000                 ; move dl=2.5@100(0<25>0) de=0.000@0.0(0.0<0.0>0.0) l=0.50x0.50x0.00 r=0.00
;00:00:25.425: pe=-5.0000 eb=0.0000 ve=0.0000 vn=0.0000 vl=0.000 db=0.00
G1 Z0.300 F420                          ; hopdn dz=-0.20@7 h=0.3 r=0.00
;00:00:25.454: pe=-5.0000 eb=0.0000 ve=0.0000 vn=0.0000 vl=0.000 db=0.00
G1 E26.6913 F1800                       ; restore de=5.0000@30.0 r=0.00
;00:00:25.620: pe=-0.0000 eb=0.0000 ve=30.0000 vn=0.0000 vl=0.000 db=0.00
G1 X-20.00 Y23.00 E26.8783 F600         ; draw dl=3.0@10(0<10>0) de=0.187@0.58(0.0<0.62>0.0) l=0.30x0.50x1.00 r=1.00
;00:00:25.940: pe=0.0000 eb=0.0241 ve=0.0000 vn=0.0000 vl=0.000 db=0.50
G1 E21.8783 F2400                       ; retract de=-5.0000@-40.0 r=0.99
;00:00:26.065: pe=-5.0000 eb=0.0241 ve=-40.0000 vn=0.0000 vl=0.000 db=0.50
G1 Z0.500 F420                          ; hopup dz=0.20@7 h=0.5 r=0.77
;00:00:26.094: pe=-5.0000 eb=0.0241 ve=0.0000 vn=0.0000 vl=0.000 db=0.38
G1 X-18.00 Y26.00 F6000                 ; move dl=3.6@100(0<30>0) de=0.000@0.0(0.0<0.0>0.0) l=0.50x0.50x0.00 r=0.00
;00:00:26.274: pe=-5.0000 eb=0.0000 ve=0.0000 vn=0.0000 vl=0.000 db=0.00
G1 Z0.300 F420                          ; hopdn dz=-0.20@7 h=0.3 r=0.00
;00:00:26.303: pe=-5.0000 eb=0.0000 ve=0.0000 vn=0.0000 vl=0.000 db=0.00
G1 E26.8783 F1800                       ; restore de=5.0000@30.0 r=0.00
;00:00:26.469: pe=-0.0000 eb=0.0000 ve=30.0000 vn=0.0000 vl=0.000 db=0.00
G1 X-18.00 Y24.50 E26.9719 F600         ; draw dl=1.5@10(0<10>0) de=0.094@0.55(0.0<0.62>0.0) l=0.30x0.50x1.00 r=1.00
;00:00:26.639: pe=0.0000 eb=0.0218 ve=0.0000 vn=0.0000 vl=0.000 db=0.47
G1 E21.9719 F2400                       ; retract de=-5.0000@-40.0 r=0.94
;00:00:26.764: pe=-5.0000 eb=0.0218 ve=-40.0000 vn=0.0000 vl=0.000 db=0.47
G1 Z0.500 F420                          ; hopup dz=0.20@7 h=0.5 r=0.73
;00:00:26.793: pe=-5.0000 eb=0.0218 ve=0.0000 vn=0.0000 vl=0.000 db=0.37
G1 X-16.00 Y26.00 F6000                 ; move dl=2.5@100(0<25>0) de=0.000@0.0(0.0<0.0>0.0) l=0.50x0.50x0.00 r=0.00
;00:00:26.943: pe=-5.0000 eb=0.0000 ve=0.0000 vn=0.0000 vl=0.000 db=0.00
G1 Z0.300 F420                          ; hopdn dz=-0.20@7 h=0.3 r=0.00
;00:00:26.972: pe=-5.0000 eb=0.0000 ve=0.0000 vn=0.0000 vl=0.000 db=0.00
G1 E26.9719 F1800                       ; restore de=5.0000@30.0 r=0.00
;00:00:27.138: pe=-0.0000 eb=0.0000 ve=30.0000 vn=0.0000 vl=0.000 db=0.00
G1 X-16.00 Y24.50 E27.0654 F600         ; draw dl=1.5@10(0<10>0) de=0.094@0.55(0.0<0.62>0.0) l=0.30x0.50x1.00 r=1.00
;00:00:27.308: pe=0.0000 eb=0.0218 ve=0.0000 vn=0.0000 vl=0.000 db=0.47
G1 E22.0654 F2400                       ; retract de=-5.0000@-40.0 r=0.94
;00:00:27.433: pe=-5.0000 eb=0.0218 ve=-40.0000 vn=0.0000 vl=0.000 db=0.47
G1 Z0.500 F420                          ; hopup dz=0.20@7 h=0.5 r=0.73
;00:00:27.462: pe=-5.0000 eb=0.0218 ve=0.0000 vn=0.0000 vl=0.000 db=0.37
G1 X-14.00 Y26.00 F6000                 ; move dl=2.5@100(0<25>0) de=0.000@0.0(0.0<0.0>0.0) l=0.50x0.50x0.00 r=0.00
;00:00:27.612: pe=-5.0000 eb=0.0000 ve=0.0000 vn=0.0000 vl=0.000 db=0.00
G1 Z0.300 F420                          ; hopdn dz=-0.20@7 h=0.3 r=0.00
;00:00:27.640: pe=-5.0000 eb=0.0000 ve=0.0000 vn=0.0000 vl=0.000 db=0.00
G1 E27.0654 F1800                       ; restore de=5.0000@30.0 r=0.00
;00:00:27.807: pe=-0.0000 eb=0.0000 ve=30.0000 vn=0.0000 vl=0.000 db=0.00
G1 X-14.00 Y24.50 E27.1590 F600         ; draw dl=1.5@10(0<10>0) de=0.094@0.55(0.0<0.62>0.0) l=0.30x0.50x1.00 r=1.00
;00:00:27.977: pe=0.0000 eb=0.0218 ve=0.0000 vn=0.0000 vl=0.000 db=0.47
G1 E22.1590 F2400                       ; retract de=-5.0000@-40.0 r=0.94
;00:00:28.102: pe=-5.0000 eb=0.0218 ve=-40.0000 vn=0.0000 vl=0.000 db=0.47
G1 Z0.500 F420                          ; hopup dz=0.20@7 h=0.5 r=0.73
;00:00:28.131: pe=-5.0000 eb=0.0218 ve=0.0000 vn=0.0000 vl=0.000 db=0.37
G1 X-12.00 Y26.00 F6000                 ; move dl=2.5@100(0<25>0) de=0.000@0.0(0.0<0.0>0.0) l=0.50x0.50x0.00 r=0.00
;00:00:28.281: pe=-5.0000 eb=0.0000 ve=0.0000 vn=0.0000 vl=0.000 db=0.00
G1 Z0.300 F420                          ; hopdn dz=-0.20@7 h=0.3 r=0.00
;00:00:28.309: pe=-5.0000 eb=0.0000 ve=0.0000 vn=0.0000 vl=0.000 db=0.00
G1 E27.1590 F1800                       ; restore de=5.0000@30.0 r=0.00
;00:00:28.476: pe=-0.0000 eb=0.0000 ve=30.0000 vn=0.0000 vl=0.000 db=0.00
G1 X-12.00 Y24.50 E27.2525 F600         ; draw dl=1.5@10(0<10>0) de=0.094@0.55(0.0<0.62>0.0) l=0.30x0.50x1.00 r=1.00
;00:00:28.646: pe=0.0000 eb=0.0218 ve=0.0000 vn=0.0000 vl=0.000 db=0.47
G1 E22.2525 F2400                       ; retract de=-5.0000@-40.0 r=0.94
;00:00:28.771: pe=-5.0000 eb=0.0218 ve=-40.0000 vn=0.0000 vl=0.000 db=0.47
G1 Z0.500 F420                          ; hopup dz=0.20@7 h=0.5 r=0.73
;00:00:28.799: pe=-5.0000 eb=0.0218 ve=0.0000 vn=0.0000 vl=0.000 db=0.37
G1 X-10.00 Y26.00 F6000                 ; move dl=2.5@100(0<25>0) de=0.000@0.0(0.0<0.0>0.0) l=0.50x0.50x0.00 r=0.00
;00:00:28.949: pe=-5.0000 eb=0.0000 ve=0.0000 vn=0.0000 vl=0.000 db=0.00
G1 Z0.300 F420                          ; hopdn dz=-0.20@7 h=0.3 r=0.00
;00:00:28.978: pe=-5.0000 eb=0.0000 ve=0.0000 vn=0.0000 vl=0.000 db=0.00
G1 E27.2525 F1800                       ; restore de=5.0000@30.0 r=0.00
;00:00:29.145: pe=-0.0000 eb=0.0000 ve=30.0000 vn=0.0000 vl=0.000 db=0.00
G1 X-10.00 Y23.00 E27.4396 F600         ; draw dl=3.0@10(0<10>0) de=0.187@0.58(0.0<0.62>0.0) l=0.30x0.50x1.00 r=1.00
;00:00:29.465: pe=0.0000 eb=0.0241 ve=0.0000 vn=0.0000 vl=0.000 db=0.50
G1 E22.4396 F2400                       ; retract de=-5.0000@-40.0 r=0.99
;00:00:29.590: pe=-5.0000 eb=0.0241 ve=-40.0000 vn=0.0000 vl=0.000 db=0.50
G1 Z0.500 F420                          ; hopup dz=0.20@7 h=0.5 r=0.77
;00:00:29.618: pe=-5.0000 eb=0.0241 ve=0.0000 vn=0.0000 vl=0.000 db=0.38
G1 X-8.00 Y26.00 F6000                  ; move dl=3.6@100(0<30>0) de=0.000@0.0(0.0<0.0>0.0) l=0.50x0.50x0.00 r=0.00
;00:00:29.798: pe=-5.0000 eb=0.0000 ve=0.0000 vn=0.0000 vl=0.000 db=0.00
G1 Z0.300 F420                          ; hopdn dz=-0.20@7 h=0.3 r=0.00
;00:00:29.827: pe=-5.0000 eb=0.0000 ve=0.0000 vn=0.0000 vl=0.000 db=0.00
G1 E27.4396 F1800                       ; restore de=5.0000@30.0 r=0.00
;00:00:29.994: pe=-0.0000 eb=0.0000 ve=30.0000 vn=0.0000 vl=0.000 db=0.00
G1 X-8.00 Y24.50 E27.5332 F600          ; draw dl=1.5@10(0<10>0) de=0.094@0.55(0.0<0.62>0.0) l=0.30x0.50x1.00 r=1.00
;00:00:30.164: pe=0.0000 eb=0.0218 ve=0.0000 vn=0.0000 vl=0.000 db=0.47
G1 E22.5332 F2400                       ; retract de=-5.0000@-40.0 r=0.94
;00:00:30.289: pe=-5.0000 eb=0.0218 ve=-40.0000 vn=0.0000 vl=0.000 db=0.47
G1 Z0.500 F420                          ; hopup dz=0.20@7 h=0.5 r=0.73
;00:00:30.317: pe=-5.0000 eb=0.0218 ve=0.0000 vn=0.0000 vl=0.000 db=0.37
G1 X-6.00 Y26.00 F6000                  ; move dl=2.5@100(0<25>0) de=0.000@0.0(0.0<0.0>0.0) l=0.50x0.50x0.00 r=0.00
;00:00:30.467: pe=-5.0000 eb=0.0000 ve=0.0000 vn=0.0000 vl=0.000 db=0.00
G1 Z0.300 F420                          ; hopdn dz=-0.20@7 h=0.3 r=0.00
;00:00:30.496: pe=-5.0000 eb=0.0000 ve=0.0000 vn=0.0000 vl=0.000 db=0.00
G1 E27.5332 F1800                       ; restore de=5.0000@30.0 r=0.00
;00:00:30.662: pe=-0.0000 eb=0.0000 ve=30.0000 vn=0.0000 vl=0.000 db=0.00
G1 X-6.00 Y24.50 E27.6267 F600          ; draw dl=1.5@10(0<10>0) de=0.094@0.55(0.0<0.62>0.0) l=0.30x0.50x1.00 r=1.00
;00:00:30.832: pe=0.0000 eb=0.0218 ve=0.0000 vn=0.0000 vl=0.000 db=0.47
G1 E22.6267 F2400                       ; retract de=-5.0000@-40.0 r=0.94
;00:00:30.957: pe=-5.0000 eb=0.0218 ve=-40.0000 vn=0.0000 vl=0.000 db=0.47
G1 Z0.500 F420                          ; hopup dz=0.20@7 h=0.5 r=0.73
;00:00:30.986: pe=-5.0000 eb=0.0218 ve=0.0000 vn=0.0000 vl=0.000 db=0.37
G1 X-4.00 Y26.00 F6000                  ; move dl=2.5@100(0<25>0) de=0.000@0.0(0.0<0.0>0.0) l=0.50x0.50x0.00 r=0.00
;00:00:31.136: pe=-5.0000 eb=0.0000 ve=0.0000 vn=0.0000 vl=0.000 db=0.00
G1 Z0.300 F420                          ; hopdn dz=-0.20@7 h=0.3 r=0.00
;00:00:31.165: pe=-5.0000 eb=0.0000 ve=0.0000 vn=0.0000 vl=0.000 db=0.00
G1 E27.6267 F1800                       ; restore de=5.0000@30.0 r=0.00
;00:00:31.331: pe=-0.0000 eb=0.0000 ve=30.0000 vn=0.0000 vl=0.000 db=0.00
G1 X-4.00 Y24.50 E27.7202 F600          ; draw dl=1.5@10(0<10>0) de=0.094@0.55(0.0<0.62>0.0) l=0.30x0.50x1.00 r=1.00
;00:00:31.501: pe=0.0000 eb=0.0218 ve=0.0000 vn=0.0000 vl=0.000 db=0.47
G1 E22.7202 F2400                       ; retract de=-5.0000@-40.0 r=0.94
;00:00:31.626: pe=-5.0000 eb=0.0218 ve=-40.0000 vn=0.0000 vl=0.000 db=0.47
G1 Z0.500 F420                          ; hopup dz=0.20@7 h=0.5 r=0.73
;00:00:31.655: pe=-5.0000 eb=0.0218 ve=0.0000 vn=0.0000 vl=0.000 db=0.37
G1 X-2.00 Y26.00 F6000                  ; move dl=2.5@100(0<25>0) de=0.000@0.0(0.0<0.0>0.0) l=0.50x0.50x0.00 r=0.00
;00:00:31.805: pe=-5.0000 eb=0.0000 ve=0.0000 vn=0.0000 vl=0.000 db=0.00
G1 Z0.300 F420                          ; hopdn dz=-0.20@7 h=0.3 r=0.00
;00:00:31.833: pe=-5.0000 eb=0.0000 ve=0.0000 vn=0.0000 vl=0.000 db=0.00
G1 E27.7202 F1800                       ; restore de=5.0000@30.0 r=0.00
;00:00:32.000: pe=-0.0000 eb=0.0000 ve=30.0000 vn=0.0000 vl=0.000 db=0.00
G1 X-2.00 Y24.50 E27.8138 F600          ; draw dl=1.5@10(0<10>0) de=0.094@0.55(0.0<0.62>0.0) l=0.30x0.50x1.00 r=1.00
;00:00:32.170: pe=0.0000 eb=0.0218 ve=0.0000 vn=0.0000 vl=0.000 db=0.47
G1 E22.8138 F2400                       ; retract de=-5.0000@-40.0 r=0.94
;00:00:32.295: pe=-5.0000 eb=0.0218 ve=-40.0000 vn=0.0000 vl=0.000 db=0.47
G1 Z0.500 F420                          ; hopup dz=0.20@7 h=0.5 r=0.73
;00:00:32.324: pe=-5.0000 eb=0.0218 ve=0.0000 vn=0.0000 vl=0.000 db=0.37
G1 X0.00 Y26.00 F6000                   ; move dl=2.5@100(0<25>0) de=0.000@0.0(0.0<0.0>0.0) l=0.50x0.50x0.00 r=0.00
;00:00:32.474: pe=-5.0000 eb=0.0000 ve=0.0000 vn=0.0000 vl=0.000 db=0.00
G1 Z0.300 F420                          ; hopdn dz=-0.20@7 h=0.3 r=0.00
;00:00:32.502: pe=-5.0000 eb=0.0000 ve=0.0000 vn=0.0000 vl=0.000 db=0.00
G1 E27.8138 F1800                       ; restore de=5.0000@30.0 r=0.00
;00:00:32.669: pe=-0.0000 eb=0.0000 ve=30.0000 vn=0.0000 vl=0.000 db=0.00
G1 X0.00 Y23.00 E28.0009 F600           ; draw dl=3.0@10(0<10>0) de=0.187@0.58(0.0<0.62>0.0) l=0.30x0.50x1.00 r=1.00
;00:00:32.989: pe=0.0000 eb=0.0241 ve=0.0000 vn=0.0000 vl=0.000 db=0.50
G1 E23.0009 F2400                       ; retract de=-5.0000@-40.0 r=0.99
;00:00:33.114: pe=-5.0000 eb=0.0241 ve=-40.0000 vn=0.0000 vl=0.000 db=0.50
G1 Z0.500 F420                          ; hopup dz=0.20@7 h=0.5 r=0.77
;00:00:33.142: pe=-5.0000 eb=0.0241 ve=0.0000 vn=0.0000 vl=0.000 db=0.38
G1 X2.00 Y26.00 F6000                   ; move dl=3.6@100(0<30>0) de=0.000@0.0(0.0<0.0>0.0) l=0.50x0.50x0.00 r=0.00
;00:00:33.323: pe=-5.0000 eb=0.0000 ve=0.0000 vn=0.0000 vl=0.000 db=0.00
G1 Z0.300 F420                          ; hopdn dz=-0.20@7 h=0.3 r=0.00
;00:00:33.351: pe=-5.0000 eb=0.0000 ve=0.0000 vn=0.0000 vl=0.000 db=0.00
G1 E28.0009 F1800                       ; restore de=5.0000@30.0 r=0.00
;00:00:33.518: pe=-0.0000 eb=0.0000 ve=30.0000 vn=0.0000 vl=0.000 db=0.00
G1 X2.00 Y24.50 E28.0944 F600           ; draw dl=1.5@10(0<10>0) de=0.094@0.55(0.0<0.62>0.0) l=0.30x0.50x1.00 r=1.00
;00:00:33.688: pe=0.0000 eb=0.0218 ve=0.0000 vn=0.0000 vl=0.000 db=0.47
G1 E23.0944 F2400                       ; retract de=-5.0000@-40.0 r=0.94
;00:00:33.813: pe=-5.0000 eb=0.0218 ve=-40.0000 vn=0.0000 vl=0.000 db=0.47
G1 Z0.500 F420                          ; hopup dz=0.20@7 h=0.5 r=0.73
;00:00:33.841: pe=-5.0000 eb=0.0218 ve=0.0000 vn=0.0000 vl=0.000 db=0.37
G1 X4.00 Y26.00 F6000                   ; move dl=2.5@100(0<25>0) de=0.000@0.0(0.0<0.0>0.0) l=0.50x0.50x0.00 r=0.00
;00:00:33.991: pe=-5.0000 eb=0.0000 ve=0.0000 vn=0.0000 vl=0.000 db=0.00
G1 Z0.300 F420                          ; hopdn dz=-0.20@7 h=0.3 r=0.00
;00:00:34.020: pe=-5.0000 eb=0.0000 ve=0.0000 vn=0.0000 vl=0.000 db=0.00
G1 E28.0944 F1800                       ; restore de=5.0000@30.0 r=0.00
;00:00:34.187: pe=-0.0000 eb=0.0000 ve=30.0000 vn=0.0000 vl=0.000 db=0.00
G1 X4.00 Y24.50 E28.1880 F600           ; draw dl=1.5@10(0<10>0) de=0.094@0.55(0.0<0.62>0.0) l=0.30x0.50x1.00 r=1.00
;00:00:34.357: pe=0.0000 eb=0.0218 ve=0.0000 vn=0.0000 vl=0.000 db=0.47
G1 E23.1880 F2400                       ; retract de=-5.0000@-40.0 r=0.94
;00:00:34.482: pe=-5.0000 eb=0.0218 ve=-40.0000 vn=0.0000 vl=0.000 db=0.47
G1 Z0.500 F420                          ; hopup dz=0.20@7 h=0.5 r=0.73
;00:00:34.510: pe=-5.0000 eb=0.0218 ve=0.0000 vn=0.0000 vl=0.000 db=0.37
G1 X6.00 Y26.00 F6000                   ; move dl=2.5@100(0<25>0) de=0.000@0.0(0.0<0.0>0.0) l=0.50x0.50x0.00 r=0.00
;00:00:34.660: pe=-5.0000 eb=0.0000 ve=0.0000 vn=0.0000 vl=0.000 db=0.00
G1 Z0.300 F420                          ; hopdn dz=-0.20@7 h=0.3 r=0.00
;00:00:34.689: pe=-5.0000 eb=0.0000 ve=0.0000 vn=0.0000 vl=0.000 db=0.00
G1 E28.1880 F1800                       ; restore de=5.0000@30.0 r=0.00
;00:00:34.855: pe=-0.0000 eb=0.0000 ve=30.0000 vn=0.0000 vl=0.000 db=0.00
G1 X6.00 Y24.50 E28.2815 F600           ; draw dl=1.5@10(0<10>0) de=0.094@0.55(0.0<0.62>0.0) l=0.30x0.50x1.00 r=1.00
;00:00:35.025: pe=0.0000 eb=0.0218 ve=0.0000 vn=0.0000 vl=0.000 db=0.47
G1 E23.2815 F2400                       ; retract de=-5.0000@-40.0 r=0.94
;00:00:35.150: pe=-5.0000 eb=0.0218 ve=-40.0000 vn=0.0000 vl=0.000 db=0.47
G1 Z0.500 F420                          ; hopup dz=0.20@7 h=0.5 r=0.73
;00:00:35.179: pe=-5.0000 eb=0.0218 ve=0.0000 vn=0.0000 vl=0.000 db=0.37
G1 X8.00 Y26.00 F6000                   ; move dl=2.5@100(0<25>0) de=0.000@0.0(0.0<0.0>0.0) l=0.50x0.50x0.00 r=0.00
;00:00:35.329: pe=-5.0000 eb=0.0000 ve=0.0000 vn=0.0000 vl=0.000 db=0.00
G1 Z0.300 F420                          ; hopdn dz=-0.20@7 h=0.3 r=0.00
;00:00:35.358: pe=-5.0000 eb=0.0000 ve=0.0000 vn=0.0000 vl=0.000 db=0.00
G1 E28.2815 F1800                       ; restore de=5.0000@30.0 r=0.00
;00:00:35.524: pe=-0.0000 eb=0.0000 ve=30.0000 vn=0.0000 vl=0.000 db=0.00
G1 X8.00 Y24.50 E28.3750 F600           ; draw dl=1.5@10(0<10>0) de=0.094@0.55(0.0<0.62>0.0) l=0.30x0.50x1.00 r=1.00
;00:00:35.694: pe=0.0000 eb=0.0218 ve=0.0000 vn=0.0000 vl=0.000 db=0.47
G1 E23.3750 F2400                       ; retract de=-5.0000@-40.0 r=0.94
;00:00:35.819: pe=-5.0000 eb=0.0218 ve=-40.0000 vn=0.0000 vl=0.000 db=0.47
G1 Z0.500 F420                          ; hopup dz=0.20@7 h=0.5 r=0.73
;00:00:35.848: pe=-5.0000 eb=0.0218 ve=0.0000 vn=0.0000 vl=0.000 db=0.37
G1 X10.00 Y26.00 F6000                  ; move dl=2.5@100(0<25>0) de=0.000@0.0(0.0<0.0>0.0) l=0.50x0.50x0.00 r=0.00
;00:00:35.998: pe=-5.0000 eb=0.0000 ve=0.0000 vn=0.0000 vl=0.000 db=0.00
G1 Z0.300 F420                          ; hopdn dz=-0.20@7 h=0.3 r=0.00
;00:00:36.026: pe=-5.0000 eb=0.0000 ve=0.0000 vn=0.0000 vl=0.000 db=0.00
G1 E28.3750 F1800                       ; restore de=5.0000@30.0 r=0.00
;00:00:36.193: pe=-0.0000 eb=0.0000 ve=30.0000 vn=0.0000 vl=0.000 db=0.00
G1 X10.00 Y23.00 E28.5621 F600          ; draw dl=3.0@10(0<10>0) de=0.187@0.58(0.0<0.62>0.0) l=0.30x0.50x1.00 r=1.00
;00:00:36.513: pe=0.0000 eb=0.0241 ve=0.0000 vn=0.0000 vl=0.000 db=0.50
G1 E23.5621 F2400                       ; retract de=-5.0000@-40.0 r=0.99
;00:00:36.638: pe=-5.0000 eb=0.0241 ve=-40.0000 vn=0.0000 vl=0.000 db=0.50
G1 Z0.500 F420                          ; hopup dz=0.20@7 h=0.5 r=0.77
;00:00:36.667: pe=-5.0000 eb=0.0241 ve=0.0000 vn=0.0000 vl=0.000 db=0.38
G1 X12.00 Y26.00 F6000                  ; move dl=3.6@100(0<30>0) de=0.000@0.0(0.0<0.0>0.0) l=0.50x0.50x0.00 r=0.00
;00:00:36.847: pe=-5.0000 eb=0.0000 ve=0.0000 vn=0.0000 vl=0.000 db=0.00
G1 Z0.300 F420                          ; hopdn dz=-0.20@7 h=0.3 r=0.00
;00:00:36.875: pe=-5.0000 eb=0.0000 ve=0.0000 vn=0.0000 vl=0.000 db=0.00
G1 E28.5621 F1800                       ; restore de=5.0000@30.0 r=0.00
;00:00:37.042: pe=-0.0000 eb=0.0000 ve=30.0000 vn=0.0000 vl=0.000 db=0.00
G1 X12.00 Y24.50 E28.6557 F600          ; draw dl=1.5@10(0<10>0) de=0.094@0.55(0.0<0.62>0.0) l=0.30x0.50x1.00 r=1.00
;00:00:37.212: pe=0.0000 eb=0.0218 ve=0.0000 vn=0.0000 vl=0.000 db=0.47
G1 E23.6557 F2400                       ; retract de=-5.0000@-40.0 r=0.94
;00:00:37.337: pe=-5.0000 eb=0.0218 ve=-40.0000 vn=0.0000 vl=0.000 db=0.47
G1 Z0.500 F420                          ; hopup dz=0.20@7 h=0.5 r=0.73
;00:00:37.366: pe=-5.0000 eb=0.0218 ve=0.0000 vn=0.0000 vl=0.000 db=0.37
G1 X14.00 Y26.00 F6000                  ; move dl=2.5@100(0<25>0) de=0.000@0.0(0.0<0.0>0.0) l=0.50x0.50x0.00 r=0.00
;00:00:37.516: pe=-5.0000 eb=0.0000 ve=0.0000 vn=0.0000 vl=0.000 db=0.00
G1 Z0.300 F420                          ; hopdn dz=-0.20@7 h=0.3 r=0.00
;00:00:37.544: pe=-5.0000 eb=0.0000 ve=0.0000 vn=0.0000 vl=0.000 db=0.00
G1 E28.6557 F1800                       ; restore de=5.0000@30.0 r=0.00
;00:00:37.711: pe=-0.0000 eb=0.0000 ve=30.0000 vn=0.0000 vl=0.000 db=0.00
G1 X14.00 Y24.50 E28.7492 F600          ; draw dl=1.5@10(0<10>0) de=0.094@0.55(0.0<0.62>0.0) l=0.30x0.50x1.00 r=1.00
;00:00:37.881: pe=0.0000 eb=0.0218 ve=0.0000 vn=0.0000 vl=0.000 db=0.47
G1 E23.7492 F2400                       ; retract de=-5.0000@-40.0 r=0.94
;00:00:38.006: pe=-5.0000 eb=0.0218 ve=-40.0000 vn=0.0000 vl=0.000 db=0.47
G1 Z0.500 F420                          ; hopup dz=0.20@7 h=0.5 r=0.73
;00:00:38.034: pe=-5.0000 eb=0.0218 ve=0.0000 vn=0.0000 vl=0.000 db=0.37
G1 X16.00 Y26.00 F6000                  ; move dl=2.5@100(0<25>0) de=0.000@0.0(0.0<0.0>0.0) l=0.50x0.50x0.00 r=0.00
;00:00:38.184: pe=-5.0000 eb=0.0000 ve=0.0000 vn=0.0000 vl=0.000 db=0.00
G1 Z0.300 F420                          ; hopdn dz=-0.20@7 h=0.3 r=0.00
;00:00:38.213: pe=-5.0000 eb=0.0000 ve=0.0000 vn=0.0000 vl=0.000 db=0.00
G1 E28.7492 F1800                       ; restore de=5.0000@30.0 r=0.00
;00:00:38.380: pe=-0.0000 eb=0.0000 ve=30.0000 vn=0.0000 vl=0.000 db=0.00
G1 X16.00 Y24.50 E28.8428 F600          ; draw dl=1.5@10(0<10>0) de=0.094@0.55(0.0<0.62>0.0) l=0.30x0.50x1.00 r=1.00
;00:00:38.550: pe=0.0000 eb=0.0218 ve=0.0000 vn=0.0000 vl=0.000 db=0.47
G1 E23.8428 F2400                       ; retract de=-5.0000@-40.0 r=0.94
;00:00:38.675: pe=-5.0000 eb=0.0218 ve=-40.0000 vn=0.0000 vl=0.000 db=0.47
G1 Z0.500 F420                          ; hopup dz=0.20@7 h=0.5 r=0.73
;00:00:38.703: pe=-5.0000 eb=0.0218 ve=0.0000 vn=0.0000 vl=0.000 db=0.37
G1 X18.00 Y26.00 F6000                  ; move dl=2.5@100(0<25>0) de=0.000@0.0(0.0<0.0>0.0) l=0.50x0.50x0.00 r=0.00
;00:00:38.853: pe=-5.0000 eb=0.0000 ve=0.0000 vn=0.0000 vl=0.000 db=0.00
G1 Z0.300 F420                          ; hopdn dz=-0.20@7 h=0.3 r=0.00
;00:00:38.882: pe=-5.0000 eb=0.0000 ve=0.0000 vn=0.0000 vl=0.000 db=0.00
G1 E28.8428 F1800                       ; restore de=5.0000@30.0 r=0.00
;00:00:39.048: pe=-0.0000 eb=0.0000 ve=30.0000 vn=0.0000 vl=0.000 db=0.00
G1 X18.00 Y24.50 E28.9363 F600          ; draw dl=1.5@10(0<10>0) de=0.094@0.55(0.0<0.62>0.0) l=0.30x0.50x1.00 r=1.00
;00:00:39.218: pe=0.0000 eb=0.0218 ve=0.0000 vn=0.0000 vl=0.000 db=0.47
G1 E23.9363 F2400                       ; retract de=-5.0000@-40.0 r=0.94
;00:00:39.343: pe=-5.0000 eb=0.0218 ve=-40.0000 vn=0.0000 vl=0.000 db=0.47
G1 Z0.500 F420                          ; hopup dz=0.20@7 h=0.5 r=0.73
;00:00:39.372: pe=-5.0000 eb=0.0218 ve=0.0000 vn=0.0000 vl=0.000 db=0.37
G1 X20.00 Y26.00 F6000                  ; move dl=2.5@100(0<25>0) de=0.000@0.0(0.0<0.0>0.0) l=0.50x0.50x0.00 r=0.00
;00:00:39.522: pe=-5.0000 eb=0.0000 ve=0.0000 vn=0.0000 vl=0.000 db=0.00
G1 Z0.300 F420                          ; hopdn dz=-0.20@7 h=0.3 r=0.00
;00:00:39.551: pe=-5.0000 eb=0.0000 ve=0.0000 vn=0.0000 vl=0.000 db=0.00
G1 E28.9363 F1800                       ; restore de=5.0000@30.0 r=0.00
;00:00:39.717: pe=-0.0000 eb=0.0000 ve=30.0000 vn=0.0000 vl=0.000 db=0.00
G1 X20.00 Y23.00 E29.1234 F600          ; draw dl=3.0@10(0<10>0) de=0.187@0.58(0.0<0.62>0.0) l=0.30x0.50x1.00 r=1.00
;00:00:40.037: pe=0.0000 eb=0.0241 ve=0.0000 vn=0.0000 vl=0.000 db=0.50
G1 E24.1234 F2400                       ; retract de=-5.0000@-40.0 r=0.99
;00:00:40.162: pe=-5.0000 eb=0.0241 ve=-40.0000 vn=0.0000 vl=0.000 db=0.50
G1 Z0.500 F420                          ; hopup dz=0.20@7 h=0.5 r=0.77
;00:00:40.191: pe=-5.0000 eb=0.0241 ve=0.0000 vn=0.0000 vl=0.000 db=0.38
G1 X22.00 Y26.00 F6000                  ; move dl=3.6@100(0<30>0) de=0.000@0.0(0.0<0.0>0.0) l=0.50x0.50x0.00 r=0.00
;00:00:40.371: pe=-5.0000 eb=0.0000 ve=0.0000 vn=0.0000 vl=0.000 db=0.00
G1 Z0.300 F420                          ; hopdn dz=-0.20@7 h=0.3 r=0.00
;00:00:40.399: pe=-5.0000 eb=0.0000 ve=0.0000 vn=0.0000 vl=0.000 db=0.00
G1 E29.1234 F1800                       ; restore de=5.0000@30.0 r=0.00
;00:00:40.566: pe=-0.0000 eb=0.0000 ve=30.0000 vn=0.0000 vl=0.000 db=0.00
G1 X22.00 Y24.50 E29.2169 F600          ; draw dl=1.5@10(0<10>0) de=0.094@0.55(0.0<0.62>0.0) l=0.30x0.50x1.00 r=1.00
;00:00:40.736: pe=0.0000 eb=0.0218 ve=0.0000 vn=0.0000 vl=0.000 db=0.47
G1 E24.2169 F2400                       ; retract de=-5.0000@-40.0 r=0.94
;00:00:40.861: pe=-5.0000 eb=0.0218 ve=-40.0000 vn=0.0000 vl=0.000 db=0.47
G1 Z0.500 F420                          ; hopup dz=0.20@7 h=0.5 r=0.73
;00:00:40.890: pe=-5.0000 eb=0.0218 ve=0.0000 vn=0.0000 vl=0.000 db=0.37
G1 X24.00 Y26.00 F6000                  ; move dl=2.5@100(0<25>0) de=0.000@0.0(0.0<0.0>0.0) l=0.50x0.50x0.00 r=0.00
;00:00:41.040: pe=-5.0000 eb=0.0000 ve=0.0000 vn=0.0000 vl=0.000 db=0.00
G1 Z0.300 F420                          ; hopdn dz=-0.20@7 h=0.3 r=0.00
;00:00:41.068: pe=-5.0000 eb=0.0000 ve=0.0000 vn=0.0000 vl=0.000 db=0.00
G1 E29.2169 F1800                       ; restore de=5.0000@30.0 r=0.00
;00:00:41.235: pe=-0.0000 eb=0.0000 ve=30.0000 vn=0.0000 vl=0.000 db=0.00
G1 X24.00 Y24.50 E29.3105 F600          ; draw dl=1.5@10(0<10>0) de=0.094@0.55(0.0<0.62>0.0) l=0.30x0.50x1.00 r=1.00
;00:00:41.405: pe=0.0000 eb=0.0218 ve=0.0000 vn=0.0000 vl=0.000 db=0.47
G1 E24.3105 F2400                       ; retract de=-5.0000@-40.0 r=0.94
;00:00:41.530: pe=-5.0000 eb=0.0218 ve=-40.0000 vn=0.0000 vl=0.000 db=0.47
G1 Z0.500 F420                          ; hopup dz=0.20@7 h=0.5 r=0.73
;00:00:41.559: pe=-5.0000 eb=0.0218 ve=0.0000 vn=0.0000 vl=0.000 db=0.37
G1 X26.00 Y26.00 F6000                  ; move dl=2.5@100(0<25>0) de=0.000@0.0(0.0<0.0>0.0) l=0.50x0.50x0.00 r=0.00
;00:00:41.709: pe=-5.0000 eb=0.0000 ve=0.0000 vn=0.0000 vl=0.000 db=0.00
G1 Z0.300 F420                          ; hopdn dz=-0.20@7 h=0.3 r=0.00
;00:00:41.737: pe=-5.0000 eb=0.0000 ve=0.0000 vn=0.0000 vl=0.000 db=0.00
G1 E29.3105 F1800                       ; restore de=5.0000@30.0 r=0.00
;00:00:41.904: pe=-0.0000 eb=0.0000 ve=30.0000 vn=0.0000 vl=0.000 db=0.00
G1 X26.00 Y24.50 E29.4040 F600          ; draw dl=1.5@10(0<10>0) de=0.094@0.55(0.0<0.62>0.0) l=0.30x0.50x1.00 r=1.00
;00:00:42.074: pe=0.0000 eb=0.0218 ve=0.0000 vn=0.0000 vl=0.000 db=0.47
G1 E24.4040 F2400                       ; retract de=-5.0000@-40.0 r=0.94
;00:00:42.199: pe=-5.0000 eb=0.0218 ve=-40.0000 vn=0.0000 vl=0.000 db=0.47
G1 Z0.500 F420                          ; hopup dz=0.20@7 h=0.5 r=0.73
;00:00:42.227: pe=-5.0000 eb=0.0218 ve=0.0000 vn=0.0000 vl=0.000 db=0.37
G1 X28.00 Y26.00 F6000                  ; move dl=2.5@100(0<25>0) de=0.000@0.0(0.0<0.0>0.0) l=0.50x0.50x0.00 r=0.00
;00:00:42.377: pe=-5.0000 eb=0.0000 ve=0.0000 vn=0.0000 vl=0.000 db=0.00
G1 Z0.300 F420                          ; hopdn dz=-0.20@7 h=0.3 r=0.00
;00:00:42.406: pe=-5.0000 eb=0.0000 ve=0.0000 vn=0.0000 vl=0.000 db=0.00
G1 E29.4040 F1800                       ; restore de=5.0000@30.0 r=0.00
;00:00:42.573: pe=-0.0000 eb=0.0000 ve=30.0000 vn=0.0000 vl=0.000 db=0.00
G1 X28.00 Y24.50 E29.4976 F600          ; draw dl=1.5@10(0<10>0) de=0.094@0.55(0.0<0.62>0.0) l=0.30x0.50x1.00 r=1.00
;00:00:42.743: pe=0.0000 eb=0.0218 ve=0.0000 vn=0.0000 vl=0.000 db=0.47
G1 E24.4976 F2400                       ; retract de=-5.0000@-40.0 r=0.94
;00:00:42.868: pe=-5.0000 eb=0.0218 ve=-40.0000 vn=0.0000 vl=0.000 db=0.47
G1 Z0.500 F420                          ; hopup dz=0.20@7 h=0.5 r=0.73
;00:00:42.896: pe=-5.0000 eb=0.0218 ve=0.0000 vn=0.0000 vl=0.000 db=0.37
G1 X30.00 Y26.00 F6000                  ; move dl=2.5@100(0<25>0) de=0.000@0.0(0.0<0.0>0.0) l=0.50x0.50x0.00 r=0.00
;00:00:43.046: pe=-5.0000 eb=0.0000 ve=0.0000 vn=0.0000 vl=0.000 db=0.00
G1 Z0.300 F420                          ; hopdn dz=-0.20@7 h=0.3 r=0.00
;00:00:43.075: pe=-5.0000 eb=0.0000 ve=0.0000 vn=0.0000 vl=0.000 db=0.00
G1 E29.4976 F1800                       ; restore de=5.0000@30.0 r=0.00
;00:00:43.241: pe=-0.0000 eb=0.0000 ve=30.0000 vn=0.0000 vl=0.000 db=0.00
G1 X30.00 Y23.00 E29.6847 F600          ; draw dl=3.0@10(0<10>0) de=0.187@0.58(0.0<0.62>0.0) l=0.30x0.50x1.00 r=1.00
;00:00:43.561: pe=0.0000 eb=0.0241 ve=0.0000 vn=0.0000 vl=0.000 db=0.50
G1 E24.6847 F2400                       ; retract de=-5.0000@-40.0 r=0.99
;00:00:43.686: pe=-5.0000 eb=0.0241 ve=-40.0000 vn=0.0000 vl=0.000 db=0.50
G1 Z0.500 F420                          ; hopup dz=0.20@7 h=0.5 r=0.77
;00:00:43.715: pe=-5.0000 eb=0.0241 ve=0.0000 vn=0.0000 vl=0.000 db=0.38
G1 X32.00 Y26.00 F6000                  ; move dl=3.6@100(0<30>0) de=0.000@0.0(0.0<0.0>0.0) l=0.50x0.50x0.00 r=0.00
;00:00:43.895: pe=-5.0000 eb=0.0000 ve=0.0000 vn=0.0000 vl=0.000 db=0.00
G1 Z0.300 F420                          ; hopdn dz=-0.20@7 h=0.3 r=0.00
;00:00:43.924: pe=-5.0000 eb=0.0000 ve=0.0000 vn=0.0000 vl=0.000 db=0.00
G1 E29.6847 F1800                       ; restore de=5.0000@30.0 r=0.00
;00:00:44.090: pe=-0.0000 eb=0.0000 ve=30.0000 vn=0.0000 vl=0.000 db=0.00
G1 X32.00 Y24.50 E29.7782 F600          ; draw dl=1.5@10(0<10>0) de=0.094@0.55(0.0<0.62>0.0) l=0.30x0.50x1.00 r=1.00
;00:00:44.260: pe=0.0000 eb=0.0218 ve=0.0000 vn=0.0000 vl=0.000 db=0.47
G1 E24.7782 F2400                       ; retract de=-5.0000@-40.0 r=0.94
;00:00:44.385: pe=-5.0000 eb=0.0218 ve=-40.0000 vn=0.0000 vl=0.000 db=0.47
G1 Z0.500 F420                          ; hopup dz=0.20@7 h=0.5 r=0.73
;00:00:44.414: pe=-5.0000 eb=0.0218 ve=0.0000 vn=0.0000 vl=0.000 db=0.37
G1 X34.00 Y26.00 F6000                  ; move dl=2.5@100(0<25>0) de=0.000@0.0(0.0<0.0>0.0) l=0.50x0.50x0.00 r=0.00
;00:00:44.564: pe=-5.0000 eb=0.0000 ve=0.0000 vn=0.0000 vl=0.000 db=0.00
G1 Z0.300 F420                          ; hopdn dz=-0.20@7 h=0.3 r=0.00
;00:00:44.592: pe=-5.0000 eb=0.0000 ve=0.0000 vn=0.0000 vl=0.000 db=0.00
G1 E29.7782 F1800                       ; restore de=5.0000@30.0 r=0.00
;00:00:44.759: pe=-0.0000 eb=0.0000 ve=30.0000 vn=0.0000 vl=0.000 db=0.00
G1 X34.00 Y24.50 E29.8718 F600          ; draw dl=1.5@10(0<10>0) de=0.094@0.55(0.0<0.62>0.0) l=0.30x0.50x1.00 r=1.00
;00:00:44.929: pe=0.0000 eb=0.0218 ve=0.0000 vn=0.0000 vl=0.000 db=0.47
G1 E24.8718 F2400                       ; retract de=-5.0000@-40.0 r=0.94
;00:00:45.054: pe=-5.0000 eb=0.0218 ve=-40.0000 vn=0.0000 vl=0.000 db=0.47
G1 Z0.500 F420                          ; hopup dz=0.20@7 h=0.5 r=0.73
;00:00:45.083: pe=-5.0000 eb=0.0218 ve=0.0000 vn=0.0000 vl=0.000 db=0.37
G1 X36.00 Y26.00 F6000                  ; move dl=2.5@100(0<25>0) de=0.000@0.0(0.0<0.0>0.0) l=0.50x0.50x0.00 r=0.00
;00:00:45.233: pe=-5.0000 eb=0.0000 ve=0.0000 vn=0.0000 vl=0.000 db=0.00
G1 Z0.300 F420                          ; hopdn dz=-0.20@7 h=0.3 r=0.00
;00:00:45.261: pe=-5.0000 eb=0.0000 ve=0.0000 vn=0.0000 vl=0.000 db=0.00
G1 E29.8718 F1800                       ; restore de=5.0000@30.0 r=0.00
;00:00:45.428: pe=-0.0000 eb=0.0000 ve=30.0000 vn=0.0000 vl=0.000 db=0.00
G1 X36.00 Y24.50 E29.9653 F600          ; draw dl=1.5@10(0<10>0) de=0.094@0.55(0.0<0.62>0.0) l=0.30x0.50x1.00 r=1.00
;00:00:45.598: pe=0.0000 eb=0.0218 ve=0.0000 vn=0.0000 vl=0.000 db=0.47
G1 E24.9653 F2400                       ; retract de=-5.0000@-40.0 r=0.94
;00:00:45.723: pe=-5.0000 eb=0.0218 ve=-40.0000 vn=0.0000 vl=0.000 db=0.47
G1 Z0.500 F420                          ; hopup dz=0.20@7 h=0.5 r=0.73
;00:00:45.752: pe=-5.0000 eb=0.0218 ve=0.0000 vn=0.0000 vl=0.000 db=0.37
G1 X38.00 Y26.00 F6000                  ; move dl=2.5@100(0<25>0) de=0.000@0.0(0.0<0.0>0.0) l=0.50x0.50x0.00 r=0.00
;00:00:45.902: pe=-5.0000 eb=0.0000 ve=0.0000 vn=0.0000 vl=0.000 db=0.00
G1 Z0.300 F420                          ; hopdn dz=-0.20@7 h=0.3 r=0.00
;00:00:45.930: pe=-5.0000 eb=0.0000 ve=0.0000 vn=0.0000 vl=0.000 db=0.00
G1 E29.9653 F1800                       ; restore de=5.0000@30.0 r=0.00
;00:00:46.097: pe=-0.0000 eb=0.0000 ve=30.0000 vn=0.0000 vl=0.000 db=0.00
G1 X38.00 Y24.50 E30.0588 F600          ; draw dl=1.5@10(0<10>0) de=0.094@0.55(0.0<0.62>0.0) l=0.30x0.50x1.00 r=1.00
;00:00:46.267: pe=0.0000 eb=0.0218 ve=0.0000 vn=0.0000 vl=0.000 db=0.47
G1 E25.0588 F2400                       ; retract de=-5.0000@-40.0 r=0.94
;00:00:46.392: pe=-5.0000 eb=0.0218 ve=-40.0000 vn=0.0000 vl=0.000 db=0.47
G1 Z0.500 F420                          ; hopup dz=0.20@7 h=0.5 r=0.73
;00:00:46.420: pe=-5.0000 eb=0.0218 ve=0.0000 vn=0.0000 vl=0.000 db=0.37
G1 X40.00 Y26.00 F6000                  ; move dl=2.5@100(0<25>0) de=0.000@0.0(0.0<0.0>0.0) l=0.50x0.50x0.00 r=0.00
;00:00:46.570: pe=-5.0000 eb=0.0000 ve=0.0000 vn=0.0000 vl=0.000 db=0.00
G1 Z0.300 F420                          ; hopdn dz=-0.20@7 h=0.3 r=0.00
;00:00:46.599: pe=-5.0000 eb=0.0000 ve=0.0000 vn=0.0000 vl=0.000 db=0.00
G1 E30.0588 F1800                       ; restore de=5.0000@30.0 r=0.00
;00:00:46.766: pe=-0.0000 eb=0.0000 ve=30.0000 vn=0.0000 vl=0.000 db=0.00
G1 X40.00 Y23.00 E30.2459 F600          ; draw dl=3.0@10(0<10>0) de=0.187@0.58(0.0<0.62>0.0) l=0.30x0.50x1.00 r=1.00
;00:00:47.086: pe=0.0000 eb=0.0241 ve=0.0000 vn=0.0000 vl=0.000 db=0.50
G1 E25.2459 F2400                       ; retract de=-5.0000@-40.0 r=0.99
;00:00:47.211: pe=-5.0000 eb=0.0241 ve=-40.0000 vn=0.0000 vl=0.000 db=0.50
G1 Z0.500 F420                          ; hopup dz=0.20@7 h=0.5 r=0.77
;00:00:47.239: pe=-5.0000 eb=0.0241 ve=0.0000 vn=0.0000 vl=0.000 db=0.38
;structure:brim
;structure:shell-outer
;00:00:47.239: text [(46.0, 26), (None, None)] fsize=5 angle=0 'fKf=0.0\nvx0=10-50\nvx1=20-100'
G1 X47.69 Y25.90 F6000                  ; move dl=8.2@100(0<45>0) de=0.000@0.0(0.0<0.0>0.0) l=0.50x0.50x0.00 r=0.00
;00:00:47.511: pe=-5.0000 eb=0.0000 ve=0.0000 vn=0.0000 vl=0.000 db=0.00
G1 Z0.300 F420                          ; hopdn dz=-0.20@7 h=0.3 r=0.00
;00:00:47.540: pe=-5.0000 eb=0.0000 ve=0.0000 vn=0.0000 vl=0.000 db=0.00
G1 E30.2459 F1800                       ; restore de=5.0000@30.0 r=0.00
;00:00:47.706: pe=-0.0000 eb=0.0000 ve=30.0000 vn=0.0000 vl=0.000 db=0.00
G1 X47.54 Y25.90 E30.2553 F600          ; draw dl=0.1@10(0<10>10) de=0.009@0.37(0.0<0.62>0.62) l=0.30x0.50x1.00 r=1.00
;00:00:47.731: pe=0.0000 eb=0.0061 ve=0.6236 vn=0.6236 vl=10.000 db=0.25
G1 X47.36 Y25.86 E30.2668               ; draw dl=0.2@10(10<10>10) de=0.011@0.62(0.62<0.62>0.62) l=0.30x0.50x1.00 r=1.00
;00:00:47.750: pe=0.0000 eb=0.0109 ve=0.6236 vn=0.6236 vl=10.000 db=0.33
G1 X47.20 Y25.73 E30.2796               ; draw dl=0.2@10(10<10>10) de=0.013@0.62(0.62<0.62>0.62) l=0.30x0.50x1.00 r=1.00
;00:00:47.770: pe=0.0000 eb=0.0145 ve=0.6236 vn=0.6236 vl=10.000 db=0.38
G1 X47.08 Y25.54 E30.2937               ; draw dl=0.2@10(10<10>10) de=0.014@0.62(0.62<0.62>0.62) l=0.30x0.50x1.00 r=1.00
;00:00:47.793: pe=0.0000 eb=0.0172 ve=0.6236 vn=0.6236 vl=10.000 db=0.42
G1 X47.00 Y25.17 E30.3173               ; draw dl=0.4@10(10<10>10) de=0.024@0.62(0.62<0.62>0.62) l=0.30x0.50x1.00 r=1.00
;00:00:47.831: pe=0.0000 eb=0.0202 ve=0.6236 vn=0.6236 vl=10.000 db=0.45
G1 X47.00 Y22.48 E30.4850               ; draw dl=2.7@10(10<10>0) de=0.168@0.6(0.62<0.62>0.0) l=0.30x0.50x1.00 r=1.00
;00:00:48.110: pe=0.0000 eb=0.0244 ve=0.0000 vn=0.0000 vl=0.000 db=0.50
G1 E25.4850 F2400                       ; retract de=-5.0000@-40.0 r=1.00
;00:00:48.235: pe=-5.0000 eb=0.0244 ve=-40.0000 vn=0.0000 vl=0.000 db=0.50
G1 Z0.500 F420                          ; hopup dz=0.20@7 h=0.5 r=0.77
;00:00:48.263: pe=-5.0000 eb=0.0244 ve=0.0000 vn=0.0000 vl=0.000 db=0.39
G1 X46.50 Y24.76 F6000                  ; move dl=2.3@100(0<24>0) de=0.000@0.0(0.0<0.0>0.0) l=0.50x0.50x0.00 r=0.00
;00:00:48.408: pe=-5.0000 eb=0.0000 ve=0.0000 vn=0.0000 vl=0.000 db=0.00
G1 Z0.300 F420                          ; hopdn dz=-0.20@7 h=0.3 r=0.00
;00:00:48.437: pe=-5.0000 eb=0.0000 ve=0.0000 vn=0.0000 vl=0.000 db=0.00
G1 E30.4850 F1800                       ; restore de=5.0000@30.0 r=0.00
;00:00:48.603: pe=-0.0000 eb=0.0000 ve=30.0000 vn=0.0000 vl=0.000 db=0.00
G1 X47.58 Y24.76 E30.5524 F600          ; draw dl=1.1@10(0<10>0) de=0.067@0.53(0.0<0.62>0.0) l=0.30x0.50x1.00 r=1.00
;00:00:48.731: pe=0.0000 eb=0.0198 ve=0.0000 vn=0.0000 vl=0.000 db=0.45
G1 E25.5524 F2400                       ; retract de=-5.0000@-40.0 r=0.90
;00:00:48.856: pe=-5.0000 eb=0.0198 ve=-40.0000 vn=0.0000 vl=0.000 db=0.45
G1 Z0.500 F420                          ; hopup dz=0.20@7 h=0.5 r=0.70
;00:00:48.885: pe=-5.0000 eb=0.0198 ve=0.0000 vn=0.0000 vl=0.000 db=0.35
G1 X48.75 Y25.88 F6000                  ; move dl=1.6@100(0<20>0) de=0.000@0.0(0.0<0.0>0.0) l=0.50x0.50x0.00 r=0.00
;00:00:49.006: pe=-5.0000 eb=0.0000 ve=0.0000 vn=0.0000 vl=0.000 db=0.00
G1 Z0.300 F420                          ; hopdn dz=-0.20@7 h=0.3 r=0.00
;00:00:49.034: pe=-5.0000 eb=0.0000 ve=0.0000 vn=0.0000 vl=0.000 db=0.00
G1 E30.5524 F1800                       ; restore de=5.0000@30.0 r=0.00
;00:00:49.201: pe=-0.0000 eb=0.0000 ve=30.0000 vn=0.0000 vl=0.000 db=0.00
G1 X48.75 Y22.48 E30.7644 F600          ; draw dl=3.4@10(0<10>0) de=0.212@0.59(0.0<0.62>0.0) l=0.30x0.50x1.00 r=1.00
;00:00:49.561: pe=0.0000 eb=0.0243 ve=0.0000 vn=0.0000 vl=0.000 db=0.50
G1 E25.7644 F2400                       ; retract de=-5.0000@-40.0 r=1.00
;00:00:49.686: pe=-5.0000 eb=0.0243 ve=-40.0000 vn=0.0000 vl=0.000 db=0.50
G1 Z0.500 F420                          ; hopup dz=0.20@7 h=0.5 r=0.77
;00:00:49.715: pe=-5.0000 eb=0.0243 ve=0.0000 vn=0.0000 vl=0.000 db=0.39
G1 X51.21 Y22.48 F6000                  ; move dl=2.5@100(0<25>0) de=0.000@0.0(0.0<0.0>0.0) l=0.50x0.50x0.00 r=0.00
;00:00:49.863: pe=-5.0000 eb=0.0000 ve=0.0000 vn=0.0000 vl=0.000 db=0.00
G1 Z0.300 F420                          ; hopdn dz=-0.20@7 h=0.3 r=0.00
;00:00:49.892: pe=-5.0000 eb=0.0000 ve=0.0000 vn=0.0000 vl=0.000 db=0.00
G1 E30.7644 F1800                       ; restore de=5.0000@30.0 r=0.00
;00:00:50.059: pe=-0.0000 eb=0.0000 ve=30.0000 vn=0.0000 vl=0.000 db=0.00
G1 X49.72 Y24.51 E30.9214 F600          ; draw dl=2.5@10(0<10>0) de=0.157@0.58(0.0<0.62>0.0) l=0.30x0.50x1.00 r=1.00
;00:00:50.330: pe=0.0000 eb=0.0238 ve=0.0000 vn=0.0000 vl=0.000 db=0.49
G1 E25.9214 F2400                       ; retract de=-5.0000@-40.0 r=0.99
;00:00:50.455: pe=-5.0000 eb=0.0238 ve=-40.0000 vn=0.0000 vl=0.000 db=0.49
G1 Z0.500 F420                          ; hopup dz=0.20@7 h=0.5 r=0.76
;00:00:50.484: pe=-5.0000 eb=0.0238 ve=0.0000 vn=0.0000 vl=0.000 db=0.38
G1 X48.75 Y23.67 F6000                  ; move dl=1.3@100(0<18>0) de=0.000@0.0(0.0<0.0>0.0) l=0.50x0.50x0.00 r=0.00
;00:00:50.591: pe=-5.0000 eb=0.0000 ve=0.0000 vn=0.0000 vl=0.000 db=0.00
G1 Z0.300 F420                          ; hopdn dz=-0.20@7 h=0.3 r=0.00
;00:00:50.620: pe=-5.0000 eb=0.0000 ve=0.0000 vn=0.0000 vl=0.000 db=0.00
G1 E30.9214 F1800                       ; restore de=5.0000@30.0 r=0.00
;00:00:50.787: pe=-0.0000 eb=0.0000 ve=30.0000 vn=0.0000 vl=0.000 db=0.00
G1 X51.28 Y25.88 E31.1309 F600          ; draw dl=3.4@10(0<10>0) de=0.209@0.59(0.0<0.62>0.0) l=0.30x0.50x1.00 r=1.00
;00:00:51.143: pe=0.0000 eb=0.0242 ve=0.0000 vn=0.0000 vl=0.000 db=0.50
G1 E26.1309 F2400                       ; retract de=-5.0000@-40.0 r=1.00
;00:00:51.268: pe=-5.0000 eb=0.0242 ve=-40.0000 vn=0.0000 vl=0.000 db=0.50
G1 Z0.500 F420                          ; hopup dz=0.20@7 h=0.5 r=0.77
;00:00:51.296: pe=-5.0000 eb=0.0242 ve=0.0000 vn=0.0000 vl=0.000 db=0.39
G1 X53.53 Y25.90 F6000                  ; move dl=2.3@100(0<24>0) de=0.000@0.0(0.0<0.0>0.0) l=0.50x0.50x0.00 r=0.00
;00:00:51.439: pe=-5.0000 eb=0.0000 ve=0.0000 vn=0.0000 vl=0.000 db=0.00
G1 Z0.300 F420                          ; hopdn dz=-0.20@7 h=0.3 r=0.00
;00:00:51.467: pe=-5.0000 eb=0.0000 ve=0.0000 vn=0.0000 vl=0.000 db=0.00
G1 E31.1309 F1800                       ; restore de=5.0000@30.0 r=0.00
;00:00:51.634: pe=-0.0000 eb=0.0000 ve=30.0000 vn=0.0000 vl=0.000 db=0.00
G1 X53.38 Y25.90 E31.1403 F600          ; draw dl=0.1@10(0<10>10) de=0.009@0.37(0.0<0.62>0.62) l=0.30x0.50x1.00 r=1.00
;00:00:51.659: pe=0.0000 eb=0.0061 ve=0.6236 vn=0.6236 vl=10.000 db=0.25
G1 X53.20 Y25.86 E31.1518               ; draw dl=0.2@10(10<10>10) de=0.011@0.62(0.62<0.62>0.62) l=0.30x0.50x1.00 r=1.00
;00:00:51.677: pe=0.0000 eb=0.0109 ve=0.6236 vn=0.6236 vl=10.000 db=0.33
G1 X53.04 Y25.73 E31.1646               ; draw dl=0.2@10(10<10>10) de=0.013@0.62(0.62<0.62>0.62) l=0.30x0.50x1.00 r=1.00
;00:00:51.698: pe=0.0000 eb=0.0145 ve=0.6236 vn=0.6236 vl=10.000 db=0.38
G1 X52.92 Y25.54 E31.1786               ; draw dl=0.2@10(10<10>10) de=0.014@0.62(0.62<0.62>0.62) l=0.30x0.50x1.00 r=1.00
;00:00:51.720: pe=0.0000 eb=0.0172 ve=0.6236 vn=0.6236 vl=10.000 db=0.42
G1 X52.84 Y25.17 E31.2023               ; draw dl=0.4@10(10<10>10) de=0.024@0.62(0.62<0.62>0.62) l=0.30x0.50x1.00 r=1.00
;00:00:51.758: pe=0.0000 eb=0.0202 ve=0.6236 vn=0.6236 vl=10.000 db=0.45
G1 X52.84 Y22.48 E31.3700               ; draw dl=2.7@10(10<10>0) de=0.168@0.6(0.62<0.62>0.0) l=0.30x0.50x1.00 r=1.00
;00:00:52.037: pe=0.0000 eb=0.0244 ve=0.0000 vn=0.0000 vl=0.000 db=0.50
G1 E26.3700 F2400                       ; retract de=-5.0000@-40.0 r=1.00
;00:00:52.162: pe=-5.0000 eb=0.0244 ve=-40.0000 vn=0.0000 vl=0.000 db=0.50
G1 Z0.500 F420                          ; hopup dz=0.20@7 h=0.5 r=0.77
;00:00:52.191: pe=-5.0000 eb=0.0244 ve=0.0000 vn=0.0000 vl=0.000 db=0.39
G1 X52.34 Y24.76 F6000                  ; move dl=2.3@100(0<24>0) de=0.000@0.0(0.0<0.0>0.0) l=0.50x0.50x0.00 r=0.00
;00:00:52.336: pe=-5.0000 eb=0.0000 ve=0.0000 vn=0.0000 vl=0.000 db=0.00
G1 Z0.300 F420                          ; hopdn dz=-0.20@7 h=0.3 r=0.00
;00:00:52.364: pe=-5.0000 eb=0.0000 ve=0.0000 vn=0.0000 vl=0.000 db=0.00
G1 E31.3700 F1800                       ; restore de=5.0000@30.0 r=0.00
;00:00:52.531: pe=-0.0000 eb=0.0000 ve=30.0000 vn=0.0000 vl=0.000 db=0.00
G1 X53.42 Y24.76 E31.4374 F600          ; draw dl=1.1@10(0<10>0) de=0.067@0.53(0.0<0.62>0.0) l=0.30x0.50x1.00 r=1.00
;00:00:52.659: pe=0.0000 eb=0.0198 ve=0.0000 vn=0.0000 vl=0.000 db=0.45
G1 E26.4374 F2400                       ; retract de=-5.0000@-40.0 r=0.90
;00:00:52.784: pe=-5.0000 eb=0.0198 ve=-40.0000 vn=0.0000 vl=0.000 db=0.45
G1 Z0.500 F420                          ; hopup dz=0.20@7 h=0.5 r=0.70
;00:00:52.812: pe=-5.0000 eb=0.0198 ve=0.0000 vn=0.0000 vl=0.000 db=0.35
G1 X54.59 Y24.26 F6000                  ; move dl=1.3@100(0<18>0) de=0.000@0.0(0.0<0.0>0.0) l=0.50x0.50x0.00 r=0.00
;00:00:52.919: pe=-5.0000 eb=0.0000 ve=0.0000 vn=0.0000 vl=0.000 db=0.00
G1 Z0.300 F420                          ; hopdn dz=-0.20@7 h=0.3 r=0.00
;00:00:52.948: pe=-5.0000 eb=0.0000 ve=0.0000 vn=0.0000 vl=0.000 db=0.00
G1 E31.4374 F1800                       ; restore de=5.0000@30.0 r=0.00
;00:00:53.115: pe=-0.0000 eb=0.0000 ve=30.0000 vn=0.0000 vl=0.000 db=0.00
G1 X56.28 Y24.26 E31.5427 F600          ; draw dl=1.7@10(0<10>0) de=0.105@0.56(0.0<0.62>0.0) l=0.30x0.50x1.00 r=1.00
;00:00:53.304: pe=0.0000 eb=0.0224 ve=0.0000 vn=0.0000 vl=0.000 db=0.48
G1 E26.5428 F2400                       ; retract de=-5.0000@-40.0 r=0.96
;00:00:53.429: pe=-5.0000 eb=0.0224 ve=-40.0000 vn=0.0000 vl=0.000 db=0.48
G1 Z0.500 F420                          ; hopup dz=0.20@7 h=0.5 r=0.74
;00:00:53.457: pe=-5.0000 eb=0.0224 ve=0.0000 vn=0.0000 vl=0.000 db=0.37
G1 X56.28 Y23.55 F6000                  ; move dl=0.7@100(0<13>0) de=0.000@0.0(0.0<0.0>0.0) l=0.50x0.50x0.00 r=0.00
;00:00:53.537: pe=-5.0000 eb=0.0000 ve=0.0000 vn=0.0000 vl=0.000 db=0.00
G1 Z0.300 F420                          ; hopdn dz=-0.20@7 h=0.3 r=0.00
;00:00:53.566: pe=-5.0000 eb=0.0000 ve=0.0000 vn=0.0000 vl=0.000 db=0.00
G1 E31.5428 F1800                       ; restore de=5.0000@30.0 r=0.00
;00:00:53.732: pe=-0.0000 eb=0.0000 ve=30.0000 vn=0.0000 vl=0.000 db=0.00
G1 X54.59 Y23.55 E31.6481 F600          ; draw dl=1.7@10(0<10>0) de=0.105@0.56(0.0<0.62>0.0) l=0.30x0.50x1.00 r=1.00
;00:00:53.921: pe=0.0000 eb=0.0224 ve=0.0000 vn=0.0000 vl=0.000 db=0.48
G1 E26.6481 F2400                       ; retract de=-5.0000@-40.0 r=0.96
;00:00:54.046: pe=-5.0000 eb=0.0224 ve=-40.0000 vn=0.0000 vl=0.000 db=0.48
G1 Z0.500 F420                          ; hopup dz=0.20@7 h=0.5 r=0.74
;00:00:54.075: pe=-5.0000 eb=0.0224 ve=0.0000 vn=0.0000 vl=0.000 db=0.37
G1 X58.56 Y25.94 F6000                  ; move dl=4.6@100(0<34>0) de=0.000@0.0(0.0<0.0>0.0) l=0.50x0.50x0.00 r=0.00
;00:00:54.279: pe=-5.0000 eb=0.0000 ve=0.0000 vn=0.0000 vl=0.000 db=0.00
G1 Z0.300 F420                          ; hopdn dz=-0.20@7 h=0.3 r=0.00
;00:00:54.308: pe=-5.0000 eb=0.0000 ve=0.0000 vn=0.0000 vl=0.000 db=0.00
G1 E31.6481 F1800                       ; restore de=5.0000@30.0 r=0.00
;00:00:54.474: pe=-0.0000 eb=0.0000 ve=30.0000 vn=0.0000 vl=0.000 db=0.00
G1 X59.07 Y25.80 E31.6811 F600          ; draw dl=0.5@10(0<10>10) de=0.033@0.52(0.0<0.62>0.62) l=0.30x0.50x1.00 r=1.00
;00:00:54.537: pe=0.0000 eb=0.0143 ve=0.6236 vn=0.6236 vl=10.000 db=0.38
G1 X59.46 Y25.42 E31.7151               ; draw dl=0.5@10(10<10>10) de=0.034@0.62(0.62<0.62>0.62) l=0.30x0.50x1.00 r=1.00
;00:00:54.592: pe=0.0000 eb=0.0197 ve=0.6236 vn=0.6236 vl=10.000 db=0.45
G1 X59.70 Y24.86 E31.7531               ; draw dl=0.6@10(10<10>10) de=0.038@0.62(0.62<0.62>0.62) l=0.30x0.50x1.00 r=1.00
;00:00:54.653: pe=0.0000 eb=0.0224 ve=0.6236 vn=0.6236 vl=10.000 db=0.48
G1 X59.78 Y24.18 E31.7958               ; draw dl=0.7@10(10<10>10) de=0.043@0.62(0.62<0.62>0.62) l=0.30x0.50x1.00 r=1.00
;00:00:54.721: pe=0.0000 eb=0.0236 ve=0.6236 vn=0.6236 vl=10.000 db=0.49
G1 X59.70 Y23.51 E31.8379               ; draw dl=0.7@10(10<10>10) de=0.042@0.62(0.62<0.62>0.62) l=0.30x0.50x1.00 r=1.00
;00:00:54.789: pe=0.0000 eb=0.0241 ve=0.6236 vn=0.6236 vl=10.000 db=0.50
G1 X59.46 Y22.95 E31.8758               ; draw dl=0.6@10(10<10>10) de=0.038@0.62(0.62<0.62>0.62) l=0.30x0.50x1.00 r=1.00
;00:00:54.850: pe=0.0000 eb=0.0243 ve=0.6236 vn=0.6236 vl=10.000 db=0.50
G1 X59.07 Y22.56 E31.9102               ; draw dl=0.6@10(10<10>10) de=0.034@0.62(0.62<0.62>0.62) l=0.30x0.50x1.00 r=1.00
;00:00:54.905: pe=0.0000 eb=0.0244 ve=0.6236 vn=0.6236 vl=10.000 db=0.50
G1 X58.56 Y22.42 E31.9432               ; draw dl=0.5@10(10<10>10) de=0.033@0.62(0.62<0.62>0.62) l=0.30x0.50x1.00 r=1.00
;00:00:54.958: pe=0.0000 eb=0.0244 ve=0.6236 vn=0.6236 vl=10.000 db=0.50
G1 X58.04 Y22.56 E31.9768               ; draw dl=0.5@10(10<10>10) de=0.034@0.62(0.62<0.62>0.62) l=0.30x0.50x1.00 r=1.00
;00:00:55.012: pe=0.0000 eb=0.0245 ve=0.6236 vn=0.6236 vl=10.000 db=0.50
G1 X57.66 Y22.95 E32.0108               ; draw dl=0.5@10(10<10>10) de=0.034@0.62(0.62<0.62>0.62) l=0.30x0.50x1.00 r=1.00
;00:00:55.066: pe=-0.0000 eb=0.0245 ve=0.6236 vn=0.0000 vl=10.000 db=0.50
G1 X57.42 Y23.51 E32.0488               ; draw dl=0.6@10(10<10>10) de=0.038@0.62(0.62<0.62>0.62) l=0.30x0.50x1.00 r=1.00
;00:00:55.127: pe=0.0000 eb=0.0245 ve=0.6236 vn=0.6236 vl=10.000 db=0.50
G1 X57.34 Y24.18 E32.0908               ; draw dl=0.7@10(10<10>10) de=0.042@0.62(0.62<0.62>0.62) l=0.30x0.50x1.00 r=1.00
;00:00:55.194: pe=0.0000 eb=0.0245 ve=0.6236 vn=0.6236 vl=10.000 db=0.50
G1 X57.42 Y24.85 E32.1329               ; draw dl=0.7@10(10<10>10) de=0.042@0.62(0.62<0.62>0.62) l=0.30x0.50x1.00 r=1.00
;00:00:55.262: pe=0.0000 eb=0.0245 ve=0.6236 vn=0.6236 vl=10.000 db=0.50
G1 X57.66 Y25.42 E32.1715               ; draw dl=0.6@10(10<10>10) de=0.039@0.62(0.62<0.62>0.62) l=0.30x0.50x1.00 r=1.00
;00:00:55.324: pe=0.0000 eb=0.0245 ve=0.6236 vn=0.6236 vl=10.000 db=0.50
G1 X58.04 Y25.80 E32.2050               ; draw dl=0.5@10(10<10>10) de=0.034@0.62(0.62<0.62>0.62) l=0.30x0.50x1.00 r=1.00
;00:00:55.377: pe=0.0000 eb=0.0245 ve=0.6236 vn=0.6236 vl=10.000 db=0.50
G1 X58.56 Y25.94 E32.2386               ; draw dl=0.5@10(10<10>0) de=0.034@0.53(0.62<0.62>0.0) l=0.30x0.50x1.00 r=1.00
;00:00:55.441: pe=0.0000 eb=0.0245 ve=0.0000 vn=0.0000 vl=0.000 db=0.50
G1 E27.2386 F2400                       ; retract de=-5.0000@-40.0 r=1.00
;00:00:55.566: pe=-5.0000 eb=0.0245 ve=-40.0000 vn=0.0000 vl=0.000 db=0.50
G1 Z0.500 F420                          ; hopup dz=0.20@7 h=0.5 r=0.77
;00:00:55.595: pe=-5.0000 eb=0.0245 ve=0.0000 vn=0.0000 vl=0.000 db=0.39
G1 X60.85 Y22.71 F6000                  ; move dl=4.0@100(0<31>0) de=0.000@0.0(0.0<0.0>0.0) l=0.50x0.50x0.00 r=0.00
;00:00:55.784: pe=-5.0000 eb=0.0000 ve=0.0000 vn=0.0000 vl=0.000 db=0.00
G1 Z0.300 F420                          ; hopdn dz=-0.20@7 h=0.3 r=0.00
;00:00:55.812: pe=-5.0000 eb=0.0000 ve=0.0000 vn=0.0000 vl=0.000 db=0.00
G1 E32.2386 F1800                       ; restore de=5.0000@30.0 r=0.00
;00:00:55.979: pe=-0.0000 eb=0.0000 ve=30.0000 vn=0.0000 vl=0.000 db=0.00
G1 X60.85 Y22.65 E32.2423 F600          ; draw dl=0.1@10(0<4>0) de=0.004@0.16(0.0<0.24>0.0) l=0.30x0.50x1.00 r=1.00
;00:00:56.002: pe=0.0000 eb=0.0029 ve=0.0000 vn=0.0000 vl=0.000 db=0.17
G1 E27.2423 F2400                       ; retract de=-5.0000@-40.0 r=0.34
;00:00:56.127: pe=-5.0000 eb=0.0029 ve=-40.0000 vn=0.0000 vl=0.000 db=0.17
G1 Z0.500 F420                          ; hopup dz=0.20@7 h=0.5 r=0.27
;00:00:56.156: pe=-5.0000 eb=0.0029 ve=0.0000 vn=0.0000 vl=0.000 db=0.13
G1 X63.13 Y25.94 F6000                  ; move dl=4.0@100(0<32>0) de=0.000@0.0(0.0<0.0>0.0) l=0.50x0.50x0.00 r=0.00
;00:00:56.345: pe=-5.0000 eb=0.0000 ve=0.0000 vn=0.0000 vl=0.000 db=0.00
G1 Z0.300 F420                          ; hopdn dz=-0.20@7 h=0.3 r=0.00
;00:00:56.374: pe=-5.0000 eb=0.0000 ve=0.0000 vn=0.0000 vl=0.000 db=0.00
G1 E32.2423 F1800                       ; restore de=5.0000@30.0 r=0.00
;00:00:56.541: pe=-0.0000 eb=0.0000 ve=30.0000 vn=0.0000 vl=0.000 db=0.00
G1 X63.64 Y25.80 E32.2753 F600          ; draw dl=0.5@10(0<10>10) de=0.033@0.52(0.0<0.62>0.62) l=0.30x0.50x1.00 r=1.00
;00:00:56.604: pe=0.0000 eb=0.0143 ve=0.6237 vn=0.6237 vl=10.000 db=0.38
G1 X64.03 Y25.42 E32.3093               ; draw dl=0.5@10(10<10>10) de=0.034@0.62(0.62<0.62>0.62) l=0.30x0.50x1.00 r=1.00
;00:00:56.658: pe=0.0000 eb=0.0197 ve=0.6237 vn=0.6237 vl=10.000 db=0.45
G1 X64.27 Y24.86 E32.3473               ; draw dl=0.6@10(10<10>10) de=0.038@0.62(0.62<0.62>0.62) l=0.30x0.50x1.00 r=1.00
;00:00:56.719: pe=0.0000 eb=0.0224 ve=0.6237 vn=0.6237 vl=10.000 db=0.48
G1 X64.35 Y24.18 E32.3900               ; draw dl=0.7@10(10<10>10) de=0.043@0.62(0.62<0.62>0.62) l=0.30x0.50x1.00 r=1.00
;00:00:56.787: pe=0.0000 eb=0.0236 ve=0.6237 vn=0.6237 vl=10.000 db=0.49
G1 X64.27 Y23.51 E32.4321               ; draw dl=0.7@10(10<10>10) de=0.042@0.62(0.62<0.62>0.62) l=0.30x0.50x1.00 r=1.00
;00:00:56.855: pe=0.0000 eb=0.0241 ve=0.6237 vn=0.6237 vl=10.000 db=0.50
G1 X64.03 Y22.95 E32.4701               ; draw dl=0.6@10(10<10>10) de=0.038@0.62(0.62<0.62>0.62) l=0.30x0.50x1.00 r=1.00
;00:00:56.916: pe=0.0000 eb=0.0243 ve=0.6237 vn=0.6237 vl=10.000 db=0.50
G1 X63.64 Y22.56 E32.5045               ; draw dl=0.6@10(10<10>10) de=0.034@0.62(0.62<0.62>0.62) l=0.30x0.50x1.00 r=1.00
;00:00:56.971: pe=0.0000 eb=0.0244 ve=0.6237 vn=0.6237 vl=10.000 db=0.50
G1 X63.13 Y22.42 E32.5374               ; draw dl=0.5@10(10<10>10) de=0.033@0.62(0.62<0.62>0.62) l=0.30x0.50x1.00 r=1.00
;00:00:57.024: pe=0.0000 eb=0.0245 ve=0.6237 vn=0.6237 vl=10.000 db=0.50
G1 X62.61 Y22.56 E32.5710               ; draw dl=0.5@10(10<10>10) de=0.034@0.62(0.62<0.62>0.62) l=0.30x0.50x1.00 r=1.00
;00:00:57.078: pe=0.0000 eb=0.0245 ve=0.6237 vn=0.6237 vl=10.000 db=0.50
G1 X62.23 Y22.95 E32.6050               ; draw dl=0.5@10(10<10>10) de=0.034@0.62(0.62<0.62>0.62) l=0.30x0.50x1.00 r=1.00
;00:00:57.132: pe=0.0000 eb=0.0245 ve=0.6237 vn=0.6237 vl=10.000 db=0.50
G1 X61.99 Y23.51 E32.6430               ; draw dl=0.6@10(10<10>10) de=0.038@0.62(0.62<0.62>0.62) l=0.30x0.50x1.00 r=1.00
;00:00:57.193: pe=0.0000 eb=0.0245 ve=0.6237 vn=0.6237 vl=10.000 db=0.50
G1 X61.91 Y24.18 E32.6851               ; draw dl=0.7@10(10<10>10) de=0.042@0.62(0.62<0.62>0.62) l=0.30x0.50x1.00 r=1.00
;00:00:57.261: pe=0.0000 eb=0.0245 ve=0.6237 vn=0.6237 vl=10.000 db=0.50
G1 X61.99 Y24.85 E32.7272               ; draw dl=0.7@10(10<10>10) de=0.042@0.62(0.62<0.62>0.62) l=0.30x0.50x1.00 r=1.00
;00:00:57.328: pe=0.0000 eb=0.0245 ve=0.6237 vn=0.6237 vl=10.000 db=0.50
G1 X62.23 Y25.42 E32.7657               ; draw dl=0.6@10(10<10>10) de=0.039@0.62(0.62<0.62>0.62) l=0.30x0.50x1.00 r=1.00
;00:00:57.390: pe=0.0000 eb=0.0245 ve=0.6237 vn=0.6237 vl=10.000 db=0.50
G1 X62.61 Y25.80 E32.7992               ; draw dl=0.5@10(10<10>10) de=0.034@0.62(0.62<0.62>0.62) l=0.30x0.50x1.00 r=1.00
;00:00:57.444: pe=0.0000 eb=0.0245 ve=0.6237 vn=0.6237 vl=10.000 db=0.50
G1 X63.13 Y25.94 E32.8328               ; draw dl=0.5@10(10<10>0) de=0.034@0.53(0.62<0.62>0.0) l=0.30x0.50x1.00 r=1.00
;00:00:57.507: pe=0.0000 eb=0.0245 ve=0.0000 vn=0.0000 vl=0.000 db=0.50
G1 E27.8328 F2400                       ; retract de=-5.0000@-40.0 r=1.00
;00:00:57.632: pe=-5.0000 eb=0.0245 ve=-40.0000 vn=0.0000 vl=0.000 db=0.50
G1 Z0.500 F420                          ; hopup dz=0.20@7 h=0.5 r=0.77
;00:00:57.661: pe=-5.0000 eb=0.0245 ve=0.0000 vn=0.0000 vl=0.000 db=0.39
G1 X46.50 Y19.89 F6000                  ; move dl=17.7@100(0<67>0) de=0.000@0.0(0.0<0.0>0.0) l=0.50x0.50x0.00 r=0.00
;00:00:58.060: pe=-5.0000 eb=0.0000 ve=0.0000 vn=0.0000 vl=0.000 db=0.00
G1 Z0.300 F420                          ; hopdn dz=-0.20@7 h=0.3 r=0.00
;00:00:58.089: pe=-5.0000 eb=0.0000 ve=0.0000 vn=0.0000 vl=0.000 db=0.00
G1 E32.8328 F1800                       ; restore de=5.0000@30.0 r=0.00
;00:00:58.255: pe=-0.0000 eb=0.0000 ve=30.0000 vn=0.0000 vl=0.000 db=0.00
G1 X47.52 Y17.48 E32.9960 F600          ; draw dl=2.6@10(0<10>6) de=0.163@0.6(0.0<0.62>0.35) l=0.30x0.50x1.00 r=1.00
;00:00:58.529: pe=0.0000 eb=0.0239 ve=0.3524 vn=0.3524 vl=5.651 db=0.49
G1 X48.54 Y19.89 E33.1593               ; draw dl=2.6@10(6<10>0) de=0.163@0.6(0.35<0.62>0.0) l=0.30x0.50x1.00 r=1.00
;00:00:58.803: pe=0.0000 eb=0.0245 ve=0.0000 vn=0.0000 vl=0.000 db=0.50
G1 E28.1593 F2400                       ; retract de=-5.0000@-40.0 r=1.00
;00:00:58.928: pe=-5.0000 eb=0.0245 ve=-40.0000 vn=0.0000 vl=0.000 db=0.50
G1 Z0.500 F420                          ; hopup dz=0.20@7 h=0.5 r=0.77
;00:00:58.956: pe=-5.0000 eb=0.0245 ve=0.0000 vn=0.0000 vl=0.000 db=0.39
G1 X49.60 Y19.89 F6000                  ; move dl=1.1@100(0<16>0) de=0.000@0.0(0.0<0.0>0.0) l=0.50x0.50x0.00 r=0.00
;00:00:59.054: pe=-5.0000 eb=0.0000 ve=0.0000 vn=0.0000 vl=0.000 db=0.00
G1 Z0.300 F420                          ; hopdn dz=-0.20@7 h=0.3 r=0.00
;00:00:59.082: pe=-5.0000 eb=0.0000 ve=0.0000 vn=0.0000 vl=0.000 db=0.00
G1 E33.1593 F1800                       ; restore de=5.0000@30.0 r=0.00
;00:00:59.249: pe=-0.0000 eb=0.0000 ve=30.0000 vn=0.0000 vl=0.000 db=0.00
G1 X51.60 Y17.48 E33.3546 F600          ; draw dl=3.1@10(0<10>0) de=0.195@0.59(0.0<0.62>0.0) l=0.30x0.50x1.00 r=1.00
;00:00:59.582: pe=0.0000 eb=0.0242 ve=0.0000 vn=0.0000 vl=0.000 db=0.50
G1 E28.3546 F2400                       ; retract de=-5.0000@-40.0 r=0.99
;00:00:59.707: pe=-5.0000 eb=0.0242 ve=-40.0000 vn=0.0000 vl=0.000 db=0.50
G1 Z0.500 F420                          ; hopup dz=0.20@7 h=0.5 r=0.77
;00:00:59.736: pe=-5.0000 eb=0.0242 ve=0.0000 vn=0.0000 vl=0.000 db=0.38
G1 X49.60 Y17.48 F6000                  ; move dl=2.0@100(0<22>0) de=0.000@0.0(0.0<0.0>0.0) l=0.50x0.50x0.00 r=0.00
;00:00:59.870: pe=-5.0000 eb=0.0000 ve=0.0000 vn=0.0000 vl=0.000 db=0.00
G1 Z0.300 F420                          ; hopdn dz=-0.20@7 h=0.3 r=0.00
;00:00:59.899: pe=-5.0000 eb=0.0000 ve=0.0000 vn=0.0000 vl=0.000 db=0.00
G1 E33.3546 F1800                       ; restore de=5.0000@30.0 r=0.00
;00:01:00.065: pe=-0.0000 eb=0.0000 ve=30.0000 vn=0.0000 vl=0.000 db=0.00
G1 X51.60 Y19.89 E33.5499 F600          ; draw dl=3.1@10(0<10>0) de=0.195@0.59(0.0<0.62>0.0) l=0.30x0.50x1.00 r=1.00
;00:01:00.398: pe=0.0000 eb=0.0242 ve=0.0000 vn=0.0000 vl=0.000 db=0.50
G1 E28.5499 F2400                       ; retract de=-5.0000@-40.0 r=0.99
;00:01:00.523: pe=-5.0000 eb=0.0242 ve=-40.0000 vn=0.0000 vl=0.000 db=0.50
G1 Z0.500 F420                          ; hopup dz=0.20@7 h=0.5 r=0.77
;00:01:00.552: pe=-5.0000 eb=0.0242 ve=0.0000 vn=0.0000 vl=0.000 db=0.38
G1 X53.88 Y20.94 F6000                  ; move dl=2.5@100(0<25>0) de=0.000@0.0(0.0<0.0>0.0) l=0.50x0.50x0.00 r=0.00
;00:01:00.702: pe=-5.0000 eb=0.0000 ve=0.0000 vn=0.0000 vl=0.000 db=0.00
G1 Z0.300 F420                          ; hopdn dz=-0.20@7 h=0.3 r=0.00
;00:01:00.731: pe=-5.0000 eb=0.0000 ve=0.0000 vn=0.0000 vl=0.000 db=0.00
G1 E33.5499 F1800                       ; restore de=5.0000@30.0 r=0.00
;00:01:00.897: pe=-0.0000 eb=0.0000 ve=30.0000 vn=0.0000 vl=0.000 db=0.00
G1 X54.39 Y20.80 E33.5829 F600          ; draw dl=0.5@10(0<10>10) de=0.033@0.52(0.0<0.62>0.62) l=0.30x0.50x1.00 r=1.00
;00:01:00.960: pe=0.0000 eb=0.0143 ve=0.6237 vn=0.6237 vl=10.000 db=0.38
G1 X54.78 Y20.42 E33.6168               ; draw dl=0.5@10(10<10>10) de=0.034@0.62(0.62<0.62>0.62) l=0.30x0.50x1.00 r=1.00
;00:01:01.015: pe=0.0000 eb=0.0197 ve=0.6237 vn=0.6237 vl=10.000 db=0.45
G1 X55.02 Y19.86 E33.6548               ; draw dl=0.6@10(10<10>10) de=0.038@0.62(0.62<0.62>0.62) l=0.30x0.50x1.00 r=1.00
;00:01:01.076: pe=0.0000 eb=0.0224 ve=0.6237 vn=0.6237 vl=10.000 db=0.48
G1 X55.10 Y19.18 E33.6975               ; draw dl=0.7@10(10<10>10) de=0.043@0.62(0.62<0.62>0.62) l=0.30x0.50x1.00 r=1.00
;00:01:01.144: pe=0.0000 eb=0.0236 ve=0.6237 vn=0.6237 vl=10.000 db=0.49
G1 X55.02 Y18.51 E33.7396               ; draw dl=0.7@10(10<10>10) de=0.042@0.62(0.62<0.62>0.62) l=0.30x0.50x1.00 r=1.00
;00:01:01.212: pe=0.0000 eb=0.0241 ve=0.6237 vn=0.6237 vl=10.000 db=0.50
G1 X54.78 Y17.95 E33.7776               ; draw dl=0.6@10(10<10>10) de=0.038@0.62(0.62<0.62>0.62) l=0.30x0.50x1.00 r=1.00
;00:01:01.273: pe=0.0000 eb=0.0243 ve=0.6237 vn=0.6237 vl=10.000 db=0.50
G1 X54.39 Y17.56 E33.8120               ; draw dl=0.6@10(10<10>10) de=0.034@0.62(0.62<0.62>0.62) l=0.30x0.50x1.00 r=1.00
;00:01:01.328: pe=0.0000 eb=0.0244 ve=0.6237 vn=0.6237 vl=10.000 db=0.50
G1 X53.88 Y17.42 E33.8450               ; draw dl=0.5@10(10<10>10) de=0.033@0.62(0.62<0.62>0.62) l=0.30x0.50x1.00 r=1.00
;00:01:01.381: pe=0.0000 eb=0.0245 ve=0.6237 vn=0.6237 vl=10.000 db=0.50
G1 X53.36 Y17.56 E33.8786               ; draw dl=0.5@10(10<10>10) de=0.034@0.62(0.62<0.62>0.62) l=0.30x0.50x1.00 r=1.00
;00:01:01.435: pe=0.0000 eb=0.0245 ve=0.6237 vn=0.6237 vl=10.000 db=0.50
G1 X52.98 Y17.95 E33.9126               ; draw dl=0.5@10(10<10>10) de=0.034@0.62(0.62<0.62>0.62) l=0.30x0.50x1.00 r=1.00
;00:01:01.489: pe=0.0000 eb=0.0245 ve=0.6237 vn=0.6237 vl=10.000 db=0.50
G1 X52.74 Y18.51 E33.9506               ; draw dl=0.6@10(10<10>10) de=0.038@0.62(0.62<0.62>0.62) l=0.30x0.50x1.00 r=1.00
;00:01:01.550: pe=0.0000 eb=0.0245 ve=0.6237 vn=0.6237 vl=10.000 db=0.50
G1 X52.66 Y19.18 E33.9926               ; draw dl=0.7@10(10<10>10) de=0.042@0.62(0.62<0.62>0.62) l=0.30x0.50x1.00 r=1.00
;00:01:01.617: pe=0.0000 eb=0.0245 ve=0.6237 vn=0.6237 vl=10.000 db=0.50
G1 X52.74 Y19.85 E34.0347               ; draw dl=0.7@10(10<10>10) de=0.042@0.62(0.62<0.62>0.62) l=0.30x0.50x1.00 r=1.00
;00:01:01.685: pe=0.0000 eb=0.0245 ve=0.6237 vn=0.6237 vl=10.000 db=0.50
G1 X52.98 Y20.42 E34.0733               ; draw dl=0.6@10(10<10>10) de=0.039@0.62(0.62<0.62>0.62) l=0.30x0.50x1.00 r=1.00
;00:01:01.747: pe=0.0000 eb=0.0245 ve=0.6237 vn=0.6237 vl=10.000 db=0.50
G1 X53.36 Y20.80 E34.1068               ; draw dl=0.5@10(10<10>10) de=0.034@0.62(0.62<0.62>0.62) l=0.30x0.50x1.00 r=1.00
;00:01:01.800: pe=0.0000 eb=0.0245 ve=0.6237 vn=0.6237 vl=10.000 db=0.50
G1 X53.88 Y20.94 E34.1404               ; draw dl=0.5@10(10<10>0) de=0.034@0.53(0.62<0.62>0.0) l=0.30x0.50x1.00 r=1.00
;00:01:01.864: pe=0.0000 eb=0.0245 ve=0.0000 vn=0.0000 vl=0.000 db=0.50
G1 E29.1404 F2400                       ; retract de=-5.0000@-40.0 r=1.00
;00:01:01.989: pe=-5.0000 eb=0.0245 ve=-40.0000 vn=0.0000 vl=0.000 db=0.50
G1 Z0.500 F420                          ; hopup dz=0.20@7 h=0.5 r=0.77
;00:01:02.018: pe=-5.0000 eb=0.0245 ve=0.0000 vn=0.0000 vl=0.000 db=0.39
G1 X56.17 Y19.26 F6000                  ; move dl=2.8@100(0<27>0) de=0.000@0.0(0.0<0.0>0.0) l=0.50x0.50x0.00 r=0.00
;00:01:02.178: pe=-5.0000 eb=0.0000 ve=0.0000 vn=0.0000 vl=0.000 db=0.00
G1 Z0.300 F420                          ; hopdn dz=-0.20@7 h=0.3 r=0.00
;00:01:02.206: pe=-5.0000 eb=0.0000 ve=0.0000 vn=0.0000 vl=0.000 db=0.00
G1 E34.1404 F1800                       ; restore de=5.0000@30.0 r=0.00
;00:01:02.373: pe=-0.0000 eb=0.0000 ve=30.0000 vn=0.0000 vl=0.000 db=0.00
G1 X57.86 Y19.26 E34.2458 F600          ; draw dl=1.7@10(0<10>0) de=0.105@0.56(0.0<0.62>0.0) l=0.30x0.50x1.00 r=1.00
;00:01:02.562: pe=0.0000 eb=0.0224 ve=0.0000 vn=0.0000 vl=0.000 db=0.48
G1 E29.2458 F2400                       ; retract de=-5.0000@-40.0 r=0.96
;00:01:02.687: pe=-5.0000 eb=0.0224 ve=-40.0000 vn=0.0000 vl=0.000 db=0.48
G1 Z0.500 F420                          ; hopup dz=0.20@7 h=0.5 r=0.74
;00:01:02.716: pe=-5.0000 eb=0.0224 ve=0.0000 vn=0.0000 vl=0.000 db=0.37
G1 X57.86 Y18.55 F6000                  ; move dl=0.7@100(0<13>0) de=0.000@0.0(0.0<0.0>0.0) l=0.50x0.50x0.00 r=0.00
;00:01:02.795: pe=-5.0000 eb=0.0000 ve=0.0000 vn=0.0000 vl=0.000 db=0.00
G1 Z0.300 F420                          ; hopdn dz=-0.20@7 h=0.3 r=0.00
;00:01:02.824: pe=-5.0000 eb=0.0000 ve=0.0000 vn=0.0000 vl=0.000 db=0.00
G1 E34.2458 F1800                       ; restore de=5.0000@30.0 r=0.00
;00:01:02.991: pe=-0.0000 eb=0.0000 ve=30.0000 vn=0.0000 vl=0.000 db=0.00
G1 X56.17 Y18.55 E34.3512 F600          ; draw dl=1.7@10(0<10>0) de=0.105@0.56(0.0<0.62>0.0) l=0.30x0.50x1.00 r=1.00
;00:01:03.180: pe=0.0000 eb=0.0224 ve=0.0000 vn=0.0000 vl=0.000 db=0.48
G1 E29.3512 F2400                       ; retract de=-5.0000@-40.0 r=0.96
;00:01:03.305: pe=-5.0000 eb=0.0224 ve=-40.0000 vn=0.0000 vl=0.000 db=0.48
G1 Z0.500 F420                          ; hopup dz=0.20@7 h=0.5 r=0.74
;00:01:03.333: pe=-5.0000 eb=0.0224 ve=0.0000 vn=0.0000 vl=0.000 db=0.37
G1 X58.92 Y20.00 F6000                  ; move dl=3.1@100(0<28>0) de=0.000@0.0(0.0<0.0>0.0) l=0.50x0.50x0.00 r=0.00
;00:01:03.501: pe=-5.0000 eb=0.0000 ve=0.0000 vn=0.0000 vl=0.000 db=0.00
G1 Z0.300 F420                          ; hopdn dz=-0.20@7 h=0.3 r=0.00
;00:01:03.529: pe=-5.0000 eb=0.0000 ve=0.0000 vn=0.0000 vl=0.000 db=0.00
G1 E34.3512 F1800                       ; restore de=5.0000@30.0 r=0.00
;00:01:03.696: pe=-0.0000 eb=0.0000 ve=30.0000 vn=0.0000 vl=0.000 db=0.00
G1 X59.39 Y20.24 E34.3841 F600          ; draw dl=0.5@10(0<10>10) de=0.033@0.52(0.0<0.62>0.62) l=0.30x0.50x1.00 r=1.00
;00:01:03.759: pe=-0.0000 eb=0.0143 ve=0.6237 vn=0.0000 vl=10.000 db=0.38
G1 X59.76 Y20.55 E34.4142               ; draw dl=0.5@10(10<10>10) de=0.030@0.62(0.62<0.62>0.62) l=0.30x0.50x1.00 r=1.00
;00:01:03.807: pe=0.0000 eb=0.0193 ve=0.6237 vn=0.6237 vl=10.000 db=0.44
G1 X60.01 Y20.88 E34.4400               ; draw dl=0.4@10(10<10>5) de=0.026@0.59(0.62<0.62>0.3) l=0.30x0.50x1.00 r=1.00
;00:01:03.851: pe=-0.0000 eb=0.0215 ve=0.3015 vn=0.0000 vl=4.834 db=0.47
G1 X60.01 Y17.48 E34.6521               ; draw dl=3.4@10(5<10>0) de=0.212@0.6(0.3<0.62>0.0) l=0.30x0.50x1.00 r=1.00
;00:01:04.204: pe=0.0000 eb=0.0245 ve=0.0000 vn=0.0000 vl=0.000 db=0.50
G1 E29.6521 F2400                       ; retract de=-5.0000@-40.0 r=1.00
;00:01:04.329: pe=-5.0000 eb=0.0245 ve=-40.0000 vn=0.0000 vl=0.000 db=0.50
G1 Z0.500 F420                          ; hopup dz=0.20@7 h=0.5 r=0.77
;00:01:04.357: pe=-5.0000 eb=0.0245 ve=0.0000 vn=0.0000 vl=0.000 db=0.39
G1 X62.29 Y20.94 F6000                  ; move dl=4.1@100(0<32>0) de=0.000@0.0(0.0<0.0>0.0) l=0.50x0.50x0.00 r=0.00
;00:01:04.550: pe=-5.0000 eb=0.0000 ve=0.0000 vn=0.0000 vl=0.000 db=0.00
G1 Z0.300 F420                          ; hopdn dz=-0.20@7 h=0.3 r=0.00
;00:01:04.579: pe=-5.0000 eb=0.0000 ve=0.0000 vn=0.0000 vl=0.000 db=0.00
G1 E34.6521 F1800                       ; restore de=5.0000@30.0 r=0.00
;00:01:04.746: pe=-0.0000 eb=0.0000 ve=30.0000 vn=0.0000 vl=0.000 db=0.00
G1 X62.80 Y20.80 E34.6851 F600          ; draw dl=0.5@10(0<10>10) de=0.033@0.52(0.0<0.62>0.62) l=0.30x0.50x1.00 r=1.00
;00:01:04.808: pe=0.0000 eb=0.0143 ve=0.6237 vn=0.6237 vl=10.000 db=0.38
G1 X63.19 Y20.42 E34.7190               ; draw dl=0.5@10(10<10>10) de=0.034@0.62(0.62<0.62>0.62) l=0.30x0.50x1.00 r=1.00
;00:01:04.863: pe=0.0000 eb=0.0197 ve=0.6237 vn=0.6237 vl=10.000 db=0.45
G1 X63.43 Y19.86 E34.7570               ; draw dl=0.6@10(10<10>10) de=0.038@0.62(0.62<0.62>0.62) l=0.30x0.50x1.00 r=1.00
;00:01:04.924: pe=0.0000 eb=0.0224 ve=0.6237 vn=0.6237 vl=10.000 db=0.48
G1 X63.51 Y19.18 E34.7997               ; draw dl=0.7@10(10<10>10) de=0.043@0.62(0.62<0.62>0.62) l=0.30x0.50x1.00 r=1.00
;00:01:04.992: pe=0.0000 eb=0.0236 ve=0.6237 vn=0.6237 vl=10.000 db=0.49
G1 X63.43 Y18.51 E34.8418               ; draw dl=0.7@10(10<10>10) de=0.042@0.62(0.62<0.62>0.62) l=0.30x0.50x1.00 r=1.00
;00:01:05.060: pe=0.0000 eb=0.0241 ve=0.6237 vn=0.6237 vl=10.000 db=0.50
G1 X63.19 Y17.95 E34.8798               ; draw dl=0.6@10(10<10>10) de=0.038@0.62(0.62<0.62>0.62) l=0.30x0.50x1.00 r=1.00
;00:01:05.121: pe=0.0000 eb=0.0243 ve=0.6237 vn=0.6237 vl=10.000 db=0.50
G1 X62.80 Y17.56 E34.9142               ; draw dl=0.6@10(10<10>10) de=0.034@0.62(0.62<0.62>0.62) l=0.30x0.50x1.00 r=1.00
;00:01:05.176: pe=0.0000 eb=0.0244 ve=0.6237 vn=0.6237 vl=10.000 db=0.50
G1 X62.29 Y17.42 E34.9472               ; draw dl=0.5@10(10<10>10) de=0.033@0.62(0.62<0.62>0.62) l=0.30x0.50x1.00 r=1.00
;00:01:05.229: pe=0.0000 eb=0.0245 ve=0.6237 vn=0.6237 vl=10.000 db=0.50
G1 X61.77 Y17.56 E34.9808               ; draw dl=0.5@10(10<10>10) de=0.034@0.62(0.62<0.62>0.62) l=0.30x0.50x1.00 r=1.00
;00:01:05.283: pe=0.0000 eb=0.0245 ve=0.6237 vn=0.6237 vl=10.000 db=0.50
G1 X61.39 Y17.95 E35.0147               ; draw dl=0.5@10(10<10>10) de=0.034@0.62(0.62<0.62>0.62) l=0.30x0.50x1.00 r=1.00
;00:01:05.337: pe=0.0000 eb=0.0245 ve=0.6237 vn=0.6237 vl=10.000 db=0.50
G1 X61.15 Y18.51 E35.0527               ; draw dl=0.6@10(10<10>10) de=0.038@0.62(0.62<0.62>0.62) l=0.30x0.50x1.00 r=1.00
;00:01:05.398: pe=0.0000 eb=0.0245 ve=0.6237 vn=0.6237 vl=10.000 db=0.50
G1 X61.07 Y19.18 E35.0948               ; draw dl=0.7@10(10<10>10) de=0.042@0.62(0.62<0.62>0.62) l=0.30x0.50x1.00 r=1.00
;00:01:05.465: pe=0.0000 eb=0.0245 ve=0.6237 vn=0.6237 vl=10.000 db=0.50
G1 X61.15 Y19.85 E35.1369               ; draw dl=0.7@10(10<10>10) de=0.042@0.62(0.62<0.62>0.62) l=0.30x0.50x1.00 r=1.00
;00:01:05.533: pe=0.0000 eb=0.0245 ve=0.6237 vn=0.6237 vl=10.000 db=0.50
G1 X61.39 Y20.42 E35.1755               ; draw dl=0.6@10(10<10>10) de=0.039@0.62(0.62<0.62>0.62) l=0.30x0.50x1.00 r=1.00
;00:01:05.595: pe=0.0000 eb=0.0245 ve=0.6237 vn=0.6237 vl=10.000 db=0.50
G1 X61.77 Y20.80 E35.2090               ; draw dl=0.5@10(10<10>10) de=0.034@0.62(0.62<0.62>0.62) l=0.30x0.50x1.00 r=1.00
;00:01:05.648: pe=0.0000 eb=0.0245 ve=0.6237 vn=0.6237 vl=10.000 db=0.50
G1 X62.29 Y20.94 E35.2426               ; draw dl=0.5@10(10<10>0) de=0.034@0.53(0.62<0.62>0.0) l=0.30x0.50x1.00 r=1.00
;00:01:05.712: pe=0.0000 eb=0.0245 ve=0.0000 vn=0.0000 vl=0.000 db=0.50
G1 E30.2426 F2400                       ; retract de=-5.0000@-40.0 r=1.00
;00:01:05.837: pe=-5.0000 eb=0.0245 ve=-40.0000 vn=0.0000 vl=0.000 db=0.50
G1 Z0.500 F420                          ; hopup dz=0.20@7 h=0.5 r=0.77
;00:01:05.866: pe=-5.0000 eb=0.0245 ve=0.0000 vn=0.0000 vl=0.000 db=0.39
G1 X64.57 Y18.90 F6000                  ; move dl=3.1@100(0<28>0) de=0.000@0.0(0.0<0.0>0.0) l=0.50x0.50x0.00 r=0.00
;00:01:06.032: pe=-5.0000 eb=0.0000 ve=0.0000 vn=0.0000 vl=0.000 db=0.00
G1 Z0.300 F420                          ; hopdn dz=-0.20@7 h=0.3 r=0.00
;00:01:06.060: pe=-5.0000 eb=0.0000 ve=0.0000 vn=0.0000 vl=0.000 db=0.00
G1 E35.2426 F1800                       ; restore de=5.0000@30.0 r=0.00
;00:01:06.227: pe=-0.0000 eb=0.0000 ve=30.0000 vn=0.0000 vl=0.000 db=0.00
G1 X66.44 Y18.90 E35.3592 F600          ; draw dl=1.9@10(0<10>0) de=0.117@0.56(0.0<0.62>0.0) l=0.30x0.50x1.00 r=1.00
;00:01:06.434: pe=0.0000 eb=0.0228 ve=0.0000 vn=0.0000 vl=0.000 db=0.48
G1 E30.3592 F2400                       ; retract de=-5.0000@-40.0 r=0.97
;00:01:06.559: pe=-5.0000 eb=0.0228 ve=-40.0000 vn=0.0000 vl=0.000 db=0.48
G1 Z0.500 F420                          ; hopup dz=0.20@7 h=0.5 r=0.75
;00:01:06.588: pe=-5.0000 eb=0.0228 ve=0.0000 vn=0.0000 vl=0.000 db=0.37
G1 X69.49 Y20.88 F6000                  ; move dl=3.6@100(0<30>0) de=0.000@0.0(0.0<0.0>0.0) l=0.50x0.50x0.00 r=0.00
;00:01:06.769: pe=-5.0000 eb=0.0000 ve=0.0000 vn=0.0000 vl=0.000 db=0.00
G1 Z0.300 F420                          ; hopdn dz=-0.20@7 h=0.3 r=0.00
;00:01:06.797: pe=-5.0000 eb=0.0000 ve=0.0000 vn=0.0000 vl=0.000 db=0.00
G1 E35.3592 F1800                       ; restore de=5.0000@30.0 r=0.00
;00:01:06.964: pe=-0.0000 eb=0.0000 ve=30.0000 vn=0.0000 vl=0.000 db=0.00
G1 X67.74 Y20.88 E35.4684 F600          ; draw dl=1.8@10(0<10>10) de=0.109@0.59(0.0<0.62>0.62) l=0.30x0.50x1.00 r=1.00
;00:01:07.149: pe=0.0000 eb=0.0226 ve=0.6237 vn=0.6237 vl=10.000 db=0.48
G1 X67.60 Y19.14 E35.5772               ; draw dl=1.7@10(10<10>5) de=0.109@0.61(0.62<0.62>0.3) l=0.30x0.50x1.00 r=1.00
;00:01:07.326: pe=0.0000 eb=0.0243 ve=0.3035 vn=0.3035 vl=4.866 db=0.50
G1 X67.88 Y19.45 E35.6033               ; draw dl=0.4@10(5<10>10) de=0.026@0.59(0.3<0.62>0.62) l=0.30x0.50x1.00 r=1.00
;00:01:07.370: pe=0.0000 eb=0.0244 ve=0.6237 vn=0.6237 vl=10.000 db=0.50
G1 X68.05 Y19.57 E35.6163               ; draw dl=0.2@10(10<10>10) de=0.013@0.62(0.62<0.62>0.62) l=0.30x0.50x1.00 r=1.00
;00:01:07.391: pe=0.0000 eb=0.0244 ve=0.6237 vn=0.6237 vl=10.000 db=0.50
G1 X68.24 Y19.64 E35.6289               ; draw dl=0.2@10(10<10>10) de=0.013@0.62(0.62<0.62>0.62) l=0.30x0.50x1.00 r=1.00
;00:01:07.411: pe=0.0000 eb=0.0244 ve=0.6237 vn=0.6237 vl=10.000 db=0.50
G1 X68.43 Y19.67 E35.6409               ; draw dl=0.2@10(10<10>10) de=0.012@0.62(0.62<0.62>0.62) l=0.30x0.50x1.00 r=1.00
;00:01:07.431: pe=0.0000 eb=0.0244 ve=0.6237 vn=0.6237 vl=10.000 db=0.50
G1 X68.63 Y19.68 E35.6534               ; draw dl=0.2@10(10<10>10) de=0.012@0.62(0.62<0.62>0.62) l=0.30x0.50x1.00 r=1.00
;00:01:07.451: pe=0.0000 eb=0.0245 ve=0.6237 vn=0.6237 vl=10.000 db=0.50
G1 X69.04 Y19.59 E35.6796               ; draw dl=0.4@10(10<10>10) de=0.026@0.62(0.62<0.62>0.62) l=0.30x0.50x1.00 r=1.00
;00:01:07.493: pe=0.0000 eb=0.0245 ve=0.6237 vn=0.6237 vl=10.000 db=0.50
G1 X69.36 Y19.37 E35.7038               ; draw dl=0.4@10(10<10>10) de=0.024@0.62(0.62<0.62>0.62) l=0.30x0.50x1.00 r=1.00
;00:01:07.532: pe=0.0000 eb=0.0245 ve=0.6237 vn=0.6237 vl=10.000 db=0.50
G1 X69.57 Y19.03 E35.7287               ; draw dl=0.4@10(10<10>10) de=0.025@0.62(0.62<0.62>0.62) l=0.30x0.50x1.00 r=1.00
;00:01:07.571: pe=0.0000 eb=0.0245 ve=0.6237 vn=0.6237 vl=10.000 db=0.50
G1 X69.65 Y18.61 E35.7554               ; draw dl=0.4@10(10<10>10) de=0.027@0.62(0.62<0.62>0.62) l=0.30x0.50x1.00 r=1.00
;00:01:07.614: pe=0.0000 eb=0.0245 ve=0.6237 vn=0.6237 vl=10.000 db=0.50
G1 X69.58 Y18.14 E35.7850               ; draw dl=0.5@10(10<10>10) de=0.030@0.62(0.62<0.62>0.62) l=0.30x0.50x1.00 r=1.00
;00:01:07.662: pe=0.0000 eb=0.0245 ve=0.6237 vn=0.6237 vl=10.000 db=0.50
G1 X69.37 Y17.77 E35.8115               ; draw dl=0.4@10(10<10>10) de=0.027@0.62(0.62<0.62>0.62) l=0.30x0.50x1.00 r=1.00
;00:01:07.704: pe=0.0000 eb=0.0245 ve=0.6237 vn=0.6237 vl=10.000 db=0.50
G1 X69.02 Y17.51 E35.8387               ; draw dl=0.4@10(10<10>10) de=0.027@0.62(0.62<0.62>0.62) l=0.30x0.50x1.00 r=1.00
;00:01:07.748: pe=0.0000 eb=0.0245 ve=0.6237 vn=0.6237 vl=10.000 db=0.50
G1 X68.52 Y17.42 E35.8704               ; draw dl=0.5@10(10<10>10) de=0.032@0.62(0.62<0.62>0.62) l=0.30x0.50x1.00 r=1.00
;00:01:07.799: pe=0.0000 eb=0.0245 ve=0.6237 vn=0.6237 vl=10.000 db=0.50
G1 X68.15 Y17.48 E35.8938               ; draw dl=0.4@10(10<10>10) de=0.023@0.62(0.62<0.62>0.62) l=0.30x0.50x1.00 r=1.00
;00:01:07.836: pe=0.0000 eb=0.0245 ve=0.6237 vn=0.6237 vl=10.000 db=0.50
G1 X67.84 Y17.64 E35.9156               ; draw dl=0.3@10(10<10>10) de=0.022@0.62(0.62<0.62>0.62) l=0.30x0.50x1.00 r=1.00
;00:01:07.871: pe=0.0000 eb=0.0245 ve=0.6237 vn=0.6237 vl=10.000 db=0.50
G1 X67.62 Y17.91 E35.9373               ; draw dl=0.3@10(10<10>10) de=0.022@0.62(0.62<0.62>0.62) l=0.30x0.50x1.00 r=1.00
;00:01:07.906: pe=0.0000 eb=0.0245 ve=0.6237 vn=0.6237 vl=10.000 db=0.50
G1 X67.50 Y18.27 E35.9609               ; draw dl=0.4@10(10<10>0) de=0.024@0.49(0.62<0.62>0.0) l=0.30x0.50x1.00 r=1.00
;00:01:07.954: pe=0.0000 eb=0.0245 ve=0.0000 vn=0.0000 vl=0.000 db=0.50
G1 E30.9609 F2400                       ; retract de=-5.0000@-40.0 r=1.00
;00:01:08.079: pe=-5.0000 eb=0.0245 ve=-40.0000 vn=0.0000 vl=0.000 db=0.50
G1 Z0.500 F420                          ; hopup dz=0.20@7 h=0.5 r=0.77
;00:01:08.107: pe=-5.0000 eb=0.0245 ve=0.0000 vn=0.0000 vl=0.000 db=0.39
G1 X71.93 Y20.94 F6000                  ; move dl=5.2@100(0<36>0) de=0.000@0.0(0.0<0.0>0.0) l=0.50x0.50x0.00 r=0.00
;00:01:08.323: pe=-5.0000 eb=0.0000 ve=0.0000 vn=0.0000 vl=0.000 db=0.00
G1 Z0.300 F420                          ; hopdn dz=-0.20@7 h=0.3 r=0.00
;00:01:08.352: pe=-5.0000 eb=0.0000 ve=0.0000 vn=0.0000 vl=0.000 db=0.00
G1 E35.9609 F1800                       ; restore de=5.0000@30.0 r=0.00
;00:01:08.518: pe=-0.0000 eb=0.0000 ve=30.0000 vn=0.0000 vl=0.000 db=0.00
G1 X72.44 Y20.80 E35.9939 F600          ; draw dl=0.5@10(0<10>10) de=0.033@0.52(0.0<0.62>0.62) l=0.30x0.50x1.00 r=1.00
;00:01:08.581: pe=0.0000 eb=0.0143 ve=0.6237 vn=0.6237 vl=10.000 db=0.38
G1 X72.83 Y20.42 E36.0279               ; draw dl=0.5@10(10<10>10) de=0.034@0.62(0.62<0.62>0.62) l=0.30x0.50x1.00 r=1.00
;00:01:08.636: pe=0.0000 eb=0.0197 ve=0.6237 vn=0.6237 vl=10.000 db=0.45
G1 X73.07 Y19.86 E36.0659               ; draw dl=0.6@10(10<10>10) de=0.038@0.62(0.62<0.62>0.62) l=0.30x0.50x1.00 r=1.00
;00:01:08.697: pe=0.0000 eb=0.0224 ve=0.6237 vn=0.6237 vl=10.000 db=0.48
G1 X73.15 Y19.18 E36.1086               ; draw dl=0.7@10(10<10>10) de=0.043@0.62(0.62<0.62>0.62) l=0.30x0.50x1.00 r=1.00
;00:01:08.765: pe=-0.0000 eb=0.0236 ve=0.6237 vn=0.0000 vl=10.000 db=0.49
G1 X73.07 Y18.51 E36.1507               ; draw dl=0.7@10(10<10>10) de=0.042@0.62(0.62<0.62>0.62) l=0.30x0.50x1.00 r=1.00
;00:01:08.833: pe=0.0000 eb=0.0241 ve=0.6237 vn=0.6237 vl=10.000 db=0.50
G1 X72.83 Y17.95 E36.1887               ; draw dl=0.6@10(10<10>10) de=0.038@0.62(0.62<0.62>0.62) l=0.30x0.50x1.00 r=1.00
;00:01:08.894: pe=0.0000 eb=0.0243 ve=0.6237 vn=0.6237 vl=10.000 db=0.50
G1 X72.44 Y17.56 E36.2231               ; draw dl=0.6@10(10<10>10) de=0.034@0.62(0.62<0.62>0.62) l=0.30x0.50x1.00 r=1.00
;00:01:08.949: pe=0.0000 eb=0.0244 ve=0.6237 vn=0.6237 vl=10.000 db=0.50
G1 X71.93 Y17.42 E36.2560               ; draw dl=0.5@10(10<10>10) de=0.033@0.62(0.62<0.62>0.62) l=0.30x0.50x1.00 r=1.00
;00:01:09.002: pe=0.0000 eb=0.0245 ve=0.6237 vn=0.6237 vl=10.000 db=0.50
G1 X71.41 Y17.56 E36.2896               ; draw dl=0.5@10(10<10>10) de=0.034@0.62(0.62<0.62>0.62) l=0.30x0.50x1.00 r=1.00
;00:01:09.055: pe=0.0000 eb=0.0245 ve=0.6237 vn=0.6237 vl=10.000 db=0.50
G1 X71.03 Y17.95 E36.3236               ; draw dl=0.5@10(10<10>10) de=0.034@0.62(0.62<0.62>0.62) l=0.30x0.50x1.00 r=1.00
;00:01:09.110: pe=0.0000 eb=0.0245 ve=0.6237 vn=0.6237 vl=10.000 db=0.50
G1 X70.79 Y18.51 E36.3616               ; draw dl=0.6@10(10<10>10) de=0.038@0.62(0.62<0.62>0.62) l=0.30x0.50x1.00 r=1.00
;00:01:09.171: pe=0.0000 eb=0.0245 ve=0.6237 vn=0.6237 vl=10.000 db=0.50
G1 X70.71 Y19.18 E36.4037               ; draw dl=0.7@10(10<10>10) de=0.042@0.62(0.62<0.62>0.62) l=0.30x0.50x1.00 r=1.00
;00:01:09.238: pe=0.0000 eb=0.0245 ve=0.6237 vn=0.6237 vl=10.000 db=0.50
G1 X70.79 Y19.85 E36.4458               ; draw dl=0.7@10(10<10>10) de=0.042@0.62(0.62<0.62>0.62) l=0.30x0.50x1.00 r=1.00
;00:01:09.306: pe=0.0000 eb=0.0245 ve=0.6237 vn=0.6237 vl=10.000 db=0.50
G1 X71.03 Y20.42 E36.4843               ; draw dl=0.6@10(10<10>10) de=0.039@0.62(0.62<0.62>0.62) l=0.30x0.50x1.00 r=1.00
;00:01:09.368: pe=0.0000 eb=0.0245 ve=0.6237 vn=0.6237 vl=10.000 db=0.50
G1 X71.41 Y20.80 E36.5178               ; draw dl=0.5@10(10<10>10) de=0.034@0.62(0.62<0.62>0.62) l=0.30x0.50x1.00 r=1.00
;00:01:09.421: pe=0.0000 eb=0.0245 ve=0.6236 vn=0.6236 vl=10.000 db=0.50
G1 X71.93 Y20.94 E36.5514               ; draw dl=0.5@10(10<10>0) de=0.034@0.53(0.62<0.62>0.0) l=0.30x0.50x1.00 r=1.00
;00:01:09.485: pe=0.0000 eb=0.0245 ve=0.0000 vn=0.0000 vl=0.000 db=0.50
G1 E31.5514 F2400                       ; retract de=-5.0000@-40.0 r=1.00
;00:01:09.610: pe=-5.0000 eb=0.0245 ve=-40.0000 vn=0.0000 vl=0.000 db=0.50
G1 Z0.500 F420                          ; hopup dz=0.20@7 h=0.5 r=0.77
;00:01:09.639: pe=-5.0000 eb=0.0245 ve=0.0000 vn=0.0000 vl=0.000 db=0.39
G1 X46.50 Y14.89 F6000                  ; move dl=26.1@100(0<81>0) de=0.000@0.0(0.0<0.0>0.0) l=0.50x0.50x0.00 r=0.00
;00:01:10.124: pe=-5.0000 eb=0.0000 ve=0.0000 vn=0.0000 vl=0.000 db=0.00
G1 Z0.300 F420                          ; hopdn dz=-0.20@7 h=0.3 r=0.00
;00:01:10.152: pe=-5.0000 eb=0.0000 ve=0.0000 vn=0.0000 vl=0.000 db=0.00
G1 E36.5514 F1800                       ; restore de=5.0000@30.0 r=0.00
;00:01:10.319: pe=-0.0000 eb=0.0000 ve=30.0000 vn=0.0000 vl=0.000 db=0.00
G1 X47.52 Y12.48 E36.7146 F600          ; draw dl=2.6@10(0<10>6) de=0.163@0.6(0.0<0.62>0.35) l=0.30x0.50x1.00 r=1.00
;00:01:10.593: pe=0.0000 eb=0.0239 ve=0.3524 vn=0.3524 vl=5.651 db=0.49
G1 X48.54 Y14.89 E36.8778               ; draw dl=2.6@10(6<10>0) de=0.163@0.6(0.35<0.62>0.0) l=0.30x0.50x1.00 r=1.00
;00:01:10.866: pe=0.0000 eb=0.0245 ve=0.0000 vn=0.0000 vl=0.000 db=0.50
G1 E31.8778 F2400                       ; retract de=-5.0000@-40.0 r=1.00
;00:01:10.991: pe=-5.0000 eb=0.0245 ve=-40.0000 vn=0.0000 vl=0.000 db=0.50
G1 Z0.500 F420                          ; hopup dz=0.20@7 h=0.5 r=0.77
;00:01:11.020: pe=-5.0000 eb=0.0245 ve=0.0000 vn=0.0000 vl=0.000 db=0.39
G1 X49.60 Y14.89 F6000                  ; move dl=1.1@100(0<16>0) de=0.000@0.0(0.0<0.0>0.0) l=0.50x0.50x0.00 r=0.00
;00:01:11.117: pe=-5.0000 eb=0.0000 ve=0.0000 vn=0.0000 vl=0.000 db=0.00
G1 Z0.300 F420                          ; hopdn dz=-0.20@7 h=0.3 r=0.00
;00:01:11.146: pe=-5.0000 eb=0.0000 ve=0.0000 vn=0.0000 vl=0.000 db=0.00
G1 E36.8778 F1800                       ; restore de=5.0000@30.0 r=0.00
;00:01:11.313: pe=-0.0000 eb=0.0000 ve=30.0000 vn=0.0000 vl=0.000 db=0.00
G1 X51.60 Y12.48 E37.0732 F600          ; draw dl=3.1@10(0<10>0) de=0.195@0.59(0.0<0.62>0.0) l=0.30x0.50x1.00 r=1.00
;00:01:11.646: pe=0.0000 eb=0.0242 ve=0.0000 vn=0.0000 vl=0.000 db=0.50
G1 E32.0732 F2400                       ; retract de=-5.0000@-40.0 r=0.99
;00:01:11.771: pe=-5.0000 eb=0.0242 ve=-40.0000 vn=0.0000 vl=0.000 db=0.50
G1 Z0.500 F420                          ; hopup dz=0.20@7 h=0.5 r=0.77
;00:01:11.799: pe=-5.0000 eb=0.0242 ve=0.0000 vn=0.0000 vl=0.000 db=0.38
G1 X49.60 Y12.48 F6000                  ; move dl=2.0@100(0<22>0) de=0.000@0.0(0.0<0.0>0.0) l=0.50x0.50x0.00 r=0.00
;00:01:11.934: pe=-5.0000 eb=0.0000 ve=0.0000 vn=0.0000 vl=0.000 db=0.00
G1 Z0.300 F420                          ; hopdn dz=-0.20@7 h=0.3 r=0.00
;00:01:11.962: pe=-5.0000 eb=0.0000 ve=0.0000 vn=0.0000 vl=0.000 db=0.00
G1 E37.0732 F1800                       ; restore de=5.0000@30.0 r=0.00
;00:01:12.129: pe=-0.0000 eb=0.0000 ve=30.0000 vn=0.0000 vl=0.000 db=0.00
G1 X51.60 Y14.89 E37.2685 F600          ; draw dl=3.1@10(0<10>0) de=0.195@0.59(0.0<0.62>0.0) l=0.30x0.50x1.00 r=1.00
;00:01:12.462: pe=0.0000 eb=0.0242 ve=0.0000 vn=0.0000 vl=0.000 db=0.50
G1 E32.2685 F2400                       ; retract de=-5.0000@-40.0 r=0.99
;00:01:12.587: pe=-5.0000 eb=0.0242 ve=-40.0000 vn=0.0000 vl=0.000 db=0.50
G1 Z0.500 F420                          ; hopup dz=0.20@7 h=0.5 r=0.77
;00:01:12.616: pe=-5.0000 eb=0.0242 ve=0.0000 vn=0.0000 vl=0.000 db=0.38
G1 X52.66 Y15.00 F6000                  ; move dl=1.1@100(0<16>0) de=0.000@0.0(0.0<0.0>0.0) l=0.50x0.50x0.00 r=0.00
;00:01:12.714: pe=-5.0000 eb=0.0000 ve=0.0000 vn=0.0000 vl=0.000 db=0.00
G1 Z0.300 F420                          ; hopdn dz=-0.20@7 h=0.3 r=0.00
;00:01:12.742: pe=-5.0000 eb=0.0000 ve=0.0000 vn=0.0000 vl=0.000 db=0.00
G1 E37.2685 F1800                       ; restore de=5.0000@30.0 r=0.00
;00:01:12.909: pe=-0.0000 eb=0.0000 ve=30.0000 vn=0.0000 vl=0.000 db=0.00
G1 X53.13 Y15.24 E37.3014 F600          ; draw dl=0.5@10(0<10>10) de=0.033@0.52(0.0<0.62>0.62) l=0.30x0.50x1.00 r=1.00
;00:01:12.972: pe=0.0000 eb=0.0143 ve=0.6237 vn=0.6237 vl=10.000 db=0.38
G1 X53.50 Y15.55 E37.3315               ; draw dl=0.5@10(10<10>10) de=0.030@0.62(0.62<0.62>0.62) l=0.30x0.50x1.00 r=1.00
;00:01:13.020: pe=0.0000 eb=0.0193 ve=0.6237 vn=0.6237 vl=10.000 db=0.44
G1 X53.75 Y15.88 E37.3573               ; draw dl=0.4@10(10<10>5) de=0.026@0.59(0.62<0.62>0.3) l=0.30x0.50x1.00 r=1.00
;00:01:13.064: pe=0.0000 eb=0.0215 ve=0.3015 vn=0.3015 vl=4.834 db=0.47
G1 X53.75 Y12.48 E37.5694               ; draw dl=3.4@10(5<10>0) de=0.212@0.6(0.3<0.62>0.0) l=0.30x0.50x1.00 r=1.00
;00:01:13.417: pe=0.0000 eb=0.0245 ve=0.0000 vn=0.0000 vl=0.000 db=0.50
G1 E32.5694 F2400                       ; retract de=-5.0000@-40.0 r=1.00
;00:01:13.542: pe=-5.0000 eb=0.0245 ve=-40.0000 vn=0.0000 vl=0.000 db=0.50
G1 Z0.500 F420                          ; hopup dz=0.20@7 h=0.5 r=0.77
;00:01:13.570: pe=-5.0000 eb=0.0245 ve=0.0000 vn=0.0000 vl=0.000 db=0.39
G1 X54.81 Y14.26 F6000                  ; move dl=2.1@100(0<23>0) de=0.000@0.0(0.0<0.0>0.0) l=0.50x0.50x0.00 r=0.00
;00:01:13.707: pe=-5.0000 eb=0.0000 ve=0.0000 vn=0.0000 vl=0.000 db=0.00
G1 Z0.300 F420                          ; hopdn dz=-0.20@7 h=0.3 r=0.00
;00:01:13.735: pe=-5.0000 eb=0.0000 ve=0.0000 vn=0.0000 vl=0.000 db=0.00
G1 E37.5694 F1800                       ; restore de=5.0000@30.0 r=0.00
;00:01:13.902: pe=-0.0000 eb=0.0000 ve=30.0000 vn=0.0000 vl=0.000 db=0.00
G1 X56.50 Y14.26 E37.6748 F600          ; draw dl=1.7@10(0<10>0) de=0.105@0.56(0.0<0.62>0.0) l=0.30x0.50x1.00 r=1.00
;00:01:14.091: pe=0.0000 eb=0.0224 ve=0.0000 vn=0.0000 vl=0.000 db=0.48
G1 E32.6748 F2400                       ; retract de=-5.0000@-40.0 r=0.96
;00:01:14.216: pe=-5.0000 eb=0.0224 ve=-40.0000 vn=0.0000 vl=0.000 db=0.48
G1 Z0.500 F420                          ; hopup dz=0.20@7 h=0.5 r=0.74
;00:01:14.244: pe=-5.0000 eb=0.0224 ve=0.0000 vn=0.0000 vl=0.000 db=0.37
G1 X56.50 Y13.55 F6000                  ; move dl=0.7@100(0<13>0) de=0.000@0.0(0.0<0.0>0.0) l=0.50x0.50x0.00 r=0.00
;00:01:14.324: pe=-5.0000 eb=0.0000 ve=0.0000 vn=0.0000 vl=0.000 db=0.00
G1 Z0.300 F420                          ; hopdn dz=-0.20@7 h=0.3 r=0.00
;00:01:14.353: pe=-5.0000 eb=0.0000 ve=0.0000 vn=0.0000 vl=0.000 db=0.00
G1 E37.6748 F1800                       ; restore de=5.0000@30.0 r=0.00
;00:01:14.520: pe=-0.0000 eb=0.0000 ve=30.0000 vn=0.0000 vl=0.000 db=0.00
G1 X54.81 Y13.55 E37.7802 F600          ; draw dl=1.7@10(0<10>0) de=0.105@0.56(0.0<0.62>0.0) l=0.30x0.50x1.00 r=1.00
;00:01:14.709: pe=0.0000 eb=0.0224 ve=0.0000 vn=0.0000 vl=0.000 db=0.48
G1 E32.7802 F2400                       ; retract de=-5.0000@-40.0 r=0.96
;00:01:14.834: pe=-5.0000 eb=0.0224 ve=-40.0000 vn=0.0000 vl=0.000 db=0.48
G1 Z0.500 F420                          ; hopup dz=0.20@7 h=0.5 r=0.74
;00:01:14.862: pe=-5.0000 eb=0.0224 ve=0.0000 vn=0.0000 vl=0.000 db=0.37
G1 X57.56 Y15.44 F6000                  ; move dl=3.3@100(0<29>0) de=0.000@0.0(0.0<0.0>0.0) l=0.50x0.50x0.00 r=0.00
;00:01:15.036: pe=-5.0000 eb=0.0000 ve=0.0000 vn=0.0000 vl=0.000 db=0.00
G1 Z0.300 F420                          ; hopdn dz=-0.20@7 h=0.3 r=0.00
;00:01:15.064: pe=-5.0000 eb=0.0000 ve=0.0000 vn=0.0000 vl=0.000 db=0.00
G1 E37.7802 F1800                       ; restore de=5.0000@30.0 r=0.00
;00:01:15.231: pe=-0.0000 eb=0.0000 ve=30.0000 vn=0.0000 vl=0.000 db=0.00
G1 X57.75 Y15.65 E37.7978 F600          ; draw dl=0.3@10(0<10>10) de=0.018@0.46(0.0<0.62>0.62) l=0.30x0.50x1.00 r=1.00
;00:01:15.269: pe=0.0000 eb=0.0097 ve=0.6237 vn=0.6237 vl=10.000 db=0.32
G1 X57.98 Y15.81 E37.8153               ; draw dl=0.3@10(10<10>10) de=0.017@0.62(0.62<0.62>0.62) l=0.30x0.50x1.00 r=1.00
;00:01:15.297: pe=0.0000 eb=0.0148 ve=0.6237 vn=0.6237 vl=10.000 db=0.39
G1 X58.24 Y15.90 E37.8324               ; draw dl=0.3@10(10<10>10) de=0.017@0.62(0.62<0.62>0.62) l=0.30x0.50x1.00 r=1.00
;00:01:15.325: pe=0.0000 eb=0.0179 ve=0.6237 vn=0.6237 vl=10.000 db=0.43
G1 X58.52 Y15.94 E37.8501               ; draw dl=0.3@10(10<10>10) de=0.018@0.62(0.62<0.62>0.62) l=0.30x0.50x1.00 r=1.00
;00:01:15.353: pe=0.0000 eb=0.0200 ve=0.6237 vn=0.6237 vl=10.000 db=0.45
G1 X58.89 Y15.88 E37.8735               ; draw dl=0.4@10(10<10>10) de=0.023@0.62(0.62<0.62>0.62) l=0.30x0.50x1.00 r=1.00
;00:01:15.390: pe=0.0000 eb=0.0218 ve=0.6237 vn=0.6237 vl=10.000 db=0.47
G1 X59.19 Y15.68 E37.8960               ; draw dl=0.4@10(10<10>10) de=0.022@0.62(0.62<0.62>0.62) l=0.30x0.50x1.00 r=1.00
;00:01:15.426: pe=0.0000 eb=0.0228 ve=0.6237 vn=0.6237 vl=10.000 db=0.48
G1 X59.38 Y15.39 E37.9176               ; draw dl=0.3@10(10<10>10) de=0.022@0.62(0.62<0.62>0.62) l=0.30x0.50x1.00 r=1.00
;00:01:15.461: pe=0.0000 eb=0.0234 ve=0.6237 vn=0.6237 vl=10.000 db=0.49
G1 X59.45 Y15.02 E37.9411               ; draw dl=0.4@10(10<10>10) de=0.023@0.62(0.62<0.62>0.62) l=0.30x0.50x1.00 r=1.00
;00:01:15.499: pe=0.0000 eb=0.0238 ve=0.6237 vn=0.6237 vl=10.000 db=0.49
G1 X59.35 Y14.63 E37.9662               ; draw dl=0.4@10(10<10>10) de=0.025@0.62(0.62<0.62>0.62) l=0.30x0.50x1.00 r=1.00
;00:01:15.539: pe=0.0000 eb=0.0241 ve=0.6237 vn=0.6237 vl=10.000 db=0.50
G1 X59.07 Y14.27 E37.9946               ; draw dl=0.5@10(10<10>10) de=0.028@0.62(0.62<0.62>0.62) l=0.30x0.50x1.00 r=1.00
;00:01:15.585: pe=0.0000 eb=0.0243 ve=0.6237 vn=0.6237 vl=10.000 db=0.50
G1 X58.29 Y13.64 E38.0572               ; draw dl=1.0@10(10<10>10) de=0.063@0.62(0.62<0.62>0.62) l=0.30x0.50x1.00 r=1.00
;00:01:15.685: pe=0.0000 eb=0.0244 ve=0.6237 vn=0.6237 vl=10.000 db=0.50
G1 X57.99 Y13.23 E38.0888               ; draw dl=0.5@10(10<10>10) de=0.032@0.62(0.62<0.62>0.62) l=0.30x0.50x1.00 r=1.00
;00:01:15.736: pe=0.0000 eb=0.0245 ve=0.6237 vn=0.6237 vl=10.000 db=0.50
G1 X57.60 Y12.48 E38.1416               ; draw dl=0.8@10(10<10>7) de=0.053@0.62(0.62<0.62>0.46) l=0.30x0.50x1.00 r=1.00
;00:01:15.821: pe=0.0000 eb=0.0245 ve=0.4581 vn=0.4581 vl=7.345 db=0.50
G1 X59.42 Y12.48 E38.2551               ; draw dl=1.8@10(7<10>0) de=0.114@0.59(0.46<0.62>0.0) l=0.30x0.50x1.00 r=1.00
;00:01:16.014: pe=0.0000 eb=0.0245 ve=0.0000 vn=0.0000 vl=0.000 db=0.50
G1 E33.2551 F2400                       ; retract de=-5.0000@-40.0 r=1.00
;00:01:16.139: pe=-5.0000 eb=0.0245 ve=-40.0000 vn=0.0000 vl=0.000 db=0.50
G1 Z0.500 F420                          ; hopup dz=0.20@7 h=0.5 r=0.77
;00:01:16.167: pe=-5.0000 eb=0.0245 ve=0.0000 vn=0.0000 vl=0.000 db=0.39
G1 X61.73 Y15.94 F6000                  ; move dl=4.2@100(0<32>0) de=0.000@0.0(0.0<0.0>0.0) l=0.50x0.50x0.00 r=0.00
;00:01:16.361: pe=-5.0000 eb=0.0000 ve=0.0000 vn=0.0000 vl=0.000 db=0.00
G1 Z0.300 F420                          ; hopdn dz=-0.20@7 h=0.3 r=0.00
;00:01:16.389: pe=-5.0000 eb=0.0000 ve=0.0000 vn=0.0000 vl=0.000 db=0.00
G1 E38.2551 F1800                       ; restore de=5.0000@30.0 r=0.00
;00:01:16.556: pe=-0.0000 eb=0.0000 ve=30.0000 vn=0.0000 vl=0.000 db=0.00
G1 X62.24 Y15.80 E38.2881 F600          ; draw dl=0.5@10(0<10>10) de=0.033@0.52(0.0<0.62>0.62) l=0.30x0.50x1.00 r=1.00
;00:01:16.619: pe=0.0000 eb=0.0143 ve=0.6237 vn=0.6237 vl=10.000 db=0.38
G1 X62.63 Y15.42 E38.3220               ; draw dl=0.5@10(10<10>10) de=0.034@0.62(0.62<0.62>0.62) l=0.30x0.50x1.00 r=1.00
;00:01:16.673: pe=0.0000 eb=0.0197 ve=0.6237 vn=0.6237 vl=10.000 db=0.45
G1 X62.87 Y14.86 E38.3600               ; draw dl=0.6@10(10<10>10) de=0.038@0.62(0.62<0.62>0.62) l=0.30x0.50x1.00 r=1.00
;00:01:16.734: pe=0.0000 eb=0.0224 ve=0.6237 vn=0.6237 vl=10.000 db=0.48
G1 X62.95 Y14.18 E38.4027               ; draw dl=0.7@10(10<10>10) de=0.043@0.62(0.62<0.62>0.62) l=0.30x0.50x1.00 r=1.00
;00:01:16.803: pe=0.0000 eb=0.0236 ve=0.6237 vn=0.6237 vl=10.000 db=0.49
G1 X62.87 Y13.51 E38.4448               ; draw dl=0.7@10(10<10>10) de=0.042@0.62(0.62<0.62>0.62) l=0.30x0.50x1.00 r=1.00
;00:01:16.870: pe=0.0000 eb=0.0241 ve=0.6237 vn=0.6237 vl=10.000 db=0.50
G1 X62.63 Y12.95 E38.4828               ; draw dl=0.6@10(10<10>10) de=0.038@0.62(0.62<0.62>0.62) l=0.30x0.50x1.00 r=1.00
;00:01:16.931: pe=0.0000 eb=0.0243 ve=0.6237 vn=0.6237 vl=10.000 db=0.50
G1 X62.24 Y12.56 E38.5172               ; draw dl=0.6@10(10<10>10) de=0.034@0.62(0.62<0.62>0.62) l=0.30x0.50x1.00 r=1.00
;00:01:16.986: pe=0.0000 eb=0.0244 ve=0.6237 vn=0.6237 vl=10.000 db=0.50
G1 X61.73 Y12.42 E38.5502               ; draw dl=0.5@10(10<10>10) de=0.033@0.62(0.62<0.62>0.62) l=0.30x0.50x1.00 r=1.00
;00:01:17.039: pe=0.0000 eb=0.0245 ve=0.6237 vn=0.6237 vl=10.000 db=0.50
G1 X61.21 Y12.56 E38.5838               ; draw dl=0.5@10(10<10>10) de=0.034@0.62(0.62<0.62>0.62) l=0.30x0.50x1.00 r=1.00
;00:01:17.093: pe=0.0000 eb=0.0245 ve=0.6237 vn=0.6237 vl=10.000 db=0.50
G1 X60.83 Y12.95 E38.6178               ; draw dl=0.5@10(10<10>10) de=0.034@0.62(0.62<0.62>0.62) l=0.30x0.50x1.00 r=1.00
;00:01:17.147: pe=0.0000 eb=0.0245 ve=0.6237 vn=0.6237 vl=10.000 db=0.50
G1 X60.59 Y13.51 E38.6558               ; draw dl=0.6@10(10<10>10) de=0.038@0.62(0.62<0.62>0.62) l=0.30x0.50x1.00 r=1.00
;00:01:17.208: pe=0.0000 eb=0.0245 ve=0.6237 vn=0.6237 vl=10.000 db=0.50
G1 X60.51 Y14.18 E38.6978               ; draw dl=0.7@10(10<10>10) de=0.042@0.62(0.62<0.62>0.62) l=0.30x0.50x1.00 r=1.00
;00:01:17.276: pe=0.0000 eb=0.0245 ve=0.6237 vn=0.6237 vl=10.000 db=0.50
G1 X60.59 Y14.85 E38.7399               ; draw dl=0.7@10(10<10>10) de=0.042@0.62(0.62<0.62>0.62) l=0.30x0.50x1.00 r=1.00
;00:01:17.343: pe=0.0000 eb=0.0245 ve=0.6237 vn=0.6237 vl=10.000 db=0.50
G1 X60.83 Y15.42 E38.7785               ; draw dl=0.6@10(10<10>10) de=0.039@0.62(0.62<0.62>0.62) l=0.30x0.50x1.00 r=1.00
;00:01:17.405: pe=0.0000 eb=0.0245 ve=0.6237 vn=0.6237 vl=10.000 db=0.50
G1 X61.21 Y15.80 E38.8120               ; draw dl=0.5@10(10<10>10) de=0.034@0.62(0.62<0.62>0.62) l=0.30x0.50x1.00 r=1.00
;00:01:17.459: pe=0.0000 eb=0.0245 ve=0.6237 vn=0.6237 vl=10.000 db=0.50
G1 X61.73 Y15.94 E38.8456               ; draw dl=0.5@10(10<10>0) de=0.034@0.53(0.62<0.62>0.0) l=0.30x0.50x1.00 r=1.00
;00:01:17.523: pe=0.0000 eb=0.0245 ve=0.0000 vn=0.0000 vl=0.000 db=0.50
G1 E33.8456 F2400                       ; retract de=-5.0000@-40.0 r=1.00
;00:01:17.648: pe=-5.0000 eb=0.0245 ve=-40.0000 vn=0.0000 vl=0.000 db=0.50
G1 Z0.500 F420                          ; hopup dz=0.20@7 h=0.5 r=0.77
;00:01:17.676: pe=-5.0000 eb=0.0245 ve=0.0000 vn=0.0000 vl=0.000 db=0.39
G1 X64.02 Y13.90 F6000                  ; move dl=3.1@100(0<28>0) de=0.000@0.0(0.0<0.0>0.0) l=0.50x0.50x0.00 r=0.00
;00:01:17.842: pe=-5.0000 eb=0.0000 ve=0.0000 vn=0.0000 vl=0.000 db=0.00
G1 Z0.300 F420                          ; hopdn dz=-0.20@7 h=0.3 r=0.00
;00:01:17.871: pe=-5.0000 eb=0.0000 ve=0.0000 vn=0.0000 vl=0.000 db=0.00
G1 E38.8456 F1800                       ; restore de=5.0000@30.0 r=0.00
;00:01:18.038: pe=-0.0000 eb=0.0000 ve=30.0000 vn=0.0000 vl=0.000 db=0.00
G1 X65.89 Y13.90 E38.9622 F600          ; draw dl=1.9@10(0<10>0) de=0.117@0.56(0.0<0.62>0.0) l=0.30x0.50x1.00 r=1.00
;00:01:18.245: pe=0.0000 eb=0.0228 ve=0.0000 vn=0.0000 vl=0.000 db=0.48
G1 E33.9622 F2400                       ; retract de=-5.0000@-40.0 r=0.97
