;gcode_flavor: flashforge
;machine_type: Adventurer 3 Series
;filament_diameter0: 1.75
;right_extruder_temperature: 210
;platform_temperature: 50
;extruder_fan: 100%
;case_fan: 100%
;base_print_speed: 60
;travel_speed: 100
;vertical_speed: 7
;retract_speed: 40
;restore_speed: 30
;layer_height: 0.30
;line_width: 0.50
;extrusion_ratio: 1.00
;command_line: ./gcodetest.py -Te 210 -Tp 50 -Fe 1.0 -Fc 1.0 -Kf=0.0 -Kb=0.0 -Re=5.0 -n 2
;start gcode
M118 X75.00 Y75.00 Z150.00 T0
M140 S50 T0
M104 S210 T0
M104 S0 T1
M107
M900 K0.000 T0
G90
G28
M132 X Y Z A B
G1 Z50.000 F420
G161 X Y F3300
M7 T0
M6 T0
M652 S255
M108 T0
M106
;preExtrude:0.20
;structure:pre-extrude
G1 X-59.00 Y-65.00 F6000
G1 Z0.200 F420
G1 X-59.00 Y55.00 E19.9561 F1200
G1 E14.9561 F2400
G1 Z0.400 F420
;layer:0.30
;structure:shell-outer
G1 X-45.00 Y-3.00 F6000
G1 Z0.300 F420
G1 E19.9561 F1800
G1 X45.00 Y-3.00 E25.5687 F600
G1 E20.5687 F2400
G1 Z0.500 F420
G1 X-42.00 Y-3.00 F6000
G1 X-40.00 Y-3.00
G1 Z0.300 F420
G1 E25.5687 F1800
G1 X-40.00 Y-6.00 E25.7558 F600
G1 E20.7558 F2400
G1 Z0.500 F420
G1 X-38.00 Y-3.00 F6000
G1 Z0.300 F420
G1 E25.7558 F1800
G1 X-38.00 Y-4.50 E25.8494 F600
G1 E20.8494 F2400
G1 Z0.500 F420
G1 X-36.00 Y-3.00 F6000
G1 Z0.300 F420
G1 E25.8494 F1800
G1 X-36.00 Y-4.50 E25.9429 F600
G1 E20.9429 F2400
G1 Z0.500 F420
G1 X-34.00 Y-3.00 F6000
G1 Z0.300 F420
G1 E25.9429 F1800
G1 X-34.00 Y-4.50 E26.0364 F600
G1 E21.0364 F2400
G1 Z0.500 F420
G1 X-32.00 Y-3.00 F6000
G1 Z0.300 F420
G1 E26.0364 F1800
G1 X-32.00 Y-4.50 E26.1300 F600
G1 E21.1300 F2400
G1 Z0.500 F420
G1 X-30.00 Y-3.00 F6000
G1 Z0.300 F420
G1 E26.1300 F1800
G1 X-30.00 Y-6.00 E26.3171 F600
G1 E21.3171 F2400
G1 Z0.500 F420
G1 X-28.00 Y-3.00 F6000
G1 Z0.300 F420
G1 E26.3171 F1800
G1 X-28.00 Y-4.50 E26.4106 F600
G1 E21.4106 F2400
G1 Z0.500 F420
G1 X-26.00 Y-3.00 F6000
G1 Z0.300 F420
G1 E26.4106 F1800
G1 X-26.00 Y-4.50 E26.5042 F600
G1 E21.5042 F2400
G1 Z0.500 F420
G1 X-24.00 Y-3.00 F6000
G1 Z0.300 F420
G1 E26.5042 F1800
G1 X-24.00 Y-4.50 E26.5977 F600
G1 E21.5977 F2400
G1 Z0.500 F420
G1 X-22.00 Y-3.00 F6000
G1 Z0.300 F420
G1 E26.5977 F1800
G1 X-22.00 Y-4.50 E26.6913 F600
G1 E21.6913 F2400
G1 Z0.500 F420
G1 X-20.00 Y-3.00 F6000
G1 Z0.300 F420
G1 E26.6913 F1800
G1 X-20.00 Y-6.00 E26.8783 F600
G1 E21.8783 F2400
G1 Z0.500 F420
G1 X-18.00 Y-3.00 F6000
G1 Z0.300 F420
G1 E26.8783 F1800
G1 X-18.00 Y-4.50 E26.9719 F600
G1 E21.9719 F2400
G1 Z0.500 F420
G1 X-16.00 Y-3.00 F6000
G1 Z0.300 F420
G1 E26.9719 F1800
G1 X-16.00 Y-4.50 E27.0654 F600
G1 E22.0654 F2400
G1 Z0.500 F420
G1 X-14.00 Y-3.00 F6000
G1 Z0.300 F420
G1 E27.0654 F1800
G1 X-14.00 Y-4.50 E27.1590 F600
G1 E22.1590 F2400
G1 Z0.500 F420
G1 X-12.00 Y-3.00 F6000
G1 Z0.300 F420
G1 E27.1590 F1800
G1 X-12.00 Y-4.50 E27.2525 F600
G1 E22.2525 F2400
G1 Z0.500 F420
G1 X-10.00 Y-3.00 F6000
G1 Z0.300 F420
G1 E27.2525 F1800
G1 X-10.00 Y-6.00 E27.4396 F600
G1 E22.4396 F2400
G1 Z0.500 F420
G1 X-8.00 Y-3.00 F6000
G1 Z0.300 F420
G1 E27.4396 F1800
G1 X-8.00 Y-4.50 E27.5332 F600
G1 E22.5332 F2400
G1 Z0.500 F420
G1 X-6.00 Y-3.00 F6000
G1 Z0.300 F420
G1 E27.5332 F1800
G1 X-6.00 Y-4.50 E27.6267 F600
G1 E22.6267 F2400
G1 Z0.500 F420
G1 X-4.00 Y-3.00 F6000
G1 Z0.300 F420
G1 E27.6267 F1800
G1 X-4.00 Y-4.50 E27.7202 F600
G1 E22.7202 F2400
G1 Z0.500 F420
G1 X-2.00 Y-3.00 F6000
G1 Z0.300 F420
G1 E27.7202 F1800
G1 X-2.00 Y-4.50 E27.8138 F600
G1 E22.8138 F2400
G1 Z0.500 F420
G1 X0.00 Y-3.00 F6000
G1 Z0.300 F420
G1 E27.8138 F1800
G1 X0.00 Y-6.00 E28.0009 F600
G1 E23.0009 F2400
G1 Z0.500 F420
G1 X2.00 Y-3.00 F6000
G1 Z0.300 F420
G1 E28.0009 F1800
G1 X2.00 Y-4.50 E28.0944 F600
G1 E23.0944 F2400
G1 Z0.500 F420
G1 X4.00 Y-3.00 F6000
G1 Z0.300 F420
G1 E28.0944 F1800
G1 X4.00 Y-4.50 E28.1880 F600
G1 E23.1880 F2400
G1 Z0.500 F420
G1 X6.00 Y-3.00 F6000
G1 Z0.300 F420
G1 E28.1880 F1800
G1 X6.00 Y-4.50 E28.2815 F600
G1 E23.2815 F2400
G1 Z0.500 F420
G1 X8.00 Y-3.00 F6000
G1 Z0.300 F420
G1 E28.2815 F1800
G1 X8.00 Y-4.50 E28.3750 F600
G1 E23.3750 F2400
G1 Z0.500 F420
G1 X10.00 Y-3.00 F6000
G1 Z0.300 F420
G1 E28.3750 F1800
G1 X10.00 Y-6.00 E28.5621 F600
G1 E23.5621 F2400
G1 Z0.500 F420
G1 X12.00 Y-3.00 F6000
G1 Z0.300 F420
G1 E28.5621 F1800
G1 X12.00 Y-4.50 E28.6557 F600
G1 E23.6557 F2400
G1 Z0.500 F420
G1 X14.00 Y-3.00 F6000
G1 Z0.300 F420
G1 E28.6557 F1800
G1 X14.00 Y-4.50 E28.7492 F600
G1 E23.7492 F2400
G1 Z0.500 F420
G1 X16.00 Y-3.00 F6000
G1 Z0.300 F420
G1 E28.7492 F1800
G1 X16.00 Y-4.50 E28.8428 F600
G1 E23.8428 F2400
G1 Z0.500 F420
G1 X18.00 Y-3.00 F6000
G1 Z0.300 F420
G1 E28.8428 F1800
G1 X18.00 Y-4.50 E28.9363 F600
G1 E23.9363 F2400
G1 Z0.500 F420
G1 X20.00 Y-3.00 F6000
G1 Z0.300 F420
G1 E28.9363 F1800
G1 X20.00 Y-6.00 E29.1234 F600
G1 E24.1234 F2400
G1 Z0.500 F420
G1 X22.00 Y-3.00 F6000
G1 Z0.300 F420
G1 E29.1234 F1800
G1 X22.00 Y-4.50 E29.2169 F600
G1 E24.2169 F2400
G1 Z0.500 F420
G1 X24.00 Y-3.00 F6000
G1 Z0.300 F420
G1 E29.2169 F1800
G1 X24.00 Y-4.50 E29.3105 F600
G1 E24.3105 F2400
G1 Z0.500 F420
G1 X26.00 Y-3.00 F6000
G1 Z0.300 F420
G1 E29.3105 F1800
G1 X26.00 Y-4.50 E29.4040 F600
G1 E24.4040 F2400
G1 Z0.500 F420
G1 X28.00 Y-3.00 F6000
G1 Z0.300 F420
G1 E29.4040 F1800
G1 X28.00 Y-4.50 E29.4976 F600
G1 E24.4976 F2400
G1 Z0.500 F420
G1 X30.00 Y-3.00 F6000
G1 Z0.300 F420
G1 E29.4976 F1800
G1 X30.00 Y-6.00 E29.6847 F600
G1 E24.6847 F2400
G1 Z0.500 F420
G1 X32.00 Y-3.00 F6000
G1 Z0.300 F420
G1 E29.6847 F1800
G1 X32.00 Y-4.50 E29.7782 F600
G1 E24.7782 F2400
G1 Z0.500 F420
G1 X34.00 Y-3.00 F6000
G1 Z0.300 F420
G1 E29.7782 F1800
G1 X34.00 Y-4.50 E29.8718 F600
G1 E24.8718 F2400
G1 Z0.500 F420
G1 X36.00 Y-3.00 F6000
G1 Z0.300 F420
G1 E29.8718 F1800
G1 X36.00 Y-4.50 E29.9653 F600
G1 E24.9653 F2400
G1 Z0.500 F420
G1 X38.00 Y-3.00 F6000
G1 Z0.300 F420
G1 E29.9653 F1800
G1 X38.00 Y-4.50 E30.0588 F600
G1 E25.0588 F2400
G1 Z0.500 F420
G1 X40.00 Y-3.00 F6000
G1 Z0.300 F420
G1 E30.0588 F1800
G1 X40.00 Y-6.00 E30.2459 F600
G1 E25.2459 F2400
G1 Z0.500 F420
;structure:brim
;structure:shell-outer
G1 X47.69 Y-3.10 F6000
G1 Z0.300 F420
G1 E30.2459 F1800
G1 X47.54 Y-3.10 E30.2553 F600
G1 X47.36 Y-3.14 E30.2668
G1 X47.20 Y-3.27 E30.2796
G1 X47.08 Y-3.46 E30.2937
G1 X47.00 Y-3.83 E30.3173
G1 X47.00 Y-6.52 E30.4850
G1 E25.4850 F2400
G1 Z0.500 F420
G1 X46.50 Y-4.24 F6000
G1 Z0.300 F420
G1 E30.4850 F1800
G1 X47.58 Y-4.24 E30.5524 F600
G1 E25.5524 F2400
G1 Z0.500 F420
G1 X48.75 Y-3.12 F6000
G1 Z0.300 F420
G1 E30.5524 F1800
G1 X48.75 Y-6.52 E30.7644 F600
G1 E25.7644 F2400
G1 Z0.500 F420
G1 X51.21 Y-6.52 F6000
G1 Z0.300 F420
G1 E30.7644 F1800
G1 X49.72 Y-4.49 E30.9214 F600
G1 E25.9214 F2400
G1 Z0.500 F420
G1 X48.75 Y-5.33 F6000
G1 Z0.300 F420
G1 E30.9214 F1800
G1 X51.28 Y-3.12 E31.1309 F600
G1 E26.1309 F2400
G1 Z0.500 F420
G1 X53.53 Y-3.10 F6000
G1 Z0.300 F420
G1 E31.1309 F1800
G1 X53.38 Y-3.10 E31.1403 F600
G1 X53.20 Y-3.14 E31.1518
G1 X53.04 Y-3.27 E31.1646
G1 X52.92 Y-3.46 E31.1786
G1 X52.84 Y-3.83 E31.2023
G1 X52.84 Y-6.52 E31.3700
G1 E26.3700 F2400
G1 Z0.500 F420
G1 X52.34 Y-4.24 F6000
G1 Z0.300 F420
G1 E31.3700 F1800
G1 X53.42 Y-4.24 E31.4374 F600
G1 E26.4374 F2400
G1 Z0.500 F420
G1 X54.59 Y-4.74 F6000
G1 Z0.300 F420
G1 E31.4374 F1800
G1 X56.28 Y-4.74 E31.5427 F600
G1 E26.5428 F2400
G1 Z0.500 F420
G1 X56.28 Y-5.45 F6000
G1 Z0.300 F420
G1 E31.5428 F1800
G1 X54.59 Y-5.45 E31.6481 F600
G1 E26.6481 F2400
G1 Z0.500 F420
G1 X57.34 Y-4.00 F6000
G1 Z0.300 F420
G1 E31.6481 F1800
G1 X57.81 Y-3.76 E31.6811 F600
G1 X58.18 Y-3.45 E31.7112
G1 X58.43 Y-3.12 E31.7370
G1 X58.43 Y-6.52 E31.9490
G1 E26.9490 F2400
G1 Z0.500 F420
G1 X59.49 Y-6.29 F6000
G1 Z0.300 F420
G1 E31.9490 F1800
G1 X59.49 Y-6.35 E31.9527 F600
G1 E26.9527 F2400
G1 Z0.500 F420
G1 X61.77 Y-3.06 F6000
G1 Z0.300 F420
G1 E31.9527 F1800
G1 X62.28 Y-3.20 E31.9857 F600
G1 X62.67 Y-3.58 E32.0197
G1 X62.91 Y-4.14 E32.0577
G1 X62.99 Y-4.82 E32.1004
G1 X62.91 Y-5.49 E32.1425
G1 X62.67 Y-6.05 E32.1805
G1 X62.28 Y-6.44 E32.2149
G1 X61.77 Y-6.58 E32.2478
G1 X61.25 Y-6.44 E32.2814
G1 X60.87 Y-6.05 E32.3154
G1 X60.63 Y-5.49 E32.3534
G1 X60.55 Y-4.82 E32.3955
G1 X60.63 Y-4.15 E32.4376
G1 X60.87 Y-3.58 E32.4761
G1 X61.25 Y-3.20 E32.5096
G1 X61.77 Y-3.06 E32.5432
G1 E27.5432 F2400
G1 Z0.500 F420
G1 X46.50 Y-9.11 F6000
G1 Z0.300 F420
G1 E32.5432 F1800
G1 X47.52 Y-11.52 E32.7064 F600
G1 X48.54 Y-9.11 E32.8697
G1 E27.8697 F2400
G1 Z0.500 F420
G1 X49.60 Y-9.11 F6000
G1 Z0.300 F420
G1 E32.8697 F1800
G1 X51.60 Y-11.52 E33.0650 F600
G1 E28.0650 F2400
G1 Z0.500 F420
G1 X49.60 Y-11.52 F6000
G1 Z0.300 F420
G1 E33.0650 F1800
G1 X51.60 Y-9.11 E33.2603 F600
G1 E28.2603 F2400
G1 Z0.500 F420
G1 X53.88 Y-8.06 F6000
G1 Z0.300 F420
G1 E33.2603 F1800
G1 X54.39 Y-8.20 E33.2933 F600
G1 X54.78 Y-8.58 E33.3272
G1 X55.02 Y-9.14 E33.3652
G1 X55.10 Y-9.82 E33.4079
G1 X55.02 Y-10.49 E33.4500
G1 X54.78 Y-11.05 E33.4880
G1 X54.39 Y-11.44 E33.5224
G1 X53.88 Y-11.58 E33.5554
G1 X53.36 Y-11.44 E33.5890
G1 X52.98 Y-11.05 E33.6230
G1 X52.74 Y-10.49 E33.6610
G1 X52.66 Y-9.82 E33.7030
G1 X52.74 Y-9.15 E33.7451
G1 X52.98 Y-8.58 E33.7837
G1 X53.36 Y-8.20 E33.8172
G1 X53.88 Y-8.06 E33.8508
G1 E28.8508 F2400
G1 Z0.500 F420
G1 X56.17 Y-9.74 F6000
G1 Z0.300 F420
G1 E33.8508 F1800
G1 X57.86 Y-9.74 E33.9562 F600
G1 E28.9562 F2400
G1 Z0.500 F420
G1 X57.86 Y-10.45 F6000
G1 Z0.300 F420
G1 E33.9562 F1800
G1 X56.17 Y-10.45 E34.0616 F600
G1 E29.0616 F2400
G1 Z0.500 F420
G1 X58.92 Y-9.00 F6000
G1 Z0.300 F420
G1 E34.0616 F1800
G1 X59.39 Y-8.76 E34.0945 F600
G1 X59.76 Y-8.45 E34.1246
G1 X60.01 Y-8.12 E34.1504
G1 X60.01 Y-11.52 E34.3625
G1 E29.3625 F2400
G1 Z0.500 F420
G1 X62.29 Y-8.06 F6000
G1 Z0.300 F420
G1 E34.3625 F1800
G1 X62.80 Y-8.20 E34.3955 F600
G1 X63.19 Y-8.58 E34.4294
G1 X63.43 Y-9.14 E34.4674
G1 X63.51 Y-9.82 E34.5101
G1 X63.43 Y-10.49 E34.5522
G1 X63.19 Y-11.05 E34.5902
G1 X62.80 Y-11.44 E34.6246
G1 X62.29 Y-11.58 E34.6576
G1 X61.77 Y-11.44 E34.6912
G1 X61.39 Y-11.05 E34.7252
G1 X61.15 Y-10.49 E34.7632
G1 X61.07 Y-9.82 E34.8052
G1 X61.15 Y-9.15 E34.8473
G1 X61.39 Y-8.58 E34.8859
G1 X61.77 Y-8.20 E34.9194
G1 X62.29 Y-8.06 E34.9530
G1 E29.9530 F2400
G1 Z0.500 F420
G1 X64.57 Y-10.10 F6000
G1 Z0.300 F420
G1 E34.9530 F1800
G1 X66.44 Y-10.10 E35.0696 F600
G1 E30.0696 F2400
G1 Z0.500 F420
G1 X69.49 Y-8.12 F6000
G1 Z0.300 F420
G1 E35.0696 F1800
G1 X67.74 Y-8.12 E35.1788 F600
G1 X67.60 Y-9.86 E35.2877
G1 X67.88 Y-9.55 E35.3137
G1 X68.05 Y-9.43 E35.3267
G1 X68.24 Y-9.36 E35.3393
G1 X68.43 Y-9.33 E35.3513
G1 X68.63 Y-9.32 E35.3638
G1 X69.04 Y-9.41 E35.3900
G1 X69.36 Y-9.63 E35.4142
G1 X69.57 Y-9.97 E35.4391
G1 X69.65 Y-10.39 E35.4658
G1 X69.58 Y-10.86 E35.4954
G1 X69.37 Y-11.23 E35.5220
G1 X69.02 Y-11.49 E35.5491
G1 X68.52 Y-11.58 E35.5808
G1 X68.15 Y-11.52 E35.6042
G1 X67.84 Y-11.36 E35.6260
G1 X67.62 Y-11.09 E35.6477
G1 X67.50 Y-10.73 E35.6714
G1 E30.6714 F2400
G1 Z0.500 F420
G1 X71.93 Y-8.06 F6000
G1 Z0.300 F420
G1 E35.6714 F1800
G1 X72.44 Y-8.20 E35.7043 F600
G1 X72.83 Y-8.58 E35.7383
G1 X73.07 Y-9.14 E35.7763
G1 X73.15 Y-9.82 E35.8190
G1 X73.07 Y-10.49 E35.8611
G1 X72.83 Y-11.05 E35.8991
G1 X72.44 Y-11.44 E35.9335
G1 X71.93 Y-11.58 E35.9665
G1 X71.41 Y-11.44 E36.0000
G1 X71.03 Y-11.05 E36.0340
G1 X70.79 Y-10.49 E36.0720
G1 X70.71 Y-9.82 E36.1141
G1 X70.79 Y-9.15 E36.1562
G1 X71.03 Y-8.58 E36.1947
G1 X71.41 Y-8.20 E36.2282
G1 X71.93 Y-8.06 E36.2618
G1 E31.2618 F2400
G1 Z0.500 F420
G1 X46.50 Y-14.11 F6000
G1 Z0.300 F420
G1 E36.2618 F1800
G1 X47.52 Y-16.52 E36.4250 F600
G1 X48.54 Y-14.11 E36.5882
G1 E31.5882 F2400
G1 Z0.500 F420
G1 X49.60 Y-14.11 F6000
G1 Z0.300 F420
G1 E36.5882 F1800
G1 X51.60 Y-16.52 E36.7836 F600
G1 E31.7836 F2400
G1 Z0.500 F420
G1 X49.60 Y-16.52 F6000
G1 Z0.300 F420
G1 E36.7836 F1800
G1 X51.60 Y-14.11 E36.9789 F600
G1 E31.9789 F2400
G1 Z0.500 F420
G1 X52.66 Y-14.00 F6000
G1 Z0.300 F420
G1 E36.9789 F1800
G1 X53.13 Y-13.76 E37.0118 F600
G1 X53.50 Y-13.45 E37.0419
G1 X53.75 Y-13.12 E37.0677
G1 X53.75 Y-16.52 E37.2798
G1 E32.2798 F2400
G1 Z0.500 F420
G1 X54.81 Y-14.74 F6000
G1 Z0.300 F420
G1 E37.2798 F1800
G1 X56.50 Y-14.74 E37.3852 F600
G1 E32.3852 F2400
G1 Z0.500 F420
G1 X56.50 Y-15.45 F6000
G1 Z0.300 F420
G1 E37.3852 F1800
G1 X54.81 Y-15.45 E37.4906 F600
G1 E32.4906 F2400
G1 Z0.500 F420
G1 X57.56 Y-13.56 F6000
G1 Z0.300 F420
G1 E37.4906 F1800
G1 X57.75 Y-13.35 E37.5082 F600
G1 X57.98 Y-13.19 E37.5257
G1 X58.24 Y-13.10 E37.5429
G1 X58.52 Y-13.06 E37.5605
G1 X58.89 Y-13.12 E37.5839
G1 X59.19 Y-13.32 E37.6064
G1 X59.38 Y-13.61 E37.6280
G1 X59.45 Y-13.98 E37.6515
G1 X59.35 Y-14.37 E37.6766
G1 X59.07 Y-14.73 E37.7050
G1 X58.29 Y-15.36 E37.7676
G1 X57.99 Y-15.77 E37.7992
G1 X57.60 Y-16.52 E37.8520
G1 X59.42 Y-16.52 E37.9655
G1 E32.9655 F2400
G1 Z0.500 F420
G1 X61.73 Y-13.06 F6000
G1 Z0.300 F420
G1 E37.9655 F1800
G1 X62.24 Y-13.20 E37.9985 F600
G1 X62.63 Y-13.58 E38.0324
G1 X62.87 Y-14.14 E38.0704
G1 X62.95 Y-14.82 E38.1131
G1 X62.87 Y-15.49 E38.1552
G1 X62.63 Y-16.05 E38.1932
G1 X62.24 Y-16.44 E38.2276
G1 X61.73 Y-16.58 E38.2606
G1 X61.21 Y-16.44 E38.2942
G1 X60.83 Y-16.05 E38.3282
G1 X60.59 Y-15.49 E38.3662
G1 X60.51 Y-14.82 E38.4082
G1 X60.59 Y-14.15 E38.4503
G1 X60.83 Y-13.58 E38.4889
G1 X61.21 Y-13.20 E38.5224
G1 X61.73 Y-13.06 E38.5560
G1 E33.5560 F2400
G1 Z0.500 F420
G1 X64.02 Y-15.10 F6000
G1 Z0.300 F420
G1 E38.5560 F1800
G1 X65.89 Y-15.10 E38.6726 F600
G1 E33.6726 F2400
G1 Z0.500 F420
G1 X66.95 Y-14.00 F6000
G1 Z0.300 F420
G1 E38.6726 F1800
G1 X67.42 Y-13.76 E38.7056 F600
G1 X67.79 Y-13.45 E38.7357
G1 X68.04 Y-13.12 E38.7615
G1 X68.04 Y-16.52 E38.9735
G1 E33.9735 F2400
G1 Z0.500 F420
G1 X70.32 Y-13.06 F6000
G1 Z0.300 F420
G1 E38.9735 F1800
G1 X70.83 Y-13.20 E39.0065 F600
G1 X71.22 Y-13.58 E39.0405
G1 X71.46 Y-14.14 E39.0785
G1 X71.54 Y-14.82 E39.1212
G1 X71.46 Y-15.49 E39.1633
G1 X71.22 Y-16.05 E39.2013
G1 X70.83 Y-16.44 E39.2357
G1 X70.32 Y-16.58 E39.2687
G1 X69.80 Y-16.44 E39.3022
G1 X69.42 Y-16.05 E39.3362
G1 X69.18 Y-15.49 E39.3742
G1 X69.10 Y-14.82 E39.4163
G1 X69.18 Y-14.15 E39.4584
G1 X69.42 Y-13.58 E39.4969
G1 X69.80 Y-13.20 E39.5305
G1 X70.32 Y-13.06 E39.5640
G1 E34.5640 F2400
G1 Z0.500 F420
G1 X73.82 Y-13.06 F6000
G1 Z0.300 F420
G1 E39.5640 F1800
G1 X74.33 Y-13.20 E39.5970 F600
G1 X74.72 Y-13.58 E39.6310
G1 X74.96 Y-14.14 E39.6690
G1 X75.04 Y-14.82 E39.7117
G1 X74.96 Y-15.49 E39.7538
G1 X74.72 Y-16.05 E39.7918
G1 X74.33 Y-16.44 E39.8262
G1 X73.82 Y-16.58 E39.8592
G1 X73.30 Y-16.44 E39.8927
G1 X72.92 Y-16.05 E39.9267
G1 X72.68 Y-15.49 E39.9647
G1 X72.60 Y-14.82 E40.0068
G1 X72.68 Y-14.15 E40.0489
G1 X72.92 Y-13.58 E40.0874
G1 X73.30 Y-13.20 E40.1210
G1 X73.82 Y-13.06 E40.1546
G1 E35.1546 F2400
G1 Z0.500 F420
;structure:shell-inner
M900 K1.000 T0
G1 X-45.00 Y-7.00 F6000
G1 Z0.300 F420
G1 E40.1546 F1800
G1 X-40.00 Y-7.00 E40.4664 F300
G1 X-20.00 Y-7.00 E41.7138 F600
G1 X20.00 Y-7.00 E44.2086 F1200
G1 X40.00 Y-7.00 E45.4560 F600
G1 X45.00 Y-7.00 E45.7678 F300
G1 E40.7678 F2400
G1 Z0.500 F420
G1 X-45.00 Y-9.00 F6000
G1 Z0.300 F420
G1 E45.7678 F1800
G1 X-40.00 Y-9.00 E46.0796 F300
G1 X-20.00 Y-9.00 E47.3270 F840
G1 X20.00 Y-9.00 E49.8218 F1680
G1 X40.00 Y-9.00 E51.0692 F840
G1 X45.00 Y-9.00 E51.3811 F300
G1 E46.3811 F2400
G1 Z0.500 F420
G1 X-45.00 Y-11.00 F6000
G1 Z0.300 F420
G1 E51.3811 F1800
G1 X-40.00 Y-11.00 E51.6929 F300
G1 X-20.00 Y-11.00 E52.9403 F1080
G1 X20.00 Y-11.00 E55.4351 F2160
G1 X40.00 Y-11.00 E56.6825 F1080
G1 X45.00 Y-11.00 E56.9943 F300
G1 E51.9943 F2400
G1 Z0.500 F420
G1 X-45.00 Y-13.00 F6000
G1 Z0.300 F420
G1 E56.9943 F1800
G1 X-40.00 Y-13.00 E57.3061 F300
G1 X-20.00 Y-13.00 E58.5535 F1320
G1 X20.00 Y-13.00 E61.0483 F2640
G1 X40.00 Y-13.00 E62.2957 F1320
G1 X45.00 Y-13.00 E62.6075 F300
G1 E57.6075 F2400
G1 Z0.500 F420
G1 X-45.00 Y-15.00 F6000
G1 Z0.300 F420
G1 E62.6075 F1800
G1 X-40.00 Y-15.00 E62.9194 F300
G1 X-20.00 Y-15.00 E64.1668 F1560
G1 X20.00 Y-15.00 E66.6616 F3120
G1 X40.00 Y-15.00 E67.9090 F1560
G1 X45.00 Y-15.00 E68.2208 F300
G1 E63.2208 F2400
G1 Z0.500 F420
G1 X-45.00 Y-17.00 F6000
G1 Z0.300 F420
G1 E68.2208 F1800
G1 X-40.00 Y-17.00 E68.5326 F300
G1 X-20.00 Y-17.00 E69.7800 F1800
G1 X20.00 Y-17.00 E72.2748 F3600
G1 X40.00 Y-17.00 E73.5222 F1800
G1 X45.00 Y-17.00 E73.8340 F300
G1 E68.8340 F2400
G1 Z0.500 F420
G1 X-45.00 Y-19.00 F6000
G1 Z0.300 F420
G1 E73.8340 F1800
G1 X-40.00 Y-19.00 E74.1459 F300
G1 X-20.00 Y-19.00 E75.3933 F2040
G1 X20.00 Y-19.00 E77.8881 F4080
G1 X40.00 Y-19.00 E79.1354 F2040
G1 X45.00 Y-19.00 E79.4473 F300
G1 E74.4473 F2400
G1 Z0.500 F420
G1 X-45.00 Y-21.00 F6000
G1 Z0.300 F420
G1 E79.4473 F1800
G1 X-40.00 Y-21.00 E79.7591 F300
G1 X-20.00 Y-21.00 E81.0065 F2280
G1 X20.00 Y-21.00 E83.5013 F4560
G1 X40.00 Y-21.00 E84.7487 F2280
G1 X45.00 Y-21.00 E85.0605 F300
G1 E80.0605 F2400
G1 Z0.500 F420
G1 X-45.00 Y-23.00 F6000
G1 Z0.300 F420
G1 E85.0605 F1800
G1 X-40.00 Y-23.00 E85.3724 F300
G1 X-20.00 Y-23.00 E86.6198 F2520
G1 X20.00 Y-23.00 E89.1146 F5040
G1 X40.00 Y-23.00 E90.3619 F2520
G1 X45.00 Y-23.00 E90.6738 F300
G1 E85.6738 F2400
G1 Z0.500 F420
G1 X-45.00 Y-25.00 F6000
G1 Z0.300 F420
G1 E90.6738 F1800
G1 X-40.00 Y-25.00 E90.9856 F300
G1 X-20.00 Y-25.00 E92.2330 F2760
G1 X20.00 Y-25.00 E94.7278 F5520
G1 X40.00 Y-25.00 E95.9752 F2760
G1 X45.00 Y-25.00 E96.2870 F300
G1 E91.2870 F2400
G1 Z0.500 F420
G1 X-45.00 Y-27.00 F6000
G1 Z0.300 F420
G1 E96.2870 F1800
G1 X-40.00 Y-27.00 E96.5989 F300
G1 X-20.00 Y-27.00 E97.8463 F3000
G1 X20.00 Y-27.00 E100.3411 F6000
G1 X40.00 Y-27.00 E101.5884 F3000
G1 X45.00 Y-27.00 E101.9003 F300
G1 E96.9003 F2400
G1 Z0.500 F420
M900 K0.000 T0
G1 E99.4003 F1800
;end gcode
M107
M104 S0 T0
M140 S0 T0
G162 Z F1800
G28 X Y
M132 X Y A B
M652
G91
M18
