;gcode_flavor: flashforge
;machine_type: Adventurer 3 Series
;filament_diameter0: 1.75
;right_extruder_temperature: 210
;platform_temperature: 50
;extruder_fan: 100%
;case_fan: 100%
;base_print_speed: 60
;travel_speed: 100
;vertical_speed: 7
;retract_speed: 40
;restore_speed: 30
;layer_height: 0.30
;line_width: 0.50
;extrusion_ratio: 1.00
;command_line: ./gcodetest.py -Te 210 -Tp 50 -Fe 1.0 -Fc 1.0 -Kf=0.0 -Kb=0.0 -Re=5.0 -n 1
;start gcode
M118 X75.00 Y75.00 Z150.00 T0
M140 S50 T0
M104 S210 T0
M104 S0 T1
M107
M900 K0.000 T0
G90
G28
M132 X Y Z A B
G1 Z50.000 F420
G161 X Y F3300
M7 T0
M6 T0
M652 S255
M108 T0
M106
;preExtrude:0.20
;structure:pre-extrude
G1 X-57.00 Y-65.00 F6000
G1 Z0.200 F420
G1 X-57.00 Y55.00 E19.9561 F1200
G1 E14.9561 F2400
G1 Z0.400 F420
;layer:0.30
;structure:shell-outer
G1 X-45.00 Y26.00 F6000
G1 Z0.300 F420
G1 E19.9561 F1800
G1 X45.00 Y26.00 E25.5687 F600
G1 E20.5687 F2400
G1 Z0.500 F420
G1 X-42.00 Y26.00 F6000
G1 X-40.00 Y26.00
G1 Z0.300 F420
G1 E25.5687 F1800
G1 X-40.00 Y23.00 E25.7558 F600
G1 E20.7558 F2400
G1 Z0.500 F420
G1 X-38.00 Y26.00 F6000
G1 Z0.300 F420
G1 E25.7558 F1800
G1 X-38.00 Y24.50 E25.8494 F600
G1 E20.8494 F2400
G1 Z0.500 F420
G1 X-36.00 Y26.00 F6000
G1 Z0.300 F420
G1 E25.8494 F1800
G1 X-36.00 Y24.50 E25.9429 F600
G1 E20.9429 F2400
G1 Z0.500 F420
G1 X-34.00 Y26.00 F6000
G1 Z0.300 F420
G1 E25.9429 F1800
G1 X-34.00 Y24.50 E26.0364 F600
G1 E21.0364 F2400
G1 Z0.500 F420
G1 X-32.00 Y26.00 F6000
G1 Z0.300 F420
G1 E26.0364 F1800
G1 X-32.00 Y24.50 E26.1300 F600
G1 E21.1300 F2400
G1 Z0.500 F420
G1 X-30.00 Y26.00 F6000
G1 Z0.300 F420
G1 E26.1300 F1800
G1 X-30.00 Y23.00 E26.3171 F600
G1 E21.3171 F2400
G1 Z0.500 F420
G1 X-28.00 Y26.00 F6000
G1 Z0.300 F420
G1 E26.3171 F1800
G1 X-28.00 Y24.50 E26.4106 F600
G1 E21.4106 F2400
G1 Z0.500 F420
G1 X-26.00 Y26.00 F6000
G1 Z0.300 F420
G1 E26.4106 F1800
G1 X-26.00 Y24.50 E26.5042 F600
G1 E21.5042 F2400
G1 Z0.500 F420
G1 X-24.00 Y26.00 F6000
G1 Z0.300 F420
G1 E26.5042 F1800
G1 X-24.00 Y24.50 E26.5977 F600
G1 E21.5977 F2400
G1 Z0.500 F420
G1 X-22.00 Y26.00 F6000
G1 Z0.300 F420
G1 E26.5977 F1800
G1 X-22.00 Y24.50 E26.6913 F600
G1 E21.6913 F2400
G1 Z0.500 F420
G1 X-20.00 Y26.00 F6000
G1 Z0.300 F420
G1 E26.6913 F1800
G1 X-20.00 Y23.00 E26.8783 F600
G1 E21.8783 F2400
G1 Z0.500 F420
G1 X-18.00 Y26.00 F6000
G1 Z0.300 F420
G1 E26.8783 F1800
G1 X-18.00 Y24.50 E26.9719 F600
G1 E21.9719 F2400
G1 Z0.500 F420
G1 X-16.00 Y26.00 F6000
G1 Z0.300 F420
G1 E26.9719 F1800
G1 X-16.00 Y24.50 E27.0654 F600
G1 E22.0654 F2400
G1 Z0.500 F420
G1 X-14.00 Y26.00 F6000
G1 Z0.300 F420
G1 E27.0654 F1800
G1 X-14.00 Y24.50 E27.1590 F600
G1 E22.1590 F2400
G1 Z0.500 F420
G1 X-12.00 Y26.00 F6000
G1 Z0.300 F420
G1 E27.1590 F1800
G1 X-12.00 Y24.50 E27.2525 F600
G1 E22.2525 F2400
G1 Z0.500 F420
G1 X-10.00 Y26.00 F6000
G1 Z0.300 F420
G1 E27.2525 F1800
G1 X-10.00 Y23.00 E27.4396 F600
G1 E22.4396 F2400
G1 Z0.500 F420
G1 X-8.00 Y26.00 F6000
G1 Z0.300 F420
G1 E27.4396 F1800
G1 X-8.00 Y24.50 E27.5332 F600
G1 E22.5332 F2400
G1 Z0.500 F420
G1 X-6.00 Y26.00 F6000
G1 Z0.300 F420
G1 E27.5332 F1800
G1 X-6.00 Y24.50 E27.6267 F600
G1 E22.6267 F2400
G1 Z0.500 F420
G1 X-4.00 Y26.00 F6000
G1 Z0.300 F420
G1 E27.6267 F1800
G1 X-4.00 Y24.50 E27.7202 F600
G1 E22.7202 F2400
G1 Z0.500 F420
G1 X-2.00 Y26.00 F6000
G1 Z0.300 F420
G1 E27.7202 F1800
G1 X-2.00 Y24.50 E27.8138 F600
G1 E22.8138 F2400
G1 Z0.500 F420
G1 X0.00 Y26.00 F6000
G1 Z0.300 F420
G1 E27.8138 F1800
G1 X0.00 Y23.00 E28.0009 F600
G1 E23.0009 F2400
G1 Z0.500 F420
G1 X2.00 Y26.00 F6000
G1 Z0.300 F420
G1 E28.0009 F1800
G1 X2.00 Y24.50 E28.0944 F600
G1 E23.0944 F2400
G1 Z0.500 F420
G1 X4.00 Y26.00 F6000
G1 Z0.300 F420
G1 E28.0944 F1800
G1 X4.00 Y24.50 E28.1880 F600
G1 E23.1880 F2400
G1 Z0.500 F420
G1 X6.00 Y26.00 F6000
G1 Z0.300 F420
G1 E28.1880 F1800
G1 X6.00 Y24.50 E28.2815 F600
G1 E23.2815 F2400
G1 Z0.500 F420
G1 X8.00 Y26.00 F6000
G1 Z0.300 F420
G1 E28.2815 F1800
G1 X8.00 Y24.50 E28.3750 F600
G1 E23.3750 F2400
G1 Z0.500 F420
G1 X10.00 Y26.00 F6000
G1 Z0.300 F420
G1 E28.3750 F1800
G1 X10.00 Y23.00 E28.5621 F600
G1 E23.5621 F2400
G1 Z0.500 F420
G1 X12.00 Y26.00 F6000
G1 Z0.300 F420
G1 E28.5621 F1800
G1 X12.00 Y24.50 E28.6557 F600
G1 E23.6557 F2400
G1 Z0.500 F420
G1 X14.00 Y26.00 F6000
G1 Z0.300 F420
G1 E28.6557 F1800
G1 X14.00 Y24.50 E28.7492 F600
G1 E23.7492 F2400
G1 Z0.500 F420
G1 X16.00 Y26.00 F6000
G1 Z0.300 F420
G1 E28.7492 F1800
G1 X16.00 Y24.50 E28.8428 F600
G1 E23.8428 F2400
G1 Z0.500 F420
G1 X18.00 Y26.00 F6000
G1 Z0.300 F420
G1 E28.8428 F1800
G1 X18.00 Y24.50 E28.9363 F600
G1 E23.9363 F2400
G1 Z0.500 F420
G1 X20.00 Y26.00 F6000
G1 Z0.300 F420
G1 E28.9363 F1800
G1 X20.00 Y23.00 E29.1234 F600
G1 E24.1234 F2400
G1 Z0.500 F420
G1 X22.00 Y26.00 F6000
G1 Z0.300 F420
G1 E29.1234 F1800
G1 X22.00 Y24.50 E29.2169 F600
G1 E24.2169 F2400
G1 Z0.500 F420
G1 X24.00 Y26.00 F6000
G1 Z0.300 F420
G1 E29.2169 F1800
G1 X24.00 Y24.50 E29.3105 F600
G1 E24.3105 F2400
G1 Z0.500 F420
G1 X26.00 Y26.00 F6000
G1 Z0.300 F420
G1 E29.3105 F1800
G1 X26.00 Y24.50 E29.4040 F600
G1 E24.4040 F2400
G1 Z0.500 F420
G1 X28.00 Y26.00 F6000
G1 Z0.300 F420
G1 E29.4040 F1800
G1 X28.00 Y24.50 E29.4976 F600
G1 E24.4976 F2400
G1 Z0.500 F420
G1 X30.00 Y26.00 F6000
G1 Z0.300 F420
G1 E29.4976 F1800
G1 X30.00 Y23.00 E29.6847 F600
G1 E24.6847 F2400
G1 Z0.500 F420
G1 X32.00 Y26.00 F6000
G1 Z0.300 F420
G1 E29.6847 F1800
G1 X32.00 Y24.50 E29.7782 F600
G1 E24.7782 F2400
G1 Z0.500 F420
G1 X34.00 Y26.00 F6000
G1 Z0.300 F420
G1 E29.7782 F1800
G1 X34.00 Y24.50 E29.8718 F600
G1 E24.8718 F2400
G1 Z0.500 F420
G1 X36.00 Y26.00 F6000
G1 Z0.300 F420
G1 E29.8718 F1800
G1 X36.00 Y24.50 E29.9653 F600
G1 E24.9653 F2400
G1 Z0.500 F420
G1 X38.00 Y26.00 F6000
G1 Z0.300 F420
G1 E29.9653 F1800
G1 X38.00 Y24.50 E30.0588 F600
G1 E25.0588 F2400
G1 Z0.500 F420
G1 X40.00 Y26.00 F6000
G1 Z0.300 F420
G1 E30.0588 F1800
G1 X40.00 Y23.00 E30.2459 F600
G1 E25.2459 F2400
G1 Z0.500 F420
;structure:brim
;structure:shell-outer
G1 X47.69 Y25.90 F6000
G1 Z0.300 F420
G1 E30.2459 F1800
G1 X47.54 Y25.90 E30.2553 F600
G1 X47.36 Y25.86 E30.2668
G1 X47.20 Y25.73 E30.2796
G1 X47.08 Y25.54 E30.2937
G1 X47.00 Y25.17 E30.3173
G1 X47.00 Y22.48 E30.4850
G1 E25.4850 F2400
G1 Z0.500 F420
G1 X46.50 Y24.76 F6000
G1 Z0.300 F420
G1 E30.4850 F1800
G1 X47.58 Y24.76 E30.5524 F600
G1 E25.5524 F2400
G1 Z0.500 F420
G1 X48.75 Y25.88 F6000
G1 Z0.300 F420
G1 E30.5524 F1800
G1 X48.75 Y22.48 E30.7644 F600
G1 E25.7644 F2400
G1 Z0.500 F420
G1 X51.21 Y22.48 F6000
G1 Z0.300 F420
G1 E30.7644 F1800
G1 X49.72 Y24.51 E30.9214 F600
G1 E25.9214 F2400
G1 Z0.500 F420
G1 X48.75 Y23.67 F6000
G1 Z0.300 F420
G1 E30.9214 F1800
G1 X51.28 Y25.88 E31.1309 F600
G1 E26.1309 F2400
G1 Z0.500 F420
G1 X53.53 Y25.90 F6000
G1 Z0.300 F420
G1 E31.1309 F1800
G1 X53.38 Y25.90 E31.1403 F600
G1 X53.20 Y25.86 E31.1518
G1 X53.04 Y25.73 E31.1646
G1 X52.92 Y25.54 E31.1786
G1 X52.84 Y25.17 E31.2023
G1 X52.84 Y22.48 E31.3700
G1 E26.3700 F2400
G1 Z0.500 F420
G1 X52.34 Y24.76 F6000
G1 Z0.300 F420
G1 E31.3700 F1800
G1 X53.42 Y24.76 E31.4374 F600
G1 E26.4374 F2400
G1 Z0.500 F420
G1 X54.59 Y24.26 F6000
G1 Z0.300 F420
G1 E31.4374 F1800
G1 X56.28 Y24.26 E31.5427 F600
G1 E26.5428 F2400
G1 Z0.500 F420
G1 X56.28 Y23.55 F6000
G1 Z0.300 F420
G1 E31.5428 F1800
G1 X54.59 Y23.55 E31.6481 F600
G1 E26.6481 F2400
G1 Z0.500 F420
G1 X58.56 Y25.94 F6000
G1 Z0.300 F420
G1 E31.6481 F1800
G1 X59.07 Y25.80 E31.6811 F600
G1 X59.46 Y25.42 E31.7151
G1 X59.70 Y24.86 E31.7531
G1 X59.78 Y24.18 E31.7958
G1 X59.70 Y23.51 E31.8379
G1 X59.46 Y22.95 E31.8758
G1 X59.07 Y22.56 E31.9102
G1 X58.56 Y22.42 E31.9432
G1 X58.04 Y22.56 E31.9768
G1 X57.66 Y22.95 E32.0108
G1 X57.42 Y23.51 E32.0488
G1 X57.34 Y24.18 E32.0908
G1 X57.42 Y24.85 E32.1329
G1 X57.66 Y25.42 E32.1715
G1 X58.04 Y25.80 E32.2050
G1 X58.56 Y25.94 E32.2386
G1 E27.2386 F2400
G1 Z0.500 F420
G1 X60.85 Y22.71 F6000
G1 Z0.300 F420
G1 E32.2386 F1800
G1 X60.85 Y22.65 E32.2423 F600
G1 E27.2423 F2400
G1 Z0.500 F420
G1 X63.13 Y25.94 F6000
G1 Z0.300 F420
G1 E32.2423 F1800
G1 X63.64 Y25.80 E32.2753 F600
G1 X64.03 Y25.42 E32.3093
G1 X64.27 Y24.86 E32.3473
G1 X64.35 Y24.18 E32.3900
G1 X64.27 Y23.51 E32.4321
G1 X64.03 Y22.95 E32.4701
G1 X63.64 Y22.56 E32.5045
G1 X63.13 Y22.42 E32.5374
G1 X62.61 Y22.56 E32.5710
G1 X62.23 Y22.95 E32.6050
G1 X61.99 Y23.51 E32.6430
G1 X61.91 Y24.18 E32.6851
G1 X61.99 Y24.85 E32.7272
G1 X62.23 Y25.42 E32.7657
G1 X62.61 Y25.80 E32.7992
G1 X63.13 Y25.94 E32.8328
G1 E27.8328 F2400
G1 Z0.500 F420
G1 X46.50 Y19.89 F6000
G1 Z0.300 F420
G1 E32.8328 F1800
G1 X47.52 Y17.48 E32.9960 F600
G1 X48.54 Y19.89 E33.1593
G1 E28.1593 F2400
G1 Z0.500 F420
G1 X49.60 Y19.89 F6000
G1 Z0.300 F420
G1 E33.1593 F1800
G1 X51.60 Y17.48 E33.3546 F600
G1 E28.3546 F2400
G1 Z0.500 F420
G1 X49.60 Y17.48 F6000
G1 Z0.300 F420
G1 E33.3546 F1800
G1 X51.60 Y19.89 E33.5499 F600
G1 E28.5499 F2400
G1 Z0.500 F420
G1 X53.88 Y20.94 F6000
G1 Z0.300 F420
G1 E33.5499 F1800
G1 X54.39 Y20.80 E33.5829 F600
G1 X54.78 Y20.42 E33.6168
G1 X55.02 Y19.86 E33.6548
G1 X55.10 Y19.18 E33.6975
G1 X55.02 Y18.51 E33.7396
G1 X54.78 Y17.95 E33.7776
G1 X54.39 Y17.56 E33.8120
G1 X53.88 Y17.42 E33.8450
G1 X53.36 Y17.56 E33.8786
G1 X52.98 Y17.95 E33.9126
G1 X52.74 Y18.51 E33.9506
G1 X52.66 Y19.18 E33.9926
G1 X52.74 Y19.85 E34.0347
G1 X52.98 Y20.42 E34.0733
G1 X53.36 Y20.80 E34.1068
G1 X53.88 Y20.94 E34.1404
G1 E29.1404 F2400
G1 Z0.500 F420
G1 X56.17 Y19.26 F6000
G1 Z0.300 F420
G1 E34.1404 F1800
G1 X57.86 Y19.26 E34.2458 F600
G1 E29.2458 F2400
G1 Z0.500 F420
G1 X57.86 Y18.55 F6000
G1 Z0.300 F420
G1 E34.2458 F1800
G1 X56.17 Y18.55 E34.3512 F600
G1 E29.3512 F2400
G1 Z0.500 F420
G1 X58.92 Y20.00 F6000
G1 Z0.300 F420
G1 E34.3512 F1800
G1 X59.39 Y20.24 E34.3841 F600
G1 X59.76 Y20.55 E34.4142
G1 X60.01 Y20.88 E34.4400
G1 X60.01 Y17.48 E34.6521
G1 E29.6521 F2400
G1 Z0.500 F420
G1 X62.29 Y20.94 F6000
G1 Z0.300 F420
G1 E34.6521 F1800
G1 X62.80 Y20.80 E34.6851 F600
G1 X63.19 Y20.42 E34.7190
G1 X63.43 Y19.86 E34.7570
G1 X63.51 Y19.18 E34.7997
G1 X63.43 Y18.51 E34.8418
G1 X63.19 Y17.95 E34.8798
G1 X62.80 Y17.56 E34.9142
G1 X62.29 Y17.42 E34.9472
G1 X61.77 Y17.56 E34.9808
G1 X61.39 Y17.95 E35.0147
G1 X61.15 Y18.51 E35.0527
G1 X61.07 Y19.18 E35.0948
G1 X61.15 Y19.85 E35.1369
G1 X61.39 Y20.42 E35.1755
G1 X61.77 Y20.80 E35.2090
G1 X62.29 Y20.94 E35.2426
G1 E30.2426 F2400
G1 Z0.500 F420
G1 X64.57 Y18.90 F6000
G1 Z0.300 F420
G1 E35.2426 F1800
G1 X66.44 Y18.90 E35.3592 F600
G1 E30.3592 F2400
G1 Z0.500 F420
G1 X69.49 Y20.88 F6000
G1 Z0.300 F420
G1 E35.3592 F1800
G1 X67.74 Y20.88 E35.4684 F600
G1 X67.60 Y19.14 E35.5772
G1 X67.88 Y19.45 E35.6033
G1 X68.05 Y19.57 E35.6163
G1 X68.24 Y19.64 E35.6289
G1 X68.43 Y19.67 E35.6409
G1 X68.63 Y19.68 E35.6534
G1 X69.04 Y19.59 E35.6796
G1 X69.36 Y19.37 E35.7038
G1 X69.57 Y19.03 E35.7287
G1 X69.65 Y18.61 E35.7554
G1 X69.58 Y18.14 E35.7850
G1 X69.37 Y17.77 E35.8115
G1 X69.02 Y17.51 E35.8387
G1 X68.52 Y17.42 E35.8704
G1 X68.15 Y17.48 E35.8938
G1 X67.84 Y17.64 E35.9156
G1 X67.62 Y17.91 E35.9373
G1 X67.50 Y18.27 E35.9609
G1 E30.9609 F2400
G1 Z0.500 F420
G1 X71.93 Y20.94 F6000
G1 Z0.300 F420
G1 E35.9609 F1800
G1 X72.44 Y20.80 E35.9939 F600
G1 X72.83 Y20.42 E36.0279
G1 X73.07 Y19.86 E36.0659
G1 X73.15 Y19.18 E36.1086
G1 X73.07 Y18.51 E36.1507
G1 X72.83 Y17.95 E36.1887
G1 X72.44 Y17.56 E36.2231
G1 X71.93 Y17.42 E36.2560
G1 X71.41 Y17.56 E36.2896
G1 X71.03 Y17.95 E36.3236
G1 X70.79 Y18.51 E36.3616
G1 X70.71 Y19.18 E36.4037
G1 X70.79 Y19.85 E36.4458
G1 X71.03 Y20.42 E36.4843
G1 X71.41 Y20.80 E36.5178
G1 X71.93 Y20.94 E36.5514
G1 E31.5514 F2400
G1 Z0.500 F420
G1 X46.50 Y14.89 F6000
G1 Z0.300 F420
G1 E36.5514 F1800
G1 X47.52 Y12.48 E36.7146 F600
G1 X48.54 Y14.89 E36.8778
G1 E31.8778 F2400
G1 Z0.500 F420
G1 X49.60 Y14.89 F6000
G1 Z0.300 F420
G1 E36.8778 F1800
G1 X51.60 Y12.48 E37.0732 F600
G1 E32.0732 F2400
G1 Z0.500 F420
G1 X49.60 Y12.48 F6000
G1 Z0.300 F420
G1 E37.0732 F1800
G1 X51.60 Y14.89 E37.2685 F600
G1 E32.2685 F2400
G1 Z0.500 F420
G1 X52.66 Y15.00 F6000
G1 Z0.300 F420
G1 E37.2685 F1800
G1 X53.13 Y15.24 E37.3014 F600
G1 X53.50 Y15.55 E37.3315
G1 X53.75 Y15.88 E37.3573
G1 X53.75 Y12.48 E37.5694
G1 E32.5694 F2400
G1 Z0.500 F420
G1 X54.81 Y14.26 F6000
G1 Z0.300 F420
G1 E37.5694 F1800
G1 X56.50 Y14.26 E37.6748 F600
G1 E32.6748 F2400
G1 Z0.500 F420
G1 X56.50 Y13.55 F6000
G1 Z0.300 F420
G1 E37.6748 F1800
G1 X54.81 Y13.55 E37.7802 F600
G1 E32.7802 F2400
G1 Z0.500 F420
G1 X57.56 Y15.44 F6000
G1 Z0.300 F420
G1 E37.7802 F1800
G1 X57.75 Y15.65 E37.7978 F600
G1 X57.98 Y15.81 E37.8153
G1 X58.24 Y15.90 E37.8324
G1 X58.52 Y15.94 E37.8501
G1 X58.89 Y15.88 E37.8735
G1 X59.19 Y15.68 E37.8960
G1 X59.38 Y15.39 E37.9176
G1 X59.45 Y15.02 E37.9411
G1 X59.35 Y14.63 E37.9662
G1 X59.07 Y14.27 E37.9946
G1 X58.29 Y13.64 E38.0572
G1 X57.99 Y13.23 E38.0888
G1 X57.60 Y12.48 E38.1416
G1 X59.42 Y12.48 E38.2551
G1 E33.2551 F2400
G1 Z0.500 F420
G1 X61.73 Y15.94 F6000
G1 Z0.300 F420
G1 E38.2551 F1800
G1 X62.24 Y15.80 E38.2881 F600
G1 X62.63 Y15.42 E38.3220
G1 X62.87 Y14.86 E38.3600
G1 X62.95 Y14.18 E38.4027
G1 X62.87 Y13.51 E38.4448
G1 X62.63 Y12.95 E38.4828
G1 X62.24 Y12.56 E38.5172
G1 X61.73 Y12.42 E38.5502
G1 X61.21 Y12.56 E38.5838
G1 X60.83 Y12.95 E38.6178
G1 X60.59 Y13.51 E38.6558
G1 X60.51 Y14.18 E38.6978
G1 X60.59 Y14.85 E38.7399
G1 X60.83 Y15.42 E38.7785
G1 X61.21 Y15.80 E38.8120
G1 X61.73 Y15.94 E38.8456
G1 E33.8456 F2400
G1 Z0.500 F420
G1 X64.02 Y13.90 F6000
G1 Z0.300 F420
G1 E38.8456 F1800
G1 X65.89 Y13.90 E38.9622 F600
G1 E33.9622 F2400
G1 Z0.500 F420
G1 X66.95 Y15.00 F6000
G1 Z0.300 F420
G1 E38.9622 F1800
G1 X67.42 Y15.24 E38.9952 F600
G1 X67.79 Y15.55 E39.0253
G1 X68.04 Y15.88 E39.0511
G1 X68.04 Y12.48 E39.2631
G1 E34.2631 F2400
G1 Z0.500 F420
G1 X70.32 Y15.94 F6000
G1 Z0.300 F420
G1 E39.2631 F1800
G1 X70.83 Y15.80 E39.2961 F600
G1 X71.22 Y15.42 E39.3301
G1 X71.46 Y14.86 E39.3681
G1 X71.54 Y14.18 E39.4108
G1 X71.46 Y13.51 E39.4529
G1 X71.22 Y12.95 E39.4909
G1 X70.83 Y12.56 E39.5253
G1 X70.32 Y12.42 E39.5582
G1 X69.80 Y12.56 E39.5918
G1 X69.42 Y12.95 E39.6258
G1 X69.18 Y13.51 E39.6638
G1 X69.10 Y14.18 E39.7059
G1 X69.18 Y14.85 E39.7480
G1 X69.42 Y15.42 E39.7865
G1 X69.80 Y15.80 E39.8201
G1 X70.32 Y15.94 E39.8536
G1 E34.8536 F2400
G1 Z0.500 F420
G1 X73.82 Y15.94 F6000
G1 Z0.300 F420
G1 E39.8536 F1800
G1 X74.33 Y15.80 E39.8866 F600
G1 X74.72 Y15.42 E39.9206
G1 X74.96 Y14.86 E39.9586
G1 X75.04 Y14.18 E40.0013
G1 X74.96 Y13.51 E40.0434
G1 X74.72 Y12.95 E40.0814
G1 X74.33 Y12.56 E40.1158
G1 X73.82 Y12.42 E40.1488
G1 X73.30 Y12.56 E40.1823
G1 X72.92 Y12.95 E40.2163
G1 X72.68 Y13.51 E40.2543
G1 X72.60 Y14.18 E40.2964
G1 X72.68 Y14.85 E40.3385
G1 X72.92 Y15.42 E40.3770
G1 X73.30 Y15.80 E40.4106
G1 X73.82 Y15.94 E40.4441
G1 E35.4441 F2400
G1 Z0.500 F420
;structure:shell-inner
G1 X-45.00 Y22.00 F6000
G1 Z0.300 F420
G1 E40.4441 F1800
G1 X-40.00 Y22.00 E40.7560 F300
G1 X-20.00 Y22.00 E42.0034 F600
G1 X20.00 Y22.00 E44.4982 F1200
G1 X40.00 Y22.00 E45.7455 F600
G1 X45.00 Y22.00 E46.0574 F300
G1 E41.0574 F2400
G1 Z0.500 F420
G1 X-45.00 Y20.00 F6000
G1 Z0.300 F420
G1 E46.0574 F1800
G1 X-40.00 Y20.00 E46.3692 F300
G1 X-20.00 Y20.00 E47.6166 F840
G1 X20.00 Y20.00 E50.1114 F1680
G1 X40.00 Y20.00 E51.3588 F840
G1 X45.00 Y20.00 E51.6706 F300
G1 E46.6706 F2400
G1 Z0.500 F420
G1 X-45.00 Y18.00 F6000
G1 Z0.300 F420
G1 E51.6706 F1800
G1 X-40.00 Y18.00 E51.9825 F300
G1 X-20.00 Y18.00 E53.2299 F1080
G1 X20.00 Y18.00 E55.7247 F2160
G1 X40.00 Y18.00 E56.9720 F1080
G1 X45.00 Y18.00 E57.2839 F300
G1 E52.2839 F2400
G1 Z0.500 F420
G1 X-45.00 Y16.00 F6000
G1 Z0.300 F420
G1 E57.2839 F1800
G1 X-40.00 Y16.00 E57.5957 F300
G1 X-20.00 Y16.00 E58.8431 F1320
G1 X20.00 Y16.00 E61.3379 F2640
G1 X40.00 Y16.00 E62.5853 F1320
G1 X45.00 Y16.00 E62.8971 F300
G1 E57.8971 F2400
G1 Z0.500 F420
G1 X-45.00 Y14.00 F6000
G1 Z0.300 F420
G1 E62.8971 F1800
G1 X-40.00 Y14.00 E63.2090 F300
G1 X-20.00 Y14.00 E64.4564 F1560
G1 X20.00 Y14.00 E66.9512 F3120
G1 X40.00 Y14.00 E68.1985 F1560
G1 X45.00 Y14.00 E68.5104 F300
G1 E63.5104 F2400
G1 Z0.500 F420
G1 X-45.00 Y12.00 F6000
G1 Z0.300 F420
G1 E68.5104 F1800
G1 X-40.00 Y12.00 E68.8222 F300
G1 X-20.00 Y12.00 E70.0696 F1800
G1 X20.00 Y12.00 E72.5644 F3600
G1 X40.00 Y12.00 E73.8118 F1800
G1 X45.00 Y12.00 E74.1236 F300
G1 E69.1236 F2400
G1 Z0.500 F420
G1 X-45.00 Y10.00 F6000
G1 Z0.300 F420
G1 E74.1236 F1800
G1 X-40.00 Y10.00 E74.4355 F300
G1 X-20.00 Y10.00 E75.6829 F2040
G1 X20.00 Y10.00 E78.1777 F4080
G1 X40.00 Y10.00 E79.4250 F2040
G1 X45.00 Y10.00 E79.7369 F300
G1 E74.7369 F2400
G1 Z0.500 F420
G1 X-45.00 Y8.00 F6000
G1 Z0.300 F420
G1 E79.7369 F1800
G1 X-40.00 Y8.00 E80.0487 F300
G1 X-20.00 Y8.00 E81.2961 F2280
G1 X20.00 Y8.00 E83.7909 F4560
G1 X40.00 Y8.00 E85.0383 F2280
G1 X45.00 Y8.00 E85.3501 F300
G1 E80.3501 F2400
G1 Z0.500 F420
G1 X-45.00 Y6.00 F6000
G1 Z0.300 F420
G1 E85.3501 F1800
G1 X-40.00 Y6.00 E85.6620 F300
G1 X-20.00 Y6.00 E86.9094 F2520
G1 X20.00 Y6.00 E89.4042 F5040
G1 X40.00 Y6.00 E90.6515 F2520
G1 X45.00 Y6.00 E90.9634 F300
G1 E85.9634 F2400
G1 Z0.500 F420
G1 X-45.00 Y4.00 F6000
G1 Z0.300 F420
G1 E90.9634 F1800
G1 X-40.00 Y4.00 E91.2752 F300
G1 X-20.00 Y4.00 E92.5226 F2760
G1 X20.00 Y4.00 E95.0174 F5520
G1 X40.00 Y4.00 E96.2648 F2760
G1 X45.00 Y4.00 E96.5766 F300
G1 E91.5766 F2400
G1 Z0.500 F420
G1 X-45.00 Y2.00 F6000
G1 Z0.300 F420
G1 E96.5766 F1800
G1 X-40.00 Y2.00 E96.8885 F300
G1 X-20.00 Y2.00 E98.1359 F3000
G1 X20.00 Y2.00 E100.6307 F6000
G1 X40.00 Y2.00 E101.8780 F3000
G1 X45.00 Y2.00 E102.1899 F300
G1 E97.1899 F2400
G1 Z0.500 F420
G1 E99.6899 F1800
;end gcode
M107
M104 S0 T0
M140 S0 T0
G162 Z F1800
G28 X Y
M132 X Y A B
M652
G91
M18
