;gcode_flavor: flashforge
;machine_type: Adventurer 3 Series
;filament_diameter0: 1.75
;right_extruder_temperature: 210
;platform_temperature: 50
;extruder_fan: 100%
;case_fan: 100%
;base_print_speed: 60
;travel_speed: 100
;vertical_speed: 7
;retract_speed: 40
;restore_speed: 30
;layer_height: 0.30
;line_width: 0.50
;extrusion_ratio: 1.00
;command_line: ./gcodetest.py -Te 210 -Tp 50 -Fe 1.0 -Fc 1.0 -Kf=0.0 -Kb=0.0 -Re=5.0 -n 3
;start gcode
M118 X75.00 Y75.00 Z150.00 T0
M140 S50 T0
M104 S210 T0
M104 S0 T1
M107
M900 K0.000 T0
G90
G28
M132 X Y Z A B
G1 Z50.000 F420
G161 X Y F3300
M7 T0
M6 T0
M652 S255
M108 T0
M106
;preExtrude:0.20
;structure:pre-extrude
G1 X-61.00 Y-65.00 F6000
G1 Z0.200 F420
G1 X-61.00 Y55.00 E19.9561 F1200
G1 E14.9561 F2400
G1 Z0.400 F420
;layer:0.30
;structure:shell-outer
G1 X-45.00 Y-32.00 F6000
G1 Z0.300 F420
G1 E19.9561 F1800
G1 X45.00 Y-32.00 E25.5687 F600
G1 E20.5687 F2400
G1 Z0.500 F420
G1 X-42.00 Y-32.00 F6000
G1 X-40.00 Y-32.00
G1 Z0.300 F420
G1 E25.5687 F1800
G1 X-40.00 Y-35.00 E25.7558 F600
G1 E20.7558 F2400
G1 Z0.500 F420
G1 X-38.00 Y-32.00 F6000
G1 Z0.300 F420
G1 E25.7558 F1800
G1 X-38.00 Y-33.50 E25.8494 F600
G1 E20.8494 F2400
G1 Z0.500 F420
G1 X-36.00 Y-32.00 F6000
G1 Z0.300 F420
G1 E25.8494 F1800
G1 X-36.00 Y-33.50 E25.9429 F600
G1 E20.9429 F2400
G1 Z0.500 F420
G1 X-34.00 Y-32.00 F6000
G1 Z0.300 F420
G1 E25.9429 F1800
G1 X-34.00 Y-33.50 E26.0364 F600
G1 E21.0364 F2400
G1 Z0.500 F420
G1 X-32.00 Y-32.00 F6000
G1 Z0.300 F420
G1 E26.0364 F1800
G1 X-32.00 Y-33.50 E26.1300 F600
G1 E21.1300 F2400
G1 Z0.500 F420
G1 X-30.00 Y-32.00 F6000
G1 Z0.300 F420
G1 E26.1300 F1800
G1 X-30.00 Y-35.00 E26.3171 F600
G1 E21.3171 F2400
G1 Z0.500 F420
G1 X-28.00 Y-32.00 F6000
G1 Z0.300 F420
G1 E26.3171 F1800
G1 X-28.00 Y-33.50 E26.4106 F600
G1 E21.4106 F2400
G1 Z0.500 F420
G1 X-26.00 Y-32.00 F6000
G1 Z0.300 F420
G1 E26.4106 F1800
G1 X-26.00 Y-33.50 E26.5042 F600
G1 E21.5042 F2400
G1 Z0.500 F420
G1 X-24.00 Y-32.00 F6000
G1 Z0.300 F420
G1 E26.5042 F1800
G1 X-24.00 Y-33.50 E26.5977 F600
G1 E21.5977 F2400
G1 Z0.500 F420
G1 X-22.00 Y-32.00 F6000
G1 Z0.300 F420
G1 E26.5977 F1800
G1 X-22.00 Y-33.50 E26.6913 F600
G1 E21.6913 F2400
G1 Z0.500 F420
G1 X-20.00 Y-32.00 F6000
G1 Z0.300 F420
G1 E26.6913 F1800
G1 X-20.00 Y-35.00 E26.8783 F600
G1 E21.8783 F2400
G1 Z0.500 F420
G1 X-18.00 Y-32.00 F6000
G1 Z0.300 F420
G1 E26.8783 F1800
G1 X-18.00 Y-33.50 E26.9719 F600
G1 E21.9719 F2400
G1 Z0.500 F420
G1 X-16.00 Y-32.00 F6000
G1 Z0.300 F420
G1 E26.9719 F1800
G1 X-16.00 Y-33.50 E27.0654 F600
G1 E22.0654 F2400
G1 Z0.500 F420
G1 X-14.00 Y-32.00 F6000
G1 Z0.300 F420
G1 E27.0654 F1800
G1 X-14.00 Y-33.50 E27.1590 F600
G1 E22.1590 F2400
G1 Z0.500 F420
G1 X-12.00 Y-32.00 F6000
G1 Z0.300 F420
G1 E27.1590 F1800
G1 X-12.00 Y-33.50 E27.2525 F600
G1 E22.2525 F2400
G1 Z0.500 F420
G1 X-10.00 Y-32.00 F6000
G1 Z0.300 F420
G1 E27.2525 F1800
G1 X-10.00 Y-35.00 E27.4396 F600
G1 E22.4396 F2400
G1 Z0.500 F420
G1 X-8.00 Y-32.00 F6000
G1 Z0.300 F420
G1 E27.4396 F1800
G1 X-8.00 Y-33.50 E27.5332 F600
G1 E22.5332 F2400
G1 Z0.500 F420
G1 X-6.00 Y-32.00 F6000
G1 Z0.300 F420
G1 E27.5332 F1800
G1 X-6.00 Y-33.50 E27.6267 F600
G1 E22.6267 F2400
G1 Z0.500 F420
G1 X-4.00 Y-32.00 F6000
G1 Z0.300 F420
G1 E27.6267 F1800
G1 X-4.00 Y-33.50 E27.7202 F600
G1 E22.7202 F2400
G1 Z0.500 F420
G1 X-2.00 Y-32.00 F6000
G1 Z0.300 F420
G1 E27.7202 F1800
G1 X-2.00 Y-33.50 E27.8138 F600
G1 E22.8138 F2400
G1 Z0.500 F420
G1 X0.00 Y-32.00 F6000
G1 Z0.300 F420
G1 E27.8138 F1800
G1 X0.00 Y-35.00 E28.0009 F600
G1 E23.0009 F2400
G1 Z0.500 F420
G1 X2.00 Y-32.00 F6000
G1 Z0.300 F420
G1 E28.0009 F1800
G1 X2.00 Y-33.50 E28.0944 F600
G1 E23.0944 F2400
G1 Z0.500 F420
G1 X4.00 Y-32.00 F6000
G1 Z0.300 F420
G1 E28.0944 F1800
G1 X4.00 Y-33.50 E28.1880 F600
G1 E23.1880 F2400
G1 Z0.500 F420
G1 X6.00 Y-32.00 F6000
G1 Z0.300 F420
G1 E28.1880 F1800
G1 X6.00 Y-33.50 E28.2815 F600
G1 E23.2815 F2400
G1 Z0.500 F420
G1 X8.00 Y-32.00 F6000
G1 Z0.300 F420
G1 E28.2815 F1800
G1 X8.00 Y-33.50 E28.3750 F600
G1 E23.3750 F2400
G1 Z0.500 F420
G1 X10.00 Y-32.00 F6000
G1 Z0.300 F420
G1 E28.3750 F1800
G1 X10.00 Y-35.00 E28.5621 F600
G1 E23.5621 F2400
G1 Z0.500 F420
G1 X12.00 Y-32.00 F6000
G1 Z0.300 F420
G1 E28.5621 F1800
G1 X12.00 Y-33.50 E28.6557 F600
G1 E23.6557 F2400
G1 Z0.500 F420
G1 X14.00 Y-32.00 F6000
G1 Z0.300 F420
G1 E28.6557 F1800
G1 X14.00 Y-33.50 E28.7492 F600
G1 E23.7492 F2400
G1 Z0.500 F420
G1 X16.00 Y-32.00 F6000
G1 Z0.300 F420
G1 E28.7492 F1800
G1 X16.00 Y-33.50 E28.8428 F600
G1 E23.8428 F2400
G1 Z0.500 F420
G1 X18.00 Y-32.00 F6000
G1 Z0.300 F420
G1 E28.8428 F1800
G1 X18.00 Y-33.50 E28.9363 F600
G1 E23.9363 F2400
G1 Z0.500 F420
G1 X20.00 Y-32.00 F6000
G1 Z0.300 F420
G1 E28.9363 F1800
G1 X20.00 Y-35.00 E29.1234 F600
G1 E24.1234 F2400
G1 Z0.500 F420
G1 X22.00 Y-32.00 F6000
G1 Z0.300 F420
G1 E29.1234 F1800
G1 X22.00 Y-33.50 E29.2169 F600
G1 E24.2169 F2400
G1 Z0.500 F420
G1 X24.00 Y-32.00 F6000
G1 Z0.300 F420
G1 E29.2169 F1800
G1 X24.00 Y-33.50 E29.3105 F600
G1 E24.3105 F2400
G1 Z0.500 F420
G1 X26.00 Y-32.00 F6000
G1 Z0.300 F420
G1 E29.3105 F1800
G1 X26.00 Y-33.50 E29.4040 F600
G1 E24.4040 F2400
G1 Z0.500 F420
G1 X28.00 Y-32.00 F6000
G1 Z0.300 F420
G1 E29.4040 F1800
G1 X28.00 Y-33.50 E29.4976 F600
G1 E24.4976 F2400
G1 Z0.500 F420
G1 X30.00 Y-32.00 F6000
G1 Z0.300 F420
G1 E29.4976 F1800
G1 X30.00 Y-35.00 E29.6847 F600
G1 E24.6847 F2400
G1 Z0.500 F420
G1 X32.00 Y-32.00 F6000
G1 Z0.300 F420
G1 E29.6847 F1800
G1 X32.00 Y-33.50 E29.7782 F600
G1 E24.7782 F2400
G1 Z0.500 F420
G1 X34.00 Y-32.00 F6000
G1 Z0.300 F420
G1 E29.7782 F1800
G1 X34.00 Y-33.50 E29.8718 F600
G1 E24.8718 F2400
G1 Z0.500 F420
G1 X36.00 Y-32.00 F6000
G1 Z0.300 F420
G1 E29.8718 F1800
G1 X36.00 Y-33.50 E29.9653 F600
G1 E24.9653 F2400
G1 Z0.500 F420
G1 X38.00 Y-32.00 F6000
G1 Z0.300 F420
G1 E29.9653 F1800
G1 X38.00 Y-33.50 E30.0588 F600
G1 E25.0588 F2400
G1 Z0.500 F420
G1 X40.00 Y-32.00 F6000
G1 Z0.300 F420
G1 E30.0588 F1800
G1 X40.00 Y-35.00 E30.2459 F600
G1 E25.2459 F2400
G1 Z0.500 F420
;structure:brim
;structure:shell-outer
G1 X47.69 Y-32.10 F6000
G1 Z0.300 F420
G1 E30.2459 F1800
G1 X47.54 Y-32.10 E30.2553 F600
G1 X47.36 Y-32.14 E30.2668
G1 X47.20 Y-32.27 E30.2796
G1 X47.08 Y-32.46 E30.2937
G1 X47.00 Y-32.83 E30.3173
G1 X47.00 Y-35.52 E30.4850
G1 E25.4850 F2400
G1 Z0.500 F420
G1 X46.50 Y-33.24 F6000
G1 Z0.300 F420
G1 E30.4850 F1800
G1 X47.58 Y-33.24 E30.5524 F600
G1 E25.5524 F2400
G1 Z0.500 F420
G1 X48.75 Y-32.12 F6000
G1 Z0.300 F420
G1 E30.5524 F1800
G1 X48.75 Y-35.52 E30.7644 F600
G1 E25.7644 F2400
G1 Z0.500 F420
G1 X51.21 Y-35.52 F6000
G1 Z0.300 F420
G1 E30.7644 F1800
G1 X49.72 Y-33.49 E30.9214 F600
G1 E25.9214 F2400
G1 Z0.500 F420
G1 X48.75 Y-34.33 F6000
G1 Z0.300 F420
G1 E30.9214 F1800
G1 X51.28 Y-32.12 E31.1309 F600
G1 E26.1309 F2400
G1 Z0.500 F420
G1 X53.53 Y-32.10 F6000
G1 Z0.300 F420
G1 E31.1309 F1800
G1 X53.38 Y-32.10 E31.1403 F600
G1 X53.20 Y-32.14 E31.1518
G1 X53.04 Y-32.27 E31.1646
G1 X52.92 Y-32.46 E31.1786
G1 X52.84 Y-32.83 E31.2023
G1 X52.84 Y-35.52 E31.3700
G1 E26.3700 F2400
G1 Z0.500 F420
G1 X52.34 Y-33.24 F6000
G1 Z0.300 F420
G1 E31.3700 F1800
G1 X53.42 Y-33.24 E31.4374 F600
G1 E26.4374 F2400
G1 Z0.500 F420
G1 X54.59 Y-33.74 F6000
G1 Z0.300 F420
G1 E31.4374 F1800
G1 X56.28 Y-33.74 E31.5427 F600
G1 E26.5428 F2400
G1 Z0.500 F420
G1 X56.28 Y-34.45 F6000
G1 Z0.300 F420
G1 E31.5428 F1800
G1 X54.59 Y-34.45 E31.6481 F600
G1 E26.6481 F2400
G1 Z0.500 F420
G1 X57.34 Y-32.56 F6000
G1 Z0.300 F420
G1 E31.6481 F1800
G1 X57.53 Y-32.35 E31.6658 F600
G1 X57.76 Y-32.19 E31.6833
G1 X58.02 Y-32.10 E31.7004
G1 X58.30 Y-32.06 E31.7181
G1 X58.67 Y-32.12 E31.7415
G1 X58.97 Y-32.32 E31.7639
G1 X59.16 Y-32.61 E31.7856
G1 X59.23 Y-32.98 E31.8090
G1 X59.13 Y-33.37 E31.8342
G1 X58.85 Y-33.73 E31.8626
G1 X58.07 Y-34.36 E31.9251
G1 X57.77 Y-34.77 E31.9568
G1 X57.38 Y-35.52 E32.0095
G1 X59.20 Y-35.52 E32.1231
G1 E27.1231 F2400
G1 Z0.500 F420
G1 X60.30 Y-35.29 F6000
G1 Z0.300 F420
G1 E32.1231 F1800
G1 X60.30 Y-35.35 E32.1268 F600
G1 E27.1268 F2400
G1 Z0.500 F420
G1 X62.58 Y-32.06 F6000
G1 Z0.300 F420
G1 E32.1268 F1800
G1 X63.09 Y-32.20 E32.1598 F600
G1 X63.48 Y-32.58 E32.1937
G1 X63.72 Y-33.14 E32.2317
G1 X63.80 Y-33.82 E32.2744
G1 X63.72 Y-34.49 E32.3165
G1 X63.48 Y-35.05 E32.3545
G1 X63.09 Y-35.44 E32.3889
G1 X62.58 Y-35.58 E32.4219
G1 X62.06 Y-35.44 E32.4555
G1 X61.68 Y-35.05 E32.4895
G1 X61.44 Y-34.49 E32.5275
G1 X61.36 Y-33.82 E32.5695
G1 X61.44 Y-33.15 E32.6116
G1 X61.68 Y-32.58 E32.6502
G1 X62.06 Y-32.20 E32.6837
G1 X62.58 Y-32.06 E32.7173
G1 E27.7173 F2400
G1 Z0.500 F420
G1 X46.50 Y-38.11 F6000
G1 Z0.300 F420
G1 E32.7173 F1800
G1 X47.52 Y-40.52 E32.8805 F600
G1 X48.54 Y-38.11 E33.0437
G1 E28.0437 F2400
G1 Z0.500 F420
G1 X49.60 Y-38.11 F6000
G1 Z0.300 F420
G1 E33.0437 F1800
G1 X51.60 Y-40.52 E33.2390 F600
G1 E28.2390 F2400
G1 Z0.500 F420
G1 X49.60 Y-40.52 F6000
G1 Z0.300 F420
G1 E33.2390 F1800
G1 X51.60 Y-38.11 E33.4344 F600
G1 E28.4344 F2400
G1 Z0.500 F420
G1 X53.88 Y-37.06 F6000
G1 Z0.300 F420
G1 E33.4344 F1800
G1 X54.39 Y-37.20 E33.4674 F600
G1 X54.78 Y-37.58 E33.5013
G1 X55.02 Y-38.14 E33.5393
G1 X55.10 Y-38.82 E33.5820
G1 X55.02 Y-39.49 E33.6241
G1 X54.78 Y-40.05 E33.6621
G1 X54.39 Y-40.44 E33.6965
G1 X53.88 Y-40.58 E33.7295
G1 X53.36 Y-40.44 E33.7631
G1 X52.98 Y-40.05 E33.7970
G1 X52.74 Y-39.49 E33.8350
G1 X52.66 Y-38.82 E33.8771
G1 X52.74 Y-38.15 E33.9192
G1 X52.98 Y-37.58 E33.9578
G1 X53.36 Y-37.20 E33.9913
G1 X53.88 Y-37.06 E34.0249
G1 E29.0249 F2400
G1 Z0.500 F420
G1 X56.17 Y-38.74 F6000
G1 Z0.300 F420
G1 E34.0249 F1800
G1 X57.86 Y-38.74 E34.1303 F600
G1 E29.1303 F2400
G1 Z0.500 F420
G1 X57.86 Y-39.45 F6000
G1 Z0.300 F420
G1 E34.1303 F1800
G1 X56.17 Y-39.45 E34.2357 F600
G1 E29.2357 F2400
G1 Z0.500 F420
G1 X58.92 Y-38.00 F6000
G1 Z0.300 F420
G1 E34.2357 F1800
G1 X59.39 Y-37.76 E34.2686 F600
G1 X59.76 Y-37.45 E34.2987
G1 X60.01 Y-37.12 E34.3245
G1 X60.01 Y-40.52 E34.5366
G1 E29.5366 F2400
G1 Z0.500 F420
G1 X62.29 Y-37.06 F6000
G1 Z0.300 F420
G1 E34.5366 F1800
G1 X62.80 Y-37.20 E34.5695 F600
G1 X63.19 Y-37.58 E34.6035
G1 X63.43 Y-38.14 E34.6415
G1 X63.51 Y-38.82 E34.6842
G1 X63.43 Y-39.49 E34.7263
G1 X63.19 Y-40.05 E34.7643
G1 X62.80 Y-40.44 E34.7987
G1 X62.29 Y-40.58 E34.8317
G1 X61.77 Y-40.44 E34.8653
G1 X61.39 Y-40.05 E34.8992
G1 X61.15 Y-39.49 E34.9372
G1 X61.07 Y-38.82 E34.9793
G1 X61.15 Y-38.15 E35.0214
G1 X61.39 Y-37.58 E35.0600
G1 X61.77 Y-37.20 E35.0935
G1 X62.29 Y-37.06 E35.1271
G1 E30.1271 F2400
G1 Z0.500 F420
G1 X64.57 Y-39.10 F6000
G1 Z0.300 F420
G1 E35.1271 F1800
G1 X66.44 Y-39.10 E35.2437 F600
G1 E30.2437 F2400
G1 Z0.500 F420
G1 X69.49 Y-37.12 F6000
G1 Z0.300 F420
G1 E35.2437 F1800
G1 X67.74 Y-37.12 E35.3528 F600
G1 X67.60 Y-38.86 E35.4617
G1 X67.88 Y-38.55 E35.4878
G1 X68.05 Y-38.43 E35.5007
G1 X68.24 Y-38.36 E35.5134
G1 X68.43 Y-38.33 E35.5254
G1 X68.63 Y-38.32 E35.5379
G1 X69.04 Y-38.41 E35.5640
G1 X69.36 Y-38.63 E35.5883
G1 X69.57 Y-38.97 E35.6132
G1 X69.65 Y-39.39 E35.6398
G1 X69.58 Y-39.86 E35.6695
G1 X69.37 Y-40.23 E35.6960
G1 X69.02 Y-40.49 E35.7232
G1 X68.52 Y-40.58 E35.7549
G1 X68.15 Y-40.52 E35.7783
G1 X67.84 Y-40.36 E35.8000
G1 X67.62 Y-40.09 E35.8217
G1 X67.50 Y-39.73 E35.8454
G1 E30.8454 F2400
G1 Z0.500 F420
G1 X71.93 Y-37.06 F6000
G1 Z0.300 F420
G1 E35.8454 F1800
G1 X72.44 Y-37.20 E35.8784 F600
G1 X72.83 Y-37.58 E35.9124
G1 X73.07 Y-38.14 E35.9504
G1 X73.15 Y-38.82 E35.9931
G1 X73.07 Y-39.49 E36.0351
G1 X72.83 Y-40.05 E36.0731
G1 X72.44 Y-40.44 E36.1075
G1 X71.93 Y-40.58 E36.1405
G1 X71.41 Y-40.44 E36.1741
G1 X71.03 Y-40.05 E36.2081
G1 X70.79 Y-39.49 E36.2461
G1 X70.71 Y-38.82 E36.2881
G1 X70.79 Y-38.15 E36.3302
G1 X71.03 Y-37.58 E36.3688
G1 X71.41 Y-37.20 E36.4023
G1 X71.93 Y-37.06 E36.4359
G1 E31.4359 F2400
G1 Z0.500 F420
G1 X46.50 Y-43.11 F6000
G1 Z0.300 F420
G1 E36.4359 F1800
G1 X47.52 Y-45.52 E36.5991 F600
G1 X48.54 Y-43.11 E36.7623
G1 E31.7623 F2400
G1 Z0.500 F420
G1 X49.60 Y-43.11 F6000
G1 Z0.300 F420
G1 E36.7623 F1800
G1 X51.60 Y-45.52 E36.9576 F600
G1 E31.9576 F2400
G1 Z0.500 F420
G1 X49.60 Y-45.52 F6000
G1 Z0.300 F420
G1 E36.9576 F1800
G1 X51.60 Y-43.11 E37.1529 F600
G1 E32.1529 F2400
G1 Z0.500 F420
G1 X52.66 Y-43.00 F6000
G1 Z0.300 F420
G1 E37.1529 F1800
G1 X53.13 Y-42.76 E37.1859 F600
G1 X53.50 Y-42.45 E37.2160
G1 X53.75 Y-42.12 E37.2418
G1 X53.75 Y-45.52 E37.4538
G1 E32.4538 F2400
G1 Z0.500 F420
G1 X54.81 Y-43.74 F6000
G1 Z0.300 F420
G1 E37.4538 F1800
G1 X56.50 Y-43.74 E37.5592 F600
G1 E32.5592 F2400
G1 Z0.500 F420
G1 X56.50 Y-44.45 F6000
G1 Z0.300 F420
G1 E37.5592 F1800
G1 X54.81 Y-44.45 E37.6646 F600
G1 E32.6646 F2400
G1 Z0.500 F420
G1 X57.56 Y-42.56 F6000
G1 Z0.300 F420
G1 E37.6646 F1800
G1 X57.75 Y-42.35 E37.6823 F600
G1 X57.98 Y-42.19 E37.6998
G1 X58.24 Y-42.10 E37.7169
G1 X58.52 Y-42.06 E37.7346
G1 X58.89 Y-42.12 E37.7579
G1 X59.19 Y-42.32 E37.7804
G1 X59.38 Y-42.61 E37.8020
G1 X59.45 Y-42.98 E37.8255
G1 X59.35 Y-43.37 E37.8506
G1 X59.07 Y-43.73 E37.8791
G1 X58.29 Y-44.36 E37.9416
G1 X57.99 Y-44.77 E37.9733
G1 X57.60 Y-45.52 E38.0260
G1 X59.42 Y-45.52 E38.1395
G1 E33.1395 F2400
G1 Z0.500 F420
G1 X61.73 Y-42.06 F6000
G1 Z0.300 F420
G1 E38.1395 F1800
G1 X62.24 Y-42.20 E38.1725 F600
G1 X62.63 Y-42.58 E38.2065
G1 X62.87 Y-43.14 E38.2445
G1 X62.95 Y-43.82 E38.2872
G1 X62.87 Y-44.49 E38.3293
G1 X62.63 Y-45.05 E38.3673
G1 X62.24 Y-45.44 E38.4017
G1 X61.73 Y-45.58 E38.4347
G1 X61.21 Y-45.44 E38.4683
G1 X60.83 Y-45.05 E38.5022
G1 X60.59 Y-44.49 E38.5402
G1 X60.51 Y-43.82 E38.5823
G1 X60.59 Y-43.15 E38.6244
G1 X60.83 Y-42.58 E38.6630
G1 X61.21 Y-42.20 E38.6965
G1 X61.73 Y-42.06 E38.7301
G1 E33.7301 F2400
G1 Z0.500 F420
G1 X64.02 Y-44.10 F6000
G1 Z0.300 F420
G1 E38.7301 F1800
G1 X65.89 Y-44.10 E38.8467 F600
G1 E33.8467 F2400
G1 Z0.500 F420
G1 X66.95 Y-43.00 F6000
G1 Z0.300 F420
G1 E38.8467 F1800
G1 X67.42 Y-42.76 E38.8796 F600
G1 X67.79 Y-42.45 E38.9097
G1 X68.04 Y-42.12 E38.9355
G1 X68.04 Y-45.52 E39.1476
G1 E34.1476 F2400
G1 Z0.500 F420
G1 X70.32 Y-42.06 F6000
G1 Z0.300 F420
G1 E39.1476 F1800
G1 X70.83 Y-42.20 E39.1806 F600
G1 X71.22 Y-42.58 E39.2145
G1 X71.46 Y-43.14 E39.2525
G1 X71.54 Y-43.82 E39.2952
G1 X71.46 Y-44.49 E39.3373
G1 X71.22 Y-45.05 E39.3753
G1 X70.83 Y-45.44 E39.4097
G1 X70.32 Y-45.58 E39.4427
G1 X69.80 Y-45.44 E39.4763
G1 X69.42 Y-45.05 E39.5103
G1 X69.18 Y-44.49 E39.5483
G1 X69.10 Y-43.82 E39.5903
G1 X69.18 Y-43.15 E39.6324
G1 X69.42 Y-42.58 E39.6710
G1 X69.80 Y-42.20 E39.7045
G1 X70.32 Y-42.06 E39.7381
G1 E34.7381 F2400
G1 Z0.500 F420
G1 X73.82 Y-42.06 F6000
G1 Z0.300 F420
G1 E39.7381 F1800
G1 X74.33 Y-42.20 E39.7711 F600
G1 X74.72 Y-42.58 E39.8051
G1 X74.96 Y-43.14 E39.8431
G1 X75.04 Y-43.82 E39.8858
G1 X74.96 Y-44.49 E39.9278
G1 X74.72 Y-45.05 E39.9658
G1 X74.33 Y-45.44 E40.0002
G1 X73.82 Y-45.58 E40.0332
G1 X73.30 Y-45.44 E40.0668
G1 X72.92 Y-45.05 E40.1008
G1 X72.68 Y-44.49 E40.1388
G1 X72.60 Y-43.82 E40.1809
G1 X72.68 Y-43.15 E40.2229
G1 X72.92 Y-42.58 E40.2615
G1 X73.30 Y-42.20 E40.2950
G1 X73.82 Y-42.06 E40.3286
G1 E35.3286 F2400
G1 Z0.500 F420
;structure:shell-inner
M900 K2.000 T0
G1 X-45.00 Y-36.00 F6000
G1 Z0.300 F420
G1 E40.3286 F1800
G1 X-40.00 Y-36.00 E40.6405 F300
G1 X-20.00 Y-36.00 E41.8879 F600
G1 X20.00 Y-36.00 E44.3826 F1200
G1 X40.00 Y-36.00 E45.6300 F600
G1 X45.00 Y-36.00 E45.9419 F300
G1 E40.9419 F2400
G1 Z0.500 F420
G1 X-45.00 Y-38.00 F6000
G1 Z0.300 F420
G1 E45.9419 F1800
G1 X-40.00 Y-38.00 E46.2537 F300
G1 X-20.00 Y-38.00 E47.5011 F840
G1 X20.00 Y-38.00 E49.9959 F1680
G1 X40.00 Y-38.00 E51.2433 F840
G1 X45.00 Y-38.00 E51.5551 F300
G1 E46.5551 F2400
G1 Z0.500 F420
G1 X-45.00 Y-40.00 F6000
G1 Z0.300 F420
G1 E51.5551 F1800
G1 X-40.00 Y-40.00 E51.8670 F300
G1 X-20.00 Y-40.00 E53.1143 F1080
G1 X20.00 Y-40.00 E55.6091 F2160
G1 X40.00 Y-40.00 E56.8565 F1080
G1 X45.00 Y-40.00 E57.1684 F300
G1 E52.1684 F2400
G1 Z0.500 F420
G1 X-45.00 Y-42.00 F6000
G1 Z0.300 F420
G1 E57.1684 F1800
G1 X-40.00 Y-42.00 E57.4802 F300
G1 X-20.00 Y-42.00 E58.7276 F1320
G1 X20.00 Y-42.00 E61.2224 F2640
G1 X40.00 Y-42.00 E62.4698 F1320
G1 X45.00 Y-42.00 E62.7816 F300
G1 E57.7816 F2400
G1 Z0.500 F420
G1 X-45.00 Y-44.00 F6000
G1 Z0.300 F420
G1 E62.7816 F1800
G1 X-40.00 Y-44.00 E63.0935 F300
G1 X-20.00 Y-44.00 E64.3408 F1560
G1 X20.00 Y-44.00 E66.8356 F3120
G1 X40.00 Y-44.00 E68.0830 F1560
G1 X45.00 Y-44.00 E68.3949 F300
G1 E63.3949 F2400
G1 Z0.500 F420
G1 X-45.00 Y-46.00 F6000
G1 Z0.300 F420
G1 E68.3949 F1800
G1 X-40.00 Y-46.00 E68.7067 F300
G1 X-20.00 Y-46.00 E69.9541 F1800
G1 X20.00 Y-46.00 E72.4489 F3600
G1 X40.00 Y-46.00 E73.6963 F1800
G1 X45.00 Y-46.00 E74.0081 F300
G1 E69.0081 F2400
G1 Z0.500 F420
G1 X-45.00 Y-48.00 F6000
G1 Z0.300 F420
G1 E74.0081 F1800
G1 X-40.00 Y-48.00 E74.3200 F300
G1 X-20.00 Y-48.00 E75.5673 F2040
G1 X20.00 Y-48.00 E78.0621 F4080
G1 X40.00 Y-48.00 E79.3095 F2040
G1 X45.00 Y-48.00 E79.6214 F300
G1 E74.6214 F2400
G1 Z0.500 F420
G1 X-45.00 Y-50.00 F6000
G1 Z0.300 F420
G1 E79.6214 F1800
G1 X-40.00 Y-50.00 E79.9332 F300
G1 X-20.00 Y-50.00 E81.1806 F2280
G1 X20.00 Y-50.00 E83.6754 F4560
G1 X40.00 Y-50.00 E84.9228 F2280
G1 X45.00 Y-50.00 E85.2346 F300
G1 E80.2346 F2400
G1 Z0.500 F420
G1 X-45.00 Y-52.00 F6000
G1 Z0.300 F420
G1 E85.2346 F1800
G1 X-40.00 Y-52.00 E85.5465 F300
G1 X-20.00 Y-52.00 E86.7938 F2520
G1 X20.00 Y-52.00 E89.2886 F5040
G1 X40.00 Y-52.00 E90.5360 F2520
G1 X45.00 Y-52.00 E90.8479 F300
G1 E85.8479 F2400
G1 Z0.500 F420
G1 X-45.00 Y-54.00 F6000
G1 Z0.300 F420
G1 E90.8479 F1800
G1 X-40.00 Y-54.00 E91.1597 F300
G1 X-20.00 Y-54.00 E92.4071 F2760
G1 X20.00 Y-54.00 E94.9019 F5520
G1 X40.00 Y-54.00 E96.1493 F2760
G1 X45.00 Y-54.00 E96.4611 F300
G1 E91.4611 F2400
G1 Z0.500 F420
G1 X-45.00 Y-56.00 F6000
G1 Z0.300 F420
G1 E96.4611 F1800
G1 X-40.00 Y-56.00 E96.7730 F300
G1 X-20.00 Y-56.00 E98.0203 F3000
G1 X20.00 Y-56.00 E100.5151 F6000
G1 X40.00 Y-56.00 E101.7625 F3000
G1 X45.00 Y-56.00 E102.0744 F300
G1 E97.0744 F2400
G1 Z0.500 F420
M900 K0.000 T0
G1 E99.5744 F1800
;end gcode
M107
M104 S0 T0
M140 S0 T0
G162 Z F1800
G28 X Y
M132 X Y A B
M652
G91
M18
