;gcode_flavor: flashforge
;machine_type: Adventurer 3 Series
;filament_diameter0: 1.75
;right_extruder_temperature: 245
;platform_temperature: 100
;extruder_fan: 0%
;case_fan: 0%
;base_print_speed: 50
;travel_speed: 100
;vertical_speed: 7
;retract_speed: 40
;restore_speed: 30
;layer_height: 0.30
;line_width: 0.40
;extrusion_ratio: 1.00
;start gcode
M118 X75.00 Y75.00 Z150.00 T0
M140 S100 T0
M104 S245 T0
M104 S0 T1
M107
M900 K0.400 T0
G90
G28
M132 X Y Z A B
G1 Z50.000 F420
G161 X Y F3300
M7 T0
M6 T0
M651
M108 T0
;preExtrude:0.30
;00:00:00.000: layer=0 h=0.30 w=0.40 r=1.00
;structure:pre-extrude
G1 X-55.00 Y-65.00 F6000                ; move dl=85.15@0<100>0 de=0.0000 h=0.0
;00:00:01.051: pe=0.0000 eb=0.0000 ve=0.0000 vn=0.0000 vl=0.000 db=0.00
G1 Z0.300 F420                          ; hopup dz=0.30@7 h=0.3
;00:00:01.094: pe=0.0000 eb=0.0000 ve=0.0000 vn=0.0000 vl=0.000 db=0.00
G1 E5.0406 F1800                        ; restore de=5.0406@30
;00:00:01.262: pe=4.7499 eb=0.2908 ve=30.0000 vn=3.2602 vl=0.000 db=1.72
G1 X-55.00 Y55.00 E29.0279 F1200        ; draw dl=120.00@0<20>10 l=0.30x0.40x4.01
;00:00:07.287: pe=4.7862 eb=0.2689 ve=1.9989 vn=3.6810 vl=10.000 db=1.66
G1 X-55.00 Y65.00 F600                  ; move dl=10.00@10<10>10 de=0.0000 h=0.3
;00:00:08.287: pe=2.9915 eb=0.1454 ve=0.0000 vn=1.3864 vl=10.000 db=1.22
G1 X35.00 Y65.00                        ; move dl=90.00@10<10>1 de=0.0000 h=0.3
;00:00:17.295: pe=0.0362 eb=0.0000 ve=0.0000 vn=0.0024 vl=1.000 db=0.02
G1 X45.00 Y65.00 F60                    ; move dl=10.00@1<1>0 de=0.0000 h=0.3
;00:00:27.296: pe=0.0197 eb=0.0000 ve=0.0000 vn=0.0000 vl=0.000 db=0.01
G1 E28.0083 F2400                       ; retract de=-1.0197@40
;00:00:27.322: pe=-1.0000 eb=0.0000 ve=-40.0000 vn=0.0000 vl=0.000 db=0.01
G1 Z0.700 F420                          ; hopup dz=0.40@7 h=0.7
;00:00:27.379: pe=-1.0000 eb=0.0000 ve=0.0000 vn=0.0000 vl=0.000 db=0.01
;layer:0.30
;00:00:27.379: layer=1 h=0.30 w=0.40 r=1.00
;structure:brim
G1 X-45.00 Y60.00 F6000                 ; move dl=90.14@0<100>0 de=0.0000 h=0.7
;00:00:28.480: pe=-1.0000 eb=0.0000 ve=0.0000 vn=0.0000 vl=0.000 db=0.00
G1 Z0.300 F420                          ; hopdn dz=-0.40@7 h=0.3
;00:00:28.538: pe=-1.0000 eb=0.0000 ve=0.0000 vn=0.0000 vl=0.000 db=0.00
G1 E30.0233 F1800                       ; restore de=2.0151@30
;00:00:28.605: pe=1.0021 eb=0.0130 ve=30.0000 vn=0.6828 vl=0.000 db=0.36
G1 X-45.00 Y-61.00 E36.0574 F600        ; draw dl=121.00@0<10>10 l=0.30x0.40x1.00
;00:00:40.715: pe=0.9991 eb=0.0157 ve=0.4987 vn=0.4987 vl=10.000 db=0.40
G1 X-45.40 Y-61.00 E36.0778             ; draw dl=0.40@10<10>10 l=0.30x0.40x1.02
;00:00:40.755: pe=0.9996 eb=0.0157 ve=0.5099 vn=0.4991 vl=10.000 db=0.40
G1 X-45.40 Y60.00 E42.1143              ; draw dl=121.00@10<10>0 l=0.30x0.40x1.00
;00:00:52.865: pe=0.9960 eb=0.0191 ve=0.0000 vn=0.2838 vl=0.000 db=0.44
G1 E40.1183 F2400                       ; retract de=-1.9960@40
;00:00:52.915: pe=-1.0003 eb=0.0193 ve=-40.0000 vn=0.0000 vl=0.000 db=0.44
G1 Z0.700 F420                          ; hopup dz=0.40@7 h=0.7
;00:00:52.972: pe=-1.0003 eb=0.0193 ve=0.0000 vn=0.0000 vl=0.000 db=0.29
G1 X45.00 Y60.00 F6000                  ; move dl=90.40@0<100>0 de=0.0000 h=0.7
;00:00:54.076: pe=-1.0003 eb=0.0000 ve=0.0000 vn=0.0000 vl=0.000 db=0.00
G1 Z0.300 F420                          ; hopdn dz=-0.40@7 h=0.3
;00:00:54.133: pe=-1.0003 eb=0.0000 ve=0.0000 vn=0.0000 vl=0.000 db=0.00
G1 E42.1336 F1800                       ; restore de=2.0153@30
;00:00:54.200: pe=1.0021 eb=0.0130 ve=30.0000 vn=0.6828 vl=0.000 db=0.36
G1 X45.00 Y-61.00 E48.1677 F600         ; draw dl=121.00@0<10>10 l=0.30x0.40x1.00
;00:01:06.310: pe=0.9991 eb=0.0157 ve=0.4987 vn=0.4987 vl=10.000 db=0.40
G1 X45.40 Y-61.00 E48.1881              ; draw dl=0.40@10<10>10 l=0.30x0.40x1.02
;00:01:06.350: pe=0.9996 eb=0.0157 ve=0.5099 vn=0.4991 vl=10.000 db=0.40
G1 X45.40 Y60.00 E54.2246               ; draw dl=121.00@10<10>0 l=0.30x0.40x1.00
;00:01:18.460: pe=0.9960 eb=0.0191 ve=0.0000 vn=0.2838 vl=0.000 db=0.44
G1 E52.2286 F2400                       ; retract de=-1.9960@40
;00:01:18.510: pe=-1.0003 eb=0.0193 ve=-40.0000 vn=0.0000 vl=0.000 db=0.44
G1 Z0.700 F420                          ; hopup dz=0.40@7 h=0.7
;00:01:18.567: pe=-1.0003 eb=0.0193 ve=0.0000 vn=0.0000 vl=0.000 db=0.29
;00:01:18.567: Test Retract vx=20-100 vr=20-100 re=8.0
;structure:shell-outer
G1 X-45.00 Y55.00 F6000                 ; move dl=90.54@0<100>0 de=0.0000 h=0.7
;00:01:19.673: pe=-1.0003 eb=0.0000 ve=0.0000 vn=0.0000 vl=0.000 db=0.00
G1 Z0.300 F420                          ; hopdn dz=-0.40@7 h=0.3
;00:01:19.730: pe=-1.0003 eb=0.0000 ve=0.0000 vn=0.0000 vl=0.000 db=0.00
G1 E54.2436 F1800                       ; restore de=2.0150@30
;00:01:19.797: pe=1.0018 eb=0.0130 ve=30.0000 vn=0.6826 vl=0.000 db=0.36
G1 X45.00 Y55.00 E58.7311 F600          ; draw dl=90.00@0<10>0 l=0.30x0.40x1.00
;00:01:28.817: pe=0.9955 eb=0.0191 ve=0.0000 vn=0.2835 vl=0.000 db=0.44
G1 E56.7356 F2400                       ; retract de=-1.9955@40
;00:01:28.867: pe=-1.0003 eb=0.0193 ve=-40.0000 vn=0.0000 vl=0.000 db=0.44
G1 Z0.700 F420                          ; hopup dz=0.40@7 h=0.7
;00:01:28.924: pe=-1.0003 eb=0.0193 ve=0.0000 vn=0.0000 vl=0.000 db=0.29
G1 X-42.00 Y55.00 F6000                 ; move dl=87.00@0<100>0 de=0.0000 h=0.7
;00:01:29.994: pe=-1.0003 eb=0.0000 ve=0.0000 vn=0.0000 vl=0.000 db=0.00
G1 X-40.00 Y55.00 F1342                 ; move dl=2.00@0<22>0 de=0.0000 h=0.7
;00:01:30.128: pe=-1.0003 eb=0.0000 ve=0.0000 vn=0.0000 vl=0.000 db=0.00
G1 Z0.300 F420                          ; hopdn dz=-0.40@7 h=0.3
;00:01:30.185: pe=-1.0003 eb=0.0000 ve=0.0000 vn=0.0000 vl=0.000 db=0.00
G1 E58.7386 F1800                       ; restore de=2.0030@30
;00:01:30.252: pe=0.9901 eb=0.0127 ve=30.0000 vn=0.6744 vl=0.000 db=0.36
G1 X-40.00 Y52.00 E58.8853 F600         ; draw dl=3.00@0<10>0 l=0.30x0.40x0.98
;00:01:30.572: pe=0.9826 eb=0.0186 ve=0.0000 vn=0.2781 vl=0.000 db=0.44
G1 E56.9027 F2400                       ; retract de=-1.9826@40
;00:01:30.622: pe=-1.0002 eb=0.0188 ve=-40.0000 vn=0.0000 vl=0.000 db=0.44
G1 Z0.700 F420                          ; hopup dz=0.40@7 h=0.7
;00:01:30.679: pe=-1.0002 eb=0.0188 ve=0.0000 vn=0.0000 vl=0.000 db=0.29
G1 X-38.00 Y55.00 F1801                 ; move dl=3.61@0<30>0 de=0.0000 h=0.7
;00:01:30.859: pe=-1.0002 eb=0.0000 ve=0.0000 vn=0.0000 vl=0.000 db=0.00
G1 Z0.300 F420                          ; hopdn dz=-0.40@7 h=0.3
;00:01:30.916: pe=-1.0002 eb=0.0000 ve=0.0000 vn=0.0000 vl=0.000 db=0.00
G1 E58.8947 F1800                       ; restore de=1.9920@30
;00:01:30.982: pe=0.9793 eb=0.0124 ve=30.0000 vn=0.6670 vl=0.000 db=0.36
G1 X-38.00 Y53.50 E58.9663 F600         ; draw dl=1.50@0<10>0 l=0.30x0.40x0.96
;00:01:31.152: pe=0.9715 eb=0.0182 ve=0.0000 vn=0.2735 vl=0.000 db=0.43
G1 E56.9948 F2400                       ; retract de=-1.9715@40
;00:01:31.202: pe=-1.0002 eb=0.0184 ve=-40.0000 vn=0.0000 vl=0.000 db=0.43
G1 Z0.700 F420                          ; hopup dz=0.40@7 h=0.7
;00:01:31.259: pe=-1.0002 eb=0.0184 ve=0.0000 vn=0.0000 vl=0.000 db=0.28
G1 X-36.00 Y55.00 F1500                 ; move dl=2.50@0<25>0 de=0.0000 h=0.7
;00:01:31.409: pe=-1.0002 eb=0.0000 ve=0.0000 vn=0.0000 vl=0.000 db=0.00
G1 Z0.300 F420                          ; hopdn dz=-0.40@7 h=0.3
;00:01:31.466: pe=-1.0002 eb=0.0000 ve=0.0000 vn=0.0000 vl=0.000 db=0.00
G1 E58.9868 F1800                       ; restore de=1.9920@30
;00:01:31.532: pe=0.9793 eb=0.0124 ve=30.0000 vn=0.6670 vl=0.000 db=0.36
G1 X-36.00 Y53.50 E59.0584 F600         ; draw dl=1.50@0<10>0 l=0.30x0.40x0.96
;00:01:31.702: pe=0.9715 eb=0.0182 ve=0.0000 vn=0.2735 vl=0.000 db=0.43
G1 E57.0868 F2400                       ; retract de=-1.9715@40
;00:01:31.752: pe=-1.0002 eb=0.0184 ve=-40.0000 vn=0.0000 vl=0.000 db=0.43
G1 Z0.700 F420                          ; hopup dz=0.40@7 h=0.7
;00:01:31.809: pe=-1.0002 eb=0.0184 ve=0.0000 vn=0.0000 vl=0.000 db=0.28
G1 X-34.00 Y55.00 F1500                 ; move dl=2.50@0<25>0 de=0.0000 h=0.7
;00:01:31.959: pe=-1.0002 eb=0.0000 ve=0.0000 vn=0.0000 vl=0.000 db=0.00
G1 Z0.300 F420                          ; hopdn dz=-0.40@7 h=0.3
;00:01:32.016: pe=-1.0002 eb=0.0000 ve=0.0000 vn=0.0000 vl=0.000 db=0.00
G1 E59.0788 F1800                       ; restore de=1.9920@30
;00:01:32.082: pe=0.9793 eb=0.0124 ve=30.0000 vn=0.6670 vl=0.000 db=0.36
G1 X-34.00 Y53.50 E59.1504 F600         ; draw dl=1.50@0<10>0 l=0.30x0.40x0.96
;00:01:32.252: pe=0.9715 eb=0.0182 ve=0.0000 vn=0.2735 vl=0.000 db=0.43
G1 E57.1789 F2400                       ; retract de=-1.9715@40
;00:01:32.302: pe=-1.0002 eb=0.0184 ve=-40.0000 vn=0.0000 vl=0.000 db=0.43
G1 Z0.700 F420                          ; hopup dz=0.40@7 h=0.7
;00:01:32.359: pe=-1.0002 eb=0.0184 ve=0.0000 vn=0.0000 vl=0.000 db=0.28
G1 X-32.00 Y55.00 F1500                 ; move dl=2.50@0<25>0 de=0.0000 h=0.7
;00:01:32.509: pe=-1.0002 eb=0.0000 ve=0.0000 vn=0.0000 vl=0.000 db=0.00
G1 Z0.300 F420                          ; hopdn dz=-0.40@7 h=0.3
;00:01:32.566: pe=-1.0002 eb=0.0000 ve=0.0000 vn=0.0000 vl=0.000 db=0.00
G1 E59.1709 F1800                       ; restore de=1.9920@30
;00:01:32.632: pe=0.9793 eb=0.0124 ve=30.0000 vn=0.6670 vl=0.000 db=0.36
G1 X-32.00 Y53.50 E59.2425 F600         ; draw dl=1.50@0<10>0 l=0.30x0.40x0.96
;00:01:32.802: pe=0.9715 eb=0.0182 ve=0.0000 vn=0.2735 vl=0.000 db=0.43
G1 E57.2709 F2400                       ; retract de=-1.9715@40
;00:01:32.852: pe=-1.0002 eb=0.0184 ve=-40.0000 vn=0.0000 vl=0.000 db=0.43
G1 Z0.700 F420                          ; hopup dz=0.40@7 h=0.7
;00:01:32.909: pe=-1.0002 eb=0.0184 ve=0.0000 vn=0.0000 vl=0.000 db=0.28
G1 X-30.00 Y55.00 F1500                 ; move dl=2.50@0<25>0 de=0.0000 h=0.7
;00:01:33.059: pe=-1.0002 eb=0.0000 ve=0.0000 vn=0.0000 vl=0.000 db=0.00
G1 Z0.300 F420                          ; hopdn dz=-0.40@7 h=0.3
;00:01:33.116: pe=-1.0002 eb=0.0000 ve=0.0000 vn=0.0000 vl=0.000 db=0.00
G1 E59.2739 F1800                       ; restore de=2.0030@30
;00:01:33.183: pe=0.9901 eb=0.0127 ve=30.0000 vn=0.6744 vl=0.000 db=0.36
G1 X-30.00 Y52.00 E59.4206 F600         ; draw dl=3.00@0<10>0 l=0.30x0.40x0.98
;00:01:33.503: pe=0.9826 eb=0.0186 ve=0.0000 vn=0.2781 vl=0.000 db=0.44
G1 E57.4381 F2400                       ; retract de=-1.9826@40
;00:01:33.552: pe=-1.0002 eb=0.0188 ve=-40.0000 vn=0.0000 vl=0.000 db=0.44
G1 Z0.700 F420                          ; hopup dz=0.40@7 h=0.7
;00:01:33.609: pe=-1.0002 eb=0.0188 ve=0.0000 vn=0.0000 vl=0.000 db=0.29
G1 X-28.00 Y55.00 F1801                 ; move dl=3.61@0<30>0 de=0.0000 h=0.7
;00:01:33.789: pe=-1.0002 eb=0.0000 ve=0.0000 vn=0.0000 vl=0.000 db=0.00
G1 Z0.300 F420                          ; hopdn dz=-0.40@7 h=0.3
;00:01:33.847: pe=-1.0002 eb=0.0000 ve=0.0000 vn=0.0000 vl=0.000 db=0.00
G1 E59.4301 F1800                       ; restore de=1.9920@30
;00:01:33.913: pe=0.9793 eb=0.0124 ve=30.0000 vn=0.6670 vl=0.000 db=0.36
G1 X-28.00 Y53.50 E59.5017 F600         ; draw dl=1.50@0<10>0 l=0.30x0.40x0.96
;00:01:34.083: pe=0.9715 eb=0.0182 ve=0.0000 vn=0.2735 vl=0.000 db=0.43
G1 E57.5301 F2400                       ; retract de=-1.9715@40
;00:01:34.132: pe=-1.0002 eb=0.0184 ve=-40.0000 vn=0.0000 vl=0.000 db=0.43
G1 Z0.700 F420                          ; hopup dz=0.40@7 h=0.7
;00:01:34.189: pe=-1.0002 eb=0.0184 ve=0.0000 vn=0.0000 vl=0.000 db=0.28
G1 X-26.00 Y55.00 F1500                 ; move dl=2.50@0<25>0 de=0.0000 h=0.7
;00:01:34.339: pe=-1.0002 eb=0.0000 ve=0.0000 vn=0.0000 vl=0.000 db=0.00
G1 Z0.300 F420                          ; hopdn dz=-0.40@7 h=0.3
;00:01:34.397: pe=-1.0002 eb=0.0000 ve=0.0000 vn=0.0000 vl=0.000 db=0.00
G1 E59.5221 F1800                       ; restore de=1.9920@30
;00:01:34.463: pe=0.9793 eb=0.0124 ve=30.0000 vn=0.6670 vl=0.000 db=0.36
G1 X-26.00 Y53.50 E59.5937 F600         ; draw dl=1.50@0<10>0 l=0.30x0.40x0.96
;00:01:34.633: pe=0.9715 eb=0.0182 ve=0.0000 vn=0.2735 vl=0.000 db=0.43
G1 E57.6222 F2400                       ; retract de=-1.9715@40
;00:01:34.682: pe=-1.0002 eb=0.0184 ve=-40.0000 vn=0.0000 vl=0.000 db=0.43
G1 Z0.700 F420                          ; hopup dz=0.40@7 h=0.7
;00:01:34.739: pe=-1.0002 eb=0.0184 ve=0.0000 vn=0.0000 vl=0.000 db=0.28
G1 X-24.00 Y55.00 F1500                 ; move dl=2.50@0<25>0 de=0.0000 h=0.7
;00:01:34.889: pe=-1.0002 eb=0.0000 ve=0.0000 vn=0.0000 vl=0.000 db=0.00
G1 Z0.300 F420                          ; hopdn dz=-0.40@7 h=0.3
;00:01:34.947: pe=-1.0002 eb=0.0000 ve=0.0000 vn=0.0000 vl=0.000 db=0.00
G1 E59.6142 F1800                       ; restore de=1.9920@30
;00:01:35.013: pe=0.9793 eb=0.0124 ve=30.0000 vn=0.6670 vl=0.000 db=0.36
G1 X-24.00 Y53.50 E59.6857 F600         ; draw dl=1.50@0<10>0 l=0.30x0.40x0.96
;00:01:35.183: pe=0.9715 eb=0.0182 ve=0.0000 vn=0.2735 vl=0.000 db=0.43
G1 E57.7142 F2400                       ; retract de=-1.9715@40
;00:01:35.232: pe=-1.0002 eb=0.0184 ve=-40.0000 vn=0.0000 vl=0.000 db=0.43
G1 Z0.700 F420                          ; hopup dz=0.40@7 h=0.7
;00:01:35.289: pe=-1.0002 eb=0.0184 ve=0.0000 vn=0.0000 vl=0.000 db=0.28
G1 X-22.00 Y55.00 F1500                 ; move dl=2.50@0<25>0 de=0.0000 h=0.7
;00:01:35.439: pe=-1.0002 eb=0.0000 ve=0.0000 vn=0.0000 vl=0.000 db=0.00
G1 Z0.300 F420                          ; hopdn dz=-0.40@7 h=0.3
;00:01:35.497: pe=-1.0002 eb=0.0000 ve=0.0000 vn=0.0000 vl=0.000 db=0.00
G1 E59.7062 F1800                       ; restore de=1.9920@30
;00:01:35.563: pe=0.9793 eb=0.0124 ve=30.0000 vn=0.6670 vl=0.000 db=0.36
G1 X-22.00 Y53.50 E59.7778 F600         ; draw dl=1.50@0<10>0 l=0.30x0.40x0.96
;00:01:35.733: pe=0.9715 eb=0.0182 ve=0.0000 vn=0.2735 vl=0.000 db=0.43
G1 E57.8063 F2400                       ; retract de=-1.9715@40
;00:01:35.782: pe=-1.0002 eb=0.0184 ve=-40.0000 vn=0.0000 vl=0.000 db=0.43
G1 Z0.700 F420                          ; hopup dz=0.40@7 h=0.7
;00:01:35.839: pe=-1.0002 eb=0.0184 ve=0.0000 vn=0.0000 vl=0.000 db=0.28
G1 X-20.00 Y55.00 F1500                 ; move dl=2.50@0<25>0 de=0.0000 h=0.7
;00:01:35.989: pe=-1.0002 eb=0.0000 ve=0.0000 vn=0.0000 vl=0.000 db=0.00
G1 Z0.300 F420                          ; hopdn dz=-0.40@7 h=0.3
;00:01:36.047: pe=-1.0002 eb=0.0000 ve=0.0000 vn=0.0000 vl=0.000 db=0.00
G1 E59.8093 F1800                       ; restore de=2.0030@30
;00:01:36.113: pe=0.9901 eb=0.0127 ve=30.0000 vn=0.6744 vl=0.000 db=0.36
G1 X-20.00 Y52.00 E59.9560 F600         ; draw dl=3.00@0<10>0 l=0.30x0.40x0.98
;00:01:36.433: pe=0.9826 eb=0.0186 ve=0.0000 vn=0.2781 vl=0.000 db=0.44
G1 E57.9734 F2400                       ; retract de=-1.9826@40
;00:01:36.483: pe=-1.0002 eb=0.0188 ve=-40.0000 vn=0.0000 vl=0.000 db=0.44
G1 Z0.700 F420                          ; hopup dz=0.40@7 h=0.7
;00:01:36.540: pe=-1.0002 eb=0.0188 ve=0.0000 vn=0.0000 vl=0.000 db=0.29
G1 X-18.00 Y55.00 F1801                 ; move dl=3.61@0<30>0 de=0.0000 h=0.7
;00:01:36.720: pe=-1.0002 eb=0.0000 ve=0.0000 vn=0.0000 vl=0.000 db=0.00
G1 Z0.300 F420                          ; hopdn dz=-0.40@7 h=0.3
;00:01:36.777: pe=-1.0002 eb=0.0000 ve=0.0000 vn=0.0000 vl=0.000 db=0.00
G1 E59.9654 F1800                       ; restore de=1.9920@30
;00:01:36.844: pe=0.9793 eb=0.0124 ve=30.0000 vn=0.6670 vl=0.000 db=0.36
G1 X-18.00 Y53.50 E60.0370 F600         ; draw dl=1.50@0<10>0 l=0.30x0.40x0.96
;00:01:37.014: pe=0.9715 eb=0.0182 ve=0.0000 vn=0.2735 vl=0.000 db=0.43
G1 E58.0654 F2400                       ; retract de=-1.9715@40
;00:01:37.063: pe=-1.0002 eb=0.0184 ve=-40.0000 vn=0.0000 vl=0.000 db=0.43
G1 Z0.700 F420                          ; hopup dz=0.40@7 h=0.7
;00:01:37.120: pe=-1.0002 eb=0.0184 ve=0.0000 vn=0.0000 vl=0.000 db=0.28
G1 X-16.00 Y55.00 F1500                 ; move dl=2.50@0<25>0 de=0.0000 h=0.7
;00:01:37.270: pe=-1.0002 eb=0.0000 ve=0.0000 vn=0.0000 vl=0.000 db=0.00
G1 Z0.300 F420                          ; hopdn dz=-0.40@7 h=0.3
;00:01:37.327: pe=-1.0002 eb=0.0000 ve=0.0000 vn=0.0000 vl=0.000 db=0.00
G1 E60.0574 F1800                       ; restore de=1.9920@30
;00:01:37.394: pe=0.9793 eb=0.0124 ve=30.0000 vn=0.6670 vl=0.000 db=0.36
G1 X-16.00 Y53.50 E60.1290 F600         ; draw dl=1.50@0<10>0 l=0.30x0.40x0.96
;00:01:37.564: pe=0.9715 eb=0.0182 ve=0.0000 vn=0.2735 vl=0.000 db=0.43
G1 E58.1575 F2400                       ; retract de=-1.9715@40
;00:01:37.613: pe=-1.0002 eb=0.0184 ve=-40.0000 vn=0.0000 vl=0.000 db=0.43
G1 Z0.700 F420                          ; hopup dz=0.40@7 h=0.7
;00:01:37.670: pe=-1.0002 eb=0.0184 ve=0.0000 vn=0.0000 vl=0.000 db=0.28
G1 X-14.00 Y55.00 F1500                 ; move dl=2.50@0<25>0 de=0.0000 h=0.7
;00:01:37.820: pe=-1.0002 eb=0.0000 ve=0.0000 vn=0.0000 vl=0.000 db=0.00
G1 Z0.300 F420                          ; hopdn dz=-0.40@7 h=0.3
;00:01:37.877: pe=-1.0002 eb=0.0000 ve=0.0000 vn=0.0000 vl=0.000 db=0.00
G1 E60.1495 F1800                       ; restore de=1.9920@30
;00:01:37.944: pe=0.9793 eb=0.0124 ve=30.0000 vn=0.6670 vl=0.000 db=0.36
G1 X-14.00 Y53.50 E60.2211 F600         ; draw dl=1.50@0<10>0 l=0.30x0.40x0.96
;00:01:38.114: pe=0.9715 eb=0.0182 ve=0.0000 vn=0.2735 vl=0.000 db=0.43
G1 E58.2495 F2400                       ; retract de=-1.9715@40
;00:01:38.163: pe=-1.0002 eb=0.0184 ve=-40.0000 vn=0.0000 vl=0.000 db=0.43
G1 Z0.700 F420                          ; hopup dz=0.40@7 h=0.7
;00:01:38.220: pe=-1.0002 eb=0.0184 ve=0.0000 vn=0.0000 vl=0.000 db=0.28
G1 X-12.00 Y55.00 F1500                 ; move dl=2.50@0<25>0 de=0.0000 h=0.7
;00:01:38.370: pe=-1.0002 eb=0.0000 ve=0.0000 vn=0.0000 vl=0.000 db=0.00
G1 Z0.300 F420                          ; hopdn dz=-0.40@7 h=0.3
;00:01:38.427: pe=-1.0002 eb=0.0000 ve=0.0000 vn=0.0000 vl=0.000 db=0.00
G1 E60.2415 F1800                       ; restore de=1.9920@30
;00:01:38.494: pe=0.9793 eb=0.0124 ve=30.0000 vn=0.6670 vl=0.000 db=0.36
G1 X-12.00 Y53.50 E60.3131 F600         ; draw dl=1.50@0<10>0 l=0.30x0.40x0.96
;00:01:38.664: pe=0.9715 eb=0.0182 ve=0.0000 vn=0.2735 vl=0.000 db=0.43
G1 E58.3416 F2400                       ; retract de=-1.9715@40
;00:01:38.713: pe=-1.0002 eb=0.0184 ve=-40.0000 vn=0.0000 vl=0.000 db=0.43
G1 Z0.700 F420                          ; hopup dz=0.40@7 h=0.7
;00:01:38.770: pe=-1.0002 eb=0.0184 ve=0.0000 vn=0.0000 vl=0.000 db=0.28
G1 X-10.00 Y55.00 F1500                 ; move dl=2.50@0<25>0 de=0.0000 h=0.7
;00:01:38.920: pe=-1.0002 eb=0.0000 ve=0.0000 vn=0.0000 vl=0.000 db=0.00
G1 Z0.300 F420                          ; hopdn dz=-0.40@7 h=0.3
;00:01:38.977: pe=-1.0002 eb=0.0000 ve=0.0000 vn=0.0000 vl=0.000 db=0.00
G1 E60.3446 F1800                       ; restore de=2.0030@30
;00:01:39.044: pe=0.9901 eb=0.0127 ve=30.0000 vn=0.6744 vl=0.000 db=0.36
G1 X-10.00 Y52.00 E60.4913 F600         ; draw dl=3.00@0<10>0 l=0.30x0.40x0.98
;00:01:39.364: pe=0.9826 eb=0.0186 ve=0.0000 vn=0.2781 vl=0.000 db=0.44
G1 E58.5087 F2400                       ; retract de=-1.9826@40
;00:01:39.414: pe=-1.0002 eb=0.0188 ve=-40.0000 vn=0.0000 vl=0.000 db=0.44
G1 Z0.700 F420                          ; hopup dz=0.40@7 h=0.7
;00:01:39.471: pe=-1.0002 eb=0.0188 ve=0.0000 vn=0.0000 vl=0.000 db=0.29
G1 X-8.00 Y55.00 F1801                  ; move dl=3.61@0<30>0 de=0.0000 h=0.7
;00:01:39.651: pe=-1.0002 eb=0.0000 ve=0.0000 vn=0.0000 vl=0.000 db=0.00
G1 Z0.300 F420                          ; hopdn dz=-0.40@7 h=0.3
;00:01:39.708: pe=-1.0002 eb=0.0000 ve=0.0000 vn=0.0000 vl=0.000 db=0.00
G1 E60.5007 F1800                       ; restore de=1.9920@30
;00:01:39.774: pe=0.9793 eb=0.0124 ve=30.0000 vn=0.6670 vl=0.000 db=0.36
G1 X-8.00 Y53.50 E60.5723 F600          ; draw dl=1.50@0<10>0 l=0.30x0.40x0.96
;00:01:39.944: pe=0.9715 eb=0.0182 ve=0.0000 vn=0.2735 vl=0.000 db=0.43
G1 E58.6007 F2400                       ; retract de=-1.9715@40
;00:01:39.994: pe=-1.0002 eb=0.0184 ve=-40.0000 vn=0.0000 vl=0.000 db=0.43
G1 Z0.700 F420                          ; hopup dz=0.40@7 h=0.7
;00:01:40.051: pe=-1.0002 eb=0.0184 ve=0.0000 vn=0.0000 vl=0.000 db=0.28
G1 X-6.00 Y55.00 F1500                  ; move dl=2.50@0<25>0 de=0.0000 h=0.7
;00:01:40.201: pe=-1.0002 eb=0.0000 ve=0.0000 vn=0.0000 vl=0.000 db=0.00
G1 Z0.300 F420                          ; hopdn dz=-0.40@7 h=0.3
;00:01:40.258: pe=-1.0002 eb=0.0000 ve=0.0000 vn=0.0000 vl=0.000 db=0.00
G1 E60.5927 F1800                       ; restore de=1.9920@30
;00:01:40.324: pe=0.9793 eb=0.0124 ve=30.0000 vn=0.6670 vl=0.000 db=0.36
G1 X-6.00 Y53.50 E60.6643 F600          ; draw dl=1.50@0<10>0 l=0.30x0.40x0.96
;00:01:40.494: pe=0.9715 eb=0.0182 ve=0.0000 vn=0.2735 vl=0.000 db=0.43
G1 E58.6928 F2400                       ; retract de=-1.9715@40
;00:01:40.544: pe=-1.0002 eb=0.0184 ve=-40.0000 vn=0.0000 vl=0.000 db=0.43
G1 Z0.700 F420                          ; hopup dz=0.40@7 h=0.7
;00:01:40.601: pe=-1.0002 eb=0.0184 ve=0.0000 vn=0.0000 vl=0.000 db=0.28
G1 X-4.00 Y55.00 F1500                  ; move dl=2.50@0<25>0 de=0.0000 h=0.7
;00:01:40.751: pe=-1.0002 eb=0.0000 ve=0.0000 vn=0.0000 vl=0.000 db=0.00
G1 Z0.300 F420                          ; hopdn dz=-0.40@7 h=0.3
;00:01:40.808: pe=-1.0002 eb=0.0000 ve=0.0000 vn=0.0000 vl=0.000 db=0.00
G1 E60.6848 F1800                       ; restore de=1.9920@30
;00:01:40.874: pe=0.9793 eb=0.0124 ve=30.0000 vn=0.6670 vl=0.000 db=0.36
G1 X-4.00 Y53.50 E60.7564 F600          ; draw dl=1.50@0<10>0 l=0.30x0.40x0.96
;00:01:41.044: pe=0.9715 eb=0.0182 ve=0.0000 vn=0.2735 vl=0.000 db=0.43
G1 E58.7848 F2400                       ; retract de=-1.9715@40
;00:01:41.094: pe=-1.0002 eb=0.0184 ve=-40.0000 vn=0.0000 vl=0.000 db=0.43
G1 Z0.700 F420                          ; hopup dz=0.40@7 h=0.7
;00:01:41.151: pe=-1.0002 eb=0.0184 ve=0.0000 vn=0.0000 vl=0.000 db=0.28
G1 X-2.00 Y55.00 F1500                  ; move dl=2.50@0<25>0 de=0.0000 h=0.7
;00:01:41.301: pe=-1.0002 eb=0.0000 ve=0.0000 vn=0.0000 vl=0.000 db=0.00
G1 Z0.300 F420                          ; hopdn dz=-0.40@7 h=0.3
;00:01:41.358: pe=-1.0002 eb=0.0000 ve=0.0000 vn=0.0000 vl=0.000 db=0.00
G1 E60.7768 F1800                       ; restore de=1.9920@30
;00:01:41.424: pe=0.9793 eb=0.0124 ve=30.0000 vn=0.6670 vl=0.000 db=0.36
G1 X-2.00 Y53.50 E60.8484 F600          ; draw dl=1.50@0<10>0 l=0.30x0.40x0.96
;00:01:41.594: pe=0.9715 eb=0.0182 ve=0.0000 vn=0.2735 vl=0.000 db=0.43
G1 E58.8769 F2400                       ; retract de=-1.9715@40
;00:01:41.644: pe=-1.0002 eb=0.0184 ve=-40.0000 vn=0.0000 vl=0.000 db=0.43
G1 Z0.700 F420                          ; hopup dz=0.40@7 h=0.7
;00:01:41.701: pe=-1.0002 eb=0.0184 ve=0.0000 vn=0.0000 vl=0.000 db=0.28
G1 X0.00 Y55.00 F1500                   ; move dl=2.50@0<25>0 de=0.0000 h=0.7
;00:01:41.851: pe=-1.0002 eb=0.0000 ve=0.0000 vn=0.0000 vl=0.000 db=0.00
G1 Z0.300 F420                          ; hopdn dz=-0.40@7 h=0.3
;00:01:41.908: pe=-1.0002 eb=0.0000 ve=0.0000 vn=0.0000 vl=0.000 db=0.00
G1 E60.8799 F1800                       ; restore de=2.0030@30
;00:01:41.975: pe=0.9901 eb=0.0127 ve=30.0000 vn=0.6744 vl=0.000 db=0.36
G1 X0.00 Y52.00 E61.0266 F600           ; draw dl=3.00@0<10>0 l=0.30x0.40x0.98
;00:01:42.295: pe=0.9826 eb=0.0186 ve=0.0000 vn=0.2781 vl=0.000 db=0.44
G1 E59.0440 F2400                       ; retract de=-1.9826@40
;00:01:42.344: pe=-1.0002 eb=0.0188 ve=-40.0000 vn=0.0000 vl=0.000 db=0.44
G1 Z0.700 F420                          ; hopup dz=0.40@7 h=0.7
;00:01:42.401: pe=-1.0002 eb=0.0188 ve=0.0000 vn=0.0000 vl=0.000 db=0.29
G1 X2.00 Y55.00 F1801                   ; move dl=3.61@0<30>0 de=0.0000 h=0.7
;00:01:42.581: pe=-1.0002 eb=0.0000 ve=0.0000 vn=0.0000 vl=0.000 db=0.00
G1 Z0.300 F420                          ; hopdn dz=-0.40@7 h=0.3
;00:01:42.639: pe=-1.0002 eb=0.0000 ve=0.0000 vn=0.0000 vl=0.000 db=0.00
G1 E61.0360 F1800                       ; restore de=1.9920@30
;00:01:42.705: pe=0.9793 eb=0.0124 ve=30.0000 vn=0.6670 vl=0.000 db=0.36
G1 X2.00 Y53.50 E61.1076 F600           ; draw dl=1.50@0<10>0 l=0.30x0.40x0.96
;00:01:42.875: pe=0.9715 eb=0.0182 ve=0.0000 vn=0.2735 vl=0.000 db=0.43
G1 E59.1361 F2400                       ; retract de=-1.9715@40
;00:01:42.924: pe=-1.0002 eb=0.0184 ve=-40.0000 vn=0.0000 vl=0.000 db=0.43
G1 Z0.700 F420                          ; hopup dz=0.40@7 h=0.7
;00:01:42.981: pe=-1.0002 eb=0.0184 ve=0.0000 vn=0.0000 vl=0.000 db=0.28
G1 X4.00 Y55.00 F1500                   ; move dl=2.50@0<25>0 de=0.0000 h=0.7
;00:01:43.131: pe=-1.0002 eb=0.0000 ve=0.0000 vn=0.0000 vl=0.000 db=0.00
G1 Z0.300 F420                          ; hopdn dz=-0.40@7 h=0.3
;00:01:43.189: pe=-1.0002 eb=0.0000 ve=0.0000 vn=0.0000 vl=0.000 db=0.00
G1 E61.1280 F1800                       ; restore de=1.9920@30
;00:01:43.255: pe=0.9793 eb=0.0124 ve=30.0000 vn=0.6670 vl=0.000 db=0.36
G1 X4.00 Y53.50 E61.1996 F600           ; draw dl=1.50@0<10>0 l=0.30x0.40x0.96
;00:01:43.425: pe=0.9715 eb=0.0182 ve=0.0000 vn=0.2735 vl=0.000 db=0.43
G1 E59.2281 F2400                       ; retract de=-1.9715@40
;00:01:43.474: pe=-1.0002 eb=0.0184 ve=-40.0000 vn=0.0000 vl=0.000 db=0.43
G1 Z0.700 F420                          ; hopup dz=0.40@7 h=0.7
;00:01:43.531: pe=-1.0002 eb=0.0184 ve=0.0000 vn=0.0000 vl=0.000 db=0.28
G1 X6.00 Y55.00 F1500                   ; move dl=2.50@0<25>0 de=0.0000 h=0.7
;00:01:43.681: pe=-1.0002 eb=0.0000 ve=0.0000 vn=0.0000 vl=0.000 db=0.00
G1 Z0.300 F420                          ; hopdn dz=-0.40@7 h=0.3
;00:01:43.739: pe=-1.0002 eb=0.0000 ve=0.0000 vn=0.0000 vl=0.000 db=0.00
G1 E61.2201 F1800                       ; restore de=1.9920@30
;00:01:43.805: pe=0.9793 eb=0.0124 ve=30.0000 vn=0.6670 vl=0.000 db=0.36
G1 X6.00 Y53.50 E61.2917 F600           ; draw dl=1.50@0<10>0 l=0.30x0.40x0.96
;00:01:43.975: pe=0.9715 eb=0.0182 ve=0.0000 vn=0.2735 vl=0.000 db=0.43
G1 E59.3202 F2400                       ; retract de=-1.9715@40
;00:01:44.024: pe=-1.0002 eb=0.0184 ve=-40.0000 vn=0.0000 vl=0.000 db=0.43
G1 Z0.700 F420                          ; hopup dz=0.40@7 h=0.7
;00:01:44.081: pe=-1.0002 eb=0.0184 ve=0.0000 vn=0.0000 vl=0.000 db=0.28
G1 X8.00 Y55.00 F1500                   ; move dl=2.50@0<25>0 de=0.0000 h=0.7
;00:01:44.231: pe=-1.0002 eb=0.0000 ve=0.0000 vn=0.0000 vl=0.000 db=0.00
G1 Z0.300 F420                          ; hopdn dz=-0.40@7 h=0.3
;00:01:44.289: pe=-1.0002 eb=0.0000 ve=0.0000 vn=0.0000 vl=0.000 db=0.00
G1 E61.3121 F1800                       ; restore de=1.9920@30
;00:01:44.355: pe=0.9793 eb=0.0124 ve=30.0000 vn=0.6670 vl=0.000 db=0.36
G1 X8.00 Y53.50 E61.3837 F600           ; draw dl=1.50@0<10>0 l=0.30x0.40x0.96
;00:01:44.525: pe=0.9715 eb=0.0182 ve=0.0000 vn=0.2735 vl=0.000 db=0.43
G1 E59.4122 F2400                       ; retract de=-1.9715@40
;00:01:44.574: pe=-1.0002 eb=0.0184 ve=-40.0000 vn=0.0000 vl=0.000 db=0.43
G1 Z0.700 F420                          ; hopup dz=0.40@7 h=0.7
;00:01:44.631: pe=-1.0002 eb=0.0184 ve=0.0000 vn=0.0000 vl=0.000 db=0.28
G1 X10.00 Y55.00 F1500                  ; move dl=2.50@0<25>0 de=0.0000 h=0.7
;00:01:44.781: pe=-1.0002 eb=0.0000 ve=0.0000 vn=0.0000 vl=0.000 db=0.00
G1 Z0.300 F420                          ; hopdn dz=-0.40@7 h=0.3
;00:01:44.838: pe=-1.0002 eb=0.0000 ve=0.0000 vn=0.0000 vl=0.000 db=0.00
G1 E61.4152 F1800                       ; restore de=2.0030@30
;00:01:44.905: pe=0.9901 eb=0.0127 ve=30.0000 vn=0.6744 vl=0.000 db=0.36
G1 X10.00 Y52.00 E61.5619 F600          ; draw dl=3.00@0<10>0 l=0.30x0.40x0.98
;00:01:45.225: pe=0.9826 eb=0.0186 ve=0.0000 vn=0.2781 vl=0.000 db=0.44
G1 E59.5793 F2400                       ; retract de=-1.9826@40
;00:01:45.275: pe=-1.0002 eb=0.0188 ve=-40.0000 vn=0.0000 vl=0.000 db=0.44
G1 Z0.700 F420                          ; hopup dz=0.40@7 h=0.7
;00:01:45.332: pe=-1.0002 eb=0.0188 ve=0.0000 vn=0.0000 vl=0.000 db=0.29
G1 X12.00 Y55.00 F1801                  ; move dl=3.61@0<30>0 de=0.0000 h=0.7
;00:01:45.512: pe=-1.0002 eb=0.0000 ve=0.0000 vn=0.0000 vl=0.000 db=0.00
G1 Z0.300 F420                          ; hopdn dz=-0.40@7 h=0.3
;00:01:45.569: pe=-1.0002 eb=0.0000 ve=0.0000 vn=0.0000 vl=0.000 db=0.00
G1 E61.5713 F1800                       ; restore de=1.9920@30
;00:01:45.636: pe=0.9793 eb=0.0124 ve=30.0000 vn=0.6670 vl=0.000 db=0.36
G1 X12.00 Y53.50 E61.6429 F600          ; draw dl=1.50@0<10>0 l=0.30x0.40x0.96
;00:01:45.806: pe=0.9715 eb=0.0182 ve=0.0000 vn=0.2735 vl=0.000 db=0.43
G1 E59.6714 F2400                       ; retract de=-1.9715@40
;00:01:45.855: pe=-1.0002 eb=0.0184 ve=-40.0000 vn=0.0000 vl=0.000 db=0.43
G1 Z0.700 F420                          ; hopup dz=0.40@7 h=0.7
;00:01:45.912: pe=-1.0002 eb=0.0184 ve=0.0000 vn=0.0000 vl=0.000 db=0.28
G1 X14.00 Y55.00 F1500                  ; move dl=2.50@0<25>0 de=0.0000 h=0.7
;00:01:46.062: pe=-1.0002 eb=0.0000 ve=0.0000 vn=0.0000 vl=0.000 db=0.00
G1 Z0.300 F420                          ; hopdn dz=-0.40@7 h=0.3
;00:01:46.119: pe=-1.0002 eb=0.0000 ve=0.0000 vn=0.0000 vl=0.000 db=0.00
G1 E61.6634 F1800                       ; restore de=1.9920@30
;00:01:46.186: pe=0.9793 eb=0.0124 ve=30.0000 vn=0.6670 vl=0.000 db=0.36
G1 X14.00 Y53.50 E61.7350 F600          ; draw dl=1.50@0<10>0 l=0.30x0.40x0.96
;00:01:46.356: pe=0.9715 eb=0.0182 ve=0.0000 vn=0.2735 vl=0.000 db=0.43
G1 E59.7634 F2400                       ; retract de=-1.9715@40
;00:01:46.405: pe=-1.0002 eb=0.0184 ve=-40.0000 vn=0.0000 vl=0.000 db=0.43
G1 Z0.700 F420                          ; hopup dz=0.40@7 h=0.7
;00:01:46.462: pe=-1.0002 eb=0.0184 ve=0.0000 vn=0.0000 vl=0.000 db=0.28
G1 X16.00 Y55.00 F1500                  ; move dl=2.50@0<25>0 de=0.0000 h=0.7
;00:01:46.612: pe=-1.0002 eb=0.0000 ve=0.0000 vn=0.0000 vl=0.000 db=0.00
G1 Z0.300 F420                          ; hopdn dz=-0.40@7 h=0.3
;00:01:46.669: pe=-1.0002 eb=0.0000 ve=0.0000 vn=0.0000 vl=0.000 db=0.00
G1 E61.7554 F1800                       ; restore de=1.9920@30
;00:01:46.736: pe=0.9793 eb=0.0124 ve=30.0000 vn=0.6670 vl=0.000 db=0.36
G1 X16.00 Y53.50 E61.8270 F600          ; draw dl=1.50@0<10>0 l=0.30x0.40x0.96
;00:01:46.906: pe=0.9715 eb=0.0182 ve=0.0000 vn=0.2735 vl=0.000 db=0.43
G1 E59.8555 F2400                       ; retract de=-1.9715@40
;00:01:46.955: pe=-1.0002 eb=0.0184 ve=-40.0000 vn=0.0000 vl=0.000 db=0.43
G1 Z0.700 F420                          ; hopup dz=0.40@7 h=0.7
;00:01:47.012: pe=-1.0002 eb=0.0184 ve=0.0000 vn=0.0000 vl=0.000 db=0.28
G1 X18.00 Y55.00 F1500                  ; move dl=2.50@0<25>0 de=0.0000 h=0.7
;00:01:47.162: pe=-1.0002 eb=0.0000 ve=0.0000 vn=0.0000 vl=0.000 db=0.00
G1 Z0.300 F420                          ; hopdn dz=-0.40@7 h=0.3
;00:01:47.219: pe=-1.0002 eb=0.0000 ve=0.0000 vn=0.0000 vl=0.000 db=0.00
G1 E61.8475 F1800                       ; restore de=1.9920@30
;00:01:47.286: pe=0.9793 eb=0.0124 ve=30.0000 vn=0.6670 vl=0.000 db=0.36
G1 X18.00 Y53.50 E61.9191 F600          ; draw dl=1.50@0<10>0 l=0.30x0.40x0.96
;00:01:47.456: pe=0.9715 eb=0.0182 ve=0.0000 vn=0.2735 vl=0.000 db=0.43
G1 E59.9475 F2400                       ; retract de=-1.9715@40
;00:01:47.505: pe=-1.0002 eb=0.0184 ve=-40.0000 vn=0.0000 vl=0.000 db=0.43
G1 Z0.700 F420                          ; hopup dz=0.40@7 h=0.7
;00:01:47.562: pe=-1.0002 eb=0.0184 ve=0.0000 vn=0.0000 vl=0.000 db=0.28
G1 X20.00 Y55.00 F1500                  ; move dl=2.50@0<25>0 de=0.0000 h=0.7
;00:01:47.712: pe=-1.0002 eb=0.0000 ve=0.0000 vn=0.0000 vl=0.000 db=0.00
G1 Z0.300 F420                          ; hopdn dz=-0.40@7 h=0.3
;00:01:47.769: pe=-1.0002 eb=0.0000 ve=0.0000 vn=0.0000 vl=0.000 db=0.00
G1 E61.9505 F1800                       ; restore de=2.0030@30
;00:01:47.836: pe=0.9901 eb=0.0127 ve=30.0000 vn=0.6744 vl=0.000 db=0.36
G1 X20.00 Y52.00 E62.0972 F600          ; draw dl=3.00@0<10>0 l=0.30x0.40x0.98
;00:01:48.156: pe=0.9826 eb=0.0186 ve=0.0000 vn=0.2781 vl=0.000 db=0.44
G1 E60.1146 F2400                       ; retract de=-1.9826@40
;00:01:48.205: pe=-1.0002 eb=0.0188 ve=-40.0000 vn=0.0000 vl=0.000 db=0.44
G1 Z0.700 F420                          ; hopup dz=0.40@7 h=0.7
;00:01:48.263: pe=-1.0002 eb=0.0188 ve=0.0000 vn=0.0000 vl=0.000 db=0.29
G1 X22.00 Y55.00 F1801                  ; move dl=3.61@0<30>0 de=0.0000 h=0.7
;00:01:48.443: pe=-1.0002 eb=0.0000 ve=0.0000 vn=0.0000 vl=0.000 db=0.00
G1 Z0.300 F420                          ; hopdn dz=-0.40@7 h=0.3
;00:01:48.500: pe=-1.0002 eb=0.0000 ve=0.0000 vn=0.0000 vl=0.000 db=0.00
G1 E62.1066 F1800                       ; restore de=1.9920@30
;00:01:48.566: pe=0.9793 eb=0.0124 ve=30.0000 vn=0.6670 vl=0.000 db=0.36
G1 X22.00 Y53.50 E62.1782 F600          ; draw dl=1.50@0<10>0 l=0.30x0.40x0.96
;00:01:48.736: pe=0.9715 eb=0.0182 ve=0.0000 vn=0.2735 vl=0.000 db=0.43
G1 E60.2067 F2400                       ; retract de=-1.9715@40
;00:01:48.786: pe=-1.0002 eb=0.0184 ve=-40.0000 vn=0.0000 vl=0.000 db=0.43
G1 Z0.700 F420                          ; hopup dz=0.40@7 h=0.7
;00:01:48.843: pe=-1.0002 eb=0.0184 ve=0.0000 vn=0.0000 vl=0.000 db=0.28
G1 X24.00 Y55.00 F1500                  ; move dl=2.50@0<25>0 de=0.0000 h=0.7
;00:01:48.993: pe=-1.0002 eb=0.0000 ve=0.0000 vn=0.0000 vl=0.000 db=0.00
G1 Z0.300 F420                          ; hopdn dz=-0.40@7 h=0.3
;00:01:49.050: pe=-1.0002 eb=0.0000 ve=0.0000 vn=0.0000 vl=0.000 db=0.00
G1 E62.1987 F1800                       ; restore de=1.9920@30
;00:01:49.116: pe=0.9793 eb=0.0124 ve=30.0000 vn=0.6670 vl=0.000 db=0.36
G1 X24.00 Y53.50 E62.2703 F600          ; draw dl=1.50@0<10>0 l=0.30x0.40x0.96
;00:01:49.286: pe=0.9715 eb=0.0182 ve=0.0000 vn=0.2735 vl=0.000 db=0.43
G1 E60.2987 F2400                       ; retract de=-1.9715@40
;00:01:49.336: pe=-1.0002 eb=0.0184 ve=-40.0000 vn=0.0000 vl=0.000 db=0.43
G1 Z0.700 F420                          ; hopup dz=0.40@7 h=0.7
;00:01:49.393: pe=-1.0002 eb=0.0184 ve=0.0000 vn=0.0000 vl=0.000 db=0.28
G1 X26.00 Y55.00 F1500                  ; move dl=2.50@0<25>0 de=0.0000 h=0.7
;00:01:49.543: pe=-1.0002 eb=0.0000 ve=0.0000 vn=0.0000 vl=0.000 db=0.00
G1 Z0.300 F420                          ; hopdn dz=-0.40@7 h=0.3
;00:01:49.600: pe=-1.0002 eb=0.0000 ve=0.0000 vn=0.0000 vl=0.000 db=0.00
G1 E62.2907 F1800                       ; restore de=1.9920@30
;00:01:49.666: pe=0.9793 eb=0.0124 ve=30.0000 vn=0.6670 vl=0.000 db=0.36
G1 X26.00 Y53.50 E62.3623 F600          ; draw dl=1.50@0<10>0 l=0.30x0.40x0.96
;00:01:49.836: pe=0.9715 eb=0.0182 ve=0.0000 vn=0.2735 vl=0.000 db=0.43
G1 E60.3908 F2400                       ; retract de=-1.9715@40
;00:01:49.886: pe=-1.0002 eb=0.0184 ve=-40.0000 vn=0.0000 vl=0.000 db=0.43
G1 Z0.700 F420                          ; hopup dz=0.40@7 h=0.7
;00:01:49.943: pe=-1.0002 eb=0.0184 ve=0.0000 vn=0.0000 vl=0.000 db=0.28
G1 X28.00 Y55.00 F1500                  ; move dl=2.50@0<25>0 de=0.0000 h=0.7
;00:01:50.093: pe=-1.0002 eb=0.0000 ve=0.0000 vn=0.0000 vl=0.000 db=0.00
G1 Z0.300 F420                          ; hopdn dz=-0.40@7 h=0.3
;00:01:50.150: pe=-1.0002 eb=0.0000 ve=0.0000 vn=0.0000 vl=0.000 db=0.00
G1 E62.3828 F1800                       ; restore de=1.9920@30
;00:01:50.216: pe=0.9793 eb=0.0124 ve=30.0000 vn=0.6670 vl=0.000 db=0.36
G1 X28.00 Y53.50 E62.4544 F600          ; draw dl=1.50@0<10>0 l=0.30x0.40x0.96
;00:01:50.386: pe=0.9715 eb=0.0182 ve=0.0000 vn=0.2735 vl=0.000 db=0.43
G1 E60.4828 F2400                       ; retract de=-1.9715@40
;00:01:50.435: pe=-1.0002 eb=0.0184 ve=-40.0000 vn=0.0000 vl=0.000 db=0.43
G1 Z0.700 F420                          ; hopup dz=0.40@7 h=0.7
;00:01:50.493: pe=-1.0002 eb=0.0184 ve=0.0000 vn=0.0000 vl=0.000 db=0.28
G1 X30.00 Y55.00 F1500                  ; move dl=2.50@0<25>0 de=0.0000 h=0.7
;00:01:50.643: pe=-1.0002 eb=0.0000 ve=0.0000 vn=0.0000 vl=0.000 db=0.00
G1 Z0.300 F420                          ; hopdn dz=-0.40@7 h=0.3
;00:01:50.700: pe=-1.0002 eb=0.0000 ve=0.0000 vn=0.0000 vl=0.000 db=0.00
G1 E62.4858 F1800                       ; restore de=2.0030@30
;00:01:50.767: pe=0.9901 eb=0.0127 ve=30.0000 vn=0.6744 vl=0.000 db=0.36
G1 X30.00 Y52.00 E62.6325 F600          ; draw dl=3.00@0<10>0 l=0.30x0.40x0.98
;00:01:51.087: pe=0.9826 eb=0.0186 ve=0.0000 vn=0.2781 vl=0.000 db=0.44
G1 E60.6499 F2400                       ; retract de=-1.9826@40
;00:01:51.136: pe=-1.0002 eb=0.0188 ve=-40.0000 vn=0.0000 vl=0.000 db=0.44
G1 Z0.700 F420                          ; hopup dz=0.40@7 h=0.7
;00:01:51.193: pe=-1.0002 eb=0.0188 ve=0.0000 vn=0.0000 vl=0.000 db=0.29
G1 X32.00 Y55.00 F1801                  ; move dl=3.61@0<30>0 de=0.0000 h=0.7
;00:01:51.373: pe=-1.0002 eb=0.0000 ve=0.0000 vn=0.0000 vl=0.000 db=0.00
G1 Z0.300 F420                          ; hopdn dz=-0.40@7 h=0.3
;00:01:51.431: pe=-1.0002 eb=0.0000 ve=0.0000 vn=0.0000 vl=0.000 db=0.00
G1 E62.6419 F1800                       ; restore de=1.9920@30
;00:01:51.497: pe=0.9793 eb=0.0124 ve=30.0000 vn=0.6670 vl=0.000 db=0.36
G1 X32.00 Y53.50 E62.7135 F600          ; draw dl=1.50@0<10>0 l=0.30x0.40x0.96
;00:01:51.667: pe=0.9715 eb=0.0182 ve=0.0000 vn=0.2735 vl=0.000 db=0.43
G1 E60.7420 F2400                       ; retract de=-1.9715@40
;00:01:51.716: pe=-1.0002 eb=0.0184 ve=-40.0000 vn=0.0000 vl=0.000 db=0.43
G1 Z0.700 F420                          ; hopup dz=0.40@7 h=0.7
;00:01:51.773: pe=-1.0002 eb=0.0184 ve=0.0000 vn=0.0000 vl=0.000 db=0.28
G1 X34.00 Y55.00 F1500                  ; move dl=2.50@0<25>0 de=0.0000 h=0.7
;00:01:51.923: pe=-1.0002 eb=0.0000 ve=0.0000 vn=0.0000 vl=0.000 db=0.00
G1 Z0.300 F420                          ; hopdn dz=-0.40@7 h=0.3
;00:01:51.981: pe=-1.0002 eb=0.0000 ve=0.0000 vn=0.0000 vl=0.000 db=0.00
G1 E62.7340 F1800                       ; restore de=1.9920@30
;00:01:52.047: pe=0.9793 eb=0.0124 ve=30.0000 vn=0.6670 vl=0.000 db=0.36
G1 X34.00 Y53.50 E62.8056 F600          ; draw dl=1.50@0<10>0 l=0.30x0.40x0.96
;00:01:52.217: pe=0.9715 eb=0.0182 ve=0.0000 vn=0.2735 vl=0.000 db=0.43
G1 E60.8341 F2400                       ; retract de=-1.9715@40
;00:01:52.266: pe=-1.0002 eb=0.0184 ve=-40.0000 vn=0.0000 vl=0.000 db=0.43
G1 Z0.700 F420                          ; hopup dz=0.40@7 h=0.7
;00:01:52.323: pe=-1.0002 eb=0.0184 ve=0.0000 vn=0.0000 vl=0.000 db=0.28
G1 X36.00 Y55.00 F1500                  ; move dl=2.50@0<25>0 de=0.0000 h=0.7
;00:01:52.473: pe=-1.0002 eb=0.0000 ve=0.0000 vn=0.0000 vl=0.000 db=0.00
G1 Z0.300 F420                          ; hopdn dz=-0.40@7 h=0.3
;00:01:52.530: pe=-1.0002 eb=0.0000 ve=0.0000 vn=0.0000 vl=0.000 db=0.00
G1 E62.8260 F1800                       ; restore de=1.9920@30
;00:01:52.597: pe=0.9793 eb=0.0124 ve=30.0000 vn=0.6670 vl=0.000 db=0.36
G1 X36.00 Y53.50 E62.8976 F600          ; draw dl=1.50@0<10>0 l=0.30x0.40x0.96
;00:01:52.767: pe=0.9715 eb=0.0182 ve=0.0000 vn=0.2735 vl=0.000 db=0.43
G1 E60.9261 F2400                       ; retract de=-1.9715@40
;00:01:52.816: pe=-1.0002 eb=0.0184 ve=-40.0000 vn=0.0000 vl=0.000 db=0.43
G1 Z0.700 F420                          ; hopup dz=0.40@7 h=0.7
;00:01:52.873: pe=-1.0002 eb=0.0184 ve=0.0000 vn=0.0000 vl=0.000 db=0.28
G1 X38.00 Y55.00 F1500                  ; move dl=2.50@0<25>0 de=0.0000 h=0.7
;00:01:53.023: pe=-1.0002 eb=0.0000 ve=0.0000 vn=0.0000 vl=0.000 db=0.00
G1 Z0.300 F420                          ; hopdn dz=-0.40@7 h=0.3
;00:01:53.080: pe=-1.0002 eb=0.0000 ve=0.0000 vn=0.0000 vl=0.000 db=0.00
G1 E62.9181 F1800                       ; restore de=1.9920@30
;00:01:53.147: pe=0.9793 eb=0.0124 ve=30.0000 vn=0.6670 vl=0.000 db=0.36
G1 X38.00 Y53.50 E62.9897 F600          ; draw dl=1.50@0<10>0 l=0.30x0.40x0.96
;00:01:53.317: pe=0.9715 eb=0.0182 ve=0.0000 vn=0.2735 vl=0.000 db=0.43
G1 E61.0181 F2400                       ; retract de=-1.9715@40
;00:01:53.366: pe=-1.0002 eb=0.0184 ve=-40.0000 vn=0.0000 vl=0.000 db=0.43
G1 Z0.700 F420                          ; hopup dz=0.40@7 h=0.7
;00:01:53.423: pe=-1.0002 eb=0.0184 ve=0.0000 vn=0.0000 vl=0.000 db=0.28
G1 X40.00 Y55.00 F1500                  ; move dl=2.50@0<25>0 de=0.0000 h=0.7
;00:01:53.573: pe=-1.0002 eb=0.0000 ve=0.0000 vn=0.0000 vl=0.000 db=0.00
G1 Z0.300 F420                          ; hopdn dz=-0.40@7 h=0.3
;00:01:53.630: pe=-1.0002 eb=0.0000 ve=0.0000 vn=0.0000 vl=0.000 db=0.00
G1 E63.0211 F1800                       ; restore de=2.0030@30
;00:01:53.697: pe=0.9901 eb=0.0127 ve=30.0000 vn=0.6744 vl=0.000 db=0.36
G1 X40.00 Y52.00 E63.1678 F600          ; draw dl=3.00@0<10>0 l=0.30x0.40x0.98
;00:01:54.017: pe=0.9826 eb=0.0186 ve=0.0000 vn=0.2781 vl=0.000 db=0.44
G1 E61.1853 F2400                       ; retract de=-1.9826@40
;00:01:54.067: pe=-1.0002 eb=0.0188 ve=-40.0000 vn=0.0000 vl=0.000 db=0.44
G1 Z0.700 F420                          ; hopup dz=0.40@7 h=0.7
;00:01:54.124: pe=-1.0002 eb=0.0188 ve=0.0000 vn=0.0000 vl=0.000 db=0.29
;structure:infill-solid
;00:01:54.124: Test Line Retract vx=20 vr=20 re=8.0
G1 X-45.00 Y51.00 F6000                 ; move dl=85.01@0<100>0 de=0.0000 h=0.7
;00:01:55.174: pe=-1.0002 eb=0.0000 ve=0.0000 vn=0.0000 vl=0.000 db=0.00
G1 Z0.300 F420                          ; hopdn dz=-0.40@7 h=0.3
;00:01:55.231: pe=-1.0002 eb=0.0000 ve=0.0000 vn=0.0000 vl=0.000 db=0.00
G1 E63.1005 F1800                       ; restore de=1.9152@30
;00:01:55.295: pe=0.9043 eb=0.0106 ve=30.0000 vn=0.6126 vl=0.000 db=0.33
G1 X-40.00 Y51.00 E63.3449 F300         ; draw dl=5.00@0<5>5 l=0.30x0.40x0.98
;00:01:56.300: pe=0.8953 eb=0.0155 ve=0.2444 vn=0.2481 vl=5.000 db=0.40
G1 X0.00 Y51.00 E65.6420 F1200          ; draw dl=40.00@5<20>20 l=0.30x0.40x1.15
;00:01:58.311: pe=1.2865 eb=0.0180 ve=1.1486 vn=1.0719 vl=20.000 db=0.43
G1 X20.00 Y51.00 E57.6420               ; move dl=20.00@20<20>20 de=-8.0000 h=0.3
;00:01:59.311: pe=-6.7810 eb=0.0000 ve=-8.0000 vn=0.0000 vl=20.000 db=0.00
G1 X40.00 Y51.00                        ; move dl=20.00@20<20>0 de=0.0000 h=0.3
;00:02:00.331: pe=-6.7810 eb=0.0000 ve=0.0000 vn=0.0000 vl=0.000 db=0.00
G1 E65.3375 F1800                       ; restore de=7.6954@30
;00:02:00.588: pe=0.9038 eb=0.0106 ve=30.0000 vn=0.6128 vl=0.000 db=0.33
G1 X45.00 Y51.00 E65.5819 F300          ; draw dl=5.00@0<5>0 l=0.30x0.40x0.98
;00:02:01.598: pe=0.8939 eb=0.0165 ve=0.0000 vn=0.1806 vl=0.000 db=0.41
G1 E63.6880 F2400                       ; retract de=-1.8939@40
;00:02:01.645: pe=-1.0001 eb=0.0166 ve=-40.0000 vn=0.0000 vl=0.000 db=0.41
G1 Z0.700 F420                          ; hopup dz=0.40@7 h=0.7
;00:02:01.702: pe=-1.0001 eb=0.0166 ve=0.0000 vn=0.0000 vl=0.000 db=0.27
;00:02:01.702: Test Line Retract vx=28.0 vr=28.0 re=8.0
G1 X-45.00 Y49.00 F6000                 ; move dl=90.02@0<100>0 de=0.0000 h=0.7
;00:02:02.802: pe=-1.0001 eb=0.0000 ve=0.0000 vn=0.0000 vl=0.000 db=0.00
G1 Z0.300 F420                          ; hopdn dz=-0.40@7 h=0.3
;00:02:02.860: pe=-1.0001 eb=0.0000 ve=0.0000 vn=0.0000 vl=0.000 db=0.00
G1 E65.6030 F1800                       ; restore de=1.9150@30
;00:02:02.923: pe=0.9043 eb=0.0106 ve=30.0000 vn=0.6126 vl=0.000 db=0.33
G1 X-40.00 Y49.00 E65.8474 F300         ; draw dl=5.00@0<5>5 l=0.30x0.40x0.98
;00:02:03.928: pe=0.8953 eb=0.0155 ve=0.2444 vn=0.2481 vl=5.000 db=0.40
G1 X0.00 Y49.00 E68.2992 F1680          ; draw dl=40.00@5<28>28 l=0.30x0.40x1.23
;00:02:05.376: pe=1.4882 eb=0.0188 ve=1.7162 vn=1.5325 vl=28.000 db=0.44
G1 X20.00 Y49.00 E60.2992               ; move dl=20.00@28<28>28 de=-8.0000 h=0.3
;00:02:06.090: pe=-6.5941 eb=0.0000 ve=-11.2000 vn=0.0000 vl=28.000 db=0.00
G1 X40.00 Y49.00                        ; move dl=20.00@28<28>0 de=0.0000 h=0.3
;00:02:06.832: pe=-6.5941 eb=0.0000 ve=0.0000 vn=0.0000 vl=0.000 db=0.00
G1 E67.8078 F1800                       ; restore de=7.5086@30
;00:02:07.083: pe=0.9038 eb=0.0106 ve=30.0000 vn=0.6126 vl=0.000 db=0.33
G1 X45.00 Y49.00 E68.0522 F300          ; draw dl=5.00@0<5>0 l=0.30x0.40x0.98
;00:02:08.093: pe=0.8939 eb=0.0165 ve=0.0000 vn=0.1806 vl=0.000 db=0.41
G1 E66.1583 F2400                       ; retract de=-1.8939@40
;00:02:08.140: pe=-1.0001 eb=0.0166 ve=-40.0000 vn=0.0000 vl=0.000 db=0.41
G1 Z0.700 F420                          ; hopup dz=0.40@7 h=0.7
;00:02:08.197: pe=-1.0001 eb=0.0166 ve=0.0000 vn=0.0000 vl=0.000 db=0.27
;00:02:08.197: Test Line Retract vx=36.0 vr=36.0 re=8.0
G1 X-45.00 Y47.00 F6000                 ; move dl=90.02@0<100>0 de=0.0000 h=0.7
;00:02:09.297: pe=-1.0001 eb=0.0000 ve=0.0000 vn=0.0000 vl=0.000 db=0.00
G1 Z0.300 F420                          ; hopdn dz=-0.40@7 h=0.3
;00:02:09.355: pe=-1.0001 eb=0.0000 ve=0.0000 vn=0.0000 vl=0.000 db=0.00
G1 E68.0733 F1800                       ; restore de=1.9150@30
;00:02:09.418: pe=0.9043 eb=0.0106 ve=30.0000 vn=0.6126 vl=0.000 db=0.33
G1 X-40.00 Y47.00 E68.3177 F300         ; draw dl=5.00@0<5>5 l=0.30x0.40x0.98
;00:02:10.423: pe=0.8953 eb=0.0155 ve=0.2444 vn=0.2481 vl=5.000 db=0.40
G1 X-38.73 Y47.00 E69.0042 F2160        ; draw dl=1.27@5<36>36 l=0.30x0.40x10.83
;00:02:10.485: pe=1.5229 eb=0.0149 ve=19.4444 vn=1.8541 vl=36.000 db=0.39
G1 X0.00 Y47.00 E70.9320                ; draw dl=38.73@36<36>36 l=0.30x0.40x1.00
;00:02:11.561: pe=1.5171 eb=0.0156 ve=1.7919 vn=1.7944 vl=36.000 db=0.40
G1 X20.00 Y47.00 E62.9320               ; move dl=20.00@36<36>36 de=-8.0000 h=0.3
;00:02:12.117: pe=-6.5618 eb=0.0000 ve=-14.4000 vn=0.0000 vl=36.000 db=0.00
G1 X40.00 Y47.00                        ; move dl=20.00@36<36>0 de=0.0000 h=0.3
;00:02:12.708: pe=-6.5618 eb=0.0000 ve=0.0000 vn=0.0000 vl=0.000 db=0.00
G1 E70.4082 F1800                       ; restore de=7.4762@30
;00:02:12.958: pe=0.9038 eb=0.0106 ve=30.0000 vn=0.6124 vl=0.000 db=0.33
G1 X45.00 Y47.00 E70.6526 F300          ; draw dl=5.00@0<5>0 l=0.30x0.40x0.98
;00:02:13.968: pe=0.8939 eb=0.0165 ve=0.0000 vn=0.1806 vl=0.000 db=0.41
G1 E68.7587 F2400                       ; retract de=-1.8939@40
;00:02:14.015: pe=-1.0001 eb=0.0166 ve=-40.0000 vn=0.0000 vl=0.000 db=0.41
G1 Z0.700 F420                          ; hopup dz=0.40@7 h=0.7
;00:02:14.072: pe=-1.0001 eb=0.0166 ve=0.0000 vn=0.0000 vl=0.000 db=0.27
;00:02:14.072: Test Line Retract vx=44.0 vr=44.0 re=8.0
G1 X-45.00 Y45.00 F6000                 ; move dl=90.02@0<100>0 de=0.0000 h=0.7
;00:02:15.172: pe=-1.0001 eb=0.0000 ve=0.0000 vn=0.0000 vl=0.000 db=0.00
G1 Z0.300 F420                          ; hopdn dz=-0.40@7 h=0.3
;00:02:15.229: pe=-1.0001 eb=0.0000 ve=0.0000 vn=0.0000 vl=0.000 db=0.00
G1 E70.6737 F1800                       ; restore de=1.9150@30
;00:02:15.293: pe=0.9043 eb=0.0106 ve=30.0000 vn=0.6126 vl=0.000 db=0.33
G1 X-40.00 Y45.00 E70.9182 F300         ; draw dl=5.00@0<5>5 l=0.30x0.40x0.98
;00:02:16.298: pe=0.8953 eb=0.0155 ve=0.2444 vn=0.2481 vl=5.000 db=0.40
G1 X-38.09 Y45.00 E71.7962 F2640        ; draw dl=1.91@5<44>44 l=0.30x0.40x9.21
;00:02:16.376: pe=1.6858 eb=0.0151 ve=20.2173 vn=2.2535 vl=44.000 db=0.39
G1 X0.00 Y45.00 E73.6888                ; draw dl=38.09@44<44>44 l=0.30x0.40x1.00
;00:02:17.242: pe=1.6759 eb=0.0156 ve=2.1863 vn=2.1922 vl=44.000 db=0.40
G1 X20.00 Y45.00 E65.6888               ; move dl=20.00@44<44>44 de=-8.0000 h=0.3
;00:02:17.696: pe=-6.4126 eb=0.0000 ve=-17.6000 vn=0.0000 vl=44.000 db=0.00
G1 X40.00 Y45.00                        ; move dl=20.00@44<44>0 de=0.0000 h=0.3
;00:02:18.195: pe=-6.4126 eb=0.0000 ve=0.0000 vn=0.0000 vl=0.000 db=0.00
G1 E73.0159 F1800                       ; restore de=7.3271@30
;00:02:18.439: pe=0.9038 eb=0.0106 ve=30.0000 vn=0.6125 vl=0.000 db=0.33
G1 X45.00 Y45.00 E73.2603 F300          ; draw dl=5.00@0<5>0 l=0.30x0.40x0.98
;00:02:19.449: pe=0.8939 eb=0.0165 ve=0.0000 vn=0.1806 vl=0.000 db=0.41
G1 E71.3663 F2400                       ; retract de=-1.8939@40
;00:02:19.497: pe=-1.0001 eb=0.0166 ve=-40.0000 vn=0.0000 vl=0.000 db=0.41
G1 Z0.700 F420                          ; hopup dz=0.40@7 h=0.7
;00:02:19.554: pe=-1.0001 eb=0.0166 ve=0.0000 vn=0.0000 vl=0.000 db=0.27
;00:02:19.554: Test Line Retract vx=52.0 vr=52.0 re=8.0
G1 X-45.00 Y43.00 F6000                 ; move dl=90.02@0<100>0 de=0.0000 h=0.7
;00:02:20.654: pe=-1.0001 eb=0.0000 ve=0.0000 vn=0.0000 vl=0.000 db=0.00
G1 Z0.300 F420                          ; hopdn dz=-0.40@7 h=0.3
;00:02:20.711: pe=-1.0001 eb=0.0000 ve=0.0000 vn=0.0000 vl=0.000 db=0.00
G1 E73.2814 F1800                       ; restore de=1.9150@30
;00:02:20.775: pe=0.9043 eb=0.0106 ve=30.0000 vn=0.6126 vl=0.000 db=0.33
G1 X-40.00 Y43.00 E73.5258 F300         ; draw dl=5.00@0<5>5 l=0.30x0.40x0.98
;00:02:21.780: pe=0.8953 eb=0.0155 ve=0.2444 vn=0.2481 vl=5.000 db=0.40
G1 X-37.32 Y43.00 E74.6018 F3120        ; draw dl=2.68@5<52>52 l=0.30x0.40x8.05
;00:02:21.874: pe=1.8499 eb=0.0152 ve=20.8861 vn=2.6539 vl=52.000 db=0.39
G1 X0.00 Y43.00 E76.4516                ; draw dl=37.32@52<52>52 l=0.30x0.40x0.99
;00:02:22.592: pe=1.8345 eb=0.0156 ve=2.5773 vn=2.5896 vl=52.000 db=0.40
G1 X20.00 Y43.00 E68.4516               ; move dl=20.00@52<52>52 de=-8.0000 h=0.3
;00:02:22.976: pe=-6.2635 eb=0.0000 ve=-20.8000 vn=0.0000 vl=52.000 db=0.00
G1 X40.00 Y43.00                        ; move dl=20.00@52<52>0 de=0.0000 h=0.3
;00:02:23.413: pe=-6.2635 eb=0.0000 ve=0.0000 vn=0.0000 vl=0.000 db=0.00
G1 E75.6296 F1800                       ; restore de=7.1780@30
;00:02:23.652: pe=0.9038 eb=0.0106 ve=30.0000 vn=0.6126 vl=0.000 db=0.33
G1 X45.00 Y43.00 E75.8741 F300          ; draw dl=5.00@0<5>0 l=0.30x0.40x0.98
;00:02:24.662: pe=0.8939 eb=0.0165 ve=0.0000 vn=0.1806 vl=0.000 db=0.41
G1 E73.9801 F2400                       ; retract de=-1.8939@40
;00:02:24.709: pe=-1.0001 eb=0.0166 ve=-40.0000 vn=0.0000 vl=0.000 db=0.41
G1 Z0.700 F420                          ; hopup dz=0.40@7 h=0.7
;00:02:24.767: pe=-1.0001 eb=0.0166 ve=0.0000 vn=0.0000 vl=0.000 db=0.27
;00:02:24.767: Test Line Retract vx=60.0 vr=60.0 re=8.0
G1 X-45.00 Y41.00 F6000                 ; move dl=90.02@0<100>0 de=0.0000 h=0.7
;00:02:25.867: pe=-1.0001 eb=0.0000 ve=0.0000 vn=0.0000 vl=0.000 db=0.00
G1 Z0.300 F420                          ; hopdn dz=-0.40@7 h=0.3
;00:02:25.924: pe=-1.0001 eb=0.0000 ve=0.0000 vn=0.0000 vl=0.000 db=0.00
G1 E75.8952 F1800                       ; restore de=1.9150@30
;00:02:25.988: pe=0.9043 eb=0.0106 ve=30.0000 vn=0.6126 vl=0.000 db=0.33
G1 X-40.00 Y41.00 E76.1396 F300         ; draw dl=5.00@0<5>5 l=0.30x0.40x0.98
;00:02:26.993: pe=0.8953 eb=0.0155 ve=0.2444 vn=0.2481 vl=5.000 db=0.40
G1 X-36.42 Y41.00 E77.4200 F3600        ; draw dl=3.58@5<60>60 l=0.30x0.40x7.18
;00:02:27.103: pe=2.0152 eb=0.0154 ve=21.4890 vn=3.0570 vl=60.000 db=0.40
G1 X0.00 Y41.00 E79.2194                ; draw dl=36.42@60<60>60 l=0.30x0.40x0.99
;00:02:27.710: pe=1.9928 eb=0.0156 ve=2.9640 vn=2.9865 vl=60.000 db=0.40
G1 X20.00 Y41.00 E71.2194               ; move dl=20.00@60<60>60 de=-8.0000 h=0.3
;00:02:28.043: pe=-6.1145 eb=0.0000 ve=-24.0000 vn=0.0000 vl=60.000 db=0.00
G1 X40.00 Y41.00                        ; move dl=20.00@60<60>0 de=0.0000 h=0.3
;00:02:28.437: pe=-6.1145 eb=0.0000 ve=0.0000 vn=0.0000 vl=0.000 db=0.00
G1 E78.2484 F1800                       ; restore de=7.0290@30
;00:02:28.671: pe=0.9038 eb=0.0106 ve=30.0000 vn=0.6126 vl=0.000 db=0.33
G1 X45.00 Y41.00 E78.4928 F300          ; draw dl=5.00@0<5>0 l=0.30x0.40x0.98
;00:02:29.681: pe=0.8939 eb=0.0165 ve=0.0000 vn=0.1806 vl=0.000 db=0.41
G1 E76.5989 F2400                       ; retract de=-1.8939@40
;00:02:29.728: pe=-1.0001 eb=0.0166 ve=-40.0000 vn=0.0000 vl=0.000 db=0.41
G1 Z0.700 F420                          ; hopup dz=0.40@7 h=0.7
;00:02:29.785: pe=-1.0001 eb=0.0166 ve=0.0000 vn=0.0000 vl=0.000 db=0.27
;00:02:29.785: Test Line Retract vx=68.0 vr=68.0 re=8.0
G1 X-45.00 Y39.00 F6000                 ; move dl=90.02@0<100>0 de=0.0000 h=0.7
;00:02:30.886: pe=-1.0001 eb=0.0000 ve=0.0000 vn=0.0000 vl=0.000 db=0.00
G1 Z0.300 F420                          ; hopdn dz=-0.40@7 h=0.3
;00:02:30.943: pe=-1.0001 eb=0.0000 ve=0.0000 vn=0.0000 vl=0.000 db=0.00
G1 E78.5139 F1800                       ; restore de=1.9150@30
;00:02:31.007: pe=0.9043 eb=0.0106 ve=30.0000 vn=0.6126 vl=0.000 db=0.33
G1 X-40.00 Y39.00 E78.7583 F300         ; draw dl=5.00@0<5>5 l=0.30x0.40x0.98
;00:02:32.012: pe=0.8953 eb=0.0155 ve=0.2444 vn=0.2481 vl=5.000 db=0.40
G1 X-35.40 Y39.00 E80.2495 F4080        ; draw dl=4.60@5<68>68 l=0.30x0.40x6.50
;00:02:32.138: pe=2.1818 eb=0.0155 ve=22.0475 vn=3.4634 vl=68.000 db=0.40
G1 X0.00 Y39.00 E81.9909                ; draw dl=35.40@68<68>68 l=0.30x0.40x0.99
;00:02:32.658: pe=2.1511 eb=0.0156 ve=3.3450 vn=3.3830 vl=68.000 db=0.40
G1 X20.00 Y39.00 E73.9909               ; move dl=20.00@68<68>68 de=-8.0000 h=0.3
;00:02:32.952: pe=-5.9656 eb=0.0000 ve=-27.2000 vn=0.0000 vl=68.000 db=0.00
G1 X40.00 Y39.00                        ; move dl=20.00@68<68>0 de=0.0000 h=0.3
;00:02:33.314: pe=-5.9656 eb=0.0000 ve=0.0000 vn=0.0000 vl=0.000 db=0.00
G1 E80.8709 F1800                       ; restore de=6.8801@30
;00:02:33.544: pe=0.9038 eb=0.0106 ve=30.0000 vn=0.6127 vl=0.000 db=0.33
G1 X45.00 Y39.00 E81.1153 F300          ; draw dl=5.00@0<5>0 l=0.30x0.40x0.98
;00:02:34.554: pe=0.8939 eb=0.0165 ve=0.0000 vn=0.1806 vl=0.000 db=0.41
G1 E79.2214 F2400                       ; retract de=-1.8939@40
;00:02:34.601: pe=-1.0001 eb=0.0166 ve=-40.0000 vn=0.0000 vl=0.000 db=0.41
G1 Z0.700 F420                          ; hopup dz=0.40@7 h=0.7
;00:02:34.658: pe=-1.0001 eb=0.0166 ve=0.0000 vn=0.0000 vl=0.000 db=0.27
;00:02:34.658: Test Line Retract vx=76.0 vr=76.0 re=8.0
G1 X-45.00 Y37.00 F6000                 ; move dl=90.02@0<100>0 de=0.0000 h=0.7
;00:02:35.758: pe=-1.0001 eb=0.0000 ve=0.0000 vn=0.0000 vl=0.000 db=0.00
G1 Z0.300 F420                          ; hopdn dz=-0.40@7 h=0.3
;00:02:35.816: pe=-1.0001 eb=0.0000 ve=0.0000 vn=0.0000 vl=0.000 db=0.00
G1 E81.1365 F1800                       ; restore de=1.9150@30
;00:02:35.879: pe=0.9043 eb=0.0106 ve=30.0000 vn=0.6126 vl=0.000 db=0.33
G1 X-40.00 Y37.00 E81.3809 F300         ; draw dl=5.00@0<5>5 l=0.30x0.40x0.98
;00:02:36.884: pe=0.8953 eb=0.0155 ve=0.2444 vn=0.2481 vl=5.000 db=0.40
G1 X-34.25 Y37.00 E83.0891 F4560        ; draw dl=5.75@5<76>76 l=0.30x0.40x5.95
;00:02:37.026: pe=2.3496 eb=0.0157 ve=22.5746 vn=3.8731 vl=76.000 db=0.40
G1 X0.00 Y37.00 E84.7649                ; draw dl=34.25@76<76>76 l=0.30x0.40x0.98
;00:02:37.477: pe=2.3092 eb=0.0156 ve=3.7186 vn=3.7792 vl=76.000 db=0.40
G1 X20.00 Y37.00 E76.7649               ; move dl=20.00@76<76>76 de=-8.0000 h=0.3
;00:02:37.740: pe=-5.8167 eb=0.0000 ve=-30.4000 vn=0.0000 vl=76.000 db=0.00
G1 X40.00 Y37.00                        ; move dl=20.00@76<76>0 de=0.0000 h=0.3
;00:02:38.079: pe=-5.8167 eb=0.0000 ve=0.0000 vn=0.0000 vl=0.000 db=0.00
G1 E83.4961 F1800                       ; restore de=6.7312@30
;00:02:38.304: pe=0.9038 eb=0.0106 ve=30.0000 vn=0.6128 vl=0.000 db=0.33
G1 X45.00 Y37.00 E83.7405 F300          ; draw dl=5.00@0<5>0 l=0.30x0.40x0.98
;00:02:39.314: pe=0.8939 eb=0.0165 ve=0.0000 vn=0.1806 vl=0.000 db=0.41
G1 E81.8465 F2400                       ; retract de=-1.8939@40
;00:02:39.361: pe=-1.0001 eb=0.0166 ve=-40.0000 vn=0.0000 vl=0.000 db=0.41
G1 Z0.700 F420                          ; hopup dz=0.40@7 h=0.7
;00:02:39.418: pe=-1.0001 eb=0.0166 ve=0.0000 vn=0.0000 vl=0.000 db=0.27
;00:02:39.418: Test Line Retract vx=84.0 vr=84.0 re=8.0
G1 X-45.00 Y35.00 F6000                 ; move dl=90.02@0<100>0 de=0.0000 h=0.7
;00:02:40.518: pe=-1.0001 eb=0.0000 ve=0.0000 vn=0.0000 vl=0.000 db=0.00
G1 Z0.300 F420                          ; hopdn dz=-0.40@7 h=0.3
;00:02:40.576: pe=-1.0001 eb=0.0000 ve=0.0000 vn=0.0000 vl=0.000 db=0.00
G1 E83.7616 F1800                       ; restore de=1.9150@30
;00:02:40.639: pe=0.9043 eb=0.0106 ve=30.0000 vn=0.6126 vl=0.000 db=0.33
G1 X-40.00 Y35.00 E84.0060 F300         ; draw dl=5.00@0<5>5 l=0.30x0.40x0.98
;00:02:41.644: pe=0.8953 eb=0.0155 ve=0.2444 vn=0.2481 vl=5.000 db=0.40
G1 X-32.97 Y35.00 E85.9378 F5040        ; draw dl=7.03@5<84>84 l=0.30x0.40x5.51
;00:02:41.802: pe=2.5186 eb=0.0158 ve=23.0789 vn=4.2864 vl=84.000 db=0.40
G1 X0.00 Y35.00 E87.5403                ; draw dl=32.97@84<84>84 l=0.30x0.40x0.97
;00:02:42.195: pe=2.4673 eb=0.0156 ve=4.0830 vn=4.1752 vl=84.000 db=0.40
G1 X20.00 Y35.00 E79.5403               ; move dl=20.00@84<84>84 de=-8.0000 h=0.3
;00:02:42.433: pe=-5.6678 eb=0.0000 ve=-33.6000 vn=0.0000 vl=84.000 db=0.00
G1 X40.00 Y35.00                        ; move dl=20.00@84<84>0 de=0.0000 h=0.3
;00:02:42.755: pe=-5.6678 eb=0.0000 ve=0.0000 vn=0.0000 vl=0.000 db=0.00
G1 E86.1225 F1800                       ; restore de=6.5822@30
;00:02:42.975: pe=0.9038 eb=0.0106 ve=30.0000 vn=0.6128 vl=0.000 db=0.33
G1 X45.00 Y35.00 E86.3669 F300          ; draw dl=5.00@0<5>0 l=0.30x0.40x0.98
;00:02:43.985: pe=0.8939 eb=0.0165 ve=0.0000 vn=0.1806 vl=0.000 db=0.41
G1 E84.4730 F2400                       ; retract de=-1.8939@40
;00:02:44.032: pe=-1.0001 eb=0.0166 ve=-40.0000 vn=0.0000 vl=0.000 db=0.41
G1 Z0.700 F420                          ; hopup dz=0.40@7 h=0.7
;00:02:44.089: pe=-1.0001 eb=0.0166 ve=0.0000 vn=0.0000 vl=0.000 db=0.27
;00:02:44.089: Test Line Retract vx=92.0 vr=92.0 re=8.0
G1 X-45.00 Y33.00 F6000                 ; move dl=90.02@0<100>0 de=0.0000 h=0.7
;00:02:45.189: pe=-1.0001 eb=0.0000 ve=0.0000 vn=0.0000 vl=0.000 db=0.00
G1 Z0.300 F420                          ; hopdn dz=-0.40@7 h=0.3
;00:02:45.246: pe=-1.0001 eb=0.0000 ve=0.0000 vn=0.0000 vl=0.000 db=0.00
G1 E86.3880 F1800                       ; restore de=1.9150@30
;00:02:45.310: pe=0.9043 eb=0.0106 ve=30.0000 vn=0.6126 vl=0.000 db=0.33
G1 X-40.00 Y33.00 E86.6325 F300         ; draw dl=5.00@0<5>5 l=0.30x0.40x0.98
;00:02:46.315: pe=0.8953 eb=0.0155 ve=0.2444 vn=0.2481 vl=5.000 db=0.40
G1 X-31.56 Y33.00 E88.7941 F5520        ; draw dl=8.44@5<92>92 l=0.30x0.40x5.13
;00:02:46.489: pe=2.6889 eb=0.0160 ve=23.5658 vn=4.7029 vl=92.000 db=0.40
G1 X0.00 Y33.00 E90.3158                ; draw dl=31.56@92<92>92 l=0.30x0.40x0.97
;00:02:46.832: pe=2.6254 eb=0.0156 ve=4.4357 vn=4.5711 vl=92.000 db=0.40
G1 X20.00 Y33.00 E82.3158               ; move dl=20.00@92<92>92 de=-8.0000 h=0.3
;00:02:47.050: pe=-5.5188 eb=0.0000 ve=-36.8000 vn=0.0000 vl=92.000 db=0.00
G1 X40.00 Y33.00                        ; move dl=20.00@92<92>0 de=0.0000 h=0.3
;00:02:47.359: pe=-5.5188 eb=0.0000 ve=0.0000 vn=0.0000 vl=0.000 db=0.00
G1 E88.7490 F1800                       ; restore de=6.4333@30
;00:02:47.573: pe=0.9038 eb=0.0106 ve=30.0000 vn=0.6128 vl=0.000 db=0.33
G1 X45.00 Y33.00 E88.9934 F300          ; draw dl=5.00@0<5>0 l=0.30x0.40x0.98
;00:02:48.583: pe=0.8939 eb=0.0165 ve=0.0000 vn=0.1806 vl=0.000 db=0.41
G1 E87.0995 F2400                       ; retract de=-1.8939@40
;00:02:48.631: pe=-1.0001 eb=0.0166 ve=-40.0000 vn=0.0000 vl=0.000 db=0.41
G1 Z0.700 F420                          ; hopup dz=0.40@7 h=0.7
;00:02:48.688: pe=-1.0001 eb=0.0166 ve=0.0000 vn=0.0000 vl=0.000 db=0.27
;00:02:48.688: Test Line Retract vx=100.0 vr=100.0 re=8.0
G1 X-45.00 Y31.00 F6000                 ; move dl=90.02@0<100>0 de=0.0000 h=0.7
;00:02:49.788: pe=-1.0001 eb=0.0000 ve=0.0000 vn=0.0000 vl=0.000 db=0.00
G1 Z0.300 F420                          ; hopdn dz=-0.40@7 h=0.3
;00:02:49.845: pe=-1.0001 eb=0.0000 ve=0.0000 vn=0.0000 vl=0.000 db=0.00
G1 E89.0146 F1800                       ; restore de=1.9150@30
;00:02:49.909: pe=0.9043 eb=0.0106 ve=30.0000 vn=0.6126 vl=0.000 db=0.33
G1 X-40.00 Y31.00 E89.2590 F300         ; draw dl=5.00@0<5>5 l=0.30x0.40x0.98
;00:02:50.914: pe=0.8953 eb=0.0155 ve=0.2444 vn=0.2481 vl=5.000 db=0.40
G1 X-30.02 Y31.00 E91.6569 F6000        ; draw dl=9.97@5<100>100 l=0.30x0.40x4.82
;00:02:51.104: pe=2.8603 eb=0.0161 ve=24.0394 vn=5.1227 vl=100.000 db=0.41
G1 X0.00 Y31.00 E93.0902                ; draw dl=30.02@100<100>100 l=0.30x0.40x0.96
;00:02:51.404: pe=2.7836 eb=0.0155 ve=4.7736 vn=4.9671 vl=100.000 db=0.40
G1 X20.00 Y31.00 E85.0902               ; move dl=20.00@100<100>100 de=-8.0000 h=0.3
;00:02:51.604: pe=-5.3697 eb=0.0000 ve=-40.0000 vn=0.0000 vl=100.000 db=0.00
G1 X40.00 Y31.00                        ; move dl=20.00@100<100>0 de=0.0000 h=0.3
;00:02:51.904: pe=-5.3697 eb=0.0000 ve=0.0000 vn=0.0000 vl=0.000 db=0.00
G1 E91.3744 F1800                       ; restore de=6.2842@30
;00:02:52.114: pe=0.9038 eb=0.0106 ve=30.0000 vn=0.6128 vl=0.000 db=0.33
G1 X45.00 Y31.00 E91.6188 F300          ; draw dl=5.00@0<5>0 l=0.30x0.40x0.98
;00:02:53.124: pe=0.8939 eb=0.0165 ve=0.0000 vn=0.1806 vl=0.000 db=0.41
G1 E89.7248 F2400                       ; retract de=-1.8939@40
;00:02:53.171: pe=-1.0001 eb=0.0166 ve=-40.0000 vn=0.0000 vl=0.000 db=0.41
G1 Z0.700 F420                          ; hopup dz=0.40@7 h=0.7
;00:02:53.228: pe=-1.0001 eb=0.0166 ve=0.0000 vn=0.0000 vl=0.000 db=0.27
;structure:brim
;00:02:53.228: text x0=46.0 y0=55 fsize=5 angle=0 'vx=20-100\nvr=20-100\nre=8.0'
G1 X46.40 Y53.86 F4540                  ; move dl=22.90@0<76>0 de=0.0000 h=0.7
;00:02:53.682: pe=-1.0001 eb=0.0000 ve=0.0000 vn=0.0000 vl=0.000 db=0.00
G1 Z0.300 F420                          ; hopdn dz=-0.40@7 h=0.3
;00:02:53.740: pe=-1.0001 eb=0.0000 ve=0.0000 vn=0.0000 vl=0.000 db=0.00
G1 E91.7317 F1800                       ; restore de=2.0068@30
;00:02:53.806: pe=0.9939 eb=0.0128 ve=30.0000 vn=0.6768 vl=0.000 db=0.36
G1 X47.45 Y51.41 E91.8618 F600          ; draw dl=2.67@0<10>6 l=0.30x0.40x0.98
;00:02:54.085: pe=0.9885 eb=0.0161 ve=0.2774 vn=0.4429 vl=5.682 db=0.41
G1 X48.49 Y53.86 E91.9971               ; draw dl=2.66@6<10>0 l=0.30x0.40x1.02
;00:02:54.363: pe=0.9891 eb=0.0188 ve=0.0000 vn=0.2811 vl=0.000 db=0.44
G1 E90.0080 F2400                       ; retract de=-1.9891@40
;00:02:54.413: pe=-1.0003 eb=0.0191 ve=-40.0000 vn=0.0000 vl=0.000 db=0.44
G1 Z0.700 F420                          ; hopup dz=0.40@7 h=0.7
;00:02:54.470: pe=-1.0003 eb=0.0191 ve=0.0000 vn=0.0000 vl=0.000 db=0.29
G1 X49.46 Y53.86 F934                   ; move dl=0.97@0<16>0 de=0.0000 h=0.7
;00:02:54.563: pe=-1.0003 eb=0.0000 ve=0.0000 vn=0.0000 vl=0.000 db=0.00
G1 Z0.300 F420                          ; hopdn dz=-0.40@7 h=0.3
;00:02:54.620: pe=-1.0003 eb=0.0000 ve=0.0000 vn=0.0000 vl=0.000 db=0.00
G1 E92.0117 F1800                       ; restore de=2.0037@30
;00:02:54.687: pe=0.9907 eb=0.0127 ve=30.0000 vn=0.6748 vl=0.000 db=0.36
G1 X51.50 Y51.41 E92.1678 F600          ; draw dl=3.19@0<10>0 l=0.30x0.40x0.98
;00:02:55.026: pe=0.9833 eb=0.0186 ve=0.0000 vn=0.2784 vl=0.000 db=0.44
G1 E90.1845 F2400                       ; retract de=-1.9833@40
;00:02:55.076: pe=-1.0002 eb=0.0189 ve=-40.0000 vn=0.0000 vl=0.000 db=0.44
G1 Z0.700 F420                          ; hopup dz=0.40@7 h=0.7
;00:02:55.133: pe=-1.0002 eb=0.0189 ve=0.0000 vn=0.0000 vl=0.000 db=0.29
G1 X49.46 Y51.41 F1355                  ; move dl=2.04@0<23>0 de=0.0000 h=0.7
;00:02:55.268: pe=-1.0002 eb=0.0000 ve=0.0000 vn=0.0000 vl=0.000 db=0.00
G1 Z0.300 F420                          ; hopdn dz=-0.40@7 h=0.3
;00:02:55.325: pe=-1.0002 eb=0.0000 ve=0.0000 vn=0.0000 vl=0.000 db=0.00
G1 E92.1882 F1800                       ; restore de=2.0037@30
;00:02:55.392: pe=0.9907 eb=0.0127 ve=30.0000 vn=0.6748 vl=0.000 db=0.36
G1 X51.50 Y53.86 E92.3443 F600          ; draw dl=3.19@0<10>0 l=0.30x0.40x0.98
;00:02:55.731: pe=0.9833 eb=0.0186 ve=0.0000 vn=0.2784 vl=0.000 db=0.44
G1 E90.3610 F2400                       ; retract de=-1.9833@40
;00:02:55.780: pe=-1.0002 eb=0.0189 ve=-40.0000 vn=0.0000 vl=0.000 db=0.44
G1 Z0.700 F420                          ; hopup dz=0.40@7 h=0.7
;00:02:55.838: pe=-1.0002 eb=0.0189 ve=0.0000 vn=0.0000 vl=0.000 db=0.29
G1 X52.48 Y53.22 F1026                  ; move dl=1.17@0<17>0 de=0.0000 h=0.7
;00:02:55.940: pe=-1.0002 eb=0.0000 ve=0.0000 vn=0.0000 vl=0.000 db=0.00
G1 Z0.300 F420                          ; hopdn dz=-0.40@7 h=0.3
;00:02:55.997: pe=-1.0002 eb=0.0000 ve=0.0000 vn=0.0000 vl=0.000 db=0.00
G1 E92.3558 F1800                       ; restore de=1.9948@30
;00:02:56.064: pe=0.9821 eb=0.0125 ve=30.0000 vn=0.6690 vl=0.000 db=0.36
G1 X54.21 Y53.22 E92.4390 F600          ; draw dl=1.73@0<10>0 l=0.30x0.40x0.96
;00:02:56.257: pe=0.9743 eb=0.0183 ve=0.0000 vn=0.2747 vl=0.000 db=0.43
G1 E90.4646 F2400                       ; retract de=-1.9743@40
;00:02:56.306: pe=-1.0002 eb=0.0185 ve=-40.0000 vn=0.0000 vl=0.000 db=0.44
G1 Z0.700 F420                          ; hopup dz=0.40@7 h=0.7
;00:02:56.363: pe=-1.0002 eb=0.0185 ve=0.0000 vn=0.0000 vl=0.000 db=0.28
G1 X54.21 Y52.49 F811                   ; move dl=0.73@0<14>0 de=0.0000 h=0.7
;00:02:56.444: pe=-1.0002 eb=0.0000 ve=0.0000 vn=0.0000 vl=0.000 db=0.00
G1 Z0.300 F420                          ; hopdn dz=-0.40@7 h=0.3
;00:02:56.502: pe=-1.0002 eb=0.0000 ve=0.0000 vn=0.0000 vl=0.000 db=0.00
G1 E92.4594 F1800                       ; restore de=1.9948@30
;00:02:56.568: pe=0.9821 eb=0.0125 ve=30.0000 vn=0.6690 vl=0.000 db=0.36
G1 X52.48 Y52.49 E92.5425 F600          ; draw dl=1.73@0<10>0 l=0.30x0.40x0.96
;00:02:56.761: pe=0.9743 eb=0.0183 ve=0.0000 vn=0.2747 vl=0.000 db=0.43
G1 E90.5682 F2400                       ; retract de=-1.9743@40
;00:02:56.810: pe=-1.0002 eb=0.0185 ve=-40.0000 vn=0.0000 vl=0.000 db=0.44
G1 Z0.700 F420                          ; hopup dz=0.40@7 h=0.7
;00:02:56.868: pe=-1.0002 eb=0.0185 ve=0.0000 vn=0.0000 vl=0.000 db=0.28
G1 X55.18 Y54.43 F1730                  ; move dl=3.32@0<29>0 de=0.0000 h=0.7
;00:02:57.041: pe=-1.0002 eb=0.0000 ve=0.0000 vn=0.0000 vl=0.000 db=0.00
G1 Z0.300 F420                          ; hopdn dz=-0.40@7 h=0.3
;00:02:57.098: pe=-1.0002 eb=0.0000 ve=0.0000 vn=0.0000 vl=0.000 db=0.00
G1 E92.5316 F1800                       ; restore de=1.9634@30
;00:02:57.163: pe=0.9514 eb=0.0117 ve=30.0000 vn=0.6470 vl=0.000 db=0.35
G1 X55.37 Y54.64 E92.5418 F600          ; draw dl=0.28@0<10>10 l=0.30x0.40x0.72
;00:02:57.201: pe=0.9452 eb=0.0143 ve=0.3603 vn=0.4519 vl=10.000 db=0.38
G1 X55.61 Y54.80 E92.6105               ; draw dl=0.29@10<10>10 l=0.30x0.40x4.77
;00:02:57.230: pe=0.9993 eb=0.0151 ve=2.3822 vn=0.5353 vl=10.000 db=0.39
G1 X55.88 Y54.90 E92.6251               ; draw dl=0.29@10<10>10 l=0.30x0.40x1.02
;00:02:57.259: pe=0.9992 eb=0.0156 ve=0.5077 vn=0.5020 vl=10.000 db=0.40
G1 X56.17 Y54.94 E92.6401               ; draw dl=0.29@10<10>10 l=0.30x0.40x1.03
;00:02:57.288: pe=0.9995 eb=0.0157 ve=0.5127 vn=0.4994 vl=10.000 db=0.40
G1 X56.55 Y54.87 E92.6594               ; draw dl=0.39@10<10>10 l=0.30x0.40x1.00
;00:02:57.327: pe=0.9996 eb=0.0157 ve=0.4999 vn=0.4989 vl=10.000 db=0.40
G1 X56.85 Y54.68 E92.6772               ; draw dl=0.36@10<10>10 l=0.30x0.40x1.00
;00:02:57.363: pe=0.9996 eb=0.0157 ve=0.4991 vn=0.4989 vl=10.000 db=0.40
G1 X57.04 Y54.38 E92.6949               ; draw dl=0.36@10<10>10 l=0.30x0.40x1.00
;00:02:57.398: pe=0.9996 eb=0.0157 ve=0.4989 vn=0.4989 vl=10.000 db=0.40
G1 X57.11 Y53.99 E92.7147               ; draw dl=0.40@10<10>10 l=0.30x0.40x1.00
;00:02:57.438: pe=0.9996 eb=0.0157 ve=0.4989 vn=0.4989 vl=10.000 db=0.40
G1 X57.02 Y53.60 E92.7346               ; draw dl=0.40@10<10>10 l=0.30x0.40x1.00
;00:02:57.478: pe=0.9996 eb=0.0157 ve=0.4989 vn=0.4989 vl=10.000 db=0.40
G1 X56.72 Y53.23 E92.7584               ; draw dl=0.48@10<10>10 l=0.30x0.40x1.00
;00:02:57.525: pe=0.9996 eb=0.0157 ve=0.4989 vn=0.4989 vl=10.000 db=0.40
G1 X55.93 Y52.59 E92.8091               ; draw dl=1.02@10<10>10 l=0.30x0.40x1.00
;00:02:57.627: pe=0.9996 eb=0.0157 ve=0.4989 vn=0.4989 vl=10.000 db=0.40
G1 X55.63 Y52.17 E92.8349               ; draw dl=0.52@10<10>10 l=0.30x0.40x1.00
;00:02:57.679: pe=0.9996 eb=0.0157 ve=0.4989 vn=0.4989 vl=10.000 db=0.40
G1 X55.22 Y51.41 E92.8762               ; draw dl=0.86@10<10>7 l=0.30x0.40x0.96
;00:02:57.766: pe=0.9976 eb=0.0160 ve=0.3471 vn=0.4754 vl=7.249 db=0.40
G1 X57.09 Y51.41 E92.9607               ; draw dl=1.87@7<10>0 l=0.30x0.40x0.91
;00:02:57.963: pe=0.9862 eb=0.0187 ve=0.0000 vn=0.2792 vl=0.000 db=0.44
G1 E90.9744 F2400                       ; retract de=-1.9862@40
;00:02:58.013: pe=-1.0002 eb=0.0190 ve=-40.0000 vn=0.0000 vl=0.000 db=0.44
G1 Z0.700 F420                          ; hopup dz=0.40@7 h=0.7
;00:02:58.070: pe=-1.0002 eb=0.0190 ve=0.0000 vn=0.0000 vl=0.000 db=0.29
G1 X59.33 Y54.94 F1940                  ; move dl=4.18@0<32>0 de=0.0000 h=0.7
;00:02:58.264: pe=-1.0002 eb=0.0000 ve=0.0000 vn=0.0000 vl=0.000 db=0.00
G1 Z0.300 F420                          ; hopdn dz=-0.40@7 h=0.3
;00:02:58.321: pe=-1.0002 eb=0.0000 ve=0.0000 vn=0.0000 vl=0.000 db=0.00
G1 E92.9593 F1800                       ; restore de=1.9848@30
;00:02:58.388: pe=0.9723 eb=0.0123 ve=30.0000 vn=0.6614 vl=0.000 db=0.35
G1 X59.86 Y54.79 E92.9833 F600          ; draw dl=0.55@0<10>10 l=0.30x0.40x0.88
;00:02:58.453: pe=0.9668 eb=0.0147 ve=0.4370 vn=0.4798 vl=10.000 db=0.39
G1 X60.26 Y54.41 E93.0436               ; draw dl=0.55@10<10>10 l=0.30x0.40x2.19
;00:02:58.508: pe=0.9994 eb=0.0155 ve=1.0918 vn=0.5119 vl=10.000 db=0.40
G1 X60.50 Y53.83 E93.0750               ; draw dl=0.63@10<10>10 l=0.30x0.40x1.01
;00:02:58.571: pe=0.9994 eb=0.0157 ve=0.5015 vn=0.4989 vl=10.000 db=0.40
G1 X60.59 Y53.14 E93.1099               ; draw dl=0.70@10<10>10 l=0.30x0.40x1.00
;00:02:58.640: pe=0.9996 eb=0.0157 ve=0.5011 vn=0.4990 vl=10.000 db=0.40
G1 X60.50 Y52.45 E93.1446               ; draw dl=0.70@10<10>10 l=0.30x0.40x1.00
;00:02:58.710: pe=0.9996 eb=0.0157 ve=0.4989 vn=0.4989 vl=10.000 db=0.40
G1 X60.25 Y51.88 E93.1757               ; draw dl=0.62@10<10>10 l=0.30x0.40x1.00
;00:02:58.772: pe=0.9996 eb=0.0157 ve=0.4989 vn=0.4989 vl=10.000 db=0.40
G1 X59.86 Y51.49 E93.2032               ; draw dl=0.55@10<10>10 l=0.30x0.40x1.00
;00:02:58.827: pe=0.9996 eb=0.0157 ve=0.4989 vn=0.4989 vl=10.000 db=0.40
G1 X59.33 Y51.34 E93.2307               ; draw dl=0.55@10<10>10 l=0.30x0.40x1.00
;00:02:58.882: pe=0.9996 eb=0.0157 ve=0.4989 vn=0.4989 vl=10.000 db=0.40
G1 X58.81 Y51.49 E93.2577               ; draw dl=0.54@10<10>10 l=0.30x0.40x1.00
;00:02:58.936: pe=0.9996 eb=0.0157 ve=0.4989 vn=0.4989 vl=10.000 db=0.40
G1 X58.42 Y51.88 E93.2852               ; draw dl=0.55@10<10>10 l=0.30x0.40x1.00
;00:02:58.992: pe=0.9996 eb=0.0157 ve=0.4989 vn=0.4989 vl=10.000 db=0.40
G1 X58.17 Y52.45 E93.3163               ; draw dl=0.62@10<10>10 l=0.30x0.40x1.00
;00:02:59.054: pe=0.9996 eb=0.0157 ve=0.4989 vn=0.4989 vl=10.000 db=0.40
G1 X58.09 Y53.14 E93.3509               ; draw dl=0.69@10<10>10 l=0.30x0.40x1.00
;00:02:59.123: pe=0.9996 eb=0.0157 ve=0.4989 vn=0.4989 vl=10.000 db=0.40
G1 X58.17 Y53.83 E93.3856               ; draw dl=0.69@10<10>10 l=0.30x0.40x1.00
;00:02:59.193: pe=0.9996 eb=0.0157 ve=0.4989 vn=0.4989 vl=10.000 db=0.40
G1 X58.41 Y54.40 E93.4164               ; draw dl=0.62@10<10>10 l=0.30x0.40x1.00
;00:02:59.255: pe=0.9996 eb=0.0157 ve=0.4989 vn=0.4989 vl=10.000 db=0.40
G1 X58.81 Y54.79 E93.4443               ; draw dl=0.56@10<10>10 l=0.30x0.40x1.00
;00:02:59.310: pe=0.9996 eb=0.0157 ve=0.4989 vn=0.4989 vl=10.000 db=0.40
G1 X59.33 Y54.94 E93.4402               ; move dl=0.54@10<10>0 de=-0.0041 h=0.3
;00:02:59.375: pe=0.9662 eb=0.0181 ve=-0.0000 vn=0.2648 vl=0.000 db=0.43
G1 E91.4740 F2400                       ; retract de=-1.9662@40
;00:02:59.424: pe=-1.0002 eb=0.0183 ve=-40.0000 vn=0.0000 vl=0.000 db=0.43
G1 Z0.700 F420                          ; hopup dz=0.40@7 h=0.7
;00:02:59.481: pe=-1.0002 eb=0.0183 ve=0.0000 vn=0.0000 vl=0.000 db=0.28
G1 X61.56 Y52.85 F1659                  ; move dl=3.06@0<28>0 de=0.0000 h=0.7
;00:02:59.647: pe=-1.0002 eb=0.0000 ve=0.0000 vn=0.0000 vl=0.000 db=0.00
G1 Z0.300 F420                          ; hopdn dz=-0.40@7 h=0.3
;00:02:59.704: pe=-1.0002 eb=0.0000 ve=0.0000 vn=0.0000 vl=0.000 db=0.00
G1 E93.4705 F1800                       ; restore de=1.9965@30
;00:02:59.770: pe=0.9838 eb=0.0125 ve=30.0000 vn=0.6702 vl=0.000 db=0.36
G1 X63.47 Y52.85 E93.5627 F600          ; draw dl=1.91@0<10>0 l=0.30x0.40x0.97
;00:02:59.981: pe=0.9761 eb=0.0184 ve=0.0000 vn=0.2754 vl=0.000 db=0.43
G1 E91.5866 F2400                       ; retract de=-1.9761@40
;00:03:00.031: pe=-1.0002 eb=0.0186 ve=-40.0000 vn=0.0000 vl=0.000 db=0.44
G1 Z0.700 F420                          ; hopup dz=0.40@7 h=0.7
;00:03:00.088: pe=-1.0002 eb=0.0186 ve=0.0000 vn=0.0000 vl=0.000 db=0.29
G1 X64.44 Y53.98 F1158                  ; move dl=1.49@0<19>0 de=0.0000 h=0.7
;00:03:00.204: pe=-1.0002 eb=0.0000 ve=0.0000 vn=0.0000 vl=0.000 db=0.00
G1 Z0.300 F420                          ; hopdn dz=-0.40@7 h=0.3
;00:03:00.261: pe=-1.0002 eb=0.0000 ve=0.0000 vn=0.0000 vl=0.000 db=0.00
G1 E93.5712 F1800                       ; restore de=1.9846@30
;00:03:00.327: pe=0.9721 eb=0.0123 ve=30.0000 vn=0.6612 vl=0.000 db=0.35
G1 X64.93 Y54.22 E93.5950 F600          ; draw dl=0.55@0<10>10 l=0.30x0.40x0.87
;00:03:00.392: pe=0.9666 eb=0.0147 ve=0.4364 vn=0.4796 vl=10.000 db=0.39
G1 X65.30 Y54.54 E93.6523               ; draw dl=0.49@10<10>10 l=0.30x0.40x2.35
;00:03:00.440: pe=0.9994 eb=0.0154 ve=1.1727 vn=0.5136 vl=10.000 db=0.40
G1 X65.55 Y54.87 E93.6611               ; draw dl=0.41@10<10>5 l=0.30x0.40x0.42
;00:03:00.485: pe=0.9866 eb=0.0164 ve=0.1024 vn=0.4183 vl=4.834 db=0.41
G1 X65.55 Y51.41 E93.8397               ; draw dl=3.46@5<10>0 l=0.30x0.40x1.03
;00:03:00.843: pe=0.9911 eb=0.0189 ve=0.0000 vn=0.2819 vl=0.000 db=0.44
G1 E91.8486 F2400                       ; retract de=-1.9911@40
;00:03:00.893: pe=-1.0003 eb=0.0191 ve=-40.0000 vn=0.0000 vl=0.000 db=0.44
G1 Z0.700 F420                          ; hopup dz=0.40@7 h=0.7
;00:03:00.950: pe=-1.0003 eb=0.0191 ve=0.0000 vn=0.0000 vl=0.000 db=0.29
G1 X67.76 Y54.94 F1936                  ; move dl=4.16@0<32>0 de=0.0000 h=0.7
;00:03:01.144: pe=-1.0003 eb=0.0000 ve=0.0000 vn=0.0000 vl=0.000 db=0.00
G1 Z0.300 F420                          ; hopdn dz=-0.40@7 h=0.3
;00:03:01.201: pe=-1.0003 eb=0.0000 ve=0.0000 vn=0.0000 vl=0.000 db=0.00
G1 E93.8334 F1800                       ; restore de=1.9848@30
;00:03:01.267: pe=0.9723 eb=0.0123 ve=30.0000 vn=0.6614 vl=0.000 db=0.35
G1 X68.29 Y54.79 E93.8575 F600          ; draw dl=0.55@0<10>10 l=0.30x0.40x0.88
;00:03:01.332: pe=0.9668 eb=0.0147 ve=0.4370 vn=0.4798 vl=10.000 db=0.39
G1 X68.69 Y54.41 E93.9177               ; draw dl=0.55@10<10>10 l=0.30x0.40x2.19
;00:03:01.387: pe=0.9994 eb=0.0155 ve=1.0918 vn=0.5119 vl=10.000 db=0.40
G1 X68.93 Y53.83 E93.9492               ; draw dl=0.63@10<10>10 l=0.30x0.40x1.01
;00:03:01.450: pe=0.9994 eb=0.0157 ve=0.5015 vn=0.4989 vl=10.000 db=0.40
G1 X69.02 Y53.14 E93.9841               ; draw dl=0.70@10<10>10 l=0.30x0.40x1.00
;00:03:01.520: pe=0.9996 eb=0.0157 ve=0.5011 vn=0.4990 vl=10.000 db=0.40
G1 X68.93 Y52.45 E94.0188               ; draw dl=0.70@10<10>10 l=0.30x0.40x1.00
;00:03:01.589: pe=0.9996 eb=0.0157 ve=0.4989 vn=0.4989 vl=10.000 db=0.40
G1 X68.68 Y51.88 E94.0499               ; draw dl=0.62@10<10>10 l=0.30x0.40x1.00
;00:03:01.651: pe=0.9996 eb=0.0157 ve=0.4989 vn=0.4989 vl=10.000 db=0.40
G1 X68.29 Y51.49 E94.0774               ; draw dl=0.55@10<10>10 l=0.30x0.40x1.00
;00:03:01.707: pe=0.9996 eb=0.0157 ve=0.4989 vn=0.4989 vl=10.000 db=0.40
G1 X67.76 Y51.34 E94.1049               ; draw dl=0.55@10<10>10 l=0.30x0.40x1.00
;00:03:01.762: pe=0.9996 eb=0.0157 ve=0.4989 vn=0.4989 vl=10.000 db=0.40
G1 X67.24 Y51.49 E94.1319               ; draw dl=0.54@10<10>10 l=0.30x0.40x1.00
;00:03:01.816: pe=0.9996 eb=0.0157 ve=0.4989 vn=0.4989 vl=10.000 db=0.40
G1 X66.85 Y51.88 E94.1594               ; draw dl=0.55@10<10>10 l=0.30x0.40x1.00
;00:03:01.871: pe=0.9996 eb=0.0157 ve=0.4989 vn=0.4989 vl=10.000 db=0.40
G1 X66.60 Y52.45 E94.1904               ; draw dl=0.62@10<10>10 l=0.30x0.40x1.00
;00:03:01.933: pe=0.9996 eb=0.0157 ve=0.4989 vn=0.4989 vl=10.000 db=0.40
G1 X66.52 Y53.14 E94.2251               ; draw dl=0.69@10<10>10 l=0.30x0.40x1.00
;00:03:02.003: pe=0.9996 eb=0.0157 ve=0.4989 vn=0.4989 vl=10.000 db=0.40
G1 X66.60 Y53.83 E94.2597               ; draw dl=0.69@10<10>10 l=0.30x0.40x1.00
;00:03:02.072: pe=0.9996 eb=0.0157 ve=0.4989 vn=0.4989 vl=10.000 db=0.40
G1 X66.84 Y54.40 E94.2906               ; draw dl=0.62@10<10>10 l=0.30x0.40x1.00
;00:03:02.134: pe=0.9996 eb=0.0157 ve=0.4989 vn=0.4989 vl=10.000 db=0.40
G1 X67.24 Y54.79 E94.3185               ; draw dl=0.56@10<10>10 l=0.30x0.40x1.00
;00:03:02.190: pe=0.9996 eb=0.0157 ve=0.4989 vn=0.4989 vl=10.000 db=0.40
G1 X67.76 Y54.94 E94.3143               ; move dl=0.54@10<10>0 de=-0.0041 h=0.3
;00:03:02.254: pe=0.9662 eb=0.0181 ve=-0.0000 vn=0.2648 vl=0.000 db=0.43
G1 E92.3482 F2400                       ; retract de=-1.9662@40
;00:03:02.303: pe=-1.0002 eb=0.0183 ve=-40.0000 vn=0.0000 vl=0.000 db=0.43
G1 Z0.700 F420                          ; hopup dz=0.40@7 h=0.7
;00:03:02.360: pe=-1.0002 eb=0.0183 ve=0.0000 vn=0.0000 vl=0.000 db=0.28
G1 X71.24 Y54.94 F1770                  ; move dl=3.48@0<29>0 de=0.0000 h=0.7
;00:03:02.537: pe=-1.0002 eb=0.0000 ve=0.0000 vn=0.0000 vl=0.000 db=0.00
G1 Z0.300 F420                          ; hopdn dz=-0.40@7 h=0.3
;00:03:02.594: pe=-1.0002 eb=0.0000 ve=0.0000 vn=0.0000 vl=0.000 db=0.00
G1 E94.3330 F1800                       ; restore de=1.9848@30
;00:03:02.661: pe=0.9723 eb=0.0123 ve=30.0000 vn=0.6614 vl=0.000 db=0.35
G1 X71.77 Y54.79 E94.3570 F600          ; draw dl=0.55@0<10>10 l=0.30x0.40x0.88
;00:03:02.726: pe=0.9668 eb=0.0147 ve=0.4370 vn=0.4798 vl=10.000 db=0.39
G1 X72.17 Y54.41 E94.4173               ; draw dl=0.55@10<10>10 l=0.30x0.40x2.19
;00:03:02.781: pe=0.9994 eb=0.0155 ve=1.0918 vn=0.5119 vl=10.000 db=0.40
G1 X72.41 Y53.83 E94.4488               ; draw dl=0.63@10<10>10 l=0.30x0.40x1.01
;00:03:02.844: pe=0.9994 eb=0.0157 ve=0.5015 vn=0.4989 vl=10.000 db=0.40
G1 X72.50 Y53.14 E94.4836               ; draw dl=0.70@10<10>10 l=0.30x0.40x1.00
;00:03:02.913: pe=0.9996 eb=0.0157 ve=0.5011 vn=0.4990 vl=10.000 db=0.40
G1 X72.41 Y52.45 E94.5184               ; draw dl=0.70@10<10>10 l=0.30x0.40x1.00
;00:03:02.983: pe=0.9996 eb=0.0157 ve=0.4989 vn=0.4989 vl=10.000 db=0.40
G1 X72.16 Y51.88 E94.5494               ; draw dl=0.62@10<10>10 l=0.30x0.40x1.00
;00:03:03.045: pe=0.9996 eb=0.0157 ve=0.4989 vn=0.4989 vl=10.000 db=0.40
G1 X71.77 Y51.49 E94.5769               ; draw dl=0.55@10<10>10 l=0.30x0.40x1.00
;00:03:03.100: pe=0.9996 eb=0.0157 ve=0.4989 vn=0.4989 vl=10.000 db=0.40
G1 X71.24 Y51.34 E94.6044               ; draw dl=0.55@10<10>10 l=0.30x0.40x1.00
;00:03:03.155: pe=0.9996 eb=0.0157 ve=0.4989 vn=0.4989 vl=10.000 db=0.40
G1 X70.72 Y51.49 E94.6314               ; draw dl=0.54@10<10>10 l=0.30x0.40x1.00
;00:03:03.209: pe=0.9996 eb=0.0157 ve=0.4989 vn=0.4989 vl=10.000 db=0.40
G1 X70.33 Y51.88 E94.6589               ; draw dl=0.55@10<10>10 l=0.30x0.40x1.00
;00:03:03.264: pe=0.9996 eb=0.0157 ve=0.4989 vn=0.4989 vl=10.000 db=0.40
G1 X70.08 Y52.45 E94.6900               ; draw dl=0.62@10<10>10 l=0.30x0.40x1.00
;00:03:03.327: pe=0.9996 eb=0.0157 ve=0.4989 vn=0.4989 vl=10.000 db=0.40
G1 X70.00 Y53.14 E94.7246               ; draw dl=0.69@10<10>10 l=0.30x0.40x1.00
;00:03:03.396: pe=0.9996 eb=0.0157 ve=0.4989 vn=0.4989 vl=10.000 db=0.40
G1 X70.08 Y53.83 E94.7593               ; draw dl=0.69@10<10>10 l=0.30x0.40x1.00
;00:03:03.466: pe=0.9996 eb=0.0157 ve=0.4989 vn=0.4989 vl=10.000 db=0.40
G1 X70.32 Y54.40 E94.7901               ; draw dl=0.62@10<10>10 l=0.30x0.40x1.00
;00:03:03.527: pe=0.9996 eb=0.0157 ve=0.4989 vn=0.4989 vl=10.000 db=0.40
G1 X70.72 Y54.79 E94.8180               ; draw dl=0.56@10<10>10 l=0.30x0.40x1.00
;00:03:03.583: pe=0.9996 eb=0.0157 ve=0.4989 vn=0.4989 vl=10.000 db=0.40
G1 X71.24 Y54.94 E94.8139               ; move dl=0.54@10<10>0 de=-0.0041 h=0.3
;00:03:03.647: pe=0.9662 eb=0.0181 ve=-0.0000 vn=0.2648 vl=0.000 db=0.43
G1 E92.8477 F2400                       ; retract de=-1.9662@40
;00:03:03.697: pe=-1.0002 eb=0.0183 ve=-40.0000 vn=0.0000 vl=0.000 db=0.43
G1 Z0.700 F420                          ; hopup dz=0.40@7 h=0.7
;00:03:03.754: pe=-1.0002 eb=0.0183 ve=0.0000 vn=0.0000 vl=0.000 db=0.28
G1 X46.40 Y48.86 F4797                  ; move dl=25.57@0<80>0 de=0.0000 h=0.7
;00:03:04.234: pe=-1.0002 eb=0.0000 ve=0.0000 vn=0.0000 vl=0.000 db=0.00
G1 Z0.300 F420                          ; hopdn dz=-0.40@7 h=0.3
;00:03:04.291: pe=-1.0002 eb=0.0000 ve=0.0000 vn=0.0000 vl=0.000 db=0.00
G1 E94.8547 F1800                       ; restore de=2.0069@30
;00:03:04.358: pe=0.9939 eb=0.0128 ve=30.0000 vn=0.6768 vl=0.000 db=0.36
G1 X47.45 Y46.41 E94.9848 F600          ; draw dl=2.67@0<10>6 l=0.30x0.40x0.98
;00:03:04.636: pe=0.9885 eb=0.0161 ve=0.2774 vn=0.4429 vl=5.682 db=0.41
G1 X48.49 Y48.86 E95.1201               ; draw dl=2.66@6<10>0 l=0.30x0.40x1.02
;00:03:04.914: pe=0.9891 eb=0.0188 ve=0.0000 vn=0.2811 vl=0.000 db=0.44
G1 E93.1310 F2400                       ; retract de=-1.9891@40
;00:03:04.964: pe=-1.0003 eb=0.0191 ve=-40.0000 vn=0.0000 vl=0.000 db=0.44
G1 Z0.700 F420                          ; hopup dz=0.40@7 h=0.7
;00:03:05.021: pe=-1.0003 eb=0.0191 ve=0.0000 vn=0.0000 vl=0.000 db=0.29
G1 X49.46 Y46.41 F1540                  ; move dl=2.64@0<26>0 de=0.0000 h=0.7
;00:03:05.175: pe=-1.0003 eb=0.0000 ve=0.0000 vn=0.0000 vl=0.000 db=0.00
G1 Z0.300 F420                          ; hopdn dz=-0.40@7 h=0.3
;00:03:05.232: pe=-1.0003 eb=0.0000 ve=0.0000 vn=0.0000 vl=0.000 db=0.00
G1 E95.1314 F1800                       ; restore de=2.0004@30
;00:03:05.299: pe=0.9875 eb=0.0126 ve=30.0000 vn=0.6727 vl=0.000 db=0.36
G1 X49.46 Y48.86 E95.2506 F600          ; draw dl=2.45@0<10>0 l=0.30x0.40x0.98
;00:03:05.564: pe=0.9800 eb=0.0185 ve=0.0000 vn=0.2770 vl=0.000 db=0.43
G1 E93.2706 F2400                       ; retract de=-1.9800@40
;00:03:05.613: pe=-1.0002 eb=0.0187 ve=-40.0000 vn=0.0000 vl=0.000 db=0.44
G1 Z0.700 F420                          ; hopup dz=0.40@7 h=0.7
;00:03:05.670: pe=-1.0002 eb=0.0187 ve=0.0000 vn=0.0000 vl=0.000 db=0.29
G1 X49.46 Y48.16 F794                   ; move dl=0.70@0<13>0 de=0.0000 h=0.7
;00:03:05.750: pe=-1.0002 eb=0.0000 ve=0.0000 vn=0.0000 vl=0.000 db=0.00
G1 Z0.300 F420                          ; hopdn dz=-0.40@7 h=0.3
;00:03:05.807: pe=-1.0002 eb=0.0000 ve=0.0000 vn=0.0000 vl=0.000 db=0.00
G1 E95.2494 F1800                       ; restore de=1.9788@30
;00:03:05.873: pe=0.9664 eb=0.0121 ve=30.0000 vn=0.6568 vl=0.000 db=0.35
G1 X49.72 Y48.52 E95.2680 F600          ; draw dl=0.44@0<10>10 l=0.30x0.40x0.84
;00:03:05.927: pe=0.9608 eb=0.0146 ve=0.4191 vn=0.4738 vl=10.000 db=0.39
G1 X49.93 Y48.73 E95.3216               ; draw dl=0.30@10<10>10 l=0.30x0.40x3.62
;00:03:05.957: pe=0.9993 eb=0.0153 ve=1.8039 vn=0.5251 vl=10.000 db=0.39
G1 X50.14 Y48.85 E95.3339               ; draw dl=0.24@10<10>10 l=0.30x0.40x1.02
;00:03:05.981: pe=0.9993 eb=0.0156 ve=0.5102 vn=0.5023 vl=10.000 db=0.40
G1 X50.33 Y48.91 E95.3442               ; draw dl=0.20@10<10>10 l=0.30x0.40x1.03
;00:03:06.001: pe=0.9995 eb=0.0157 ve=0.5129 vn=0.4998 vl=10.000 db=0.40
G1 X50.50 Y48.92 E95.3527               ; draw dl=0.17@10<10>10 l=0.30x0.40x1.00
;00:03:06.018: pe=0.9996 eb=0.0157 ve=0.5011 vn=0.4991 vl=10.000 db=0.40
G1 X50.54 Y48.92 E95.3547               ; draw dl=0.04@10<10>10 l=0.30x0.40x1.00
;00:03:06.022: pe=0.9996 eb=0.0157 ve=0.5011 vn=0.4991 vl=10.000 db=0.40
G1 X50.60 Y48.92 E95.1581               ; move dl=0.06@10<10>0 de=-0.1966 h=0.3
;00:03:06.034: pe=0.8008 eb=0.0149 ve=-0.0000 vn=0.0550 vl=0.000 db=0.39
G1 E93.3573 F2400                       ; retract de=-1.8008@40
;00:03:06.079: pe=-1.0000 eb=0.0149 ve=-40.0000 vn=0.0000 vl=0.000 db=0.39
G1 Z0.700 F420                          ; hopup dz=0.40@7 h=0.7
;00:03:06.136: pe=-1.0000 eb=0.0149 ve=0.0000 vn=0.0000 vl=0.000 db=0.25
G1 X51.57 Y48.22 F1038                  ; move dl=1.20@0<17>0 de=0.0000 h=0.7
;00:03:06.240: pe=-1.0000 eb=0.0000 ve=0.0000 vn=0.0000 vl=0.000 db=0.00
G1 Z0.300 F420                          ; hopdn dz=-0.40@7 h=0.3
;00:03:06.297: pe=-1.0000 eb=0.0000 ve=0.0000 vn=0.0000 vl=0.000 db=0.00
G1 E95.3518 F1800                       ; restore de=1.9946@30
;00:03:06.364: pe=0.9821 eb=0.0125 ve=30.0000 vn=0.6690 vl=0.000 db=0.36
G1 X53.30 Y48.22 E95.4350 F600          ; draw dl=1.73@0<10>0 l=0.30x0.40x0.96
;00:03:06.557: pe=0.9743 eb=0.0183 ve=0.0000 vn=0.2747 vl=0.000 db=0.43
G1 E93.4606 F2400                       ; retract de=-1.9743@40
;00:03:06.606: pe=-1.0002 eb=0.0185 ve=-40.0000 vn=0.0000 vl=0.000 db=0.44
G1 Z0.700 F420                          ; hopup dz=0.40@7 h=0.7
;00:03:06.663: pe=-1.0002 eb=0.0185 ve=0.0000 vn=0.0000 vl=0.000 db=0.28
G1 X53.30 Y47.49 F811                   ; move dl=0.73@0<14>0 de=0.0000 h=0.7
;00:03:06.744: pe=-1.0002 eb=0.0000 ve=0.0000 vn=0.0000 vl=0.000 db=0.00
G1 Z0.300 F420                          ; hopdn dz=-0.40@7 h=0.3
;00:03:06.801: pe=-1.0002 eb=0.0000 ve=0.0000 vn=0.0000 vl=0.000 db=0.00
G1 E95.4554 F1800                       ; restore de=1.9948@30
;00:03:06.868: pe=0.9821 eb=0.0125 ve=30.0000 vn=0.6690 vl=0.000 db=0.36
G1 X51.57 Y47.49 E95.5386 F600          ; draw dl=1.73@0<10>0 l=0.30x0.40x0.96
;00:03:07.061: pe=0.9743 eb=0.0183 ve=0.0000 vn=0.2747 vl=0.000 db=0.43
G1 E93.5642 F2400                       ; retract de=-1.9743@40
;00:03:07.110: pe=-1.0002 eb=0.0185 ve=-40.0000 vn=0.0000 vl=0.000 db=0.44
G1 Z0.700 F420                          ; hopup dz=0.40@7 h=0.7
;00:03:07.167: pe=-1.0002 eb=0.0185 ve=0.0000 vn=0.0000 vl=0.000 db=0.28
G1 X54.27 Y49.43 F1730                  ; move dl=3.32@0<29>0 de=0.0000 h=0.7
;00:03:07.340: pe=-1.0002 eb=0.0000 ve=0.0000 vn=0.0000 vl=0.000 db=0.00
G1 Z0.300 F420                          ; hopdn dz=-0.40@7 h=0.3
;00:03:07.397: pe=-1.0002 eb=0.0000 ve=0.0000 vn=0.0000 vl=0.000 db=0.00
G1 E95.5276 F1800                       ; restore de=1.9634@30
;00:03:07.463: pe=0.9514 eb=0.0117 ve=30.0000 vn=0.6470 vl=0.000 db=0.35
G1 X54.46 Y49.64 E95.5378 F600          ; draw dl=0.28@0<10>10 l=0.30x0.40x0.72
;00:03:07.501: pe=0.9452 eb=0.0143 ve=0.3603 vn=0.4519 vl=10.000 db=0.38
G1 X54.70 Y49.80 E95.6065               ; draw dl=0.29@10<10>10 l=0.30x0.40x4.77
;00:03:07.530: pe=0.9993 eb=0.0151 ve=2.3822 vn=0.5353 vl=10.000 db=0.39
G1 X54.97 Y49.90 E95.6212               ; draw dl=0.29@10<10>10 l=0.30x0.40x1.02
;00:03:07.559: pe=0.9992 eb=0.0156 ve=0.5077 vn=0.5020 vl=10.000 db=0.40
G1 X55.26 Y49.94 E95.6362               ; draw dl=0.29@10<10>10 l=0.30x0.40x1.03
;00:03:07.588: pe=0.9995 eb=0.0157 ve=0.5127 vn=0.4994 vl=10.000 db=0.40
G1 X55.64 Y49.87 E95.6555               ; draw dl=0.39@10<10>10 l=0.30x0.40x1.00
;00:03:07.627: pe=0.9996 eb=0.0157 ve=0.4999 vn=0.4989 vl=10.000 db=0.40
G1 X55.94 Y49.68 E95.6732               ; draw dl=0.36@10<10>10 l=0.30x0.40x1.00
;00:03:07.662: pe=0.9996 eb=0.0157 ve=0.4991 vn=0.4989 vl=10.000 db=0.40
G1 X56.13 Y49.38 E95.6909               ; draw dl=0.36@10<10>10 l=0.30x0.40x1.00
;00:03:07.698: pe=0.9996 eb=0.0157 ve=0.4989 vn=0.4989 vl=10.000 db=0.40
G1 X56.20 Y48.99 E95.7107               ; draw dl=0.40@10<10>10 l=0.30x0.40x1.00
;00:03:07.737: pe=0.9996 eb=0.0157 ve=0.4989 vn=0.4989 vl=10.000 db=0.40
G1 X56.11 Y48.60 E95.7307               ; draw dl=0.40@10<10>10 l=0.30x0.40x1.00
;00:03:07.777: pe=0.9996 eb=0.0157 ve=0.4989 vn=0.4989 vl=10.000 db=0.40
G1 X55.81 Y48.23 E95.7544               ; draw dl=0.48@10<10>10 l=0.30x0.40x1.00
;00:03:07.825: pe=0.9996 eb=0.0157 ve=0.4989 vn=0.4989 vl=10.000 db=0.40
G1 X55.02 Y47.59 E95.8051               ; draw dl=1.02@10<10>10 l=0.30x0.40x1.00
;00:03:07.927: pe=0.9996 eb=0.0157 ve=0.4989 vn=0.4989 vl=10.000 db=0.40
G1 X54.72 Y47.17 E95.8309               ; draw dl=0.52@10<10>10 l=0.30x0.40x1.00
;00:03:07.978: pe=0.9996 eb=0.0157 ve=0.4989 vn=0.4989 vl=10.000 db=0.40
G1 X54.31 Y46.41 E95.8722               ; draw dl=0.86@10<10>7 l=0.30x0.40x0.96
;00:03:08.065: pe=0.9976 eb=0.0160 ve=0.3471 vn=0.4754 vl=7.249 db=0.40
G1 X56.18 Y46.41 E95.9567               ; draw dl=1.87@7<10>0 l=0.30x0.40x0.91
;00:03:08.263: pe=0.9862 eb=0.0187 ve=0.0000 vn=0.2792 vl=0.000 db=0.44
G1 E93.9705 F2400                       ; retract de=-1.9862@40
;00:03:08.313: pe=-1.0002 eb=0.0190 ve=-40.0000 vn=0.0000 vl=0.000 db=0.44
G1 Z0.700 F420                          ; hopup dz=0.40@7 h=0.7
;00:03:08.370: pe=-1.0002 eb=0.0190 ve=0.0000 vn=0.0000 vl=0.000 db=0.29
G1 X58.42 Y49.94 F1940                  ; move dl=4.18@0<32>0 de=0.0000 h=0.7
;00:03:08.564: pe=-1.0002 eb=0.0000 ve=0.0000 vn=0.0000 vl=0.000 db=0.00
G1 Z0.300 F420                          ; hopdn dz=-0.40@7 h=0.3
;00:03:08.621: pe=-1.0002 eb=0.0000 ve=0.0000 vn=0.0000 vl=0.000 db=0.00
G1 E95.9553 F1800                       ; restore de=1.9848@30
;00:03:08.687: pe=0.9723 eb=0.0123 ve=30.0000 vn=0.6614 vl=0.000 db=0.35
G1 X58.95 Y49.79 E95.9794 F600          ; draw dl=0.55@0<10>10 l=0.30x0.40x0.88
;00:03:08.752: pe=0.9668 eb=0.0147 ve=0.4370 vn=0.4798 vl=10.000 db=0.39
G1 X59.35 Y49.41 E96.0396               ; draw dl=0.55@10<10>10 l=0.30x0.40x2.19
;00:03:08.808: pe=0.9994 eb=0.0155 ve=1.0918 vn=0.5119 vl=10.000 db=0.40
G1 X59.59 Y48.83 E96.0711               ; draw dl=0.63@10<10>10 l=0.30x0.40x1.01
;00:03:08.870: pe=0.9994 eb=0.0157 ve=0.5015 vn=0.4989 vl=10.000 db=0.40
G1 X59.68 Y48.14 E96.1060               ; draw dl=0.70@10<10>10 l=0.30x0.40x1.00
;00:03:08.940: pe=0.9996 eb=0.0157 ve=0.5011 vn=0.4990 vl=10.000 db=0.40
G1 X59.59 Y47.45 E96.1407               ; draw dl=0.70@10<10>10 l=0.30x0.40x1.00
;00:03:09.009: pe=0.9996 eb=0.0157 ve=0.4989 vn=0.4989 vl=10.000 db=0.40
G1 X59.34 Y46.88 E96.1717               ; draw dl=0.62@10<10>10 l=0.30x0.40x1.00
;00:03:09.072: pe=0.9996 eb=0.0157 ve=0.4989 vn=0.4989 vl=10.000 db=0.40
G1 X58.95 Y46.49 E96.1992               ; draw dl=0.55@10<10>10 l=0.30x0.40x1.00
;00:03:09.127: pe=0.9996 eb=0.0157 ve=0.4989 vn=0.4989 vl=10.000 db=0.40
G1 X58.42 Y46.34 E96.2267               ; draw dl=0.55@10<10>10 l=0.30x0.40x1.00
;00:03:09.182: pe=0.9996 eb=0.0157 ve=0.4989 vn=0.4989 vl=10.000 db=0.40
G1 X57.90 Y46.49 E96.2537               ; draw dl=0.54@10<10>10 l=0.30x0.40x1.00
;00:03:09.236: pe=0.9996 eb=0.0157 ve=0.4989 vn=0.4989 vl=10.000 db=0.40
G1 X57.51 Y46.88 E96.2812               ; draw dl=0.55@10<10>10 l=0.30x0.40x1.00
;00:03:09.291: pe=0.9996 eb=0.0157 ve=0.4989 vn=0.4989 vl=10.000 db=0.40
G1 X57.26 Y47.45 E96.3123               ; draw dl=0.62@10<10>10 l=0.30x0.40x1.00
;00:03:09.353: pe=0.9996 eb=0.0157 ve=0.4989 vn=0.4989 vl=10.000 db=0.40
G1 X57.18 Y48.14 E96.3469               ; draw dl=0.69@10<10>10 l=0.30x0.40x1.00
;00:03:09.423: pe=0.9996 eb=0.0157 ve=0.4989 vn=0.4989 vl=10.000 db=0.40
G1 X57.26 Y48.83 E96.3816               ; draw dl=0.69@10<10>10 l=0.30x0.40x1.00
;00:03:09.492: pe=0.9996 eb=0.0157 ve=0.4989 vn=0.4989 vl=10.000 db=0.40
G1 X57.50 Y49.40 E96.4125               ; draw dl=0.62@10<10>10 l=0.30x0.40x1.00
;00:03:09.554: pe=0.9996 eb=0.0157 ve=0.4989 vn=0.4989 vl=10.000 db=0.40
G1 X57.90 Y49.79 E96.4403               ; draw dl=0.56@10<10>10 l=0.30x0.40x1.00
;00:03:09.610: pe=0.9996 eb=0.0157 ve=0.4989 vn=0.4989 vl=10.000 db=0.40
G1 X58.42 Y49.94 E96.4362               ; move dl=0.54@10<10>0 de=-0.0041 h=0.3
;00:03:09.674: pe=0.9662 eb=0.0181 ve=-0.0000 vn=0.2648 vl=0.000 db=0.43
G1 E94.4700 F2400                       ; retract de=-1.9662@40
;00:03:09.723: pe=-1.0002 eb=0.0183 ve=-40.0000 vn=0.0000 vl=0.000 db=0.43
G1 Z0.700 F420                          ; hopup dz=0.40@7 h=0.7
;00:03:09.781: pe=-1.0002 eb=0.0183 ve=0.0000 vn=0.0000 vl=0.000 db=0.28
G1 X60.65 Y47.85 F1659                  ; move dl=3.06@0<28>0 de=0.0000 h=0.7
;00:03:09.946: pe=-1.0002 eb=0.0000 ve=0.0000 vn=0.0000 vl=0.000 db=0.00
G1 Z0.300 F420                          ; hopdn dz=-0.40@7 h=0.3
;00:03:10.004: pe=-1.0002 eb=0.0000 ve=0.0000 vn=0.0000 vl=0.000 db=0.00
G1 E96.4666 F1800                       ; restore de=1.9965@30
;00:03:10.070: pe=0.9838 eb=0.0125 ve=30.0000 vn=0.6702 vl=0.000 db=0.36
G1 X62.56 Y47.85 E96.5587 F600          ; draw dl=1.91@0<10>0 l=0.30x0.40x0.97
;00:03:10.281: pe=0.9761 eb=0.0184 ve=0.0000 vn=0.2754 vl=0.000 db=0.43
G1 E94.5826 F2400                       ; retract de=-1.9761@40
;00:03:10.330: pe=-1.0002 eb=0.0186 ve=-40.0000 vn=0.0000 vl=0.000 db=0.44
G1 Z0.700 F420                          ; hopup dz=0.40@7 h=0.7
;00:03:10.388: pe=-1.0002 eb=0.0186 ve=0.0000 vn=0.0000 vl=0.000 db=0.29
G1 X63.53 Y48.98 F1158                  ; move dl=1.49@0<19>0 de=0.0000 h=0.7
;00:03:10.503: pe=-1.0002 eb=0.0000 ve=0.0000 vn=0.0000 vl=0.000 db=0.00
G1 Z0.300 F420                          ; hopdn dz=-0.40@7 h=0.3
;00:03:10.561: pe=-1.0002 eb=0.0000 ve=0.0000 vn=0.0000 vl=0.000 db=0.00
G1 E96.5672 F1800                       ; restore de=1.9846@30
;00:03:10.627: pe=0.9721 eb=0.0123 ve=30.0000 vn=0.6612 vl=0.000 db=0.35
G1 X64.02 Y49.22 E96.5910 F600          ; draw dl=0.55@0<10>10 l=0.30x0.40x0.87
;00:03:10.691: pe=0.9666 eb=0.0147 ve=0.4364 vn=0.4796 vl=10.000 db=0.39
G1 X64.39 Y49.54 E96.6484               ; draw dl=0.49@10<10>10 l=0.30x0.40x2.35
;00:03:10.740: pe=0.9994 eb=0.0154 ve=1.1727 vn=0.5136 vl=10.000 db=0.40
G1 X64.64 Y49.87 E96.6571               ; draw dl=0.41@10<10>5 l=0.30x0.40x0.42
;00:03:10.784: pe=0.9866 eb=0.0164 ve=0.1024 vn=0.4183 vl=4.834 db=0.41
G1 X64.64 Y46.41 E96.8357               ; draw dl=3.46@5<10>0 l=0.30x0.40x1.03
;00:03:11.143: pe=0.9911 eb=0.0189 ve=0.0000 vn=0.2819 vl=0.000 db=0.44
G1 E94.8446 F2400                       ; retract de=-1.9911@40
;00:03:11.193: pe=-1.0003 eb=0.0191 ve=-40.0000 vn=0.0000 vl=0.000 db=0.44
G1 Z0.700 F420                          ; hopup dz=0.40@7 h=0.7
;00:03:11.250: pe=-1.0003 eb=0.0191 ve=0.0000 vn=0.0000 vl=0.000 db=0.29
G1 X66.86 Y49.94 F1937                  ; move dl=4.17@0<32>0 de=0.0000 h=0.7
;00:03:11.444: pe=-1.0003 eb=0.0000 ve=0.0000 vn=0.0000 vl=0.000 db=0.00
G1 Z0.300 F420                          ; hopdn dz=-0.40@7 h=0.3
;00:03:11.501: pe=-1.0003 eb=0.0000 ve=0.0000 vn=0.0000 vl=0.000 db=0.00
G1 E96.8295 F1800                       ; restore de=1.9848@30
;00:03:11.567: pe=0.9723 eb=0.0123 ve=30.0000 vn=0.6614 vl=0.000 db=0.35
G1 X67.39 Y49.79 E96.8535 F600          ; draw dl=0.55@0<10>10 l=0.30x0.40x0.88
;00:03:11.632: pe=0.9668 eb=0.0147 ve=0.4370 vn=0.4798 vl=10.000 db=0.39
G1 X67.79 Y49.41 E96.9138               ; draw dl=0.55@10<10>10 l=0.30x0.40x2.19
;00:03:11.687: pe=0.9994 eb=0.0155 ve=1.0918 vn=0.5119 vl=10.000 db=0.40
G1 X68.03 Y48.83 E96.9453               ; draw dl=0.63@10<10>10 l=0.30x0.40x1.01
;00:03:11.750: pe=0.9994 eb=0.0157 ve=0.5015 vn=0.4989 vl=10.000 db=0.40
G1 X68.12 Y48.14 E96.9801               ; draw dl=0.70@10<10>10 l=0.30x0.40x1.00
;00:03:11.819: pe=0.9996 eb=0.0157 ve=0.5011 vn=0.4990 vl=10.000 db=0.40
G1 X68.03 Y47.45 E97.0148               ; draw dl=0.70@10<10>10 l=0.30x0.40x1.00
;00:03:11.889: pe=0.9996 eb=0.0157 ve=0.4989 vn=0.4989 vl=10.000 db=0.40
G1 X67.78 Y46.88 E97.0459               ; draw dl=0.62@10<10>10 l=0.30x0.40x1.00
;00:03:11.951: pe=0.9996 eb=0.0157 ve=0.4989 vn=0.4989 vl=10.000 db=0.40
G1 X67.39 Y46.49 E97.0734               ; draw dl=0.55@10<10>10 l=0.30x0.40x1.00
;00:03:12.006: pe=0.9996 eb=0.0157 ve=0.4989 vn=0.4989 vl=10.000 db=0.40
G1 X66.86 Y46.34 E97.1009               ; draw dl=0.55@10<10>10 l=0.30x0.40x1.00
;00:03:12.062: pe=0.9996 eb=0.0157 ve=0.4989 vn=0.4989 vl=10.000 db=0.40
G1 X66.34 Y46.49 E97.1279               ; draw dl=0.54@10<10>10 l=0.30x0.40x1.00
;00:03:12.116: pe=0.9996 eb=0.0157 ve=0.4989 vn=0.4989 vl=10.000 db=0.40
G1 X65.95 Y46.88 E97.1554               ; draw dl=0.55@10<10>10 l=0.30x0.40x1.00
;00:03:12.171: pe=0.9996 eb=0.0157 ve=0.4989 vn=0.4989 vl=10.000 db=0.40
G1 X65.70 Y47.45 E97.1865               ; draw dl=0.62@10<10>10 l=0.30x0.40x1.00
;00:03:12.233: pe=0.9996 eb=0.0157 ve=0.4989 vn=0.4989 vl=10.000 db=0.40
G1 X65.62 Y48.14 E97.2211               ; draw dl=0.69@10<10>10 l=0.30x0.40x1.00
;00:03:12.302: pe=0.9996 eb=0.0157 ve=0.4989 vn=0.4989 vl=10.000 db=0.40
G1 X65.70 Y48.83 E97.2558               ; draw dl=0.69@10<10>10 l=0.30x0.40x1.00
;00:03:12.372: pe=0.9996 eb=0.0157 ve=0.4989 vn=0.4989 vl=10.000 db=0.40
G1 X65.94 Y49.40 E97.2866               ; draw dl=0.62@10<10>10 l=0.30x0.40x1.00
;00:03:12.434: pe=0.9996 eb=0.0157 ve=0.4989 vn=0.4989 vl=10.000 db=0.40
G1 X66.34 Y49.79 E97.3145               ; draw dl=0.56@10<10>10 l=0.30x0.40x1.00
;00:03:12.490: pe=0.9996 eb=0.0157 ve=0.4989 vn=0.4989 vl=10.000 db=0.40
G1 X66.86 Y49.94 E97.3104               ; move dl=0.54@10<10>0 de=-0.0041 h=0.3
;00:03:12.554: pe=0.9662 eb=0.0181 ve=-0.0000 vn=0.2648 vl=0.000 db=0.43
G1 E95.3442 F2400                       ; retract de=-1.9662@40
;00:03:12.603: pe=-1.0002 eb=0.0183 ve=-40.0000 vn=0.0000 vl=0.000 db=0.43
G1 Z0.700 F420                          ; hopup dz=0.40@7 h=0.7
;00:03:12.660: pe=-1.0002 eb=0.0183 ve=0.0000 vn=0.0000 vl=0.000 db=0.28
G1 X70.33 Y49.94 F1767                  ; move dl=3.47@0<29>0 de=0.0000 h=0.7
;00:03:12.837: pe=-1.0002 eb=0.0000 ve=0.0000 vn=0.0000 vl=0.000 db=0.00
G1 Z0.300 F420                          ; hopdn dz=-0.40@7 h=0.3
;00:03:12.894: pe=-1.0002 eb=0.0000 ve=0.0000 vn=0.0000 vl=0.000 db=0.00
G1 E97.3290 F1800                       ; restore de=1.9848@30
;00:03:12.960: pe=0.9723 eb=0.0123 ve=30.0000 vn=0.6614 vl=0.000 db=0.35
G1 X70.86 Y49.79 E97.3531 F600          ; draw dl=0.55@0<10>10 l=0.30x0.40x0.88
;00:03:13.025: pe=0.9668 eb=0.0147 ve=0.4370 vn=0.4798 vl=10.000 db=0.39
G1 X71.26 Y49.41 E97.4133               ; draw dl=0.55@10<10>10 l=0.30x0.40x2.19
;00:03:13.080: pe=0.9994 eb=0.0155 ve=1.0918 vn=0.5119 vl=10.000 db=0.40
G1 X71.50 Y48.83 E97.4448               ; draw dl=0.63@10<10>10 l=0.30x0.40x1.01
;00:03:13.143: pe=0.9994 eb=0.0157 ve=0.5015 vn=0.4989 vl=10.000 db=0.40
G1 X71.59 Y48.14 E97.4797               ; draw dl=0.70@10<10>10 l=0.30x0.40x1.00
;00:03:13.213: pe=0.9996 eb=0.0157 ve=0.5011 vn=0.4990 vl=10.000 db=0.40
G1 X71.50 Y47.45 E97.5144               ; draw dl=0.70@10<10>10 l=0.30x0.40x1.00
;00:03:13.282: pe=0.9996 eb=0.0157 ve=0.4989 vn=0.4989 vl=10.000 db=0.40
G1 X71.25 Y46.88 E97.5454               ; draw dl=0.62@10<10>10 l=0.30x0.40x1.00
;00:03:13.345: pe=0.9996 eb=0.0157 ve=0.4989 vn=0.4989 vl=10.000 db=0.40
G1 X70.86 Y46.49 E97.5730               ; draw dl=0.55@10<10>10 l=0.30x0.40x1.00
;00:03:13.400: pe=0.9996 eb=0.0157 ve=0.4989 vn=0.4989 vl=10.000 db=0.40
G1 X70.33 Y46.34 E97.6004               ; draw dl=0.55@10<10>10 l=0.30x0.40x1.00
;00:03:13.455: pe=0.9996 eb=0.0157 ve=0.4989 vn=0.4989 vl=10.000 db=0.40
G1 X69.81 Y46.49 E97.6274               ; draw dl=0.54@10<10>10 l=0.30x0.40x1.00
;00:03:13.509: pe=0.9996 eb=0.0157 ve=0.4989 vn=0.4989 vl=10.000 db=0.40
G1 X69.42 Y46.88 E97.6549               ; draw dl=0.55@10<10>10 l=0.30x0.40x1.00
;00:03:13.564: pe=0.9996 eb=0.0157 ve=0.4989 vn=0.4989 vl=10.000 db=0.40
G1 X69.17 Y47.45 E97.6860               ; draw dl=0.62@10<10>10 l=0.30x0.40x1.00
;00:03:13.626: pe=0.9996 eb=0.0157 ve=0.4989 vn=0.4989 vl=10.000 db=0.40
G1 X69.09 Y48.14 E97.7207               ; draw dl=0.69@10<10>10 l=0.30x0.40x1.00
;00:03:13.696: pe=0.9996 eb=0.0157 ve=0.4989 vn=0.4989 vl=10.000 db=0.40
G1 X69.17 Y48.83 E97.7553               ; draw dl=0.69@10<10>10 l=0.30x0.40x1.00
;00:03:13.765: pe=0.9996 eb=0.0157 ve=0.4989 vn=0.4989 vl=10.000 db=0.40
G1 X69.41 Y49.40 E97.7862               ; draw dl=0.62@10<10>10 l=0.30x0.40x1.00
;00:03:13.827: pe=0.9996 eb=0.0157 ve=0.4989 vn=0.4989 vl=10.000 db=0.40
G1 X69.81 Y49.79 E97.8140               ; draw dl=0.56@10<10>10 l=0.30x0.40x1.00
;00:03:13.883: pe=0.9996 eb=0.0157 ve=0.4989 vn=0.4989 vl=10.000 db=0.40
G1 X70.33 Y49.94 E97.8099               ; move dl=0.54@10<10>0 de=-0.0041 h=0.3
;00:03:13.947: pe=0.9662 eb=0.0181 ve=-0.0000 vn=0.2648 vl=0.000 db=0.43
G1 E95.8437 F2400                       ; retract de=-1.9662@40
;00:03:13.996: pe=-1.0002 eb=0.0183 ve=-40.0000 vn=0.0000 vl=0.000 db=0.43
G1 Z0.700 F420                          ; hopup dz=0.40@7 h=0.7
;00:03:14.053: pe=-1.0002 eb=0.0183 ve=0.0000 vn=0.0000 vl=0.000 db=0.28
G1 X46.40 Y41.41 F4782                  ; move dl=25.40@0<80>0 de=0.0000 h=0.7
;00:03:14.532: pe=-1.0002 eb=0.0000 ve=0.0000 vn=0.0000 vl=0.000 db=0.00
G1 Z0.300 F420                          ; hopdn dz=-0.40@7 h=0.3
;00:03:14.589: pe=-1.0002 eb=0.0000 ve=0.0000 vn=0.0000 vl=0.000 db=0.00
G1 E97.8441 F1800                       ; restore de=2.0004@30
;00:03:14.655: pe=0.9875 eb=0.0126 ve=30.0000 vn=0.6727 vl=0.000 db=0.36
G1 X46.40 Y43.86 E97.9633 F600          ; draw dl=2.45@0<10>0 l=0.30x0.40x0.98
;00:03:14.920: pe=0.9800 eb=0.0185 ve=0.0000 vn=0.2770 vl=0.000 db=0.43
G1 E95.9834 F2400                       ; retract de=-1.9800@40
;00:03:14.970: pe=-1.0002 eb=0.0187 ve=-40.0000 vn=0.0000 vl=0.000 db=0.44
G1 Z0.700 F420                          ; hopup dz=0.40@7 h=0.7
;00:03:15.027: pe=-1.0002 eb=0.0187 ve=0.0000 vn=0.0000 vl=0.000 db=0.29
G1 X46.40 Y43.16 F794                   ; move dl=0.70@0<13>0 de=0.0000 h=0.7
;00:03:15.106: pe=-1.0002 eb=0.0000 ve=0.0000 vn=0.0000 vl=0.000 db=0.00
G1 Z0.300 F420                          ; hopdn dz=-0.40@7 h=0.3
