;gcode_flavor: flashforge
;machine_type: Adventurer 3 Series
;filament_diameter0: 1.75
;right_extruder_temperature: 245
;platform_temperature: 100
;extruder_fan: 0%
;case_fan: 0%
;base_print_speed: 50
;travel_speed: 100
;vertical_speed: 7
;retract_speed: 40
;restore_speed: 30
;layer_height: 0.30
;line_width: 0.40
;extrusion_ratio: 1.00
;start gcode
M118 X75.00 Y75.00 Z150.00 T0
M140 S100 T0
M104 S245 T0
M104 S0 T1
M107
M900 K0.400 T0
G90
G28
M132 X Y Z A B
G1 Z50.000 F420
G161 X Y F3300
M7 T0
M6 T0
M651
M108 T0
;preExtrude:0.30
;00:00:00.000: layer=0 h=0.30 w=0.40 r=1.00
;structure:pre-extrude
G1 X-55.00 Y-65.00 F6000                ; move dl=85.15@0<100>0 de=0.0000 h=0.0
;00:00:01.051: pe=0.0000 eb=0.0000 ve=0.0000 vn=0.0000 vl=0.000 db=0.00
G1 Z0.300 F420                          ; hopup dz=0.30@7 h=0.3
;00:00:01.094: pe=0.0000 eb=0.0000 ve=0.0000 vn=0.0000 vl=0.000 db=0.00
G1 E6.6406 F1800                        ; restore de=6.6406@30
;00:00:01.316: pe=6.3352 eb=0.3055 ve=30.0000 vn=2.5936 vl=0.000 db=1.77
G1 X-55.00 Y55.00 E30.5879 F1200        ; draw dl=120.00@0<20>10 l=0.30x0.40x4.00
;00:00:07.341: pe=6.3786 eb=0.2673 ve=1.9956 vn=3.5581 vl=10.000 db=1.65
G1 X-55.00 Y65.00 F600                  ; move dl=10.00@10<10>10 de=0.0000 h=0.3
;00:00:08.341: pe=4.5423 eb=0.1683 ve=0.0000 vn=1.5249 vl=10.000 db=1.31
G1 X35.00 Y65.00                        ; move dl=90.00@10<10>1 de=0.0000 h=0.3
;00:00:17.349: pe=0.1951 eb=0.0004 ve=0.0000 vn=0.0122 vl=1.000 db=0.06
G1 X45.00 Y65.00 F60                    ; move dl=10.00@1<1>0 de=0.0000 h=0.3
;00:00:27.350: pe=0.1298 eb=0.0002 ve=0.0000 vn=0.0016 vl=0.000 db=0.04
G1 E29.4582 F2400                       ; retract de=-1.1298@40
;00:00:27.378: pe=-1.0000 eb=0.0002 ve=-40.0000 vn=0.0000 vl=0.000 db=0.04
G1 Z0.700 F420                          ; hopup dz=0.40@7 h=0.7
;00:00:27.435: pe=-1.0000 eb=0.0002 ve=0.0000 vn=0.0000 vl=0.000 db=0.03
;layer:0.30
;00:00:27.435: layer=1 h=0.30 w=0.40 r=1.00
;structure:brim
G1 X-45.00 Y60.00 F6000                 ; move dl=90.14@0<100>0 de=0.0000 h=0.7
;00:00:28.537: pe=-1.0000 eb=0.0000 ve=0.0000 vn=0.0000 vl=0.000 db=0.00
G1 Z0.300 F420                          ; hopdn dz=-0.40@7 h=0.3
;00:00:28.594: pe=-1.0000 eb=0.0000 ve=0.0000 vn=0.0000 vl=0.000 db=0.00
G1 E31.8732 F1800                       ; restore de=2.4151@30
;00:00:28.674: pe=1.4000 eb=0.0151 ve=30.0000 vn=0.5576 vl=0.000 db=0.39
G1 X-45.00 Y-61.00 E37.9099 F600        ; draw dl=121.00@0<10>10 l=0.30x0.40x1.00
;00:00:40.784: pe=1.3996 eb=0.0157 ve=0.4989 vn=0.4989 vl=10.000 db=0.40
G1 X-45.40 Y-61.00 E37.9299             ; draw dl=0.40@10<10>10 l=0.30x0.40x1.00
;00:00:40.824: pe=1.3996 eb=0.0157 ve=0.4989 vn=0.4989 vl=10.000 db=0.40
G1 X-45.40 Y60.00 E43.9666              ; draw dl=121.00@10<10>0 l=0.30x0.40x1.00
;00:00:52.934: pe=1.3966 eb=0.0186 ve=0.0000 vn=0.2235 vl=0.000 db=0.44
G1 E41.5701 F2400                       ; retract de=-2.3966@40
;00:00:52.994: pe=-1.0001 eb=0.0187 ve=-40.0000 vn=0.0000 vl=0.000 db=0.44
G1 Z0.700 F420                          ; hopup dz=0.40@7 h=0.7
;00:00:53.051: pe=-1.0001 eb=0.0187 ve=0.0000 vn=0.0000 vl=0.000 db=0.29
G1 X45.00 Y60.00 F6000                  ; move dl=90.40@0<100>0 de=0.0000 h=0.7
;00:00:54.155: pe=-1.0001 eb=0.0000 ve=0.0000 vn=0.0000 vl=0.000 db=0.00
G1 Z0.300 F420                          ; hopdn dz=-0.40@7 h=0.3
;00:00:54.212: pe=-1.0001 eb=0.0000 ve=0.0000 vn=0.0000 vl=0.000 db=0.00
G1 E43.9853 F1800                       ; restore de=2.4152@30
;00:00:54.293: pe=1.4000 eb=0.0151 ve=30.0000 vn=0.5576 vl=0.000 db=0.39
G1 X45.00 Y-61.00 E50.0220 F600         ; draw dl=121.00@0<10>10 l=0.30x0.40x1.00
;00:01:06.403: pe=1.3996 eb=0.0157 ve=0.4989 vn=0.4989 vl=10.000 db=0.40
G1 X45.40 Y-61.00 E50.0419              ; draw dl=0.40@10<10>10 l=0.30x0.40x1.00
;00:01:06.443: pe=1.3996 eb=0.0157 ve=0.4989 vn=0.4989 vl=10.000 db=0.40
G1 X45.40 Y60.00 E56.0787               ; draw dl=121.00@10<10>0 l=0.30x0.40x1.00
;00:01:18.553: pe=1.3966 eb=0.0186 ve=0.0000 vn=0.2235 vl=0.000 db=0.44
G1 E53.6821 F2400                       ; retract de=-2.3966@40
;00:01:18.613: pe=-1.0001 eb=0.0187 ve=-40.0000 vn=0.0000 vl=0.000 db=0.44
G1 Z0.700 F420                          ; hopup dz=0.40@7 h=0.7
;00:01:18.670: pe=-1.0001 eb=0.0187 ve=0.0000 vn=0.0000 vl=0.000 db=0.29
;00:01:18.670: Test Backpressure w=0.3-0.8 vx=10 ve=0.3742
;structure:shell-outer
G1 X-45.00 Y55.00 F6000                 ; move dl=90.54@0<100>0 de=0.0000 h=0.7
;00:01:19.775: pe=-1.0001 eb=0.0000 ve=0.0000 vn=0.0000 vl=0.000 db=0.00
G1 Z0.300 F420                          ; hopdn dz=-0.40@7 h=0.3
;00:01:19.832: pe=-1.0001 eb=0.0000 ve=0.0000 vn=0.0000 vl=0.000 db=0.00
G1 E56.0970 F1800                       ; restore de=2.4149@30
;00:01:19.913: pe=1.3997 eb=0.0151 ve=30.0000 vn=0.5575 vl=0.000 db=0.39
G1 X45.00 Y55.00 E60.5871 F600          ; draw dl=90.00@0<10>0 l=0.30x0.40x1.00
;00:01:28.933: pe=1.3965 eb=0.0186 ve=0.0000 vn=0.2235 vl=0.000 db=0.44
G1 E58.1906 F2400                       ; retract de=-2.3965@40
;00:01:28.993: pe=-1.0001 eb=0.0187 ve=-40.0000 vn=0.0000 vl=0.000 db=0.44
G1 Z0.700 F420                          ; hopup dz=0.40@7 h=0.7
;00:01:29.050: pe=-1.0001 eb=0.0187 ve=0.0000 vn=0.0000 vl=0.000 db=0.29
G1 X-42.00 Y55.00 F6000                 ; move dl=87.00@0<100>0 de=0.0000 h=0.7
;00:01:30.120: pe=-1.0001 eb=0.0000 ve=0.0000 vn=0.0000 vl=0.000 db=0.00
G1 X-40.00 Y55.00 F1342                 ; move dl=2.00@0<22>0 de=0.0000 h=0.7
;00:01:30.254: pe=-1.0001 eb=0.0000 ve=0.0000 vn=0.0000 vl=0.000 db=0.00
G1 Z0.300 F420                          ; hopdn dz=-0.40@7 h=0.3
;00:01:30.311: pe=-1.0001 eb=0.0000 ve=0.0000 vn=0.0000 vl=0.000 db=0.00
G1 E60.5935 F1800                       ; restore de=2.4029@30
;00:01:30.391: pe=1.3879 eb=0.0148 ve=30.0000 vn=0.5513 vl=0.000 db=0.39
G1 X-40.00 Y52.00 E60.7432 F600         ; draw dl=3.00@0<10>0 l=0.30x0.40x1.00
;00:01:30.711: pe=1.3852 eb=0.0183 ve=0.0000 vn=0.2206 vl=0.000 db=0.43
G1 E58.3580 F2400                       ; retract de=-2.3852@40
;00:01:30.771: pe=-1.0001 eb=0.0184 ve=-40.0000 vn=0.0000 vl=0.000 db=0.43
G1 Z0.700 F420                          ; hopup dz=0.40@7 h=0.7
;00:01:30.828: pe=-1.0001 eb=0.0184 ve=0.0000 vn=0.0000 vl=0.000 db=0.28
G1 X-38.00 Y55.00 F1801                 ; move dl=3.61@0<30>0 de=0.0000 h=0.7
;00:01:31.008: pe=-1.0001 eb=0.0000 ve=0.0000 vn=0.0000 vl=0.000 db=0.00
G1 Z0.300 F420                          ; hopdn dz=-0.40@7 h=0.3
;00:01:31.066: pe=-1.0001 eb=0.0000 ve=0.0000 vn=0.0000 vl=0.000 db=0.00
G1 E60.7499 F1800                       ; restore de=2.3919@30
;00:01:31.145: pe=1.3772 eb=0.0146 ve=30.0000 vn=0.5474 vl=0.000 db=0.39
G1 X-38.00 Y53.50 E60.8247 F600         ; draw dl=1.50@0<10>0 l=0.30x0.40x1.00
;00:01:31.315: pe=1.3744 eb=0.0180 ve=0.0000 vn=0.2178 vl=0.000 db=0.43
G1 E58.4503 F2400                       ; retract de=-2.3744@40
;00:01:31.375: pe=-1.0001 eb=0.0182 ve=-40.0000 vn=0.0000 vl=0.000 db=0.43
G1 Z0.700 F420                          ; hopup dz=0.40@7 h=0.7
;00:01:31.432: pe=-1.0001 eb=0.0182 ve=0.0000 vn=0.0000 vl=0.000 db=0.28
G1 X-36.00 Y55.00 F1500                 ; move dl=2.50@0<25>0 de=0.0000 h=0.7
;00:01:31.582: pe=-1.0001 eb=0.0000 ve=0.0000 vn=0.0000 vl=0.000 db=0.00
G1 Z0.300 F420                          ; hopdn dz=-0.40@7 h=0.3
;00:01:31.639: pe=-1.0001 eb=0.0000 ve=0.0000 vn=0.0000 vl=0.000 db=0.00
G1 E60.8422 F1800                       ; restore de=2.3919@30
;00:01:31.719: pe=1.3772 eb=0.0146 ve=30.0000 vn=0.5474 vl=0.000 db=0.39
G1 X-36.00 Y53.50 E60.9170 F600         ; draw dl=1.50@0<10>0 l=0.30x0.40x1.00
;00:01:31.889: pe=1.3744 eb=0.0180 ve=0.0000 vn=0.2178 vl=0.000 db=0.43
G1 E58.5426 F2400                       ; retract de=-2.3744@40
;00:01:31.948: pe=-1.0001 eb=0.0182 ve=-40.0000 vn=0.0000 vl=0.000 db=0.43
G1 Z0.700 F420                          ; hopup dz=0.40@7 h=0.7
;00:01:32.005: pe=-1.0001 eb=0.0182 ve=0.0000 vn=0.0000 vl=0.000 db=0.28
G1 X-34.00 Y55.00 F1500                 ; move dl=2.50@0<25>0 de=0.0000 h=0.7
;00:01:32.155: pe=-1.0001 eb=0.0000 ve=0.0000 vn=0.0000 vl=0.000 db=0.00
G1 Z0.300 F420                          ; hopdn dz=-0.40@7 h=0.3
;00:01:32.212: pe=-1.0001 eb=0.0000 ve=0.0000 vn=0.0000 vl=0.000 db=0.00
G1 E60.9345 F1800                       ; restore de=2.3919@30
;00:01:32.292: pe=1.3772 eb=0.0146 ve=30.0000 vn=0.5474 vl=0.000 db=0.39
G1 X-34.00 Y53.50 E61.0093 F600         ; draw dl=1.50@0<10>0 l=0.30x0.40x1.00
;00:01:32.462: pe=1.3744 eb=0.0180 ve=0.0000 vn=0.2178 vl=0.000 db=0.43
G1 E58.6349 F2400                       ; retract de=-2.3744@40
;00:01:32.521: pe=-1.0001 eb=0.0182 ve=-40.0000 vn=0.0000 vl=0.000 db=0.43
G1 Z0.700 F420                          ; hopup dz=0.40@7 h=0.7
;00:01:32.578: pe=-1.0001 eb=0.0182 ve=0.0000 vn=0.0000 vl=0.000 db=0.28
G1 X-32.00 Y55.00 F1500                 ; move dl=2.50@0<25>0 de=0.0000 h=0.7
;00:01:32.728: pe=-1.0001 eb=0.0000 ve=0.0000 vn=0.0000 vl=0.000 db=0.00
G1 Z0.300 F420                          ; hopdn dz=-0.40@7 h=0.3
;00:01:32.786: pe=-1.0001 eb=0.0000 ve=0.0000 vn=0.0000 vl=0.000 db=0.00
G1 E61.0268 F1800                       ; restore de=2.3919@30
;00:01:32.865: pe=1.3772 eb=0.0146 ve=30.0000 vn=0.5474 vl=0.000 db=0.39
G1 X-32.00 Y53.50 E61.1017 F600         ; draw dl=1.50@0<10>0 l=0.30x0.40x1.00
;00:01:33.035: pe=1.3744 eb=0.0180 ve=0.0000 vn=0.2178 vl=0.000 db=0.43
G1 E58.7272 F2400                       ; retract de=-2.3744@40
;00:01:33.095: pe=-1.0001 eb=0.0182 ve=-40.0000 vn=0.0000 vl=0.000 db=0.43
G1 Z0.700 F420                          ; hopup dz=0.40@7 h=0.7
;00:01:33.152: pe=-1.0001 eb=0.0182 ve=0.0000 vn=0.0000 vl=0.000 db=0.28
G1 X-30.00 Y55.00 F1500                 ; move dl=2.50@0<25>0 de=0.0000 h=0.7
;00:01:33.302: pe=-1.0001 eb=0.0000 ve=0.0000 vn=0.0000 vl=0.000 db=0.00
G1 Z0.300 F420                          ; hopdn dz=-0.40@7 h=0.3
;00:01:33.359: pe=-1.0001 eb=0.0000 ve=0.0000 vn=0.0000 vl=0.000 db=0.00
G1 E61.1301 F1800                       ; restore de=2.4029@30
;00:01:33.439: pe=1.3879 eb=0.0148 ve=30.0000 vn=0.5513 vl=0.000 db=0.39
G1 X-30.00 Y52.00 E61.2798 F600         ; draw dl=3.00@0<10>0 l=0.30x0.40x1.00
;00:01:33.759: pe=1.3852 eb=0.0183 ve=0.0000 vn=0.2206 vl=0.000 db=0.43
G1 E58.8946 F2400                       ; retract de=-2.3852@40
;00:01:33.819: pe=-1.0001 eb=0.0184 ve=-40.0000 vn=0.0000 vl=0.000 db=0.43
G1 Z0.700 F420                          ; hopup dz=0.40@7 h=0.7
;00:01:33.876: pe=-1.0001 eb=0.0184 ve=0.0000 vn=0.0000 vl=0.000 db=0.28
G1 X-28.00 Y55.00 F1801                 ; move dl=3.61@0<30>0 de=0.0000 h=0.7
;00:01:34.056: pe=-1.0001 eb=0.0000 ve=0.0000 vn=0.0000 vl=0.000 db=0.00
G1 Z0.300 F420                          ; hopdn dz=-0.40@7 h=0.3
;00:01:34.113: pe=-1.0001 eb=0.0000 ve=0.0000 vn=0.0000 vl=0.000 db=0.00
G1 E61.2865 F1800                       ; restore de=2.3919@30
;00:01:34.193: pe=1.3772 eb=0.0146 ve=30.0000 vn=0.5474 vl=0.000 db=0.39
G1 X-28.00 Y53.50 E61.3613 F600         ; draw dl=1.50@0<10>0 l=0.30x0.40x1.00
;00:01:34.363: pe=1.3744 eb=0.0180 ve=0.0000 vn=0.2178 vl=0.000 db=0.43
G1 E58.9869 F2400                       ; retract de=-2.3744@40
;00:01:34.422: pe=-1.0001 eb=0.0182 ve=-40.0000 vn=0.0000 vl=0.000 db=0.43
G1 Z0.700 F420                          ; hopup dz=0.40@7 h=0.7
;00:01:34.479: pe=-1.0001 eb=0.0182 ve=0.0000 vn=0.0000 vl=0.000 db=0.28
G1 X-26.00 Y55.00 F1500                 ; move dl=2.50@0<25>0 de=0.0000 h=0.7
;00:01:34.629: pe=-1.0001 eb=0.0000 ve=0.0000 vn=0.0000 vl=0.000 db=0.00
G1 Z0.300 F420                          ; hopdn dz=-0.40@7 h=0.3
;00:01:34.687: pe=-1.0001 eb=0.0000 ve=0.0000 vn=0.0000 vl=0.000 db=0.00
G1 E61.3788 F1800                       ; restore de=2.3919@30
;00:01:34.766: pe=1.3772 eb=0.0146 ve=30.0000 vn=0.5474 vl=0.000 db=0.39
G1 X-26.00 Y53.50 E61.4536 F600         ; draw dl=1.50@0<10>0 l=0.30x0.40x1.00
;00:01:34.936: pe=1.3744 eb=0.0180 ve=0.0000 vn=0.2178 vl=0.000 db=0.43
G1 E59.0792 F2400                       ; retract de=-2.3744@40
;00:01:34.996: pe=-1.0001 eb=0.0182 ve=-40.0000 vn=0.0000 vl=0.000 db=0.43
G1 Z0.700 F420                          ; hopup dz=0.40@7 h=0.7
;00:01:35.053: pe=-1.0001 eb=0.0182 ve=0.0000 vn=0.0000 vl=0.000 db=0.28
G1 X-24.00 Y55.00 F1500                 ; move dl=2.50@0<25>0 de=0.0000 h=0.7
;00:01:35.203: pe=-1.0001 eb=0.0000 ve=0.0000 vn=0.0000 vl=0.000 db=0.00
G1 Z0.300 F420                          ; hopdn dz=-0.40@7 h=0.3
;00:01:35.260: pe=-1.0001 eb=0.0000 ve=0.0000 vn=0.0000 vl=0.000 db=0.00
G1 E61.4711 F1800                       ; restore de=2.3919@30
;00:01:35.340: pe=1.3772 eb=0.0146 ve=30.0000 vn=0.5474 vl=0.000 db=0.39
G1 X-24.00 Y53.50 E61.5459 F600         ; draw dl=1.50@0<10>0 l=0.30x0.40x1.00
;00:01:35.510: pe=1.3744 eb=0.0180 ve=0.0000 vn=0.2178 vl=0.000 db=0.43
G1 E59.1715 F2400                       ; retract de=-2.3744@40
;00:01:35.569: pe=-1.0001 eb=0.0182 ve=-40.0000 vn=0.0000 vl=0.000 db=0.43
G1 Z0.700 F420                          ; hopup dz=0.40@7 h=0.7
;00:01:35.626: pe=-1.0001 eb=0.0182 ve=0.0000 vn=0.0000 vl=0.000 db=0.28
G1 X-22.00 Y55.00 F1500                 ; move dl=2.50@0<25>0 de=0.0000 h=0.7
;00:01:35.776: pe=-1.0001 eb=0.0000 ve=0.0000 vn=0.0000 vl=0.000 db=0.00
G1 Z0.300 F420                          ; hopdn dz=-0.40@7 h=0.3
;00:01:35.833: pe=-1.0001 eb=0.0000 ve=0.0000 vn=0.0000 vl=0.000 db=0.00
G1 E61.5634 F1800                       ; restore de=2.3919@30
;00:01:35.913: pe=1.3772 eb=0.0146 ve=30.0000 vn=0.5474 vl=0.000 db=0.39
G1 X-22.00 Y53.50 E61.6383 F600         ; draw dl=1.50@0<10>0 l=0.30x0.40x1.00
;00:01:36.083: pe=1.3744 eb=0.0180 ve=0.0000 vn=0.2178 vl=0.000 db=0.43
G1 E59.2638 F2400                       ; retract de=-2.3744@40
;00:01:36.142: pe=-1.0001 eb=0.0182 ve=-40.0000 vn=0.0000 vl=0.000 db=0.43
G1 Z0.700 F420                          ; hopup dz=0.40@7 h=0.7
;00:01:36.200: pe=-1.0001 eb=0.0182 ve=0.0000 vn=0.0000 vl=0.000 db=0.28
G1 X-20.00 Y55.00 F1500                 ; move dl=2.50@0<25>0 de=0.0000 h=0.7
;00:01:36.350: pe=-1.0001 eb=0.0000 ve=0.0000 vn=0.0000 vl=0.000 db=0.00
G1 Z0.300 F420                          ; hopdn dz=-0.40@7 h=0.3
;00:01:36.407: pe=-1.0001 eb=0.0000 ve=0.0000 vn=0.0000 vl=0.000 db=0.00
G1 E61.6667 F1800                       ; restore de=2.4029@30
;00:01:36.487: pe=1.3879 eb=0.0148 ve=30.0000 vn=0.5513 vl=0.000 db=0.39
G1 X-20.00 Y52.00 E61.8164 F600         ; draw dl=3.00@0<10>0 l=0.30x0.40x1.00
;00:01:36.807: pe=1.3852 eb=0.0183 ve=0.0000 vn=0.2206 vl=0.000 db=0.43
G1 E59.4312 F2400                       ; retract de=-2.3852@40
;00:01:36.866: pe=-1.0001 eb=0.0184 ve=-40.0000 vn=0.0000 vl=0.000 db=0.43
G1 Z0.700 F420                          ; hopup dz=0.40@7 h=0.7
;00:01:36.924: pe=-1.0001 eb=0.0184 ve=0.0000 vn=0.0000 vl=0.000 db=0.28
G1 X-18.00 Y55.00 F1801                 ; move dl=3.61@0<30>0 de=0.0000 h=0.7
;00:01:37.104: pe=-1.0001 eb=0.0000 ve=0.0000 vn=0.0000 vl=0.000 db=0.00
G1 Z0.300 F420                          ; hopdn dz=-0.40@7 h=0.3
;00:01:37.161: pe=-1.0001 eb=0.0000 ve=0.0000 vn=0.0000 vl=0.000 db=0.00
G1 E61.8231 F1800                       ; restore de=2.3919@30
;00:01:37.241: pe=1.3772 eb=0.0146 ve=30.0000 vn=0.5474 vl=0.000 db=0.39
G1 X-18.00 Y53.50 E61.8979 F600         ; draw dl=1.50@0<10>0 l=0.30x0.40x1.00
;00:01:37.411: pe=1.3744 eb=0.0180 ve=0.0000 vn=0.2178 vl=0.000 db=0.43
G1 E59.5235 F2400                       ; retract de=-2.3744@40
;00:01:37.470: pe=-1.0001 eb=0.0182 ve=-40.0000 vn=0.0000 vl=0.000 db=0.43
G1 Z0.700 F420                          ; hopup dz=0.40@7 h=0.7
;00:01:37.527: pe=-1.0001 eb=0.0182 ve=0.0000 vn=0.0000 vl=0.000 db=0.28
G1 X-16.00 Y55.00 F1500                 ; move dl=2.50@0<25>0 de=0.0000 h=0.7
;00:01:37.677: pe=-1.0001 eb=0.0000 ve=0.0000 vn=0.0000 vl=0.000 db=0.00
G1 Z0.300 F420                          ; hopdn dz=-0.40@7 h=0.3
;00:01:37.734: pe=-1.0001 eb=0.0000 ve=0.0000 vn=0.0000 vl=0.000 db=0.00
G1 E61.9154 F1800                       ; restore de=2.3919@30
;00:01:37.814: pe=1.3772 eb=0.0146 ve=30.0000 vn=0.5474 vl=0.000 db=0.39
G1 X-16.00 Y53.50 E61.9902 F600         ; draw dl=1.50@0<10>0 l=0.30x0.40x1.00
;00:01:37.984: pe=1.3744 eb=0.0180 ve=0.0000 vn=0.2178 vl=0.000 db=0.43
G1 E59.6158 F2400                       ; retract de=-2.3744@40
;00:01:38.043: pe=-1.0001 eb=0.0182 ve=-40.0000 vn=0.0000 vl=0.000 db=0.43
G1 Z0.700 F420                          ; hopup dz=0.40@7 h=0.7
;00:01:38.100: pe=-1.0001 eb=0.0182 ve=0.0000 vn=0.0000 vl=0.000 db=0.28
G1 X-14.00 Y55.00 F1500                 ; move dl=2.50@0<25>0 de=0.0000 h=0.7
;00:01:38.250: pe=-1.0001 eb=0.0000 ve=0.0000 vn=0.0000 vl=0.000 db=0.00
G1 Z0.300 F420                          ; hopdn dz=-0.40@7 h=0.3
;00:01:38.308: pe=-1.0001 eb=0.0000 ve=0.0000 vn=0.0000 vl=0.000 db=0.00
G1 E62.0077 F1800                       ; restore de=2.3919@30
;00:01:38.387: pe=1.3772 eb=0.0146 ve=30.0000 vn=0.5474 vl=0.000 db=0.39
G1 X-14.00 Y53.50 E62.0825 F600         ; draw dl=1.50@0<10>0 l=0.30x0.40x1.00
;00:01:38.557: pe=1.3744 eb=0.0180 ve=0.0000 vn=0.2178 vl=0.000 db=0.43
G1 E59.7081 F2400                       ; retract de=-2.3744@40
;00:01:38.617: pe=-1.0001 eb=0.0182 ve=-40.0000 vn=0.0000 vl=0.000 db=0.43
G1 Z0.700 F420                          ; hopup dz=0.40@7 h=0.7
;00:01:38.674: pe=-1.0001 eb=0.0182 ve=0.0000 vn=0.0000 vl=0.000 db=0.28
G1 X-12.00 Y55.00 F1500                 ; move dl=2.50@0<25>0 de=0.0000 h=0.7
;00:01:38.824: pe=-1.0001 eb=0.0000 ve=0.0000 vn=0.0000 vl=0.000 db=0.00
G1 Z0.300 F420                          ; hopdn dz=-0.40@7 h=0.3
;00:01:38.881: pe=-1.0001 eb=0.0000 ve=0.0000 vn=0.0000 vl=0.000 db=0.00
G1 E62.1000 F1800                       ; restore de=2.3919@30
;00:01:38.961: pe=1.3772 eb=0.0146 ve=30.0000 vn=0.5474 vl=0.000 db=0.39
G1 X-12.00 Y53.50 E62.1749 F600         ; draw dl=1.50@0<10>0 l=0.30x0.40x1.00
;00:01:39.131: pe=1.3744 eb=0.0180 ve=0.0000 vn=0.2178 vl=0.000 db=0.43
G1 E59.8004 F2400                       ; retract de=-2.3744@40
;00:01:39.190: pe=-1.0001 eb=0.0182 ve=-40.0000 vn=0.0000 vl=0.000 db=0.43
G1 Z0.700 F420                          ; hopup dz=0.40@7 h=0.7
;00:01:39.247: pe=-1.0001 eb=0.0182 ve=0.0000 vn=0.0000 vl=0.000 db=0.28
G1 X-10.00 Y55.00 F1500                 ; move dl=2.50@0<25>0 de=0.0000 h=0.7
;00:01:39.397: pe=-1.0001 eb=0.0000 ve=0.0000 vn=0.0000 vl=0.000 db=0.00
G1 Z0.300 F420                          ; hopdn dz=-0.40@7 h=0.3
;00:01:39.454: pe=-1.0001 eb=0.0000 ve=0.0000 vn=0.0000 vl=0.000 db=0.00
G1 E62.2033 F1800                       ; restore de=2.4029@30
;00:01:39.534: pe=1.3879 eb=0.0148 ve=30.0000 vn=0.5513 vl=0.000 db=0.39
G1 X-10.00 Y52.00 E62.3530 F600         ; draw dl=3.00@0<10>0 l=0.30x0.40x1.00
;00:01:39.854: pe=1.3852 eb=0.0183 ve=0.0000 vn=0.2206 vl=0.000 db=0.43
G1 E59.9678 F2400                       ; retract de=-2.3852@40
;00:01:39.914: pe=-1.0001 eb=0.0184 ve=-40.0000 vn=0.0000 vl=0.000 db=0.43
G1 Z0.700 F420                          ; hopup dz=0.40@7 h=0.7
;00:01:39.971: pe=-1.0001 eb=0.0184 ve=0.0000 vn=0.0000 vl=0.000 db=0.28
G1 X-8.00 Y55.00 F1801                  ; move dl=3.61@0<30>0 de=0.0000 h=0.7
;00:01:40.151: pe=-1.0001 eb=0.0000 ve=0.0000 vn=0.0000 vl=0.000 db=0.00
G1 Z0.300 F420                          ; hopdn dz=-0.40@7 h=0.3
;00:01:40.208: pe=-1.0001 eb=0.0000 ve=0.0000 vn=0.0000 vl=0.000 db=0.00
G1 E62.3597 F1800                       ; restore de=2.3919@30
;00:01:40.288: pe=1.3772 eb=0.0146 ve=30.0000 vn=0.5474 vl=0.000 db=0.39
G1 X-8.00 Y53.50 E62.4345 F600          ; draw dl=1.50@0<10>0 l=0.30x0.40x1.00
;00:01:40.458: pe=1.3744 eb=0.0180 ve=0.0000 vn=0.2178 vl=0.000 db=0.43
G1 E60.0601 F2400                       ; retract de=-2.3744@40
;00:01:40.518: pe=-1.0001 eb=0.0182 ve=-40.0000 vn=0.0000 vl=0.000 db=0.43
G1 Z0.700 F420                          ; hopup dz=0.40@7 h=0.7
;00:01:40.575: pe=-1.0001 eb=0.0182 ve=0.0000 vn=0.0000 vl=0.000 db=0.28
G1 X-6.00 Y55.00 F1500                  ; move dl=2.50@0<25>0 de=0.0000 h=0.7
;00:01:40.725: pe=-1.0001 eb=0.0000 ve=0.0000 vn=0.0000 vl=0.000 db=0.00
G1 Z0.300 F420                          ; hopdn dz=-0.40@7 h=0.3
;00:01:40.782: pe=-1.0001 eb=0.0000 ve=0.0000 vn=0.0000 vl=0.000 db=0.00
G1 E62.4520 F1800                       ; restore de=2.3919@30
;00:01:40.862: pe=1.3772 eb=0.0146 ve=30.0000 vn=0.5474 vl=0.000 db=0.39
G1 X-6.00 Y53.50 E62.5268 F600          ; draw dl=1.50@0<10>0 l=0.30x0.40x1.00
;00:01:41.032: pe=1.3744 eb=0.0180 ve=0.0000 vn=0.2178 vl=0.000 db=0.43
G1 E60.1524 F2400                       ; retract de=-2.3744@40
;00:01:41.091: pe=-1.0001 eb=0.0182 ve=-40.0000 vn=0.0000 vl=0.000 db=0.43
G1 Z0.700 F420                          ; hopup dz=0.40@7 h=0.7
;00:01:41.148: pe=-1.0001 eb=0.0182 ve=0.0000 vn=0.0000 vl=0.000 db=0.28
G1 X-4.00 Y55.00 F1500                  ; move dl=2.50@0<25>0 de=0.0000 h=0.7
;00:01:41.298: pe=-1.0001 eb=0.0000 ve=0.0000 vn=0.0000 vl=0.000 db=0.00
G1 Z0.300 F420                          ; hopdn dz=-0.40@7 h=0.3
;00:01:41.355: pe=-1.0001 eb=0.0000 ve=0.0000 vn=0.0000 vl=0.000 db=0.00
G1 E62.5443 F1800                       ; restore de=2.3919@30
;00:01:41.435: pe=1.3772 eb=0.0146 ve=30.0000 vn=0.5474 vl=0.000 db=0.39
G1 X-4.00 Y53.50 E62.6191 F600          ; draw dl=1.50@0<10>0 l=0.30x0.40x1.00
;00:01:41.605: pe=1.3744 eb=0.0180 ve=0.0000 vn=0.2178 vl=0.000 db=0.43
G1 E60.2447 F2400                       ; retract de=-2.3744@40
;00:01:41.664: pe=-1.0001 eb=0.0182 ve=-40.0000 vn=0.0000 vl=0.000 db=0.43
G1 Z0.700 F420                          ; hopup dz=0.40@7 h=0.7
;00:01:41.721: pe=-1.0001 eb=0.0182 ve=0.0000 vn=0.0000 vl=0.000 db=0.28
G1 X-2.00 Y55.00 F1500                  ; move dl=2.50@0<25>0 de=0.0000 h=0.7
;00:01:41.871: pe=-1.0001 eb=0.0000 ve=0.0000 vn=0.0000 vl=0.000 db=0.00
G1 Z0.300 F420                          ; hopdn dz=-0.40@7 h=0.3
;00:01:41.929: pe=-1.0001 eb=0.0000 ve=0.0000 vn=0.0000 vl=0.000 db=0.00
G1 E62.6366 F1800                       ; restore de=2.3919@30
;00:01:42.008: pe=1.3772 eb=0.0146 ve=30.0000 vn=0.5474 vl=0.000 db=0.39
G1 X-2.00 Y53.50 E62.7115 F600          ; draw dl=1.50@0<10>0 l=0.30x0.40x1.00
;00:01:42.178: pe=1.3744 eb=0.0180 ve=0.0000 vn=0.2178 vl=0.000 db=0.43
G1 E60.3371 F2400                       ; retract de=-2.3744@40
;00:01:42.238: pe=-1.0001 eb=0.0182 ve=-40.0000 vn=0.0000 vl=0.000 db=0.43
G1 Z0.700 F420                          ; hopup dz=0.40@7 h=0.7
;00:01:42.295: pe=-1.0001 eb=0.0182 ve=0.0000 vn=0.0000 vl=0.000 db=0.28
G1 X0.00 Y55.00 F1500                   ; move dl=2.50@0<25>0 de=0.0000 h=0.7
;00:01:42.445: pe=-1.0001 eb=0.0000 ve=0.0000 vn=0.0000 vl=0.000 db=0.00
G1 Z0.300 F420                          ; hopdn dz=-0.40@7 h=0.3
;00:01:42.502: pe=-1.0001 eb=0.0000 ve=0.0000 vn=0.0000 vl=0.000 db=0.00
G1 E62.7399 F1800                       ; restore de=2.4029@30
;00:01:42.582: pe=1.3879 eb=0.0148 ve=30.0000 vn=0.5513 vl=0.000 db=0.39
G1 X0.00 Y52.00 E62.8896 F600           ; draw dl=3.00@0<10>0 l=0.30x0.40x1.00
;00:01:42.902: pe=1.3852 eb=0.0183 ve=0.0000 vn=0.2206 vl=0.000 db=0.43
G1 E60.5044 F2400                       ; retract de=-2.3852@40
;00:01:42.962: pe=-1.0001 eb=0.0184 ve=-40.0000 vn=0.0000 vl=0.000 db=0.43
G1 Z0.700 F420                          ; hopup dz=0.40@7 h=0.7
;00:01:43.019: pe=-1.0001 eb=0.0184 ve=0.0000 vn=0.0000 vl=0.000 db=0.28
G1 X2.00 Y55.00 F1801                   ; move dl=3.61@0<30>0 de=0.0000 h=0.7
;00:01:43.199: pe=-1.0001 eb=0.0000 ve=0.0000 vn=0.0000 vl=0.000 db=0.00
G1 Z0.300 F420                          ; hopdn dz=-0.40@7 h=0.3
;00:01:43.256: pe=-1.0001 eb=0.0000 ve=0.0000 vn=0.0000 vl=0.000 db=0.00
G1 E62.8963 F1800                       ; restore de=2.3919@30
;00:01:43.336: pe=1.3772 eb=0.0146 ve=30.0000 vn=0.5474 vl=0.000 db=0.39
G1 X2.00 Y53.50 E62.9711 F600           ; draw dl=1.50@0<10>0 l=0.30x0.40x1.00
;00:01:43.506: pe=1.3744 eb=0.0180 ve=0.0000 vn=0.2178 vl=0.000 db=0.43
G1 E60.5967 F2400                       ; retract de=-2.3744@40
;00:01:43.565: pe=-1.0001 eb=0.0182 ve=-40.0000 vn=0.0000 vl=0.000 db=0.43
G1 Z0.700 F420                          ; hopup dz=0.40@7 h=0.7
;00:01:43.622: pe=-1.0001 eb=0.0182 ve=0.0000 vn=0.0000 vl=0.000 db=0.28
G1 X4.00 Y55.00 F1500                   ; move dl=2.50@0<25>0 de=0.0000 h=0.7
;00:01:43.772: pe=-1.0001 eb=0.0000 ve=0.0000 vn=0.0000 vl=0.000 db=0.00
G1 Z0.300 F420                          ; hopdn dz=-0.40@7 h=0.3
;00:01:43.829: pe=-1.0001 eb=0.0000 ve=0.0000 vn=0.0000 vl=0.000 db=0.00
G1 E62.9886 F1800                       ; restore de=2.3919@30
;00:01:43.909: pe=1.3772 eb=0.0146 ve=30.0000 vn=0.5474 vl=0.000 db=0.39
G1 X4.00 Y53.50 E63.0634 F600           ; draw dl=1.50@0<10>0 l=0.30x0.40x1.00
;00:01:44.079: pe=1.3744 eb=0.0180 ve=0.0000 vn=0.2178 vl=0.000 db=0.43
G1 E60.6890 F2400                       ; retract de=-2.3744@40
;00:01:44.139: pe=-1.0001 eb=0.0182 ve=-40.0000 vn=0.0000 vl=0.000 db=0.43
G1 Z0.700 F420                          ; hopup dz=0.40@7 h=0.7
;00:01:44.196: pe=-1.0001 eb=0.0182 ve=0.0000 vn=0.0000 vl=0.000 db=0.28
G1 X6.00 Y55.00 F1500                   ; move dl=2.50@0<25>0 de=0.0000 h=0.7
;00:01:44.346: pe=-1.0001 eb=0.0000 ve=0.0000 vn=0.0000 vl=0.000 db=0.00
G1 Z0.300 F420                          ; hopdn dz=-0.40@7 h=0.3
;00:01:44.403: pe=-1.0001 eb=0.0000 ve=0.0000 vn=0.0000 vl=0.000 db=0.00
G1 E63.0809 F1800                       ; restore de=2.3919@30
;00:01:44.483: pe=1.3772 eb=0.0146 ve=30.0000 vn=0.5474 vl=0.000 db=0.39
G1 X6.00 Y53.50 E63.1557 F600           ; draw dl=1.50@0<10>0 l=0.30x0.40x1.00
;00:01:44.653: pe=1.3744 eb=0.0180 ve=0.0000 vn=0.2178 vl=0.000 db=0.43
G1 E60.7813 F2400                       ; retract de=-2.3744@40
;00:01:44.712: pe=-1.0001 eb=0.0182 ve=-40.0000 vn=0.0000 vl=0.000 db=0.43
G1 Z0.700 F420                          ; hopup dz=0.40@7 h=0.7
;00:01:44.769: pe=-1.0001 eb=0.0182 ve=0.0000 vn=0.0000 vl=0.000 db=0.28
G1 X8.00 Y55.00 F1500                   ; move dl=2.50@0<25>0 de=0.0000 h=0.7
;00:01:44.919: pe=-1.0001 eb=0.0000 ve=0.0000 vn=0.0000 vl=0.000 db=0.00
G1 Z0.300 F420                          ; hopdn dz=-0.40@7 h=0.3
;00:01:44.976: pe=-1.0001 eb=0.0000 ve=0.0000 vn=0.0000 vl=0.000 db=0.00
G1 E63.1732 F1800                       ; restore de=2.3919@30
;00:01:45.056: pe=1.3772 eb=0.0146 ve=30.0000 vn=0.5474 vl=0.000 db=0.39
G1 X8.00 Y53.50 E63.2481 F600           ; draw dl=1.50@0<10>0 l=0.30x0.40x1.00
;00:01:45.226: pe=1.3744 eb=0.0180 ve=0.0000 vn=0.2178 vl=0.000 db=0.43
G1 E60.8737 F2400                       ; retract de=-2.3744@40
;00:01:45.285: pe=-1.0001 eb=0.0182 ve=-40.0000 vn=0.0000 vl=0.000 db=0.43
G1 Z0.700 F420                          ; hopup dz=0.40@7 h=0.7
;00:01:45.342: pe=-1.0001 eb=0.0182 ve=0.0000 vn=0.0000 vl=0.000 db=0.28
G1 X10.00 Y55.00 F1500                  ; move dl=2.50@0<25>0 de=0.0000 h=0.7
;00:01:45.492: pe=-1.0001 eb=0.0000 ve=0.0000 vn=0.0000 vl=0.000 db=0.00
G1 Z0.300 F420                          ; hopdn dz=-0.40@7 h=0.3
;00:01:45.550: pe=-1.0001 eb=0.0000 ve=0.0000 vn=0.0000 vl=0.000 db=0.00
G1 E63.2765 F1800                       ; restore de=2.4029@30
;00:01:45.630: pe=1.3879 eb=0.0148 ve=30.0000 vn=0.5513 vl=0.000 db=0.39
G1 X10.00 Y52.00 E63.4262 F600          ; draw dl=3.00@0<10>0 l=0.30x0.40x1.00
;00:01:45.950: pe=1.3852 eb=0.0183 ve=0.0000 vn=0.2206 vl=0.000 db=0.43
G1 E61.0410 F2400                       ; retract de=-2.3852@40
;00:01:46.009: pe=-1.0001 eb=0.0184 ve=-40.0000 vn=0.0000 vl=0.000 db=0.43
G1 Z0.700 F420                          ; hopup dz=0.40@7 h=0.7
;00:01:46.066: pe=-1.0001 eb=0.0184 ve=0.0000 vn=0.0000 vl=0.000 db=0.28
G1 X12.00 Y55.00 F1801                  ; move dl=3.61@0<30>0 de=0.0000 h=0.7
;00:01:46.247: pe=-1.0001 eb=0.0000 ve=0.0000 vn=0.0000 vl=0.000 db=0.00
G1 Z0.300 F420                          ; hopdn dz=-0.40@7 h=0.3
;00:01:46.304: pe=-1.0001 eb=0.0000 ve=0.0000 vn=0.0000 vl=0.000 db=0.00
G1 E63.4329 F1800                       ; restore de=2.3919@30
;00:01:46.383: pe=1.3772 eb=0.0146 ve=30.0000 vn=0.5474 vl=0.000 db=0.39
G1 X12.00 Y53.50 E63.5077 F600          ; draw dl=1.50@0<10>0 l=0.30x0.40x1.00
;00:01:46.553: pe=1.3744 eb=0.0180 ve=0.0000 vn=0.2178 vl=0.000 db=0.43
G1 E61.1333 F2400                       ; retract de=-2.3744@40
;00:01:46.613: pe=-1.0001 eb=0.0182 ve=-40.0000 vn=0.0000 vl=0.000 db=0.43
G1 Z0.700 F420                          ; hopup dz=0.40@7 h=0.7
;00:01:46.670: pe=-1.0001 eb=0.0182 ve=0.0000 vn=0.0000 vl=0.000 db=0.28
G1 X14.00 Y55.00 F1500                  ; move dl=2.50@0<25>0 de=0.0000 h=0.7
;00:01:46.820: pe=-1.0001 eb=0.0000 ve=0.0000 vn=0.0000 vl=0.000 db=0.00
G1 Z0.300 F420                          ; hopdn dz=-0.40@7 h=0.3
;00:01:46.877: pe=-1.0001 eb=0.0000 ve=0.0000 vn=0.0000 vl=0.000 db=0.00
G1 E63.5252 F1800                       ; restore de=2.3919@30
;00:01:46.957: pe=1.3772 eb=0.0146 ve=30.0000 vn=0.5474 vl=0.000 db=0.39
G1 X14.00 Y53.50 E63.6000 F600          ; draw dl=1.50@0<10>0 l=0.30x0.40x1.00
;00:01:47.127: pe=1.3744 eb=0.0180 ve=0.0000 vn=0.2178 vl=0.000 db=0.43
G1 E61.2256 F2400                       ; retract de=-2.3744@40
;00:01:47.186: pe=-1.0001 eb=0.0182 ve=-40.0000 vn=0.0000 vl=0.000 db=0.43
G1 Z0.700 F420                          ; hopup dz=0.40@7 h=0.7
;00:01:47.243: pe=-1.0001 eb=0.0182 ve=0.0000 vn=0.0000 vl=0.000 db=0.28
G1 X16.00 Y55.00 F1500                  ; move dl=2.50@0<25>0 de=0.0000 h=0.7
;00:01:47.393: pe=-1.0001 eb=0.0000 ve=0.0000 vn=0.0000 vl=0.000 db=0.00
G1 Z0.300 F420                          ; hopdn dz=-0.40@7 h=0.3
;00:01:47.451: pe=-1.0001 eb=0.0000 ve=0.0000 vn=0.0000 vl=0.000 db=0.00
G1 E63.6175 F1800                       ; restore de=2.3919@30
;00:01:47.530: pe=1.3772 eb=0.0146 ve=30.0000 vn=0.5474 vl=0.000 db=0.39
G1 X16.00 Y53.50 E63.6924 F600          ; draw dl=1.50@0<10>0 l=0.30x0.40x1.00
;00:01:47.700: pe=1.3744 eb=0.0180 ve=0.0000 vn=0.2178 vl=0.000 db=0.43
G1 E61.3179 F2400                       ; retract de=-2.3744@40
;00:01:47.760: pe=-1.0001 eb=0.0182 ve=-40.0000 vn=0.0000 vl=0.000 db=0.43
G1 Z0.700 F420                          ; hopup dz=0.40@7 h=0.7
;00:01:47.817: pe=-1.0001 eb=0.0182 ve=0.0000 vn=0.0000 vl=0.000 db=0.28
G1 X18.00 Y55.00 F1500                  ; move dl=2.50@0<25>0 de=0.0000 h=0.7
;00:01:47.967: pe=-1.0001 eb=0.0000 ve=0.0000 vn=0.0000 vl=0.000 db=0.00
G1 Z0.300 F420                          ; hopdn dz=-0.40@7 h=0.3
;00:01:48.024: pe=-1.0001 eb=0.0000 ve=0.0000 vn=0.0000 vl=0.000 db=0.00
G1 E63.7098 F1800                       ; restore de=2.3919@30
;00:01:48.104: pe=1.3772 eb=0.0146 ve=30.0000 vn=0.5474 vl=0.000 db=0.39
G1 X18.00 Y53.50 E63.7847 F600          ; draw dl=1.50@0<10>0 l=0.30x0.40x1.00
;00:01:48.274: pe=1.3744 eb=0.0180 ve=0.0000 vn=0.2178 vl=0.000 db=0.43
G1 E61.4103 F2400                       ; retract de=-2.3744@40
;00:01:48.333: pe=-1.0001 eb=0.0182 ve=-40.0000 vn=0.0000 vl=0.000 db=0.43
G1 Z0.700 F420                          ; hopup dz=0.40@7 h=0.7
;00:01:48.390: pe=-1.0001 eb=0.0182 ve=0.0000 vn=0.0000 vl=0.000 db=0.28
G1 X20.00 Y55.00 F1500                  ; move dl=2.50@0<25>0 de=0.0000 h=0.7
;00:01:48.540: pe=-1.0001 eb=0.0000 ve=0.0000 vn=0.0000 vl=0.000 db=0.00
G1 Z0.300 F420                          ; hopdn dz=-0.40@7 h=0.3
;00:01:48.597: pe=-1.0001 eb=0.0000 ve=0.0000 vn=0.0000 vl=0.000 db=0.00
G1 E63.8131 F1800                       ; restore de=2.4029@30
;00:01:48.677: pe=1.3879 eb=0.0148 ve=30.0000 vn=0.5513 vl=0.000 db=0.39
G1 X20.00 Y52.00 E63.9628 F600          ; draw dl=3.00@0<10>0 l=0.30x0.40x1.00
;00:01:48.997: pe=1.3852 eb=0.0183 ve=0.0000 vn=0.2206 vl=0.000 db=0.43
G1 E61.5776 F2400                       ; retract de=-2.3852@40
;00:01:49.057: pe=-1.0001 eb=0.0184 ve=-40.0000 vn=0.0000 vl=0.000 db=0.43
G1 Z0.700 F420                          ; hopup dz=0.40@7 h=0.7
;00:01:49.114: pe=-1.0001 eb=0.0184 ve=0.0000 vn=0.0000 vl=0.000 db=0.28
G1 X22.00 Y55.00 F1801                  ; move dl=3.61@0<30>0 de=0.0000 h=0.7
;00:01:49.294: pe=-1.0001 eb=0.0000 ve=0.0000 vn=0.0000 vl=0.000 db=0.00
G1 Z0.300 F420                          ; hopdn dz=-0.40@7 h=0.3
;00:01:49.351: pe=-1.0001 eb=0.0000 ve=0.0000 vn=0.0000 vl=0.000 db=0.00
G1 E63.9695 F1800                       ; restore de=2.3919@30
;00:01:49.431: pe=1.3772 eb=0.0146 ve=30.0000 vn=0.5474 vl=0.000 db=0.39
G1 X22.00 Y53.50 E64.0443 F600          ; draw dl=1.50@0<10>0 l=0.30x0.40x1.00
;00:01:49.601: pe=1.3744 eb=0.0180 ve=0.0000 vn=0.2178 vl=0.000 db=0.43
G1 E61.6699 F2400                       ; retract de=-2.3744@40
;00:01:49.661: pe=-1.0001 eb=0.0182 ve=-40.0000 vn=0.0000 vl=0.000 db=0.43
G1 Z0.700 F420                          ; hopup dz=0.40@7 h=0.7
;00:01:49.718: pe=-1.0001 eb=0.0182 ve=0.0000 vn=0.0000 vl=0.000 db=0.28
G1 X24.00 Y55.00 F1500                  ; move dl=2.50@0<25>0 de=0.0000 h=0.7
;00:01:49.868: pe=-1.0001 eb=0.0000 ve=0.0000 vn=0.0000 vl=0.000 db=0.00
G1 Z0.300 F420                          ; hopdn dz=-0.40@7 h=0.3
;00:01:49.925: pe=-1.0001 eb=0.0000 ve=0.0000 vn=0.0000 vl=0.000 db=0.00
G1 E64.0618 F1800                       ; restore de=2.3919@30
;00:01:50.005: pe=1.3772 eb=0.0146 ve=30.0000 vn=0.5474 vl=0.000 db=0.39
G1 X24.00 Y53.50 E64.1366 F600          ; draw dl=1.50@0<10>0 l=0.30x0.40x1.00
;00:01:50.175: pe=1.3744 eb=0.0180 ve=0.0000 vn=0.2178 vl=0.000 db=0.43
G1 E61.7622 F2400                       ; retract de=-2.3744@40
;00:01:50.234: pe=-1.0001 eb=0.0182 ve=-40.0000 vn=0.0000 vl=0.000 db=0.43
G1 Z0.700 F420                          ; hopup dz=0.40@7 h=0.7
;00:01:50.291: pe=-1.0001 eb=0.0182 ve=0.0000 vn=0.0000 vl=0.000 db=0.28
G1 X26.00 Y55.00 F1500                  ; move dl=2.50@0<25>0 de=0.0000 h=0.7
;00:01:50.441: pe=-1.0001 eb=0.0000 ve=0.0000 vn=0.0000 vl=0.000 db=0.00
G1 Z0.300 F420                          ; hopdn dz=-0.40@7 h=0.3
;00:01:50.498: pe=-1.0001 eb=0.0000 ve=0.0000 vn=0.0000 vl=0.000 db=0.00
G1 E64.1541 F1800                       ; restore de=2.3919@30
;00:01:50.578: pe=1.3772 eb=0.0146 ve=30.0000 vn=0.5474 vl=0.000 db=0.39
G1 X26.00 Y53.50 E64.2290 F600          ; draw dl=1.50@0<10>0 l=0.30x0.40x1.00
;00:01:50.748: pe=1.3744 eb=0.0180 ve=0.0000 vn=0.2178 vl=0.000 db=0.43
G1 E61.8545 F2400                       ; retract de=-2.3744@40
;00:01:50.807: pe=-1.0001 eb=0.0182 ve=-40.0000 vn=0.0000 vl=0.000 db=0.43
G1 Z0.700 F420                          ; hopup dz=0.40@7 h=0.7
;00:01:50.864: pe=-1.0001 eb=0.0182 ve=0.0000 vn=0.0000 vl=0.000 db=0.28
G1 X28.00 Y55.00 F1500                  ; move dl=2.50@0<25>0 de=0.0000 h=0.7
;00:01:51.014: pe=-1.0001 eb=0.0000 ve=0.0000 vn=0.0000 vl=0.000 db=0.00
G1 Z0.300 F420                          ; hopdn dz=-0.40@7 h=0.3
;00:01:51.072: pe=-1.0001 eb=0.0000 ve=0.0000 vn=0.0000 vl=0.000 db=0.00
G1 E64.2464 F1800                       ; restore de=2.3919@30
;00:01:51.151: pe=1.3772 eb=0.0146 ve=30.0000 vn=0.5474 vl=0.000 db=0.39
G1 X28.00 Y53.50 E64.3213 F600          ; draw dl=1.50@0<10>0 l=0.30x0.40x1.00
;00:01:51.321: pe=1.3744 eb=0.0180 ve=0.0000 vn=0.2178 vl=0.000 db=0.43
G1 E61.9469 F2400                       ; retract de=-2.3744@40
;00:01:51.381: pe=-1.0001 eb=0.0182 ve=-40.0000 vn=0.0000 vl=0.000 db=0.43
G1 Z0.700 F420                          ; hopup dz=0.40@7 h=0.7
;00:01:51.438: pe=-1.0001 eb=0.0182 ve=0.0000 vn=0.0000 vl=0.000 db=0.28
G1 X30.00 Y55.00 F1500                  ; move dl=2.50@0<25>0 de=0.0000 h=0.7
;00:01:51.588: pe=-1.0001 eb=0.0000 ve=0.0000 vn=0.0000 vl=0.000 db=0.00
G1 Z0.300 F420                          ; hopdn dz=-0.40@7 h=0.3
;00:01:51.645: pe=-1.0001 eb=0.0000 ve=0.0000 vn=0.0000 vl=0.000 db=0.00
G1 E64.3497 F1800                       ; restore de=2.4029@30
;00:01:51.725: pe=1.3879 eb=0.0148 ve=30.0000 vn=0.5513 vl=0.000 db=0.39
G1 X30.00 Y52.00 E64.4994 F600          ; draw dl=3.00@0<10>0 l=0.30x0.40x1.00
;00:01:52.045: pe=1.3852 eb=0.0183 ve=0.0000 vn=0.2206 vl=0.000 db=0.43
G1 E62.1142 F2400                       ; retract de=-2.3852@40
;00:01:52.105: pe=-1.0001 eb=0.0184 ve=-40.0000 vn=0.0000 vl=0.000 db=0.43
G1 Z0.700 F420                          ; hopup dz=0.40@7 h=0.7
;00:01:52.162: pe=-1.0001 eb=0.0184 ve=0.0000 vn=0.0000 vl=0.000 db=0.28
G1 X32.00 Y55.00 F1801                  ; move dl=3.61@0<30>0 de=0.0000 h=0.7
;00:01:52.342: pe=-1.0001 eb=0.0000 ve=0.0000 vn=0.0000 vl=0.000 db=0.00
G1 Z0.300 F420                          ; hopdn dz=-0.40@7 h=0.3
;00:01:52.399: pe=-1.0001 eb=0.0000 ve=0.0000 vn=0.0000 vl=0.000 db=0.00
G1 E64.5061 F1800                       ; restore de=2.3919@30
;00:01:52.479: pe=1.3772 eb=0.0146 ve=30.0000 vn=0.5474 vl=0.000 db=0.39
G1 X32.00 Y53.50 E64.5809 F600          ; draw dl=1.50@0<10>0 l=0.30x0.40x1.00
;00:01:52.649: pe=1.3744 eb=0.0180 ve=0.0000 vn=0.2178 vl=0.000 db=0.43
G1 E62.2065 F2400                       ; retract de=-2.3744@40
;00:01:52.708: pe=-1.0001 eb=0.0182 ve=-40.0000 vn=0.0000 vl=0.000 db=0.43
G1 Z0.700 F420                          ; hopup dz=0.40@7 h=0.7
;00:01:52.765: pe=-1.0001 eb=0.0182 ve=0.0000 vn=0.0000 vl=0.000 db=0.28
G1 X34.00 Y55.00 F1500                  ; move dl=2.50@0<25>0 de=0.0000 h=0.7
;00:01:52.915: pe=-1.0001 eb=0.0000 ve=0.0000 vn=0.0000 vl=0.000 db=0.00
G1 Z0.300 F420                          ; hopdn dz=-0.40@7 h=0.3
;00:01:52.972: pe=-1.0001 eb=0.0000 ve=0.0000 vn=0.0000 vl=0.000 db=0.00
G1 E64.5984 F1800                       ; restore de=2.3919@30
;00:01:53.052: pe=1.3772 eb=0.0146 ve=30.0000 vn=0.5474 vl=0.000 db=0.39
G1 X34.00 Y53.50 E64.6732 F600          ; draw dl=1.50@0<10>0 l=0.30x0.40x1.00
;00:01:53.222: pe=1.3744 eb=0.0180 ve=0.0000 vn=0.2178 vl=0.000 db=0.43
G1 E62.2988 F2400                       ; retract de=-2.3744@40
;00:01:53.282: pe=-1.0001 eb=0.0182 ve=-40.0000 vn=0.0000 vl=0.000 db=0.43
G1 Z0.700 F420                          ; hopup dz=0.40@7 h=0.7
;00:01:53.339: pe=-1.0001 eb=0.0182 ve=0.0000 vn=0.0000 vl=0.000 db=0.28
G1 X36.00 Y55.00 F1500                  ; move dl=2.50@0<25>0 de=0.0000 h=0.7
;00:01:53.489: pe=-1.0001 eb=0.0000 ve=0.0000 vn=0.0000 vl=0.000 db=0.00
G1 Z0.300 F420                          ; hopdn dz=-0.40@7 h=0.3
;00:01:53.546: pe=-1.0001 eb=0.0000 ve=0.0000 vn=0.0000 vl=0.000 db=0.00
G1 E64.6907 F1800                       ; restore de=2.3919@30
;00:01:53.626: pe=1.3772 eb=0.0146 ve=30.0000 vn=0.5474 vl=0.000 db=0.39
G1 X36.00 Y53.50 E64.7656 F600          ; draw dl=1.50@0<10>0 l=0.30x0.40x1.00
;00:01:53.796: pe=1.3744 eb=0.0180 ve=0.0000 vn=0.2178 vl=0.000 db=0.43
G1 E62.3911 F2400                       ; retract de=-2.3744@40
;00:01:53.855: pe=-1.0001 eb=0.0182 ve=-40.0000 vn=0.0000 vl=0.000 db=0.43
G1 Z0.700 F420                          ; hopup dz=0.40@7 h=0.7
;00:01:53.912: pe=-1.0001 eb=0.0182 ve=0.0000 vn=0.0000 vl=0.000 db=0.28
G1 X38.00 Y55.00 F1500                  ; move dl=2.50@0<25>0 de=0.0000 h=0.7
;00:01:54.062: pe=-1.0001 eb=0.0000 ve=0.0000 vn=0.0000 vl=0.000 db=0.00
G1 Z0.300 F420                          ; hopdn dz=-0.40@7 h=0.3
;00:01:54.119: pe=-1.0001 eb=0.0000 ve=0.0000 vn=0.0000 vl=0.000 db=0.00
G1 E64.7830 F1800                       ; restore de=2.3919@30
;00:01:54.199: pe=1.3772 eb=0.0146 ve=30.0000 vn=0.5474 vl=0.000 db=0.39
G1 X38.00 Y53.50 E64.8579 F600          ; draw dl=1.50@0<10>0 l=0.30x0.40x1.00
;00:01:54.369: pe=1.3744 eb=0.0180 ve=0.0000 vn=0.2178 vl=0.000 db=0.43
G1 E62.4835 F2400                       ; retract de=-2.3744@40
;00:01:54.428: pe=-1.0001 eb=0.0182 ve=-40.0000 vn=0.0000 vl=0.000 db=0.43
G1 Z0.700 F420                          ; hopup dz=0.40@7 h=0.7
;00:01:54.485: pe=-1.0001 eb=0.0182 ve=0.0000 vn=0.0000 vl=0.000 db=0.28
G1 X40.00 Y55.00 F1500                  ; move dl=2.50@0<25>0 de=0.0000 h=0.7
;00:01:54.635: pe=-1.0001 eb=0.0000 ve=0.0000 vn=0.0000 vl=0.000 db=0.00
G1 Z0.300 F420                          ; hopdn dz=-0.40@7 h=0.3
;00:01:54.693: pe=-1.0001 eb=0.0000 ve=0.0000 vn=0.0000 vl=0.000 db=0.00
G1 E64.8863 F1800                       ; restore de=2.4029@30
;00:01:54.773: pe=1.3879 eb=0.0148 ve=30.0000 vn=0.5513 vl=0.000 db=0.39
G1 X40.00 Y52.00 E65.0360 F600          ; draw dl=3.00@0<10>0 l=0.30x0.40x1.00
;00:01:55.093: pe=1.3852 eb=0.0183 ve=0.0000 vn=0.2206 vl=0.000 db=0.43
G1 E62.6508 F2400                       ; retract de=-2.3852@40
;00:01:55.152: pe=-1.0001 eb=0.0184 ve=-40.0000 vn=0.0000 vl=0.000 db=0.43
G1 Z0.700 F420                          ; hopup dz=0.40@7 h=0.7
;00:01:55.209: pe=-1.0001 eb=0.0184 ve=0.0000 vn=0.0000 vl=0.000 db=0.28
;structure:infill-solid
;00:01:55.209: Test Line Backpressure w=0.3 vx=10 ve=0.3742
G1 X-45.00 Y51.00 F6000                 ; move dl=85.01@0<100>0 de=0.0000 h=0.7
;00:01:56.259: pe=-1.0001 eb=0.0000 ve=0.0000 vn=0.0000 vl=0.000 db=0.00
G1 Z0.300 F420                          ; hopdn dz=-0.40@7 h=0.3
;00:01:56.317: pe=-1.0001 eb=0.0000 ve=0.0000 vn=0.0000 vl=0.000 db=0.00
G1 E64.5747 F1800                       ; restore de=1.9239@30
;00:01:56.381: pe=0.9172 eb=0.0066 ve=30.0000 vn=0.3477 vl=0.000 db=0.26
G1 X-40.00 Y51.00 E64.7618 F60          ; draw dl=5.00@0<1>1 l=0.30x0.30x1.00
;00:02:01.382: pe=0.9150 eb=0.0088 ve=0.0374 vn=0.0374 vl=1.000 db=0.30
G1 X-30.00 Y51.00                       ; move dl=10.00@1<1>0 de=0.0000 h=0.3
;00:02:11.383: pe=0.6117 eb=0.0040 ve=0.0000 vn=0.0202 vl=0.000 db=0.20
G1 E65.2081 F1800                       ; restore de=0.4463@30
;00:02:11.398: pe=1.0533 eb=0.0087 ve=30.0000 vn=0.3986 vl=0.000 db=0.30
G1 X0.00 Y51.00 E66.3307 F600           ; draw dl=30.00@0<10>10 l=0.30x0.30x1.00
;00:02:14.408: pe=1.0507 eb=0.0088 ve=0.3742 vn=0.3746 vl=10.000 db=0.30
G1 X40.00 Y51.00 E62.3307               ; move dl=40.00@10<10>0 de=-4.0000 h=0.3
;00:02:18.418: pe=-3.1014 eb=0.0000 ve=-0.0000 vn=0.0000 vl=0.000 db=0.00
G1 E66.7466 F1800                       ; restore de=4.4159@30
;00:02:18.565: pe=1.3014 eb=0.0131 ve=30.0000 vn=0.5145 vl=0.000 db=0.37
G1 X45.00 Y51.00 E66.9960 F300          ; draw dl=5.00@0<5>0 l=0.30x0.40x1.00
;00:02:19.575: pe=1.2981 eb=0.0166 ve=0.0000 vn=0.1572 vl=0.000 db=0.41
G1 E64.6979 F2400                       ; retract de=-2.2981@40
;00:02:19.632: pe=-1.0001 eb=0.0167 ve=-40.0000 vn=0.0000 vl=0.000 db=0.41
G1 Z0.700 F420                          ; hopup dz=0.40@7 h=0.7
;00:02:19.689: pe=-1.0001 eb=0.0167 ve=0.0000 vn=0.0000 vl=0.000 db=0.27
;00:02:19.689: Test Line Backpressure w=0.35 vx=10 ve=0.3742
G1 X-45.00 Y49.00 F6000                 ; move dl=90.02@0<100>0 de=0.0000 h=0.7
;00:02:20.790: pe=-1.0001 eb=0.0000 ve=0.0000 vn=0.0000 vl=0.000 db=0.00
G1 Z0.257 F420                          ; hopdn dz=-0.44@7 h=0.2571428571428571
;00:02:20.853: pe=-1.0001 eb=0.0000 ve=0.0000 vn=0.0000 vl=0.000 db=0.00
G1 E66.7733 F1800                       ; restore de=2.0753@30
;00:02:20.922: pe=1.0673 eb=0.0079 ve=30.0000 vn=0.3630 vl=0.000 db=0.31
G1 X-40.00 Y49.00 E66.9603 F60          ; draw dl=5.00@0<1>1 l=0.26x0.35x1.00
;00:02:25.923: pe=1.0650 eb=0.0103 ve=0.0374 vn=0.0374 vl=1.000 db=0.35
G1 X-30.00 Y49.00                       ; move dl=10.00@1<1>0 de=0.0000 h=0.2571428571428571
;00:02:35.924: pe=0.7536 eb=0.0052 ve=0.0000 vn=0.0216 vl=0.000 db=0.25
G1 E67.4162 F1800                       ; restore de=0.4558@30
;00:02:35.939: pe=1.2045 eb=0.0101 ve=30.0000 vn=0.4063 vl=0.000 db=0.35
G1 X0.00 Y49.00 E68.5387 F600           ; draw dl=30.00@0<10>10 l=0.26x0.35x1.00
;00:02:38.949: pe=1.2014 eb=0.0103 ve=0.3742 vn=0.3747 vl=10.000 db=0.35
G1 X40.00 Y49.00 E64.5387               ; move dl=40.00@10<10>0 de=-4.0000 h=0.2571428571428571
;00:02:42.959: pe=-2.9724 eb=0.0000 ve=-0.0000 vn=0.0000 vl=0.000 db=0.00
G1 E68.8092 F1800                       ; restore de=4.2705@30
;00:02:43.102: pe=1.2867 eb=0.0114 ve=30.0000 vn=0.4488 vl=0.000 db=0.37
G1 X45.00 Y49.00 E69.0230 F300          ; draw dl=5.00@0<5>0 l=0.26x0.40x1.00
;00:02:44.112: pe=1.2840 eb=0.0142 ve=0.0000 vn=0.1255 vl=0.000 db=0.41
G1 E66.7390 F2400                       ; retract de=-2.2840@40
;00:02:44.169: pe=-1.0000 eb=0.0142 ve=-40.0000 vn=0.0000 vl=0.000 db=0.41
G1 Z0.700 F420                          ; hopup dz=0.44@7 h=0.7
;00:02:44.232: pe=-1.0000 eb=0.0142 ve=0.0000 vn=0.0000 vl=0.000 db=0.25
;00:02:44.232: Test Line Backpressure w=0.4 vx=10 ve=0.3742
G1 X-45.00 Y47.00 F6000                 ; move dl=90.02@0<100>0 de=0.0000 h=0.7
;00:02:45.332: pe=-1.0000 eb=0.0000 ve=0.0000 vn=0.0000 vl=0.000 db=0.00
G1 Z0.225 F420                          ; hopdn dz=-0.47@7 h=0.225
;00:02:45.400: pe=-1.0000 eb=0.0000 ve=0.0000 vn=0.0000 vl=0.000 db=0.00
G1 E68.9657 F1800                       ; restore de=2.2267@30
;00:02:45.474: pe=1.2174 eb=0.0093 ve=30.0000 vn=0.3757 vl=0.000 db=0.36
G1 X-40.00 Y47.00 E69.1528 F60          ; draw dl=5.00@0<1>1 l=0.22x0.40x1.00
;00:02:50.475: pe=1.2150 eb=0.0118 ve=0.0374 vn=0.0374 vl=1.000 db=0.40
G1 X-30.00 Y47.00                       ; move dl=10.00@1<1>0 de=0.0000 h=0.22499999999999998
;00:03:00.476: pe=0.8974 eb=0.0064 ve=0.0000 vn=0.0228 vl=0.000 db=0.30
G1 E69.6164 F1800                       ; restore de=0.4635@30
;00:03:00.492: pe=1.3558 eb=0.0116 ve=30.0000 vn=0.4130 vl=0.000 db=0.40
G1 X0.00 Y47.00 E70.7389 F600           ; draw dl=30.00@0<10>10 l=0.22x0.40x1.00
;00:03:03.502: pe=1.3521 eb=0.0118 ve=0.3742 vn=0.3749 vl=10.000 db=0.40
G1 X40.00 Y47.00 E66.7389               ; move dl=40.00@10<10>0 de=-4.0000 h=0.22499999999999998
;00:03:07.512: pe=-2.8433 eb=0.0000 ve=-0.0000 vn=0.0000 vl=0.000 db=0.00
G1 E70.8680 F1800                       ; restore de=4.1291@30
;00:03:07.649: pe=1.2757 eb=0.0102 ve=30.0000 vn=0.3967 vl=0.000 db=0.37
G1 X45.00 Y47.00 E71.0551 F300          ; draw dl=5.00@0<5>0 l=0.22x0.40x1.00
;00:03:08.659: pe=1.2735 eb=0.0124 ve=0.0000 vn=0.1024 vl=0.000 db=0.41
G1 E68.7816 F2400                       ; retract de=-2.2735@40
;00:03:08.716: pe=-1.0000 eb=0.0124 ve=-40.0000 vn=0.0000 vl=0.000 db=0.41
G1 Z0.700 F420                          ; hopup dz=0.47@7 h=0.7
;00:03:08.784: pe=-1.0000 eb=0.0124 ve=0.0000 vn=0.0000 vl=0.000 db=0.23
;00:03:08.784: Test Line Backpressure w=0.45 vx=10 ve=0.3742
G1 X-45.00 Y45.00 F6000                 ; move dl=90.02@0<100>0 de=0.0000 h=0.7
;00:03:09.884: pe=-1.0000 eb=0.0000 ve=0.0000 vn=0.0000 vl=0.000 db=0.00
G1 Z0.200 F420                          ; hopdn dz=-0.50@7 h=0.19999999999999998
;00:03:09.956: pe=-1.0000 eb=0.0000 ve=0.0000 vn=0.0000 vl=0.000 db=0.00
G1 E71.1598 F1800                       ; restore de=2.3782@30
;00:03:10.035: pe=1.3675 eb=0.0107 ve=30.0000 vn=0.3863 vl=0.000 db=0.40
G1 X-40.00 Y45.00 E71.3469 F60          ; draw dl=5.00@0<1>1 l=0.20x0.45x1.00
;00:03:15.036: pe=1.3650 eb=0.0132 ve=0.0374 vn=0.0374 vl=1.000 db=0.45
G1 X-30.00 Y45.00                       ; move dl=10.00@1<1>0 de=0.0000 h=0.19999999999999996
;00:03:25.037: pe=1.0424 eb=0.0077 ve=0.0000 vn=0.0237 vl=0.000 db=0.34
G1 E71.8169 F1800                       ; restore de=0.4700@30
;00:03:25.053: pe=1.5071 eb=0.0130 ve=30.0000 vn=0.4177 vl=0.000 db=0.45
G1 X0.00 Y45.00 E72.9394 F600           ; draw dl=30.00@0<10>10 l=0.20x0.45x1.00
;00:03:28.063: pe=1.5030 eb=0.0133 ve=0.3742 vn=0.3750 vl=10.000 db=0.45
G1 X40.00 Y45.00 E68.9394               ; move dl=40.00@10<10>0 de=-4.0000 h=0.19999999999999996
;00:03:32.073: pe=-2.7141 eb=0.0000 ve=-0.0000 vn=0.0000 vl=0.000 db=0.00
G1 E72.9298 F1800                       ; restore de=3.9904@30
;00:03:32.206: pe=1.2671 eb=0.0092 ve=30.0000 vn=0.3521 vl=0.000 db=0.38
G1 X45.00 Y45.00 E73.0961 F300          ; draw dl=5.00@0<5>0 l=0.20x0.40x1.00
;00:03:33.216: pe=1.2654 eb=0.0110 ve=0.0000 vn=0.0850 vl=0.000 db=0.41
G1 E70.8307 F2400                       ; retract de=-2.2654@40
;00:03:33.272: pe=-1.0000 eb=0.0110 ve=-40.0000 vn=0.0000 vl=0.000 db=0.41
G1 Z0.700 F420                          ; hopup dz=0.50@7 h=0.7
;00:03:33.344: pe=-1.0000 eb=0.0110 ve=0.0000 vn=0.0000 vl=0.000 db=0.22
;00:03:33.344: Test Line Backpressure w=0.5 vx=10 ve=0.3742
G1 X-45.00 Y43.00 F6000                 ; move dl=90.02@0<100>0 de=0.0000 h=0.7
;00:03:34.444: pe=-1.0000 eb=0.0000 ve=0.0000 vn=0.0000 vl=0.000 db=0.00
G1 Z0.180 F420                          ; hopdn dz=-0.52@7 h=0.18000000000000002
;00:03:34.518: pe=-1.0000 eb=0.0000 ve=0.0000 vn=0.0000 vl=0.000 db=0.00
G1 E73.3604 F1800                       ; restore de=2.5297@30
;00:03:34.603: pe=1.5176 eb=0.0121 ve=30.0000 vn=0.3953 vl=0.000 db=0.45
G1 X-40.00 Y43.00 E73.5475 F60          ; draw dl=5.00@0<1>1 l=0.18x0.50x1.00
;00:03:39.604: pe=1.5150 eb=0.0147 ve=0.0374 vn=0.0374 vl=1.000 db=0.50
G1 X-30.00 Y43.00                       ; move dl=10.00@1<1>0 de=0.0000 h=0.18000000000000005
;00:03:49.605: pe=1.1883 eb=0.0091 ve=0.0000 vn=0.0244 vl=0.000 db=0.39
G1 E74.0230 F1800                       ; restore de=0.4756@30
;00:03:49.620: pe=1.6584 eb=0.0145 ve=30.0000 vn=0.4210 vl=0.000 db=0.50
G1 X0.00 Y43.00 E75.1456 F600           ; draw dl=30.00@0<10>10 l=0.18x0.50x1.00
;00:03:52.630: pe=1.6539 eb=0.0148 ve=0.3742 vn=0.3751 vl=10.000 db=0.50
G1 X40.00 Y43.00 E71.1456               ; move dl=40.00@10<10>0 de=-4.0000 h=0.18000000000000005
;00:03:56.640: pe=-2.5849 eb=0.0000 ve=-0.0000 vn=0.0000 vl=0.000 db=0.00
G1 E74.9991 F1800                       ; restore de=3.8535@30
;00:03:56.769: pe=1.2603 eb=0.0084 ve=30.0000 vn=0.3196 vl=0.000 db=0.38
G1 X45.00 Y43.00 E75.1488 F300          ; draw dl=5.00@0<5>0 l=0.18x0.40x1.00
;00:03:57.779: pe=1.2589 eb=0.0099 ve=0.0000 vn=0.0715 vl=0.000 db=0.41
G1 E72.8899 F2400                       ; retract de=-2.2589@40
;00:03:57.835: pe=-1.0000 eb=0.0099 ve=-40.0000 vn=0.0000 vl=0.000 db=0.41
G1 Z0.700 F420                          ; hopup dz=0.52@7 h=0.7
;00:03:57.910: pe=-1.0000 eb=0.0099 ve=0.0000 vn=0.0000 vl=0.000 db=0.21
;00:03:57.910: Test Line Backpressure w=0.55 vx=10 ve=0.3742
G1 X-45.00 Y41.00 F6000                 ; move dl=90.02@0<100>0 de=0.0000 h=0.7
;00:03:59.010: pe=-1.0000 eb=0.0000 ve=0.0000 vn=0.0000 vl=0.000 db=0.00
G1 Z0.164 F420                          ; hopdn dz=-0.54@7 h=0.16363636363636364
;00:03:59.087: pe=-1.0000 eb=0.0000 ve=0.0000 vn=0.0000 vl=0.000 db=0.00
G1 E75.5710 F1800                       ; restore de=2.6811@30
;00:03:59.176: pe=1.6677 eb=0.0135 ve=30.0000 vn=0.4030 vl=0.000 db=0.50
G1 X-40.00 Y41.00 E75.7581 F60          ; draw dl=5.00@0<1>1 l=0.16x0.55x1.00
;00:04:04.177: pe=1.6650 eb=0.0162 ve=0.0374 vn=0.0374 vl=1.000 db=0.55
G1 X-30.00 Y41.00                       ; move dl=10.00@1<1>0 de=0.0000 h=0.16363636363636358
;00:04:14.178: pe=1.3349 eb=0.0104 ve=0.0000 vn=0.0250 vl=0.000 db=0.44
G1 E76.2385 F1800                       ; restore de=0.4804@30
;00:04:14.194: pe=1.8098 eb=0.0160 ve=30.0000 vn=0.4235 vl=0.000 db=0.55
G1 X0.00 Y41.00 E77.3611 F600           ; draw dl=30.00@0<10>10 l=0.16x0.55x1.00
;00:04:17.204: pe=1.8048 eb=0.0163 ve=0.3742 vn=0.3752 vl=10.000 db=0.55
G1 X40.00 Y41.00 E73.3611               ; move dl=40.00@10<10>0 de=-4.0000 h=0.16363636363636358
;00:04:21.214: pe=-2.4556 eb=0.0000 ve=-0.0000 vn=0.0000 vl=0.000 db=0.00
G1 E77.0791 F1800                       ; restore de=3.7180@30
;00:04:21.338: pe=1.2547 eb=0.0077 ve=30.0000 vn=0.2877 vl=0.000 db=0.38
G1 X45.00 Y41.00 E77.2151 F300          ; draw dl=5.00@0<5>0 l=0.16x0.40x1.00
;00:04:22.348: pe=1.2535 eb=0.0090 ve=0.0000 vn=0.0609 vl=0.000 db=0.41
G1 E74.9616 F2400                       ; retract de=-2.2535@40
;00:04:22.404: pe=-1.0000 eb=0.0090 ve=-40.0000 vn=0.0000 vl=0.000 db=0.41
G1 Z0.700 F420                          ; hopup dz=0.54@7 h=0.7
;00:04:22.481: pe=-1.0000 eb=0.0090 ve=0.0000 vn=0.0000 vl=0.000 db=0.20
;00:04:22.481: Test Line Backpressure w=0.6 vx=10 ve=0.3742
G1 X-45.00 Y39.00 F6000                 ; move dl=90.02@0<100>0 de=0.0000 h=0.7
;00:04:23.581: pe=-1.0000 eb=0.0000 ve=0.0000 vn=0.0000 vl=0.000 db=0.00
G1 Z0.150 F420                          ; hopdn dz=-0.55@7 h=0.15
;00:04:23.660: pe=-1.0000 eb=0.0000 ve=0.0000 vn=0.0000 vl=0.000 db=0.00
G1 E77.7942 F1800                       ; restore de=2.8326@30
;00:04:23.754: pe=1.8177 eb=0.0149 ve=30.0000 vn=0.4097 vl=0.000 db=0.55
G1 X-40.00 Y39.00 E77.9813 F60          ; draw dl=5.00@0<1>1 l=0.15x0.60x1.00
;00:04:28.755: pe=1.8150 eb=0.0176 ve=0.0374 vn=0.0374 vl=1.000 db=0.60
G1 X-30.00 Y39.00                       ; move dl=10.00@1<1>0 de=0.0000 h=0.15000000000000002
;00:04:38.756: pe=1.4821 eb=0.0118 ve=0.0000 vn=0.0256 vl=0.000 db=0.49
G1 E78.4661 F1800                       ; restore de=0.4848@30
;00:04:38.772: pe=1.9612 eb=0.0174 ve=30.0000 vn=0.4277 vl=0.000 db=0.60
G1 X0.00 Y39.00 E79.5886 F600           ; draw dl=30.00@0<10>10 l=0.15x0.60x1.00
;00:04:41.782: pe=1.9559 eb=0.0177 ve=0.3742 vn=0.3753 vl=10.000 db=0.60
G1 X40.00 Y39.00 E75.5886               ; move dl=40.00@10<10>0 de=-4.0000 h=0.15000000000000002
;00:04:45.792: pe=-2.3262 eb=0.0000 ve=-0.0000 vn=0.0000 vl=0.000 db=0.00
G1 E79.1720 F1800                       ; restore de=3.5834@30
;00:04:45.912: pe=1.2501 eb=0.0071 ve=30.0000 vn=0.2649 vl=0.000 db=0.38
G1 X45.00 Y39.00 E79.2968 F300          ; draw dl=5.00@0<5>0 l=0.15x0.40x1.00
;00:04:46.922: pe=1.2491 eb=0.0082 ve=0.0000 vn=0.0523 vl=0.000 db=0.41
G1 E77.0477 F2400                       ; retract de=-2.2491@40
;00:04:46.978: pe=-1.0000 eb=0.0082 ve=-40.0000 vn=0.0000 vl=0.000 db=0.41
G1 Z0.700 F420                          ; hopup dz=0.55@7 h=0.7
;00:04:47.056: pe=-1.0000 eb=0.0082 ve=0.0000 vn=0.0000 vl=0.000 db=0.19
;00:04:47.056: Test Line Backpressure w=0.65 vx=10 ve=0.3742
G1 X-45.00 Y37.00 F6000                 ; move dl=90.02@0<100>0 de=0.0000 h=0.7
;00:04:48.157: pe=-1.0000 eb=0.0000 ve=0.0000 vn=0.0000 vl=0.000 db=0.00
G1 Z0.138 F420                          ; hopdn dz=-0.56@7 h=0.13846153846153844
;00:04:48.237: pe=-1.0000 eb=0.0000 ve=0.0000 vn=0.0000 vl=0.000 db=0.00
G1 E80.0318 F1800                       ; restore de=2.9841@30
;00:04:48.336: pe=1.9678 eb=0.0163 ve=30.0000 vn=0.4155 vl=0.000 db=0.60
G1 X-40.00 Y37.00 E80.2189 F60          ; draw dl=5.00@0<1>1 l=0.14x0.65x1.00
;00:04:53.337: pe=1.9650 eb=0.0191 ve=0.0374 vn=0.0374 vl=1.000 db=0.65
G1 X-30.00 Y37.00                       ; move dl=10.00@1<1>0 de=0.0000 h=0.1384615384615384
;00:05:03.338: pe=1.6296 eb=0.0132 ve=0.0000 vn=0.0260 vl=0.000 db=0.54
G1 E80.7075 F1800                       ; restore de=0.4887@30
;00:05:03.355: pe=2.1125 eb=0.0189 ve=30.0000 vn=0.4311 vl=0.000 db=0.65
G1 X0.00 Y37.00 E81.8301 F600           ; draw dl=30.00@0<10>10 l=0.14x0.65x1.00
;00:05:06.365: pe=2.1069 eb=0.0192 ve=0.3742 vn=0.3755 vl=10.000 db=0.65
G1 X40.00 Y37.00 E77.8301               ; move dl=40.00@10<10>0 de=-4.0000 h=0.1384615384615384
;00:05:10.375: pe=-2.1968 eb=0.0000 ve=-0.0000 vn=0.0000 vl=0.000 db=0.00
G1 E81.2797 F1800                       ; restore de=3.4497@30
;00:05:10.490: pe=1.2462 eb=0.0066 ve=30.0000 vn=0.2395 vl=0.000 db=0.38
G1 X45.00 Y37.00 E81.3949 F300          ; draw dl=5.00@0<5>0 l=0.14x0.40x1.00
;00:05:11.500: pe=1.2453 eb=0.0076 ve=0.0000 vn=0.0453 vl=0.000 db=0.41
G1 E79.1496 F2400                       ; retract de=-2.2453@40
;00:05:11.556: pe=-1.0000 eb=0.0076 ve=-40.0000 vn=0.0000 vl=0.000 db=0.41
G1 Z0.700 F420                          ; hopup dz=0.56@7 h=0.7
;00:05:11.636: pe=-1.0000 eb=0.0076 ve=0.0000 vn=0.0000 vl=0.000 db=0.18
;00:05:11.636: Test Line Backpressure w=0.7 vx=10 ve=0.3742
G1 X-45.00 Y35.00 F6000                 ; move dl=90.02@0<100>0 de=0.0000 h=0.7
;00:05:12.736: pe=-1.0000 eb=0.0000 ve=0.0000 vn=0.0000 vl=0.000 db=0.00
G1 Z0.129 F420                          ; hopdn dz=-0.57@7 h=0.12857142857142853
;00:05:12.818: pe=-1.0000 eb=0.0000 ve=0.0000 vn=0.0000 vl=0.000 db=0.00
G1 E82.2851 F1800                       ; restore de=3.1355@30
;00:05:12.922: pe=2.1178 eb=0.0177 ve=30.0000 vn=0.4206 vl=0.000 db=0.65
G1 X-40.00 Y35.00 E82.4722 F60          ; draw dl=5.00@0<1>1 l=0.13x0.70x1.00
;00:05:17.923: pe=2.1150 eb=0.0206 ve=0.0374 vn=0.0374 vl=1.000 db=0.70
G1 X-30.00 Y35.00                       ; move dl=10.00@1<1>0 de=0.0000 h=0.12857142857142856
;00:05:27.924: pe=1.7775 eb=0.0146 ve=0.0000 vn=0.0264 vl=0.000 db=0.59
G1 E82.9645 F1800                       ; restore de=0.4923@30
;00:05:27.941: pe=2.2639 eb=0.0204 ve=30.0000 vn=0.4338 vl=0.000 db=0.70
G1 X0.00 Y35.00 E84.0870 F600           ; draw dl=30.00@0<10>10 l=0.13x0.70x1.00
;00:05:30.951: pe=2.2580 eb=0.0207 ve=0.3742 vn=0.3755 vl=10.000 db=0.70
G1 X40.00 Y35.00 E80.0870               ; move dl=40.00@10<10>0 de=-4.0000 h=0.12857142857142856
;00:05:34.961: pe=-2.0674 eb=0.0000 ve=-0.0000 vn=0.0000 vl=0.000 db=0.00
G1 E83.4034 F1800                       ; restore de=3.3165@30
;00:05:35.071: pe=1.2429 eb=0.0062 ve=30.0000 vn=0.2242 vl=0.000 db=0.38
G1 X45.00 Y35.00 E83.5104 F300          ; draw dl=5.00@0<5>0 l=0.13x0.40x1.00
;00:05:36.081: pe=1.2421 eb=0.0070 ve=0.0000 vn=0.0395 vl=0.000 db=0.41
G1 E81.2683 F2400                       ; retract de=-2.2421@40
;00:05:36.137: pe=-1.0000 eb=0.0070 ve=-40.0000 vn=0.0000 vl=0.000 db=0.41
G1 Z0.700 F420                          ; hopup dz=0.57@7 h=0.7
;00:05:36.219: pe=-1.0000 eb=0.0070 ve=0.0000 vn=0.0000 vl=0.000 db=0.18
;00:05:36.219: Test Line Backpressure w=0.75 vx=10 ve=0.3742
G1 X-45.00 Y33.00 F6000                 ; move dl=90.02@0<100>0 de=0.0000 h=0.7
;00:05:37.319: pe=-1.0000 eb=0.0000 ve=0.0000 vn=0.0000 vl=0.000 db=0.00
G1 Z0.120 F420                          ; hopdn dz=-0.58@7 h=0.11999999999999997
;00:05:37.402: pe=-1.0000 eb=0.0000 ve=0.0000 vn=0.0000 vl=0.000 db=0.00
G1 E84.5553 F1800                       ; restore de=3.2870@30
;00:05:37.512: pe=2.2678 eb=0.0192 ve=30.0000 vn=0.4252 vl=0.000 db=0.70
G1 X-40.00 Y33.00 E84.7424 F60          ; draw dl=5.00@0<1>1 l=0.12x0.75x1.00
;00:05:42.513: pe=2.2650 eb=0.0220 ve=0.0374 vn=0.0374 vl=1.000 db=0.75
G1 X-30.00 Y33.00                       ; move dl=10.00@1<1>0 de=0.0000 h=0.12
;00:05:52.514: pe=1.9256 eb=0.0160 ve=0.0000 vn=0.0268 vl=0.000 db=0.64
G1 E85.2380 F1800                       ; restore de=0.4956@30
;00:05:52.530: pe=2.4153 eb=0.0219 ve=30.0000 vn=0.4361 vl=0.000 db=0.75
G1 X0.00 Y33.00 E86.3605 F600           ; draw dl=30.00@0<10>10 l=0.12x0.75x1.00
;00:05:55.540: pe=2.4092 eb=0.0222 ve=0.3742 vn=0.3756 vl=10.000 db=0.75
G1 X40.00 Y33.00 E82.3605               ; move dl=40.00@10<10>0 de=-4.0000 h=0.12
;00:05:59.550: pe=-1.9380 eb=0.0000 ve=-0.0000 vn=0.0000 vl=0.000 db=0.00
G1 E85.5443 F1800                       ; restore de=3.1838@30
;00:05:59.656: pe=1.2399 eb=0.0058 ve=30.0000 vn=0.2050 vl=0.000 db=0.39
G1 X45.00 Y33.00 E85.6441 F300          ; draw dl=5.00@0<5>0 l=0.12x0.40x1.00
;00:06:00.666: pe=1.2393 eb=0.0065 ve=0.0000 vn=0.0347 vl=0.000 db=0.41
G1 E83.4048 F2400                       ; retract de=-2.2393@40
;00:06:00.722: pe=-1.0000 eb=0.0065 ve=-40.0000 vn=0.0000 vl=0.000 db=0.41
G1 Z0.700 F420                          ; hopup dz=0.58@7 h=0.7
;00:06:00.805: pe=-1.0000 eb=0.0065 ve=0.0000 vn=0.0000 vl=0.000 db=0.17
;00:06:00.805: Test Line Backpressure w=0.8 vx=10 ve=0.3742
G1 X-45.00 Y31.00 F6000                 ; move dl=90.02@0<100>0 de=0.0000 h=0.7
;00:06:01.905: pe=-1.0000 eb=0.0000 ve=0.0000 vn=0.0000 vl=0.000 db=0.00
G1 Z0.112 F420                          ; hopdn dz=-0.59@7 h=0.11249999999999996
;00:06:01.989: pe=-1.0000 eb=0.0000 ve=0.0000 vn=0.0000 vl=0.000 db=0.00
G1 E86.8433 F1800                       ; restore de=3.4385@30
;00:06:02.104: pe=2.4179 eb=0.0206 ve=30.0000 vn=0.4292 vl=0.000 db=0.75
G1 X-40.00 Y31.00 E87.0304 F60          ; draw dl=5.00@0<1>1 l=0.11x0.80x1.00
;00:06:07.105: pe=2.4150 eb=0.0235 ve=0.0374 vn=0.0374 vl=1.000 db=0.80
G1 X-30.00 Y31.00                       ; move dl=10.00@1<1>0 de=0.0000 h=0.11249999999999993
;00:06:17.106: pe=2.0740 eb=0.0174 ve=0.0000 vn=0.0271 vl=0.000 db=0.69
G1 E87.5291 F1800                       ; restore de=0.4987@30
;00:06:17.122: pe=2.5667 eb=0.0233 ve=30.0000 vn=0.4379 vl=0.000 db=0.80
G1 X0.00 Y31.00 E88.6516 F600           ; draw dl=30.00@0<10>10 l=0.11x0.80x1.00
;00:06:20.132: pe=2.5603 eb=0.0237 ve=0.3742 vn=0.3757 vl=10.000 db=0.80
G1 X40.00 Y31.00 E84.6516               ; move dl=40.00@10<10>0 de=-4.0000 h=0.11249999999999993
;00:06:24.142: pe=-1.8085 eb=0.0000 ve=-0.0000 vn=0.0000 vl=0.000 db=0.00
G1 E87.7031 F1800                       ; restore de=3.0515@30
;00:06:24.244: pe=1.2374 eb=0.0055 ve=30.0000 vn=0.1917 vl=0.000 db=0.39
G1 X45.00 Y31.00 E87.7966 F300          ; draw dl=5.00@0<5>0 l=0.11x0.40x1.00
;00:06:25.254: pe=1.2368 eb=0.0061 ve=0.0000 vn=0.0307 vl=0.000 db=0.41
G1 E85.5598 F2400                       ; retract de=-2.2368@40
;00:06:25.310: pe=-1.0000 eb=0.0061 ve=-40.0000 vn=0.0000 vl=0.000 db=0.41
G1 Z0.700 F420                          ; hopup dz=0.59@7 h=0.7
;00:06:25.394: pe=-1.0000 eb=0.0061 ve=0.0000 vn=0.0000 vl=0.000 db=0.16
;structure:brim
;00:06:25.394: text x0=46.0 y0=55 fsize=5 angle=0 'w=0.3-0.8\nvx=10\nve=0.3742'
G1 X46.40 Y53.86 F4540                  ; move dl=22.90@0<76>0 de=0.0000 h=0.7
;00:06:25.848: pe=-1.0000 eb=0.0000 ve=0.0000 vn=0.0000 vl=0.000 db=0.00
G1 Z0.300 F420                          ; hopdn dz=-0.40@7 h=0.3
;00:06:25.905: pe=-1.0000 eb=0.0000 ve=0.0000 vn=0.0000 vl=0.000 db=0.00
G1 E87.9657 F1800                       ; restore de=2.4060@30
;00:06:25.985: pe=1.3911 eb=0.0149 ve=30.0000 vn=0.5531 vl=0.000 db=0.39
G1 X47.28 Y51.41 E88.0956 F600          ; draw dl=2.60@0<10>5 l=0.30x0.40x1.00
;00:06:26.258: pe=1.3899 eb=0.0165 ve=0.2405 vn=0.4003 vl=4.820 db=0.41
G1 X48.04 Y53.86 E88.2236               ; draw dl=2.57@5<10>5 l=0.30x0.40x1.00
;00:06:26.520: pe=1.3903 eb=0.0165 ve=0.2318 vn=0.3950 vl=4.647 db=0.41
G1 X48.83 Y51.41 E88.3520               ; draw dl=2.57@5<10>5 l=0.30x0.40x1.00
;00:06:26.783: pe=1.3907 eb=0.0165 ve=0.2405 vn=0.4006 vl=4.821 db=0.41
G1 X49.68 Y53.86 E88.4814               ; draw dl=2.59@5<10>0 l=0.30x0.40x1.00
;00:06:27.055: pe=1.3892 eb=0.0184 ve=0.0000 vn=0.2216 vl=0.000 db=0.43
G1 E86.0922 F2400                       ; retract de=-2.3892@40
;00:06:27.115: pe=-1.0001 eb=0.0185 ve=-40.0000 vn=0.0000 vl=0.000 db=0.44
G1 Z0.700 F420                          ; hopup dz=0.40@7 h=0.7
;00:06:27.172: pe=-1.0001 eb=0.0185 ve=0.0000 vn=0.0000 vl=0.000 db=0.28
G1 X50.65 Y53.22 F1023                  ; move dl=1.16@0<17>0 de=0.0000 h=0.7
;00:06:27.275: pe=-1.0001 eb=0.0000 ve=0.0000 vn=0.0000 vl=0.000 db=0.00
G1 Z0.300 F420                          ; hopdn dz=-0.40@7 h=0.3
;00:06:27.332: pe=-1.0001 eb=0.0000 ve=0.0000 vn=0.0000 vl=0.000 db=0.00
G1 E88.4869 F1800                       ; restore de=2.3947@30
;00:06:27.412: pe=1.3799 eb=0.0147 ve=30.0000 vn=0.5482 vl=0.000 db=0.39
G1 X52.38 Y53.22 E88.5732 F600          ; draw dl=1.73@0<10>0 l=0.30x0.40x1.00
;00:06:27.605: pe=1.3772 eb=0.0181 ve=0.0000 vn=0.2185 vl=0.000 db=0.43
G1 E86.1961 F2400                       ; retract de=-2.3772@40
;00:06:27.664: pe=-1.0001 eb=0.0182 ve=-40.0000 vn=0.0000 vl=0.000 db=0.43
G1 Z0.700 F420                          ; hopup dz=0.40@7 h=0.7
;00:06:27.721: pe=-1.0001 eb=0.0182 ve=0.0000 vn=0.0000 vl=0.000 db=0.28
G1 X52.38 Y52.49 F811                   ; move dl=0.73@0<14>0 de=0.0000 h=0.7
;00:06:27.802: pe=-1.0001 eb=0.0000 ve=0.0000 vn=0.0000 vl=0.000 db=0.00
G1 Z0.300 F420                          ; hopdn dz=-0.40@7 h=0.3
;00:06:27.859: pe=-1.0001 eb=0.0000 ve=0.0000 vn=0.0000 vl=0.000 db=0.00
G1 E88.5908 F1800                       ; restore de=2.3947@30
;00:06:27.939: pe=1.3799 eb=0.0147 ve=30.0000 vn=0.5482 vl=0.000 db=0.39
G1 X50.65 Y52.49 E88.6771 F600          ; draw dl=1.73@0<10>0 l=0.30x0.40x1.00
;00:06:28.132: pe=1.3772 eb=0.0181 ve=0.0000 vn=0.2185 vl=0.000 db=0.43
G1 E86.2999 F2400                       ; retract de=-2.3772@40
;00:06:28.192: pe=-1.0001 eb=0.0182 ve=-40.0000 vn=0.0000 vl=0.000 db=0.43
G1 Z0.700 F420                          ; hopup dz=0.40@7 h=0.7
;00:06:28.249: pe=-1.0001 eb=0.0182 ve=0.0000 vn=0.0000 vl=0.000 db=0.28
G1 X54.59 Y54.94 F2043                  ; move dl=4.64@0<34>0 de=0.0000 h=0.7
;00:06:28.453: pe=-1.0001 eb=0.0000 ve=0.0000 vn=0.0000 vl=0.000 db=0.00
G1 Z0.300 F420                          ; hopdn dz=-0.40@7 h=0.3
;00:06:28.510: pe=-1.0001 eb=0.0000 ve=0.0000 vn=0.0000 vl=0.000 db=0.00
G1 E88.6846 F1800                       ; restore de=2.3847@30
;00:06:28.590: pe=1.3701 eb=0.0145 ve=30.0000 vn=0.5447 vl=0.000 db=0.38
G1 X55.12 Y54.79 E88.7121 F600          ; draw dl=0.55@0<10>10 l=0.30x0.40x1.00
;00:06:28.655: pe=1.3697 eb=0.0150 ve=0.4989 vn=0.4879 vl=10.000 db=0.39
G1 X55.52 Y54.41 E88.7396               ; draw dl=0.55@10<10>10 l=0.30x0.40x1.00
;00:06:28.710: pe=1.3703 eb=0.0150 ve=0.4989 vn=0.4886 vl=10.000 db=0.39
G1 X55.76 Y53.83 E88.7709               ; draw dl=0.63@10<10>10 l=0.30x0.40x1.00
;00:06:28.773: pe=1.3709 eb=0.0150 ve=0.4989 vn=0.4889 vl=10.000 db=0.39
G1 X55.85 Y53.14 E88.8057               ; draw dl=0.70@10<10>10 l=0.30x0.40x1.00
;00:06:28.842: pe=1.3716 eb=0.0151 ve=0.4989 vn=0.4891 vl=10.000 db=0.39
G1 X55.76 Y52.45 E88.8404               ; draw dl=0.70@10<10>10 l=0.30x0.40x1.00
;00:06:28.912: pe=1.3723 eb=0.0151 ve=0.4989 vn=0.4893 vl=10.000 db=0.39
G1 X55.51 Y51.88 E88.8714               ; draw dl=0.62@10<10>10 l=0.30x0.40x1.00
;00:06:28.974: pe=1.3729 eb=0.0151 ve=0.4989 vn=0.4895 vl=10.000 db=0.39
G1 X55.12 Y51.49 E88.8989               ; draw dl=0.55@10<10>10 l=0.30x0.40x1.00
;00:06:29.029: pe=1.3734 eb=0.0151 ve=0.4989 vn=0.4897 vl=10.000 db=0.39
G1 X54.59 Y51.34 E88.9264               ; draw dl=0.55@10<10>10 l=0.30x0.40x1.00
;00:06:29.084: pe=1.3739 eb=0.0151 ve=0.4989 vn=0.4899 vl=10.000 db=0.39
G1 X54.07 Y51.49 E88.9534               ; draw dl=0.54@10<10>10 l=0.30x0.40x1.00
;00:06:29.138: pe=1.3744 eb=0.0151 ve=0.4989 vn=0.4901 vl=10.000 db=0.39
G1 X53.68 Y51.88 E88.9809               ; draw dl=0.55@10<10>10 l=0.30x0.40x1.00
;00:06:29.194: pe=1.3748 eb=0.0151 ve=0.4989 vn=0.4902 vl=10.000 db=0.39
G1 X53.43 Y52.45 E89.0120               ; draw dl=0.62@10<10>10 l=0.30x0.40x1.00
;00:06:29.256: pe=1.3754 eb=0.0151 ve=0.4989 vn=0.4904 vl=10.000 db=0.39
G1 X53.35 Y53.14 E89.0467               ; draw dl=0.69@10<10>10 l=0.30x0.40x1.00
;00:06:29.325: pe=1.3759 eb=0.0151 ve=0.4989 vn=0.4906 vl=10.000 db=0.39
G1 X53.43 Y53.83 E89.0813               ; draw dl=0.69@10<10>10 l=0.30x0.40x1.00
;00:06:29.395: pe=1.3765 eb=0.0152 ve=0.4989 vn=0.4908 vl=10.000 db=0.39
G1 X53.67 Y54.40 E89.1122               ; draw dl=0.62@10<10>10 l=0.30x0.40x1.00
;00:06:29.457: pe=1.3770 eb=0.0152 ve=0.4989 vn=0.4910 vl=10.000 db=0.39
G1 X54.07 Y54.79 E89.1400               ; draw dl=0.56@10<10>10 l=0.30x0.40x1.00
;00:06:29.513: pe=1.3774 eb=0.0152 ve=0.4989 vn=0.4911 vl=10.000 db=0.39
G1 X54.59 Y54.94 E89.1670               ; draw dl=0.54@10<10>0 l=0.30x0.40x1.00
;00:06:29.577: pe=1.3749 eb=0.0180 ve=0.0000 vn=0.2179 vl=0.000 db=0.43
G1 E86.7921 F2400                       ; retract de=-2.3749@40
;00:06:29.636: pe=-1.0001 eb=0.0182 ve=-40.0000 vn=0.0000 vl=0.000 db=0.43
G1 Z0.700 F420                          ; hopup dz=0.40@7 h=0.7
;00:06:29.693: pe=-1.0001 eb=0.0182 ve=0.0000 vn=0.0000 vl=0.000 db=0.28
G1 X56.82 Y51.64 F1893                  ; move dl=3.98@0<32>0 de=0.0000 h=0.7
;00:06:29.882: pe=-1.0001 eb=0.0000 ve=0.0000 vn=0.0000 vl=0.000 db=0.00
G1 Z0.300 F420                          ; hopdn dz=-0.40@7 h=0.3
;00:06:29.940: pe=-1.0001 eb=0.0000 ve=0.0000 vn=0.0000 vl=0.000 db=0.00
G1 E89.0594 F1800                       ; restore de=2.2673@30
;00:06:30.015: pe=1.2550 eb=0.0122 ve=30.0000 vn=0.4951 vl=0.000 db=0.35
G1 X56.82 Y51.58 E89.0624 F232          ; draw dl=0.06@0<4>0 l=0.30x0.40x1.00
;00:06:30.038: pe=1.2518 eb=0.0155 ve=0.0000 vn=0.1442 vl=0.000 db=0.40
G1 E86.8106 F2400                       ; retract de=-2.2518@40
;00:06:30.095: pe=-1.0000 eb=0.0156 ve=-40.0000 vn=0.0000 vl=0.000 db=0.40
G1 Z0.700 F420                          ; hopup dz=0.40@7 h=0.7
;00:06:30.152: pe=-1.0000 eb=0.0156 ve=0.0000 vn=0.0000 vl=0.000 db=0.26
G1 X57.85 Y54.11 F1568                  ; move dl=2.73@0<26>0 de=0.0000 h=0.7
;00:06:30.309: pe=-1.0000 eb=0.0000 ve=0.0000 vn=0.0000 vl=0.000 db=0.00
G1 Z0.300 F420                          ; hopdn dz=-0.40@7 h=0.3
;00:06:30.366: pe=-1.0000 eb=0.0000 ve=0.0000 vn=0.0000 vl=0.000 db=0.00
G1 E89.1835 F1800                       ; restore de=2.3728@30
;00:06:30.445: pe=1.3586 eb=0.0142 ve=30.0000 vn=0.5386 vl=0.000 db=0.38
G1 X57.97 Y54.46 E89.2019 F600          ; draw dl=0.37@0<10>10 l=0.30x0.40x1.00
;00:06:30.492: pe=1.3581 eb=0.0148 ve=0.4989 vn=0.4799 vl=10.000 db=0.39
G1 X58.18 Y54.72 E89.2186               ; draw dl=0.33@10<10>10 l=0.30x0.40x1.00
;00:06:30.525: pe=1.3586 eb=0.0148 ve=0.4989 vn=0.4845 vl=10.000 db=0.39
G1 X58.48 Y54.89 E89.2358               ; draw dl=0.34@10<10>10 l=0.30x0.40x1.00
;00:06:30.560: pe=1.3591 eb=0.0148 ve=0.4989 vn=0.4847 vl=10.000 db=0.39
G1 X58.83 Y54.94 E89.2534               ; draw dl=0.35@10<10>10 l=0.30x0.40x1.00
;00:06:30.595: pe=1.3596 eb=0.0148 ve=0.4989 vn=0.4849 vl=10.000 db=0.39
G1 X59.22 Y54.87 E89.2732               ; draw dl=0.40@10<10>10 l=0.30x0.40x1.00
;00:06:30.635: pe=1.3601 eb=0.0148 ve=0.4989 vn=0.4851 vl=10.000 db=0.39
G1 X59.52 Y54.68 E89.2909               ; draw dl=0.36@10<10>10 l=0.30x0.40x1.00
;00:06:30.670: pe=1.3606 eb=0.0148 ve=0.4989 vn=0.4853 vl=10.000 db=0.39
G1 X59.71 Y54.40 E89.3078               ; draw dl=0.34@10<10>10 l=0.30x0.40x1.00
;00:06:30.704: pe=1.3611 eb=0.0148 ve=0.4989 vn=0.4854 vl=10.000 db=0.39
G1 X59.77 Y54.04 E89.3260               ; draw dl=0.36@10<10>10 l=0.30x0.40x1.00
;00:06:30.741: pe=1.3616 eb=0.0148 ve=0.4989 vn=0.4856 vl=10.000 db=0.39
G1 X59.70 Y53.83 E89.3370               ; draw dl=0.22@10<10>10 l=0.30x0.40x1.00
;00:06:30.763: pe=1.3619 eb=0.0148 ve=0.4989 vn=0.4857 vl=10.000 db=0.39
G1 X59.56 Y53.65 E89.3484               ; draw dl=0.23@10<10>10 l=0.30x0.40x1.00
;00:06:30.786: pe=1.3622 eb=0.0148 ve=0.4989 vn=0.4858 vl=10.000 db=0.39
G1 X59.18 Y53.42 E89.3706               ; draw dl=0.44@10<10>10 l=0.30x0.40x1.00
;00:06:30.830: pe=1.3627 eb=0.0149 ve=0.4989 vn=0.4860 vl=10.000 db=0.39
G1 X58.73 Y53.26 E89.3944               ; draw dl=0.48@10<10>5 l=0.30x0.40x1.00
;00:06:30.881: pe=1.3623 eb=0.0159 ve=0.2291 vn=0.3841 vl=4.591 db=0.40
G1 X59.18 Y53.14 E89.4176               ; draw dl=0.47@5<10>10 l=0.30x0.40x1.00
;00:06:30.930: pe=1.3636 eb=0.0149 ve=0.4989 vn=0.4855 vl=10.000 db=0.39
G1 X59.54 Y52.98 E89.4373               ; draw dl=0.39@10<10>10 l=0.30x0.40x1.00
;00:06:30.970: pe=1.3641 eb=0.0149 ve=0.4989 vn=0.4865 vl=10.000 db=0.39
G1 X59.84 Y52.69 E89.4581               ; draw dl=0.42@10<10>10 l=0.30x0.40x1.00
;00:06:31.011: pe=1.3646 eb=0.0149 ve=0.4989 vn=0.4867 vl=10.000 db=0.39
G1 X59.95 Y52.40 E89.4736               ; draw dl=0.31@10<10>10 l=0.30x0.40x1.00
;00:06:31.042: pe=1.3650 eb=0.0149 ve=0.4989 vn=0.4868 vl=10.000 db=0.39
G1 X59.87 Y51.96 E89.4959               ; draw dl=0.45@10<10>10 l=0.30x0.40x1.00
;00:06:31.087: pe=1.3655 eb=0.0149 ve=0.4989 vn=0.4870 vl=10.000 db=0.39
G1 X59.64 Y51.63 E89.5160               ; draw dl=0.40@10<10>10 l=0.30x0.40x1.00
;00:06:31.127: pe=1.3660 eb=0.0149 ve=0.4989 vn=0.4871 vl=10.000 db=0.39
G1 X59.30 Y51.42 E89.5359               ; draw dl=0.40@10<10>10 l=0.30x0.40x1.00
;00:06:31.167: pe=1.3665 eb=0.0149 ve=0.4989 vn=0.4873 vl=10.000 db=0.39
G1 X58.87 Y51.34 E89.5577               ; draw dl=0.44@10<10>10 l=0.30x0.40x1.00
;00:06:31.211: pe=1.3670 eb=0.0150 ve=0.4989 vn=0.4875 vl=10.000 db=0.39
G1 X58.45 Y51.41 E89.5790               ; draw dl=0.43@10<10>10 l=0.30x0.40x1.00
;00:06:31.254: pe=1.3675 eb=0.0150 ve=0.4989 vn=0.4876 vl=10.000 db=0.39
G1 X58.12 Y51.58 E89.5975               ; draw dl=0.37@10<10>10 l=0.30x0.40x1.00
;00:06:31.291: pe=1.3679 eb=0.0150 ve=0.4989 vn=0.4878 vl=10.000 db=0.39
G1 X57.91 Y51.85 E89.6146               ; draw dl=0.34@10<10>10 l=0.30x0.40x1.00
;00:06:31.325: pe=1.3683 eb=0.0150 ve=0.4989 vn=0.4879 vl=10.000 db=0.39
G1 X57.80 Y52.22 E89.6338               ; draw dl=0.39@10<10>0 l=0.30x0.40x1.00
;00:06:31.373: pe=1.3658 eb=0.0178 ve=0.0000 vn=0.2156 vl=0.000 db=0.43
G1 E87.2681 F2400                       ; retract de=-2.3658@40
;00:06:31.433: pe=-1.0001 eb=0.0179 ve=-40.0000 vn=0.0000 vl=0.000 db=0.43
G1 Z0.700 F420                          ; hopup dz=0.40@7 h=0.7
;00:06:31.490: pe=-1.0001 eb=0.0179 ve=0.0000 vn=0.0000 vl=0.000 db=0.28
G1 X60.92 Y52.85 F1693                  ; move dl=3.18@0<28>0 de=0.0000 h=0.7
;00:06:31.659: pe=-1.0001 eb=0.0000 ve=0.0000 vn=0.0000 vl=0.000 db=0.00
G1 Z0.300 F420                          ; hopdn dz=-0.40@7 h=0.3
;00:06:31.716: pe=-1.0001 eb=0.0000 ve=0.0000 vn=0.0000 vl=0.000 db=0.00
G1 E89.6645 F1800                       ; restore de=2.3964@30
;00:06:31.796: pe=1.3816 eb=0.0147 ve=30.0000 vn=0.5487 vl=0.000 db=0.39
G1 X62.83 Y52.85 E89.7598 F600          ; draw dl=1.91@0<10>0 l=0.30x0.40x1.00
;00:06:32.007: pe=1.3789 eb=0.0181 ve=0.0000 vn=0.2189 vl=0.000 db=0.43
G1 E87.3809 F2400                       ; retract de=-2.3789@40
;00:06:32.067: pe=-1.0001 eb=0.0183 ve=-40.0000 vn=0.0000 vl=0.000 db=0.43
G1 Z0.700 F420                          ; hopup dz=0.40@7 h=0.7
;00:06:32.124: pe=-1.0001 eb=0.0183 ve=0.0000 vn=0.0000 vl=0.000 db=0.28
G1 X65.05 Y54.94 F1657                  ; move dl=3.05@0<28>0 de=0.0000 h=0.7
;00:06:32.289: pe=-1.0001 eb=0.0000 ve=0.0000 vn=0.0000 vl=0.000 db=0.00
G1 Z0.300 F420                          ; hopdn dz=-0.40@7 h=0.3
;00:06:32.346: pe=-1.0001 eb=0.0000 ve=0.0000 vn=0.0000 vl=0.000 db=0.00
G1 E89.7656 F1800                       ; restore de=2.3847@30
;00:06:32.426: pe=1.3701 eb=0.0145 ve=30.0000 vn=0.5447 vl=0.000 db=0.38
G1 X65.58 Y54.79 E89.7931 F600          ; draw dl=0.55@0<10>10 l=0.30x0.40x1.00
;00:06:32.491: pe=1.3697 eb=0.0150 ve=0.4989 vn=0.4879 vl=10.000 db=0.39
G1 X65.98 Y54.41 E89.8206               ; draw dl=0.55@10<10>10 l=0.30x0.40x1.00
;00:06:32.546: pe=1.3703 eb=0.0150 ve=0.4989 vn=0.4886 vl=10.000 db=0.39
G1 X66.22 Y53.83 E89.8519               ; draw dl=0.63@10<10>10 l=0.30x0.40x1.00
;00:06:32.609: pe=1.3709 eb=0.0150 ve=0.4989 vn=0.4889 vl=10.000 db=0.39
G1 X66.31 Y53.14 E89.8866               ; draw dl=0.70@10<10>10 l=0.30x0.40x1.00
;00:06:32.679: pe=1.3716 eb=0.0151 ve=0.4989 vn=0.4891 vl=10.000 db=0.39
G1 X66.22 Y52.45 E89.9214               ; draw dl=0.70@10<10>10 l=0.30x0.40x1.00
;00:06:32.748: pe=1.3723 eb=0.0151 ve=0.4989 vn=0.4893 vl=10.000 db=0.39
G1 X65.97 Y51.88 E89.9524               ; draw dl=0.62@10<10>10 l=0.30x0.40x1.00
;00:06:32.810: pe=1.3729 eb=0.0151 ve=0.4989 vn=0.4895 vl=10.000 db=0.39
G1 X65.58 Y51.49 E89.9799               ; draw dl=0.55@10<10>10 l=0.30x0.40x1.00
;00:06:32.866: pe=1.3734 eb=0.0151 ve=0.4989 vn=0.4897 vl=10.000 db=0.39
G1 X65.05 Y51.34 E90.0074               ; draw dl=0.55@10<10>10 l=0.30x0.40x1.00
;00:06:32.921: pe=1.3739 eb=0.0151 ve=0.4989 vn=0.4899 vl=10.000 db=0.39
G1 X64.53 Y51.49 E90.0344               ; draw dl=0.54@10<10>10 l=0.30x0.40x1.00
;00:06:32.975: pe=1.3744 eb=0.0151 ve=0.4989 vn=0.4901 vl=10.000 db=0.39
G1 X64.14 Y51.88 E90.0619               ; draw dl=0.55@10<10>10 l=0.30x0.40x1.00
;00:06:33.030: pe=1.3748 eb=0.0151 ve=0.4989 vn=0.4902 vl=10.000 db=0.39
G1 X63.89 Y52.45 E90.0930               ; draw dl=0.62@10<10>10 l=0.30x0.40x1.00
;00:06:33.092: pe=1.3754 eb=0.0151 ve=0.4989 vn=0.4904 vl=10.000 db=0.39
G1 X63.81 Y53.14 E90.1276               ; draw dl=0.69@10<10>10 l=0.30x0.40x1.00
;00:06:33.162: pe=1.3759 eb=0.0151 ve=0.4989 vn=0.4906 vl=10.000 db=0.39
G1 X63.89 Y53.83 E90.1623               ; draw dl=0.69@10<10>10 l=0.30x0.40x1.00
;00:06:33.231: pe=1.3765 eb=0.0152 ve=0.4989 vn=0.4908 vl=10.000 db=0.39
G1 X64.13 Y54.40 E90.1931               ; draw dl=0.62@10<10>10 l=0.30x0.40x1.00
;00:06:33.293: pe=1.3770 eb=0.0152 ve=0.4989 vn=0.4910 vl=10.000 db=0.39
G1 X64.53 Y54.79 E90.2210               ; draw dl=0.56@10<10>10 l=0.30x0.40x1.00
;00:06:33.349: pe=1.3774 eb=0.0152 ve=0.4989 vn=0.4911 vl=10.000 db=0.39
G1 X65.05 Y54.94 E90.2480               ; draw dl=0.54@10<10>0 l=0.30x0.40x1.00
;00:06:33.413: pe=1.3749 eb=0.0180 ve=0.0000 vn=0.2179 vl=0.000 db=0.43
G1 E87.8731 F2400                       ; retract de=-2.3749@40
;00:06:33.472: pe=-1.0001 eb=0.0182 ve=-40.0000 vn=0.0000 vl=0.000 db=0.43
G1 Z0.700 F420                          ; hopup dz=0.40@7 h=0.7
;00:06:33.529: pe=-1.0001 eb=0.0182 ve=0.0000 vn=0.0000 vl=0.000 db=0.28
G1 X67.28 Y51.64 F1893                  ; move dl=3.98@0<32>0 de=0.0000 h=0.7
;00:06:33.719: pe=-1.0001 eb=0.0000 ve=0.0000 vn=0.0000 vl=0.000 db=0.00
G1 Z0.300 F420                          ; hopdn dz=-0.40@7 h=0.3
;00:06:33.776: pe=-1.0001 eb=0.0000 ve=0.0000 vn=0.0000 vl=0.000 db=0.00
G1 E90.1404 F1800                       ; restore de=2.2673@30
;00:06:33.851: pe=1.2550 eb=0.0122 ve=30.0000 vn=0.4951 vl=0.000 db=0.35
G1 X67.28 Y51.58 E90.1434 F232          ; draw dl=0.06@0<4>0 l=0.30x0.40x1.00
;00:06:33.875: pe=1.2518 eb=0.0155 ve=0.0000 vn=0.1442 vl=0.000 db=0.40
G1 E87.8916 F2400                       ; retract de=-2.2518@40
;00:06:33.931: pe=-1.0000 eb=0.0156 ve=-40.0000 vn=0.0000 vl=0.000 db=0.40
G1 Z0.700 F420                          ; hopup dz=0.40@7 h=0.7
;00:06:33.988: pe=-1.0000 eb=0.0156 ve=0.0000 vn=0.0000 vl=0.000 db=0.26
G1 X69.30 Y54.91 F1872                  ; move dl=3.89@0<31>0 de=0.0000 h=0.7
;00:06:34.175: pe=-1.0000 eb=0.0000 ve=0.0000 vn=0.0000 vl=0.000 db=0.00
G1 Z0.300 F420                          ; hopdn dz=-0.40@7 h=0.3
;00:06:34.232: pe=-1.0000 eb=0.0000 ve=0.0000 vn=0.0000 vl=0.000 db=0.00
G1 E90.2638 F1800                       ; restore de=2.3722@30
;00:06:34.312: pe=1.3580 eb=0.0142 ve=30.0000 vn=0.5382 vl=0.000 db=0.38
G1 X69.66 Y54.86 E90.2820 F600          ; draw dl=0.36@0<10>10 l=0.30x0.40x1.00
;00:06:34.358: pe=1.3575 eb=0.0148 ve=0.4989 vn=0.4793 vl=10.000 db=0.39
G1 X69.95 Y54.71 E90.2982               ; draw dl=0.33@10<10>10 l=0.30x0.40x1.00
;00:06:34.391: pe=1.3580 eb=0.0148 ve=0.4989 vn=0.4842 vl=10.000 db=0.39
G1 X70.14 Y54.45 E90.3143               ; draw dl=0.32@10<10>10 l=0.30x0.40x1.00
;00:06:34.423: pe=1.3585 eb=0.0148 ve=0.4989 vn=0.4845 vl=10.000 db=0.39
G1 X70.21 Y54.09 E90.3326               ; draw dl=0.37@10<10>10 l=0.30x0.40x1.00
;00:06:34.459: pe=1.3590 eb=0.0148 ve=0.4989 vn=0.4847 vl=10.000 db=0.39
G1 X70.07 Y53.63 E90.3566               ; draw dl=0.48@10<10>10 l=0.30x0.40x1.00
;00:06:34.508: pe=1.3597 eb=0.0148 ve=0.4989 vn=0.4849 vl=10.000 db=0.39
G1 X69.77 Y53.36 E90.3767               ; draw dl=0.40@10<10>10 l=0.30x0.40x1.00
;00:06:34.548: pe=1.3602 eb=0.0148 ve=0.4989 vn=0.4851 vl=10.000 db=0.39
G1 X68.83 Y53.07 E90.4258               ; draw dl=0.98@10<10>10 l=0.30x0.40x1.00
;00:06:34.646: pe=1.3616 eb=0.0148 ve=0.4989 vn=0.4856 vl=10.000 db=0.39
G1 X68.42 Y52.79 E90.4506               ; draw dl=0.50@10<10>10 l=0.30x0.40x1.00
;00:06:34.696: pe=1.3622 eb=0.0148 ve=0.4989 vn=0.4858 vl=10.000 db=0.39
G1 X68.25 Y52.29 E90.4769               ; draw dl=0.53@10<10>10 l=0.30x0.40x1.00
;00:06:34.749: pe=1.3629 eb=0.0149 ve=0.4989 vn=0.4860 vl=10.000 db=0.39
G1 X68.33 Y51.88 E90.4978               ; draw dl=0.42@10<10>10 l=0.30x0.40x1.00
;00:06:34.790: pe=1.3634 eb=0.0149 ve=0.4989 vn=0.4862 vl=10.000 db=0.39
G1 X68.55 Y51.58 E90.5163               ; draw dl=0.37@10<10>10 l=0.30x0.40x1.00
;00:06:34.828: pe=1.3639 eb=0.0149 ve=0.4989 vn=0.4864 vl=10.000 db=0.39
G1 X68.88 Y51.40 E90.5351               ; draw dl=0.38@10<10>10 l=0.30x0.40x1.00
;00:06:34.865: pe=1.3644 eb=0.0149 ve=0.4989 vn=0.4866 vl=10.000 db=0.39
G1 X69.30 Y51.34 E90.5563               ; draw dl=0.42@10<10>10 l=0.30x0.40x1.00
;00:06:34.908: pe=1.3649 eb=0.0149 ve=0.4989 vn=0.4867 vl=10.000 db=0.39
G1 X69.71 Y51.40 E90.5769               ; draw dl=0.41@10<10>10 l=0.30x0.40x1.00
;00:06:34.949: pe=1.3654 eb=0.0149 ve=0.4989 vn=0.4869 vl=10.000 db=0.39
G1 X70.05 Y51.58 E90.5961               ; draw dl=0.38@10<10>10 l=0.30x0.40x1.00
;00:06:34.988: pe=1.3658 eb=0.0149 ve=0.4989 vn=0.4871 vl=10.000 db=0.39
G1 X70.27 Y51.88 E90.6147               ; draw dl=0.37@10<10>10 l=0.30x0.40x1.00
;00:06:35.025: pe=1.3663 eb=0.0149 ve=0.4989 vn=0.4872 vl=10.000 db=0.39
G1 X70.35 Y52.29 E90.6355               ; draw dl=0.42@10<10>10 l=0.30x0.40x1.00
;00:06:35.067: pe=1.3668 eb=0.0149 ve=0.4989 vn=0.4874 vl=10.000 db=0.39
G1 X70.17 Y52.79 E90.6620               ; draw dl=0.53@10<10>10 l=0.30x0.40x1.00
;00:06:35.120: pe=1.3674 eb=0.0150 ve=0.4989 vn=0.4876 vl=10.000 db=0.39
G1 X69.77 Y53.07 E90.6864               ; draw dl=0.49@10<10>10 l=0.30x0.40x1.00
;00:06:35.169: pe=1.3679 eb=0.0150 ve=0.4989 vn=0.4878 vl=10.000 db=0.39
G1 X68.83 Y53.36 E90.7355               ; draw dl=0.98@10<10>10 l=0.30x0.40x1.00
;00:06:35.267: pe=1.3690 eb=0.0150 ve=0.4989 vn=0.4882 vl=10.000 db=0.39
G1 X68.53 Y53.63 E90.7556               ; draw dl=0.40@10<10>10 l=0.30x0.40x1.00
;00:06:35.307: pe=1.3694 eb=0.0150 ve=0.4989 vn=0.4883 vl=10.000 db=0.39
G1 X68.38 Y54.09 E90.7797               ; draw dl=0.48@10<10>10 l=0.30x0.40x1.00
;00:06:35.356: pe=1.3699 eb=0.0150 ve=0.4989 vn=0.4885 vl=10.000 db=0.39
G1 X68.45 Y54.45 E90.7980               ; draw dl=0.37@10<10>10 l=0.30x0.40x1.00
;00:06:35.392: pe=1.3703 eb=0.0150 ve=0.4989 vn=0.4886 vl=10.000 db=0.39
G1 X68.65 Y54.71 E90.8144               ; draw dl=0.33@10<10>10 l=0.30x0.40x1.00
;00:06:35.425: pe=1.3706 eb=0.0150 ve=0.4989 vn=0.4888 vl=10.000 db=0.39
G1 X68.94 Y54.86 E90.8307               ; draw dl=0.33@10<10>10 l=0.30x0.40x1.00
;00:06:35.458: pe=1.3710 eb=0.0150 ve=0.4989 vn=0.4889 vl=10.000 db=0.39
G1 X69.30 Y54.91 E90.8488               ; draw dl=0.36@10<10>0 l=0.30x0.40x1.00
;00:06:35.504: pe=1.3684 eb=0.0179 ve=0.0000 vn=0.2162 vl=0.000 db=0.43
G1 E88.4804 F2400                       ; retract de=-2.3684@40
;00:06:35.563: pe=-1.0001 eb=0.0180 ve=-40.0000 vn=0.0000 vl=0.000 db=0.43
G1 Z0.700 F420                          ; hopup dz=0.40@7 h=0.7
;00:06:35.620: pe=-1.0001 eb=0.0180 ve=0.0000 vn=0.0000 vl=0.000 db=0.28
G1 X46.40 Y48.86 F4617                  ; move dl=23.69@0<77>0 de=0.0000 h=0.7
;00:06:36.082: pe=-1.0001 eb=0.0000 ve=0.0000 vn=0.0000 vl=0.000 db=0.00
G1 Z0.300 F420                          ; hopdn dz=-0.40@7 h=0.3
;00:06:36.139: pe=-1.0001 eb=0.0000 ve=0.0000 vn=0.0000 vl=0.000 db=0.00
G1 E90.8873 F1800                       ; restore de=2.4069@30
;00:06:36.220: pe=1.3918 eb=0.0149 ve=30.0000 vn=0.5536 vl=0.000 db=0.39
G1 X47.45 Y46.41 E91.0203 F600          ; draw dl=2.67@0<10>6 l=0.30x0.40x1.00
;00:06:36.498: pe=1.3908 eb=0.0162 ve=0.2835 vn=0.4260 vl=5.682 db=0.41
G1 X48.49 Y48.86 E91.1531               ; draw dl=2.66@6<10>0 l=0.30x0.40x1.00
;00:06:36.776: pe=1.3891 eb=0.0184 ve=0.0000 vn=0.2216 vl=0.000 db=0.43
G1 E88.7640 F2400                       ; retract de=-2.3891@40
;00:06:36.836: pe=-1.0001 eb=0.0185 ve=-40.0000 vn=0.0000 vl=0.000 db=0.44
G1 Z0.700 F420                          ; hopup dz=0.40@7 h=0.7
;00:06:36.893: pe=-1.0001 eb=0.0185 ve=0.0000 vn=0.0000 vl=0.000 db=0.28
G1 X49.46 Y48.86 F934                   ; move dl=0.97@0<16>0 de=0.0000 h=0.7
;00:06:36.986: pe=-1.0001 eb=0.0000 ve=0.0000 vn=0.0000 vl=0.000 db=0.00
G1 Z0.300 F420                          ; hopdn dz=-0.40@7 h=0.3
;00:06:37.043: pe=-1.0001 eb=0.0000 ve=0.0000 vn=0.0000 vl=0.000 db=0.00
G1 E91.1675 F1800                       ; restore de=2.4036@30
;00:06:37.124: pe=1.3886 eb=0.0148 ve=30.0000 vn=0.5517 vl=0.000 db=0.39
G1 X51.50 Y46.41 E91.3266 F600          ; draw dl=3.19@0<10>0 l=0.30x0.40x1.00
;00:06:37.462: pe=1.3859 eb=0.0183 ve=0.0000 vn=0.2207 vl=0.000 db=0.43
G1 E88.9407 F2400                       ; retract de=-2.3859@40
;00:06:37.522: pe=-1.0001 eb=0.0185 ve=-40.0000 vn=0.0000 vl=0.000 db=0.43
G1 Z0.700 F420                          ; hopup dz=0.40@7 h=0.7
;00:06:37.579: pe=-1.0001 eb=0.0185 ve=0.0000 vn=0.0000 vl=0.000 db=0.28
G1 X49.46 Y46.41 F1355                  ; move dl=2.04@0<23>0 de=0.0000 h=0.7
;00:06:37.715: pe=-1.0001 eb=0.0000 ve=0.0000 vn=0.0000 vl=0.000 db=0.00
G1 Z0.300 F420                          ; hopdn dz=-0.40@7 h=0.3
;00:06:37.772: pe=-1.0001 eb=0.0000 ve=0.0000 vn=0.0000 vl=0.000 db=0.00
G1 E91.3443 F1800                       ; restore de=2.4036@30
;00:06:37.852: pe=1.3886 eb=0.0148 ve=30.0000 vn=0.5517 vl=0.000 db=0.39
G1 X51.50 Y48.86 E91.5034 F600          ; draw dl=3.19@0<10>0 l=0.30x0.40x1.00
;00:06:38.191: pe=1.3859 eb=0.0183 ve=0.0000 vn=0.2207 vl=0.000 db=0.43
G1 E89.1175 F2400                       ; retract de=-2.3859@40
;00:06:38.250: pe=-1.0001 eb=0.0185 ve=-40.0000 vn=0.0000 vl=0.000 db=0.43
G1 Z0.700 F420                          ; hopup dz=0.40@7 h=0.7
;00:06:38.308: pe=-1.0001 eb=0.0185 ve=0.0000 vn=0.0000 vl=0.000 db=0.28
G1 X52.48 Y48.22 F1026                  ; move dl=1.17@0<17>0 de=0.0000 h=0.7
;00:06:38.410: pe=-1.0001 eb=0.0000 ve=0.0000 vn=0.0000 vl=0.000 db=0.00
G1 Z0.300 F420                          ; hopdn dz=-0.40@7 h=0.3
;00:06:38.467: pe=-1.0001 eb=0.0000 ve=0.0000 vn=0.0000 vl=0.000 db=0.00
G1 E91.5122 F1800                       ; restore de=2.3947@30
;00:06:38.547: pe=1.3799 eb=0.0147 ve=30.0000 vn=0.5482 vl=0.000 db=0.39
G1 X54.21 Y48.22 E91.5985 F600          ; draw dl=1.73@0<10>0 l=0.30x0.40x1.00
;00:06:38.740: pe=1.3772 eb=0.0181 ve=0.0000 vn=0.2185 vl=0.000 db=0.43
G1 E89.2213 F2400                       ; retract de=-2.3772@40
;00:06:38.800: pe=-1.0001 eb=0.0182 ve=-40.0000 vn=0.0000 vl=0.000 db=0.43
G1 Z0.700 F420                          ; hopup dz=0.40@7 h=0.7
;00:06:38.857: pe=-1.0001 eb=0.0182 ve=0.0000 vn=0.0000 vl=0.000 db=0.28
G1 X54.21 Y47.49 F811                   ; move dl=0.73@0<14>0 de=0.0000 h=0.7
;00:06:38.938: pe=-1.0001 eb=0.0000 ve=0.0000 vn=0.0000 vl=0.000 db=0.00
G1 Z0.300 F420                          ; hopdn dz=-0.40@7 h=0.3
;00:06:38.995: pe=-1.0001 eb=0.0000 ve=0.0000 vn=0.0000 vl=0.000 db=0.00
G1 E91.6160 F1800                       ; restore de=2.3947@30
;00:06:39.075: pe=1.3799 eb=0.0147 ve=30.0000 vn=0.5482 vl=0.000 db=0.39
G1 X52.48 Y47.49 E91.7023 F600          ; draw dl=1.73@0<10>0 l=0.30x0.40x1.00
;00:06:39.268: pe=1.3772 eb=0.0181 ve=0.0000 vn=0.2185 vl=0.000 db=0.43
G1 E89.3252 F2400                       ; retract de=-2.3772@40
;00:06:39.327: pe=-1.0001 eb=0.0182 ve=-40.0000 vn=0.0000 vl=0.000 db=0.43
G1 Z0.700 F420                          ; hopup dz=0.40@7 h=0.7
;00:06:39.384: pe=-1.0001 eb=0.0182 ve=0.0000 vn=0.0000 vl=0.000 db=0.28
G1 X55.18 Y48.98 F1666                  ; move dl=3.08@0<28>0 de=0.0000 h=0.7
;00:06:39.551: pe=-1.0001 eb=0.0000 ve=0.0000 vn=0.0000 vl=0.000 db=0.00
G1 Z0.300 F420                          ; hopdn dz=-0.40@7 h=0.3
;00:06:39.608: pe=-1.0001 eb=0.0000 ve=0.0000 vn=0.0000 vl=0.000 db=0.00
G1 E91.7096 F1800                       ; restore de=2.3845@30
;00:06:39.688: pe=1.3699 eb=0.0144 ve=30.0000 vn=0.5446 vl=0.000 db=0.38
G1 X55.67 Y49.22 E91.7368 F600          ; draw dl=0.55@0<10>10 l=0.30x0.40x1.00
;00:06:39.752: pe=1.3695 eb=0.0150 ve=0.4989 vn=0.4878 vl=10.000 db=0.39
G1 X56.04 Y49.54 E91.7612               ; draw dl=0.49@10<10>10 l=0.30x0.40x1.00
;00:06:39.801: pe=1.3700 eb=0.0150 ve=0.4989 vn=0.4885 vl=10.000 db=0.39
G1 X56.29 Y49.87 E91.7819               ; draw dl=0.41@10<10>5 l=0.30x0.40x1.00
;00:06:39.845: pe=1.3694 eb=0.0160 ve=0.2412 vn=0.3940 vl=4.834 db=0.40
G1 X56.29 Y46.41 E91.9545               ; draw dl=3.46@5<10>0 l=0.30x0.40x1.00
;00:06:40.204: pe=1.3705 eb=0.0179 ve=0.0000 vn=0.2168 vl=0.000 db=0.43
G1 E89.5840 F2400                       ; retract de=-2.3705@40
;00:06:40.263: pe=-1.0001 eb=0.0181 ve=-40.0000 vn=0.0000 vl=0.000 db=0.43
G1 Z0.700 F420                          ; hopup dz=0.40@7 h=0.7
;00:06:40.320: pe=-1.0001 eb=0.0181 ve=0.0000 vn=0.0000 vl=0.000 db=0.28
G1 X58.50 Y49.94 F1936                  ; move dl=4.16@0<32>0 de=0.0000 h=0.7
;00:06:40.514: pe=-1.0001 eb=0.0000 ve=0.0000 vn=0.0000 vl=0.000 db=0.00
G1 Z0.300 F420                          ; hopdn dz=-0.40@7 h=0.3
;00:06:40.571: pe=-1.0001 eb=0.0000 ve=0.0000 vn=0.0000 vl=0.000 db=0.00
G1 E91.9687 F1800                       ; restore de=2.3847@30
;00:06:40.650: pe=1.3701 eb=0.0145 ve=30.0000 vn=0.5447 vl=0.000 db=0.38
G1 X59.03 Y49.79 E91.9962 F600          ; draw dl=0.55@0<10>10 l=0.30x0.40x1.00
;00:06:40.715: pe=1.3697 eb=0.0150 ve=0.4989 vn=0.4879 vl=10.000 db=0.39
G1 X59.43 Y49.41 E92.0237               ; draw dl=0.55@10<10>10 l=0.30x0.40x1.00
;00:06:40.771: pe=1.3703 eb=0.0150 ve=0.4989 vn=0.4886 vl=10.000 db=0.39
G1 X59.67 Y48.83 E92.0550               ; draw dl=0.63@10<10>10 l=0.30x0.40x1.00
;00:06:40.833: pe=1.3709 eb=0.0150 ve=0.4989 vn=0.4889 vl=10.000 db=0.39
G1 X59.76 Y48.14 E92.0897               ; draw dl=0.70@10<10>10 l=0.30x0.40x1.00
;00:06:40.903: pe=1.3716 eb=0.0151 ve=0.4989 vn=0.4891 vl=10.000 db=0.39
G1 X59.67 Y47.45 E92.1244               ; draw dl=0.70@10<10>10 l=0.30x0.40x1.00
;00:06:40.973: pe=1.3723 eb=0.0151 ve=0.4989 vn=0.4893 vl=10.000 db=0.39
G1 X59.42 Y46.88 E92.1555               ; draw dl=0.62@10<10>10 l=0.30x0.40x1.00
;00:06:41.035: pe=1.3729 eb=0.0151 ve=0.4989 vn=0.4895 vl=10.000 db=0.39
G1 X59.03 Y46.49 E92.1830               ; draw dl=0.55@10<10>10 l=0.30x0.40x1.00
;00:06:41.090: pe=1.3734 eb=0.0151 ve=0.4989 vn=0.4897 vl=10.000 db=0.39
G1 X58.50 Y46.34 E92.2105               ; draw dl=0.55@10<10>10 l=0.30x0.40x1.00
;00:06:41.145: pe=1.3739 eb=0.0151 ve=0.4989 vn=0.4899 vl=10.000 db=0.39
G1 X57.98 Y46.49 E92.2375               ; draw dl=0.54@10<10>10 l=0.30x0.40x1.00
;00:06:41.199: pe=1.3744 eb=0.0151 ve=0.4989 vn=0.4901 vl=10.000 db=0.39
G1 X57.59 Y46.88 E92.2650               ; draw dl=0.55@10<10>10 l=0.30x0.40x1.00
;00:06:41.254: pe=1.3748 eb=0.0151 ve=0.4989 vn=0.4902 vl=10.000 db=0.39
G1 X57.34 Y47.45 E92.2961               ; draw dl=0.62@10<10>10 l=0.30x0.40x1.00
;00:06:41.317: pe=1.3754 eb=0.0151 ve=0.4989 vn=0.4904 vl=10.000 db=0.39
G1 X57.26 Y48.14 E92.3307               ; draw dl=0.69@10<10>10 l=0.30x0.40x1.00
;00:06:41.386: pe=1.3759 eb=0.0151 ve=0.4989 vn=0.4906 vl=10.000 db=0.39
G1 X57.34 Y48.83 E92.3654               ; draw dl=0.69@10<10>10 l=0.30x0.40x1.00
;00:06:41.455: pe=1.3765 eb=0.0152 ve=0.4989 vn=0.4908 vl=10.000 db=0.39
G1 X57.58 Y49.40 E92.3962               ; draw dl=0.62@10<10>10 l=0.30x0.40x1.00
;00:06:41.517: pe=1.3770 eb=0.0152 ve=0.4989 vn=0.4910 vl=10.000 db=0.39
G1 X57.98 Y49.79 E92.4241               ; draw dl=0.56@10<10>10 l=0.30x0.40x1.00
;00:06:41.573: pe=1.3774 eb=0.0152 ve=0.4989 vn=0.4911 vl=10.000 db=0.39
G1 X58.50 Y49.94 E92.4511               ; draw dl=0.54@10<10>0 l=0.30x0.40x1.00
;00:06:41.637: pe=1.3749 eb=0.0180 ve=0.0000 vn=0.2179 vl=0.000 db=0.43
G1 E90.0762 F2400                       ; retract de=-2.3749@40
;00:06:41.697: pe=-1.0001 eb=0.0182 ve=-40.0000 vn=0.0000 vl=0.000 db=0.43
G1 Z0.700 F420                          ; hopup dz=0.40@7 h=0.7
;00:06:41.754: pe=-1.0001 eb=0.0182 ve=0.0000 vn=0.0000 vl=0.000 db=0.28
G1 X46.40 Y43.86 F3491                  ; move dl=13.54@0<58>0 de=0.0000 h=0.7
;00:06:42.103: pe=-1.0001 eb=0.0000 ve=0.0000 vn=0.0000 vl=0.000 db=0.00
G1 Z0.300 F420                          ; hopdn dz=-0.40@7 h=0.3
;00:06:42.160: pe=-1.0001 eb=0.0000 ve=0.0000 vn=0.0000 vl=0.000 db=0.00
G1 E92.4830 F1800                       ; restore de=2.4069@30
;00:06:42.240: pe=1.3918 eb=0.0149 ve=30.0000 vn=0.5536 vl=0.000 db=0.39
G1 X47.45 Y41.41 E92.6160 F600          ; draw dl=2.67@0<10>6 l=0.30x0.40x1.00
;00:06:42.519: pe=1.3908 eb=0.0162 ve=0.2835 vn=0.4260 vl=5.682 db=0.41
G1 X48.49 Y43.86 E92.7488               ; draw dl=2.66@6<10>0 l=0.30x0.40x1.00
;00:06:42.797: pe=1.3891 eb=0.0184 ve=0.0000 vn=0.2216 vl=0.000 db=0.43
G1 E90.3597 F2400                       ; retract de=-2.3891@40
;00:06:42.856: pe=-1.0001 eb=0.0185 ve=-40.0000 vn=0.0000 vl=0.000 db=0.44
G1 Z0.700 F420                          ; hopup dz=0.40@7 h=0.7
;00:06:42.914: pe=-1.0001 eb=0.0185 ve=0.0000 vn=0.0000 vl=0.000 db=0.28
G1 X49.46 Y42.64 F1184                  ; move dl=1.56@0<20>0 de=0.0000 h=0.7
;00:06:43.032: pe=-1.0001 eb=0.0000 ve=0.0000 vn=0.0000 vl=0.000 db=0.00
G1 Z0.300 F420                          ; hopdn dz=-0.40@7 h=0.3
;00:06:43.089: pe=-1.0001 eb=0.0000 ve=0.0000 vn=0.0000 vl=0.000 db=0.00
G1 E92.7664 F1800                       ; restore de=2.4066@30
;00:06:43.169: pe=1.3916 eb=0.0149 ve=30.0000 vn=0.5535 vl=0.000 db=0.39
G1 X51.65 Y42.64 E92.8756 F600          ; draw dl=2.19@0<10>10 l=0.30x0.40x1.00
;00:06:43.398: pe=1.3912 eb=0.0155 ve=0.4842 vn=0.4956 vl=9.705 db=0.40
G1 X51.57 Y43.18 E92.9029               ; draw dl=0.55@10<10>10 l=0.30x0.40x1.00
;00:06:43.453: pe=1.3914 eb=0.0155 ve=0.4989 vn=0.4960 vl=10.000 db=0.40
G1 X51.35 Y43.58 E92.9256               ; draw dl=0.46@10<10>10 l=0.30x0.40x1.00
;00:06:43.499: pe=1.3915 eb=0.0155 ve=0.4989 vn=0.4961 vl=10.000 db=0.40
G1 X51.01 Y43.84 E92.9470               ; draw dl=0.43@10<10>10 l=0.30x0.40x1.00
;00:06:43.541: pe=1.3916 eb=0.0155 ve=0.4989 vn=0.4961 vl=10.000 db=0.40
G1 X50.55 Y43.92 E92.9703               ; draw dl=0.47@10<10>10 l=0.30x0.40x1.00
;00:06:43.588: pe=1.3918 eb=0.0155 ve=0.4989 vn=0.4962 vl=10.000 db=0.40
G1 X50.11 Y43.84 E92.9926               ; draw dl=0.45@10<10>10 l=0.30x0.40x1.00
;00:06:43.633: pe=1.3919 eb=0.0155 ve=0.4989 vn=0.4962 vl=10.000 db=0.40
G1 X49.77 Y43.58 E93.0139               ; draw dl=0.43@10<10>10 l=0.30x0.40x1.00
;00:06:43.676: pe=1.3920 eb=0.0155 ve=0.4989 vn=0.4963 vl=10.000 db=0.40
G1 X49.54 Y43.18 E93.0370               ; draw dl=0.46@10<10>10 l=0.30x0.40x1.00
;00:06:43.722: pe=1.3921 eb=0.0155 ve=0.4989 vn=0.4963 vl=10.000 db=0.40
G1 X49.46 Y42.64 E93.0642               ; draw dl=0.55@10<10>10 l=0.30x0.40x1.00
;00:06:43.776: pe=1.3923 eb=0.0155 ve=0.4989 vn=0.4963 vl=10.000 db=0.40
G1 X49.54 Y42.09 E93.0919               ; draw dl=0.56@10<10>10 l=0.30x0.40x1.00
;00:06:43.832: pe=1.3924 eb=0.0155 ve=0.4989 vn=0.4964 vl=10.000 db=0.40
G1 X49.78 Y41.68 E93.1156               ; draw dl=0.48@10<10>10 l=0.30x0.40x1.00
;00:06:43.880: pe=1.3925 eb=0.0155 ve=0.4989 vn=0.4964 vl=10.000 db=0.40
G1 X50.14 Y41.43 E93.1375               ; draw dl=0.44@10<10>10 l=0.30x0.40x1.00
;00:06:43.923: pe=1.3926 eb=0.0155 ve=0.4989 vn=0.4965 vl=10.000 db=0.40
G1 X50.61 Y41.34 E93.1614               ; draw dl=0.48@10<10>10 l=0.30x0.40x1.00
;00:06:43.971: pe=1.3928 eb=0.0155 ve=0.4989 vn=0.4965 vl=10.000 db=0.40
G1 X50.96 Y41.39 E93.1790               ; draw dl=0.35@10<10>10 l=0.30x0.40x1.00
;00:06:44.007: pe=1.3928 eb=0.0155 ve=0.4989 vn=0.4965 vl=10.000 db=0.40
G1 X51.25 Y41.53 E93.1951               ; draw dl=0.32@10<10>10 l=0.30x0.40x1.00
;00:06:44.039: pe=1.3929 eb=0.0155 ve=0.4989 vn=0.4966 vl=10.000 db=0.40
G1 X51.47 Y41.76 E93.2109               ; draw dl=0.32@10<10>10 l=0.30x0.40x1.00
;00:06:44.071: pe=1.3930 eb=0.0155 ve=0.4989 vn=0.4966 vl=10.000 db=0.40
G1 X51.59 Y42.07 E93.2275               ; draw dl=0.33@10<10>0 l=0.30x0.40x1.00
;00:06:44.114: pe=1.3901 eb=0.0184 ve=0.0000 vn=0.2218 vl=0.000 db=0.43
G1 E90.8375 F2400                       ; retract de=-2.3901@40
;00:06:44.174: pe=-1.0001 eb=0.0186 ve=-40.0000 vn=0.0000 vl=0.000 db=0.44
G1 Z0.700 F420                          ; hopup dz=0.40@7 h=0.7
;00:06:44.231: pe=-1.0001 eb=0.0186 ve=0.0000 vn=0.0000 vl=0.000 db=0.28
G1 X52.62 Y43.22 F1179                  ; move dl=1.54@0<20>0 de=0.0000 h=0.7
;00:06:44.349: pe=-1.0001 eb=0.0000 ve=0.0000 vn=0.0000 vl=0.000 db=0.00
G1 Z0.300 F420                          ; hopdn dz=-0.40@7 h=0.3
;00:06:44.406: pe=-1.0001 eb=0.0000 ve=0.0000 vn=0.0000 vl=0.000 db=0.00
G1 E93.2321 F1800                       ; restore de=2.3947@30
;00:06:44.486: pe=1.3799 eb=0.0147 ve=30.0000 vn=0.5482 vl=0.000 db=0.39
G1 X54.35 Y43.22 E93.3185 F600          ; draw dl=1.73@0<10>0 l=0.30x0.40x1.00
;00:06:44.679: pe=1.3772 eb=0.0181 ve=0.0000 vn=0.2185 vl=0.000 db=0.43
G1 E90.9413 F2400                       ; retract de=-2.3772@40
;00:06:44.738: pe=-1.0001 eb=0.0182 ve=-40.0000 vn=0.0000 vl=0.000 db=0.43
G1 Z0.700 F420                          ; hopup dz=0.40@7 h=0.7
;00:06:44.795: pe=-1.0001 eb=0.0182 ve=0.0000 vn=0.0000 vl=0.000 db=0.28
G1 X54.35 Y42.49 F811                   ; move dl=0.73@0<14>0 de=0.0000 h=0.7
;00:06:44.876: pe=-1.0001 eb=0.0000 ve=0.0000 vn=0.0000 vl=0.000 db=0.00
G1 Z0.300 F420                          ; hopdn dz=-0.40@7 h=0.3
;00:06:44.933: pe=-1.0001 eb=0.0000 ve=0.0000 vn=0.0000 vl=0.000 db=0.00
G1 E93.3360 F1800                       ; restore de=2.3947@30
;00:06:45.013: pe=1.3799 eb=0.0147 ve=30.0000 vn=0.5482 vl=0.000 db=0.39
G1 X52.62 Y42.49 E93.4223 F600          ; draw dl=1.73@0<10>0 l=0.30x0.40x1.00
;00:06:45.206: pe=1.3772 eb=0.0181 ve=0.0000 vn=0.2185 vl=0.000 db=0.43
G1 E91.0451 F2400                       ; retract de=-2.3772@40
;00:06:45.266: pe=-1.0001 eb=0.0182 ve=-40.0000 vn=0.0000 vl=0.000 db=0.43
G1 Z0.700 F420                          ; hopup dz=0.40@7 h=0.7
;00:06:45.323: pe=-1.0001 eb=0.0182 ve=0.0000 vn=0.0000 vl=0.000 db=0.28
G1 X56.56 Y44.94 F2043                  ; move dl=4.64@0<34>0 de=0.0000 h=0.7
;00:06:45.527: pe=-1.0001 eb=0.0000 ve=0.0000 vn=0.0000 vl=0.000 db=0.00
G1 Z0.300 F420                          ; hopdn dz=-0.40@7 h=0.3
;00:06:45.584: pe=-1.0001 eb=0.0000 ve=0.0000 vn=0.0000 vl=0.000 db=0.00
G1 E93.4298 F1800                       ; restore de=2.3847@30
;00:06:45.664: pe=1.3701 eb=0.0145 ve=30.0000 vn=0.5447 vl=0.000 db=0.38
G1 X57.09 Y44.79 E93.4573 F600          ; draw dl=0.55@0<10>10 l=0.30x0.40x1.00
;00:06:45.729: pe=1.3697 eb=0.0150 ve=0.4989 vn=0.4879 vl=10.000 db=0.39
G1 X57.49 Y44.41 E93.4848               ; draw dl=0.55@10<10>10 l=0.30x0.40x1.00
;00:06:45.784: pe=1.3703 eb=0.0150 ve=0.4989 vn=0.4886 vl=10.000 db=0.39
G1 X57.73 Y43.83 E93.5162               ; draw dl=0.63@10<10>10 l=0.30x0.40x1.00
;00:06:45.847: pe=1.3709 eb=0.0150 ve=0.4989 vn=0.4889 vl=10.000 db=0.39
G1 X57.82 Y43.14 E93.5509               ; draw dl=0.70@10<10>10 l=0.30x0.40x1.00
;00:06:45.916: pe=1.3716 eb=0.0151 ve=0.4989 vn=0.4891 vl=10.000 db=0.39
G1 X57.73 Y42.45 E93.5856               ; draw dl=0.70@10<10>10 l=0.30x0.40x1.00
;00:06:45.986: pe=1.3723 eb=0.0151 ve=0.4989 vn=0.4893 vl=10.000 db=0.39
G1 X57.48 Y41.88 E93.6166               ; draw dl=0.62@10<10>10 l=0.30x0.40x1.00
;00:06:46.048: pe=1.3729 eb=0.0151 ve=0.4989 vn=0.4895 vl=10.000 db=0.39
G1 X57.09 Y41.49 E93.6442               ; draw dl=0.55@10<10>10 l=0.30x0.40x1.00
;00:06:46.103: pe=1.3734 eb=0.0151 ve=0.4989 vn=0.4897 vl=10.000 db=0.39
G1 X56.56 Y41.34 E93.6716               ; draw dl=0.55@10<10>10 l=0.30x0.40x1.00
;00:06:46.158: pe=1.3739 eb=0.0151 ve=0.4989 vn=0.4899 vl=10.000 db=0.39
G1 X56.04 Y41.49 E93.6986               ; draw dl=0.54@10<10>10 l=0.30x0.40x1.00
;00:06:46.213: pe=1.3744 eb=0.0151 ve=0.4989 vn=0.4901 vl=10.000 db=0.39
G1 X55.65 Y41.88 E93.7262               ; draw dl=0.55@10<10>10 l=0.30x0.40x1.00
;00:06:46.268: pe=1.3748 eb=0.0151 ve=0.4989 vn=0.4902 vl=10.000 db=0.39
G1 X55.40 Y42.45 E93.7572               ; draw dl=0.62@10<10>10 l=0.30x0.40x1.00
;00:06:46.330: pe=1.3754 eb=0.0151 ve=0.4989 vn=0.4904 vl=10.000 db=0.39
G1 X55.32 Y43.14 E93.7919               ; draw dl=0.69@10<10>10 l=0.30x0.40x1.00
;00:06:46.399: pe=1.3759 eb=0.0151 ve=0.4989 vn=0.4906 vl=10.000 db=0.39
G1 X55.40 Y43.83 E93.8265               ; draw dl=0.69@10<10>10 l=0.30x0.40x1.00
;00:06:46.469: pe=1.3765 eb=0.0152 ve=0.4989 vn=0.4908 vl=10.000 db=0.39
G1 X55.64 Y44.40 E93.8574               ; draw dl=0.62@10<10>10 l=0.30x0.40x1.00
;00:06:46.531: pe=1.3770 eb=0.0152 ve=0.4989 vn=0.4910 vl=10.000 db=0.39
G1 X56.04 Y44.79 E93.8853               ; draw dl=0.56@10<10>10 l=0.30x0.40x1.00
;00:06:46.587: pe=1.3774 eb=0.0152 ve=0.4989 vn=0.4911 vl=10.000 db=0.39
G1 X56.56 Y44.94 E93.9123               ; draw dl=0.54@10<10>0 l=0.30x0.40x1.00
;00:06:46.651: pe=1.3749 eb=0.0180 ve=0.0000 vn=0.2179 vl=0.000 db=0.43
G1 E91.5373 F2400                       ; retract de=-2.3749@40
;00:06:46.710: pe=-1.0001 eb=0.0182 ve=-40.0000 vn=0.0000 vl=0.000 db=0.43
G1 Z0.700 F420                          ; hopup dz=0.40@7 h=0.7
;00:06:46.767: pe=-1.0001 eb=0.0182 ve=0.0000 vn=0.0000 vl=0.000 db=0.28
G1 X58.79 Y41.64 F1893                  ; move dl=3.98@0<32>0 de=0.0000 h=0.7
;00:06:46.957: pe=-1.0001 eb=0.0000 ve=0.0000 vn=0.0000 vl=0.000 db=0.00
G1 Z0.300 F420                          ; hopdn dz=-0.40@7 h=0.3
;00:06:47.014: pe=-1.0001 eb=0.0000 ve=0.0000 vn=0.0000 vl=0.000 db=0.00
