;gcode_flavor: flashforge
;machine_type: Adventurer 3 Series
;filament_diameter0: 1.75
;right_extruder_temperature: 210
;platform_temperature: 50
;extruder_fan: 100%
;case_fan: 100%
;base_print_speed: 60
;travel_speed: 100
;vertical_speed: 7
;retract_speed: 40
;restore_speed: 30
;layer_height: 0.30
;line_width: 0.50
;extrusion_ratio: 1.00
;command_line: ./gcodetest.py -Te=210 -Tp=50 -Fe=1.0 -Fc=1.0 -Kf=1.6 -Kb=3.2 -Re=1.7 -R -v
;start gcode
M118 X75.00 Y75.00 Z150.00 T0
M140 S50 T0
M104 S210 T0
M104 S0 T1
M107
M900 K0.000 T0
G90
G28
M132 X Y Z A B
G1 Z50.000 F420
G161 X Y F3300
M7 T0
M6 T0
M652 S255
M108 T0
M106
;preExtrude:0.20
;00:00:00.000: layer=0 h=0.20 w=0.50 r=1.00
G1 X69.29 Y28.70 F6000                  ; dt=0.950 move dl=75.0@100(0<100>0) l=0.00x0.50x0.00 r=(0.00<0.00>0.00)
;00:00:00.950: pe=0.0000 eb=0.0000 ve=0.0000 vn=0.0000 vl=0.000 db=0.00
G1 Z0.200 F420                          ; dt=0.029 hopup dz=0.20@7 l=0.20x0.50x0.00 r=0.00
;00:00:00.979: pe=0.0000 eb=0.0000 ve=0.0000 vn=0.0000 vl=0.000 db=0.00
G1 E4.8398 F1800                        ; dt=0.191 restore de=4.8398@30.0(0.0<30.0>0.0) l=0.20x0.50x0.00 r=2.50
;00:00:01.170: pe=4.7377 eb=0.1021 ve=0.0000 vn=1.3611 vl=0.000 db=1.25
;00:00:01.170: spiral RC0=(75.0,0.062) dRC=(0.0,0.125) dl=58.9@10 de=7.837@1.3 l=0.20x0.40x4.00
G1 X66.53 Y34.63 E5.7103 F600           ; dt=0.664 draw dl=6.5@10(0<10>10) de=0.8705@1.33(0.0<1.33>1.33) l=0.20x0.40x4.00 r=(3.13<4.12>4.00)
;00:00:01.834: pe=4.7123 eb=0.1675 ve=1.3304 vn=1.3452 vl=10.000 db=1.60
G1 X63.25 Y40.30 E6.5808                ; dt=0.654 draw dl=6.5@10(10<10>10) de=0.8705@1.33(1.33<1.33>1.33) l=0.20x0.40x4.00 r=(4.00<4.04>4.03)
;00:00:02.488: pe=4.7043 eb=0.1698 ve=1.3304 vn=1.3402 vl=10.000 db=1.61
G1 X59.50 Y45.66 E7.4512                ; dt=0.654 draw dl=6.5@10(10<10>10) de=0.8705@1.33(1.33<1.33>1.33) l=0.20x0.40x4.00 r=(4.03<4.02>4.02)
;00:00:03.143: pe=4.6991 eb=0.1691 ve=1.3304 vn=1.3369 vl=10.000 db=1.61
G1 X55.30 Y50.67 E8.3217                ; dt=0.654 draw dl=6.5@10(10<10>10) de=0.8705@1.33(1.33<1.33>1.33) l=0.20x0.40x4.00 r=(4.02<4.02>4.02)
;00:00:03.797: pe=4.6956 eb=0.1685 ve=1.3304 vn=1.3347 vl=10.000 db=1.61
G1 X50.67 Y55.30 E9.1922                ; dt=0.654 draw dl=6.5@10(10<10>10) de=0.8705@1.33(1.33<1.33>1.33) l=0.20x0.40x4.00 r=(4.02<4.01>4.01)
;00:00:04.451: pe=4.6932 eb=0.1680 ve=1.3304 vn=1.3333 vl=10.000 db=1.60
G1 X45.66 Y59.50 E10.0626               ; dt=0.654 draw dl=6.5@10(10<10>10) de=0.8705@1.33(1.33<1.33>1.33) l=0.20x0.40x4.00 r=(4.01<4.01>4.01)
;00:00:05.106: pe=4.6917 eb=0.1678 ve=1.3304 vn=1.3323 vl=10.000 db=1.60
G1 X40.30 Y63.25 E10.9331               ; dt=0.654 draw dl=6.5@10(10<10>10) de=0.8705@1.33(1.33<1.33>1.33) l=0.20x0.40x4.00 r=(4.01<4.00>4.00)
;00:00:05.760: pe=4.6907 eb=0.1676 ve=1.3304 vn=1.3317 vl=10.000 db=1.60
G1 X34.63 Y66.53 E11.8036               ; dt=0.654 draw dl=6.5@10(10<10>10) de=0.8705@1.33(1.33<1.33>1.33) l=0.20x0.40x4.00 r=(4.00<4.00>4.00)
;00:00:06.414: pe=4.6900 eb=0.1674 ve=1.3304 vn=1.3312 vl=10.000 db=1.60
G1 X28.70 Y69.29 E12.6741               ; dt=0.664 draw dl=6.5@10(10<10>0) de=0.8705@1.33(1.33<1.33>0.0) l=0.20x0.40x4.00 r=(4.00<4.06>4.16)
;00:00:07.078: pe=4.6764 eb=0.1804 ve=0.0042 vn=1.3227 vl=0.032 db=1.66
G1 X28.70 Y69.29                        ; dt=0.000 move dl=0.0@10(0<0>0) l=0.20x0.40x0.00 r=(4.16<2515.14>4.16)
;00:00:07.079: pe=4.6763 eb=0.1805 ve=0.0000 vn=1.3227 vl=0.000 db=1.66
G1 E6.2978 F2400                        ; dt=0.199 retract de=-6.3763@-40.0(0.0<-40.0>0.0) l=0.20x0.40x0.00 r=4.77
;00:00:07.278: pe=-1.7574 eb=0.2379 ve=0.0000 vn=0.0000 vl=0.000 db=1.91
G1 Z0.400 F420                          ; dt=0.029 hopup dz=0.20@7 l=0.40x0.40x0.00 r=3.37
;00:00:07.306: pe=-1.7574 eb=0.2379 ve=0.0000 vn=0.0000 vl=0.000 db=1.35
;layer:0.30
;00:00:07.306: layer=1 h=0.30 w=0.50 r=1.00
;structure:shell-outer
;00:00:07.306: text [(-70, 70), (None, None)] fsize=5 angle=0 've=1.0\nh=0.18-0.38\ndynret=0'
G1 X-69.50 Y68.89 F6000                 ; dt=1.182 move dl=98.2@100(0<100>0) l=0.40x0.50x0.00 r=(2.70<0.00>0.00)
;00:00:08.489: pe=-1.7574 eb=0.0000 ve=0.0000 vn=0.0000 vl=0.000 db=0.00
G1 Z0.300 F420                          ; dt=0.014 hopdn dz=-0.10@7 l=0.30x0.50x0.00 r=0.00
;00:00:08.503: pe=-1.7574 eb=0.0000 ve=0.0000 vn=0.0000 vl=0.000 db=0.00
G1 E10.6341 F1800                       ; dt=0.175 restore de=4.3364@30.0(0.0<30.0>0.0) l=0.30x0.50x0.00 r=1.15
;00:00:08.677: pe=2.5463 eb=0.0326 ve=0.0000 vn=0.4375 vl=0.000 db=0.58
G1 X-68.48 Y66.48 E10.7973 F600         ; dt=0.274 draw dl=2.6@10(0<10>6) de=0.1632@0.62(0.0<0.62>0.35) l=0.30x0.50x1.00 r=(1.15<0.96>1.00)
;00:00:08.951: pe=2.5521 eb=0.0247 ve=0.3524 vn=0.5902 vl=5.651 db=0.50
G1 X-67.46 Y68.89 E10.9605              ; dt=0.274 draw dl=2.6@10(6<10>0) de=0.1632@0.62(0.35<0.62>0.0) l=0.30x0.50x1.00 r=(1.00<1.01>1.09)
;00:00:09.225: pe=2.5497 eb=0.0290 ve=0.0000 vn=0.5052 vl=0.000 db=0.54
G1 E6.7108 F2400                        ; dt=0.146 retract de=-4.2497@-40.0(0.0<-40.0>0.0) l=0.30x0.50x0.00 r=1.25
;00:00:09.371: pe=-1.7092 eb=0.0382 ve=0.0000 vn=0.0000 vl=0.000 db=0.62
G1 Z0.500 F420                          ; dt=0.029 hopup dz=0.20@7 l=0.50x0.50x0.00 r=0.97
;00:00:09.399: pe=-1.7092 eb=0.0382 ve=0.0000 vn=0.0000 vl=0.000 db=0.48
G1 X-66.40 Y67.69 F6000                 ; dt=0.120 move dl=1.6@100(0<20>0) l=0.50x0.50x0.00 r=(0.97<0.00>0.00)
;00:00:09.519: pe=-1.7092 eb=0.0000 ve=0.0000 vn=0.0000 vl=0.000 db=0.00
G1 Z0.300 F420                          ; dt=0.029 hopdn dz=-0.20@7 l=0.30x0.50x0.00 r=0.00
;00:00:09.548: pe=-1.7092 eb=0.0000 ve=0.0000 vn=0.0000 vl=0.000 db=0.00
G1 E11.0234 F1800                       ; dt=0.174 restore de=4.3125@30.0(0.0<30.0>0.0) l=0.30x0.50x0.00 r=1.16
;00:00:09.722: pe=2.5702 eb=0.0332 ve=0.0000 vn=0.4426 vl=0.000 db=0.58
G1 X-64.26 Y67.69 E11.1568 F600         ; dt=0.224 draw dl=2.1@10(0<10>10) de=0.1335@0.62(0.0<0.62>0.6) l=0.30x0.50x1.00 r=(1.16<0.96>0.99)
;00:00:09.946: pe=2.5754 eb=0.0241 ve=0.6039 vn=0.6180 vl=9.683 db=0.50
G1 X-64.34 Y68.22 E11.1903              ; dt=0.054 draw dl=0.5@10(10<10>10) de=0.0334@0.62(0.6<0.62>0.62) l=0.30x0.50x1.00 r=(0.99<0.99>0.99)
;00:00:09.999: pe=2.5757 eb=0.0241 ve=0.6236 vn=0.6183 vl=10.000 db=0.50
G1 X-64.55 Y68.61 E11.2179              ; dt=0.044 draw dl=0.4@10(10<10>10) de=0.0276@0.62(0.62<0.62>0.62) l=0.30x0.50x1.00 r=(0.99<0.99>0.99)
;00:00:10.044: pe=2.5759 eb=0.0241 ve=0.6236 vn=0.6184 vl=10.000 db=0.50
G1 X-64.89 Y68.86 E11.2442              ; dt=0.042 draw dl=0.4@10(10<10>10) de=0.0263@0.62(0.62<0.62>0.62) l=0.30x0.50x1.00 r=(0.99<0.99>0.99)
;00:00:10.086: pe=2.5761 eb=0.0241 ve=0.6236 vn=0.6185 vl=10.000 db=0.50
G1 X-65.33 Y68.95 E11.2722              ; dt=0.045 draw dl=0.4@10(10<10>10) de=0.0280@0.62(0.62<0.62>0.62) l=0.30x0.50x1.00 r=(0.99<0.99>0.99)
;00:00:10.131: pe=2.5764 eb=0.0241 ve=0.6237 vn=0.6185 vl=10.000 db=0.50
G1 X-65.76 Y68.86 E11.2996              ; dt=0.044 draw dl=0.4@10(10<10>10) de=0.0274@0.62(0.62<0.62>0.62) l=0.30x0.50x1.00 r=(0.99<0.99>0.99)
;00:00:10.175: pe=2.5766 eb=0.0241 ve=0.6236 vn=0.6186 vl=10.000 db=0.50
G1 X-66.10 Y68.61 E11.3259              ; dt=0.042 draw dl=0.4@10(10<10>10) de=0.0263@0.62(0.62<0.62>0.62) l=0.30x0.50x1.00 r=(0.99<0.99>0.99)
;00:00:10.217: pe=2.5768 eb=0.0241 ve=0.6236 vn=0.6186 vl=10.000 db=0.50
G1 X-66.32 Y68.22 E11.3538              ; dt=0.045 draw dl=0.4@10(10<10>10) de=0.0279@0.62(0.62<0.62>0.62) l=0.30x0.50x1.00 r=(0.99<0.99>0.99)
;00:00:10.262: pe=2.5770 eb=0.0241 ve=0.6236 vn=0.6187 vl=10.000 db=0.50
G1 X-66.40 Y67.69 E11.3873              ; dt=0.054 draw dl=0.5@10(10<10>10) de=0.0334@0.62(0.62<0.62>0.62) l=0.30x0.50x1.00 r=(0.99<0.99>0.99)
;00:00:10.315: pe=2.5773 eb=0.0241 ve=0.6237 vn=0.6188 vl=10.000 db=0.50
G1 X-66.32 Y67.15 E11.4213              ; dt=0.055 draw dl=0.5@10(10<10>10) de=0.0340@0.62(0.62<0.62>0.62) l=0.30x0.50x1.00 r=(0.99<0.99>0.99)
;00:00:10.370: pe=2.5776 eb=0.0241 ve=0.6237 vn=0.6188 vl=10.000 db=0.50
G1 X-66.09 Y66.75 E11.4501              ; dt=0.046 draw dl=0.5@10(10<10>10) de=0.0288@0.62(0.62<0.62>0.62) l=0.30x0.50x1.00 r=(0.99<0.99>0.99)
;00:00:10.416: pe=2.5778 eb=0.0241 ve=0.6237 vn=0.6189 vl=10.000 db=0.50
G1 X-65.74 Y66.51 E11.4766              ; dt=0.042 draw dl=0.4@10(10<10>10) de=0.0265@0.62(0.62<0.62>0.62) l=0.30x0.50x1.00 r=(0.99<0.99>0.99)
;00:00:10.458: pe=2.5780 eb=0.0241 ve=0.6237 vn=0.6189 vl=10.000 db=0.50
G1 X-65.28 Y66.42 E11.5058              ; dt=0.047 draw dl=0.5@10(10<10>10) de=0.0292@0.62(0.62<0.62>0.62) l=0.30x0.50x1.00 r=(0.99<0.99>0.99)
;00:00:10.505: pe=2.5782 eb=0.0241 ve=0.6237 vn=0.6190 vl=10.000 db=0.50
G1 X-64.94 Y66.47 E11.5272              ; dt=0.034 draw dl=0.3@10(10<10>10) de=0.0214@0.62(0.62<0.62>0.62) l=0.30x0.50x1.00 r=(0.99<0.99>0.99)
;00:00:10.540: pe=2.5784 eb=0.0241 ve=0.6236 vn=0.6190 vl=10.000 db=0.50
G1 X-64.65 Y66.61 E11.5473              ; dt=0.032 draw dl=0.3@10(10<10>10) de=0.0201@0.62(0.62<0.62>0.62) l=0.30x0.50x1.00 r=(0.99<0.99>0.99)
;00:00:10.572: pe=2.5785 eb=0.0241 ve=0.6236 vn=0.6190 vl=10.000 db=0.50
G1 X-64.44 Y66.83 E11.5663              ; dt=0.030 draw dl=0.3@10(10<10>10) de=0.0190@0.62(0.62<0.62>0.62) l=0.30x0.50x1.00 r=(0.99<0.99>0.99)
;00:00:10.602: pe=2.5787 eb=0.0241 ve=0.6236 vn=0.6191 vl=10.000 db=0.50
G1 X-64.32 Y67.13 E11.5864              ; dt=0.042 draw dl=0.3@10(10<10>0) de=0.0202@0.62(0.62<0.62>0.0) l=0.30x0.50x1.00 r=(0.99<1.26>1.10)
;00:00:10.645: pe=2.5733 eb=0.0295 ve=0.0000 vn=0.5107 vl=0.000 db=0.55
G1 E7.3131 F2400                        ; dt=0.147 retract de=-4.2733@-40.0(0.0<-40.0>0.0) l=0.30x0.50x0.00 r=1.26
;00:00:10.791: pe=-1.7093 eb=0.0389 ve=0.0000 vn=0.0000 vl=0.000 db=0.63
G1 Z0.500 F420                          ; dt=0.029 hopup dz=0.20@7 l=0.50x0.50x0.00 r=0.98
;00:00:10.820: pe=-1.7093 eb=0.0389 ve=0.0000 vn=0.0000 vl=0.000 db=0.49
G1 X-63.20 Y68.26 F6000                 ; dt=0.120 move dl=1.6@100(0<20>0) l=0.50x0.50x0.00 r=(0.98<0.00>0.00)
;00:00:10.940: pe=-1.7093 eb=0.0000 ve=0.0000 vn=0.0000 vl=0.000 db=0.00
G1 Z0.300 F420                          ; dt=0.029 hopdn dz=-0.20@7 l=0.30x0.50x0.00 r=0.00
;00:00:10.968: pe=-1.7093 eb=0.0000 ve=0.0000 vn=0.0000 vl=0.000 db=0.00
G1 E11.5392 F1800                       ; dt=0.171 restore de=4.2260@30.0(0.0<30.0>0.0) l=0.30x0.50x0.00 r=1.13
;00:00:11.139: pe=2.4855 eb=0.0312 ve=0.0000 vn=0.4246 vl=0.000 db=0.56
G1 X-61.51 Y68.26 E11.6446 F600         ; dt=0.189 draw dl=1.7@10(0<10>0) de=0.1054@0.62(0.0<0.62>0.0) l=0.30x0.50x1.00 r=(1.13<0.97>1.06)
;00:00:11.328: pe=2.4884 eb=0.0278 ve=0.0000 vn=0.4905 vl=0.000 db=0.53
G1 E7.4562 F2400                        ; dt=0.145 retract de=-4.1884@-40.0(0.0<-40.0>0.0) l=0.30x0.50x0.00 r=1.22
;00:00:11.473: pe=-1.7088 eb=0.0365 ve=0.0000 vn=0.0000 vl=0.000 db=0.61
G1 Z0.500 F420                          ; dt=0.029 hopup dz=0.20@7 l=0.50x0.50x0.00 r=0.95
;00:00:11.501: pe=-1.7088 eb=0.0365 ve=0.0000 vn=0.0000 vl=0.000 db=0.47
G1 X-61.51 Y67.55 F6000                 ; dt=0.080 move dl=0.7@100(0<13>0) l=0.50x0.50x0.00 r=(0.95<0.00>0.02)
;00:00:11.581: pe=-1.7088 eb=0.0000 ve=0.0000 vn=0.0000 vl=0.000 db=0.01
G1 Z0.300 F420                          ; dt=0.029 hopdn dz=-0.20@7 l=0.30x0.50x0.00 r=0.03
;00:00:11.610: pe=-1.7088 eb=0.0000 ve=0.0000 vn=0.0000 vl=0.000 db=0.01
G1 E11.6817 F1800                       ; dt=0.171 restore de=4.2255@30.0(0.0<30.0>0.0) l=0.30x0.50x0.00 r=1.13
;00:00:11.781: pe=2.4855 eb=0.0312 ve=0.0000 vn=0.4246 vl=0.000 db=0.56
G1 X-63.20 Y67.55 E11.7871 F600         ; dt=0.189 draw dl=1.7@10(0<10>0) de=0.1054@0.62(0.0<0.62>0.0) l=0.30x0.50x1.00 r=(1.13<0.97>1.06)
;00:00:11.970: pe=2.4884 eb=0.0278 ve=0.0000 vn=0.4906 vl=0.000 db=0.53
G1 E7.5987 F2400                        ; dt=0.145 retract de=-4.1884@-40.0(0.0<-40.0>0.0) l=0.30x0.50x0.00 r=1.22
;00:00:12.114: pe=-1.7088 eb=0.0365 ve=0.0000 vn=0.0000 vl=0.000 db=0.61
G1 Z0.500 F420                          ; dt=0.029 hopup dz=0.20@7 l=0.50x0.50x0.00 r=0.95
;00:00:12.143: pe=-1.7088 eb=0.0365 ve=0.0000 vn=0.0000 vl=0.000 db=0.47
G1 X-60.45 Y69.00 F6000                 ; dt=0.167 move dl=3.1@100(0<28>0) l=0.50x0.50x0.00 r=(0.95<0.00>0.00)
;00:00:12.310: pe=-1.7088 eb=0.0000 ve=0.0000 vn=0.0000 vl=0.000 db=0.00
G1 Z0.300 F420                          ; dt=0.029 hopdn dz=-0.20@7 l=0.30x0.50x0.00 r=0.00
;00:00:12.339: pe=-1.7088 eb=0.0000 ve=0.0000 vn=0.0000 vl=0.000 db=0.00
G1 E11.8820 F1800                       ; dt=0.173 restore de=4.2833@30.0(0.0<30.0>0.0) l=0.30x0.50x0.00 r=1.15
;00:00:12.512: pe=2.5420 eb=0.0325 ve=0.0000 vn=0.4366 vl=0.000 db=0.58
G1 X-59.98 Y69.24 E11.9149 F600         ; dt=0.063 draw dl=0.5@10(0<10>10) de=0.0329@0.62(0.0<0.62>0.62) l=0.30x0.50x1.00 r=(1.15<0.90>1.03)
;00:00:12.574: pe=2.5452 eb=0.0259 ve=0.6236 vn=0.5623 vl=10.000 db=0.51
G1 X-59.61 Y69.55 E11.9450              ; dt=0.048 draw dl=0.5@10(10<10>10) de=0.0301@0.62(0.62<0.62>0.62) l=0.30x0.50x1.00 r=(1.03<0.94>0.99)
;00:00:12.623: pe=2.5470 eb=0.0240 ve=0.6236 vn=0.6021 vl=10.000 db=0.49
G1 X-59.36 Y69.88 E11.9708              ; dt=0.044 draw dl=0.4@10(10<10>5) de=0.0258@0.62(0.62<0.62>0.3) l=0.30x0.50x1.00 r=(0.99<1.03>1.01)
;00:00:12.667: pe=2.5462 eb=0.0251 ve=0.3015 vn=0.5780 vl=4.834 db=0.51
G1 X-59.36 Y66.48 E12.1828              ; dt=0.353 draw dl=3.4@10(5<10>0) de=0.2120@0.62(0.3<0.62>0.0) l=0.30x0.50x1.00 r=(1.01<1.00>1.09)
;00:00:13.019: pe=2.5451 eb=0.0289 ve=0.0000 vn=0.5042 vl=0.000 db=0.54
G1 E7.9377 F2400                        ; dt=0.146 retract de=-4.2451@-40.0(0.0<-40.0>0.0) l=0.30x0.50x0.00 r=1.25
;00:00:13.166: pe=-1.7092 eb=0.0381 ve=0.0000 vn=0.0000 vl=0.000 db=0.62
G1 Z0.500 F420                          ; dt=0.029 hopup dz=0.20@7 l=0.50x0.50x0.00 r=0.97
;00:00:13.194: pe=-1.7092 eb=0.0381 ve=0.0000 vn=0.0000 vl=0.000 db=0.48
G1 X-58.30 Y66.71 F6000                 ; dt=0.099 move dl=1.1@100(0<16>0) l=0.50x0.50x0.00 r=(0.97<0.00>0.00)
;00:00:13.293: pe=-1.7092 eb=0.0000 ve=0.0000 vn=0.0000 vl=0.000 db=0.00
G1 Z0.300 F420                          ; dt=0.029 hopdn dz=-0.20@7 l=0.30x0.50x0.00 r=0.00
;00:00:13.321: pe=-1.7092 eb=0.0000 ve=0.0000 vn=0.0000 vl=0.000 db=0.00
G1 E11.5291 F1800                       ; dt=0.150 restore de=3.5914@30.0(0.0<30.0>0.0) l=0.30x0.50x0.00 r=0.87
;00:00:13.471: pe=1.8637 eb=0.0185 ve=0.0000 vn=0.2946 vl=0.000 db=0.44
G1 X-58.30 Y66.65 E11.5328 F600         ; dt=0.023 draw dl=0.1@10(0<4>0) de=0.0037@0.62(0.0<0.24>0.0) l=0.30x0.50x1.00 r=(0.87<1.63>0.93)
;00:00:13.494: pe=1.8614 eb=0.0213 ve=0.0000 vn=0.2318 vl=0.000 db=0.47
G1 E7.9715 F2400                        ; dt=0.129 retract de=-3.5614@-40.0(0.0<-40.0>0.0) l=0.30x0.50x0.00 r=1.00
;00:00:13.623: pe=-1.7030 eb=0.0243 ve=0.0000 vn=0.0000 vl=0.000 db=0.50
G1 Z0.500 F420                          ; dt=0.029 hopup dz=0.20@7 l=0.50x0.50x0.00 r=0.77
;00:00:13.652: pe=-1.7030 eb=0.0243 ve=0.0000 vn=0.0000 vl=0.000 db=0.39
G1 X-56.01 Y69.94 F6000                 ; dt=0.190 move dl=4.0@100(0<32>0) l=0.50x0.50x0.00 r=(0.77<0.00>0.00)
;00:00:13.842: pe=-1.7030 eb=0.0000 ve=0.0000 vn=0.0000 vl=0.000 db=0.00
G1 Z0.300 F420                          ; dt=0.029 hopdn dz=-0.20@7 l=0.30x0.50x0.00 r=0.00
;00:00:13.871: pe=-1.7030 eb=0.0000 ve=0.0000 vn=0.0000 vl=0.000 db=0.00
G1 E12.2792 F1800                       ; dt=0.174 restore de=4.3077@30.0(0.0<30.0>0.0) l=0.30x0.50x0.00 r=1.16
;00:00:14.044: pe=2.5715 eb=0.0332 ve=0.0000 vn=0.4429 vl=0.000 db=0.58
G1 X-55.50 Y69.80 E12.3122 F600         ; dt=0.063 draw dl=0.5@10(0<10>10) de=0.0330@0.62(0.0<0.62>0.62) l=0.30x0.50x1.00 r=(1.16<0.91>1.04)
;00:00:14.107: pe=2.5744 eb=0.0265 ve=0.6237 vn=0.5683 vl=10.000 db=0.52
G1 X-55.11 Y69.42 E12.3462              ; dt=0.054 draw dl=0.5@10(10<10>10) de=0.0340@0.62(0.62<0.62>0.62) l=0.30x0.50x1.00 r=(1.04<0.95>1.00)
;00:00:14.161: pe=2.5759 eb=0.0245 ve=0.6237 vn=0.6105 vl=10.000 db=0.50
G1 X-54.88 Y68.86 E12.3839              ; dt=0.061 draw dl=0.6@10(10<10>10) de=0.0378@0.62(0.62<0.62>0.62) l=0.30x0.50x1.00 r=(1.00<0.99>0.99)
;00:00:14.222: pe=2.5765 eb=0.0241 ve=0.6237 vn=0.6176 vl=10.000 db=0.50
G1 X-54.79 Y68.18 E12.4267              ; dt=0.069 draw dl=0.7@10(10<10>10) de=0.0428@0.62(0.62<0.62>0.62) l=0.30x0.50x1.00 r=(0.99<0.99>0.99)
;00:00:14.291: pe=2.5768 eb=0.0241 ve=0.6237 vn=0.6186 vl=10.000 db=0.50
G1 X-54.88 Y67.51 E12.4689              ; dt=0.068 draw dl=0.7@10(10<10>10) de=0.0422@0.62(0.62<0.62>0.62) l=0.30x0.50x1.00 r=(0.99<0.99>0.99)
;00:00:14.358: pe=2.5772 eb=0.0241 ve=0.6237 vn=0.6187 vl=10.000 db=0.50
G1 X-55.11 Y66.95 E12.5066              ; dt=0.061 draw dl=0.6@10(10<10>10) de=0.0378@0.62(0.62<0.62>0.62) l=0.30x0.50x1.00 r=(0.99<0.99>0.99)
;00:00:14.419: pe=2.5775 eb=0.0241 ve=0.6237 vn=0.6188 vl=10.000 db=0.50
G1 X-55.50 Y66.56 E12.5410              ; dt=0.055 draw dl=0.6@10(10<10>10) de=0.0344@0.62(0.62<0.62>0.62) l=0.30x0.50x1.00 r=(0.99<0.99>0.99)
;00:00:14.474: pe=2.5777 eb=0.0241 ve=0.6237 vn=0.6189 vl=10.000 db=0.50
G1 X-56.01 Y66.42 E12.5740              ; dt=0.053 draw dl=0.5@10(10<10>10) de=0.0330@0.62(0.62<0.62>0.62) l=0.30x0.50x1.00 r=(0.99<0.99>0.99)
;00:00:14.527: pe=2.5780 eb=0.0241 ve=0.6237 vn=0.6189 vl=10.000 db=0.50
G1 X-56.54 Y66.56 E12.6082              ; dt=0.055 draw dl=0.5@10(10<10>10) de=0.0342@0.62(0.62<0.62>0.62) l=0.30x0.50x1.00 r=(0.99<0.99>0.99)
;00:00:14.582: pe=2.5782 eb=0.0241 ve=0.6237 vn=0.6190 vl=10.000 db=0.50
G1 X-56.91 Y66.95 E12.6417              ; dt=0.054 draw dl=0.5@10(10<10>10) de=0.0335@0.62(0.62<0.62>0.62) l=0.30x0.50x1.00 r=(0.99<0.99>0.99)
;00:00:14.635: pe=2.5785 eb=0.0241 ve=0.6237 vn=0.6190 vl=10.000 db=0.50
G1 X-57.15 Y67.51 E12.6797              ; dt=0.061 draw dl=0.6@10(10<10>10) de=0.0380@0.62(0.62<0.62>0.62) l=0.30x0.50x1.00 r=(0.99<0.99>0.99)
;00:00:14.696: pe=2.5788 eb=0.0241 ve=0.6237 vn=0.6191 vl=10.000 db=0.50
G1 X-57.23 Y68.18 E12.7218              ; dt=0.067 draw dl=0.7@10(10<10>10) de=0.0421@0.62(0.62<0.62>0.62) l=0.30x0.50x1.00 r=(0.99<0.99>0.99)
;00:00:14.764: pe=2.5791 eb=0.0241 ve=0.6237 vn=0.6192 vl=10.000 db=0.50
G1 X-57.15 Y68.85 E12.7639              ; dt=0.067 draw dl=0.7@10(10<10>10) de=0.0421@0.62(0.62<0.62>0.62) l=0.30x0.50x1.00 r=(0.99<0.99>0.99)
;00:00:14.831: pe=2.5794 eb=0.0241 ve=0.6237 vn=0.6193 vl=10.000 db=0.50
G1 X-56.91 Y69.42 E12.8025              ; dt=0.062 draw dl=0.6@10(10<10>10) de=0.0386@0.62(0.62<0.62>0.62) l=0.30x0.50x1.00 r=(0.99<0.99>0.99)
;00:00:14.893: pe=2.5797 eb=0.0241 ve=0.6237 vn=0.6193 vl=10.000 db=0.50
G1 X-56.54 Y69.80 E12.8355              ; dt=0.053 draw dl=0.5@10(10<10>10) de=0.0331@0.62(0.62<0.62>0.62) l=0.30x0.50x1.00 r=(0.99<0.99>0.99)
;00:00:14.946: pe=2.5799 eb=0.0242 ve=0.6237 vn=0.6194 vl=10.000 db=0.50
G1 X-56.01 Y69.94 E12.8697              ; dt=0.065 draw dl=0.5@10(10<10>0) de=0.0342@0.62(0.62<0.62>0.0) l=0.30x0.50x1.00 r=(0.99<1.15>1.10)
;00:00:15.011: pe=2.5746 eb=0.0295 ve=0.0000 vn=0.5110 vl=0.000 db=0.55
G1 E8.5951 F2400                        ; dt=0.147 retract de=-4.2746@-40.0(0.0<-40.0>0.0) l=0.30x0.50x0.00 r=1.26
;00:00:15.158: pe=-1.7094 eb=0.0389 ve=0.0000 vn=0.0000 vl=0.000 db=0.63
G1 Z0.500 F420                          ; dt=0.029 hopup dz=0.20@7 l=0.50x0.50x0.00 r=0.98
;00:00:15.186: pe=-1.7094 eb=0.0389 ve=0.0000 vn=0.0000 vl=0.000 db=0.49
G1 X-69.50 Y64.88 F6000                 ; dt=0.360 move dl=14.4@100(0<60>0) l=0.50x0.50x0.00 r=(0.98<0.00>0.00)
;00:00:15.546: pe=-1.7094 eb=0.0000 ve=0.0000 vn=0.0000 vl=0.000 db=0.00
G1 Z0.300 F420                          ; dt=0.029 hopdn dz=-0.20@7 l=0.30x0.50x0.00 r=0.00
;00:00:15.575: pe=-1.7094 eb=0.0000 ve=0.0000 vn=0.0000 vl=0.000 db=0.00
G1 E12.8715 F1800                       ; dt=0.173 restore de=4.2764@30.0(0.0<30.0>0.0) l=0.30x0.50x0.00 r=1.15
;00:00:15.748: pe=2.5347 eb=0.0323 ve=0.0000 vn=0.4350 vl=0.000 db=0.57
G1 X-69.50 Y61.48 E13.0835 F600         ; dt=0.360 draw dl=3.4@10(0<10>0) de=0.2120@0.62(0.0<0.62>0.0) l=0.30x0.50x1.00 r=(1.15<0.98>1.08)
;00:00:16.108: pe=2.5379 eb=0.0288 ve=0.0000 vn=0.5025 vl=0.000 db=0.54
G1 E8.8456 F2400                        ; dt=0.146 retract de=-4.2379@-40.0(0.0<-40.0>0.0) l=0.30x0.50x0.00 r=1.24
;00:00:16.254: pe=-1.7091 eb=0.0379 ve=0.0000 vn=0.0000 vl=0.000 db=0.62
G1 Z0.500 F420                          ; dt=0.029 hopup dz=0.20@7 l=0.50x0.50x0.00 r=0.96
;00:00:16.282: pe=-1.7091 eb=0.0379 ve=0.0000 vn=0.0000 vl=0.000 db=0.48
G1 X-69.50 Y63.23 F6000                 ; dt=0.125 move dl=1.8@100(0<21>0) l=0.50x0.50x0.00 r=(0.96<0.00>0.00)
;00:00:16.408: pe=-1.7091 eb=0.0000 ve=0.0000 vn=0.0000 vl=0.000 db=0.00
G1 Z0.300 F420                          ; dt=0.029 hopdn dz=-0.20@7 l=0.30x0.50x0.00 r=0.00
;00:00:16.436: pe=-1.7091 eb=0.0000 ve=0.0000 vn=0.0000 vl=0.000 db=0.00
G1 E13.1363 F1800                       ; dt=0.173 restore de=4.2906@30.0(0.0<30.0>0.0) l=0.30x0.50x0.00 r=1.16
;00:00:16.609: pe=2.5488 eb=0.0327 ve=0.0000 vn=0.4380 vl=0.000 db=0.58
G1 X-69.25 Y63.53 E13.1606 F600         ; dt=0.049 draw dl=0.4@10(0<10>10) de=0.0244@0.62(0.0<0.62>0.62) l=0.30x0.50x1.00 r=(1.16<0.91>1.06)
;00:00:16.658: pe=2.5509 eb=0.0274 ve=0.6237 vn=0.5356 vl=10.000 db=0.53
G1 X-69.02 Y63.75 E13.1805              ; dt=0.032 draw dl=0.3@10(10<10>10) de=0.0198@0.62(0.62<0.62>0.62) l=0.30x0.50x1.00 r=(1.06<0.90>1.01)
;00:00:16.690: pe=2.5528 eb=0.0250 ve=0.6237 vn=0.5862 vl=10.000 db=0.50
G1 X-68.80 Y63.88 E13.1964              ; dt=0.026 draw dl=0.3@10(10<10>10) de=0.0159@0.62(0.62<0.62>0.62) l=0.30x0.50x1.00 r=(1.01<0.95>0.99)
;00:00:16.716: pe=2.5536 eb=0.0242 ve=0.6237 vn=0.6019 vl=10.000 db=0.50
G1 X-68.60 Y63.93 E13.2092              ; dt=0.021 draw dl=0.2@10(10<10>10) de=0.0129@0.62(0.62<0.62>0.62) l=0.30x0.50x1.00 r=(0.99<0.97>0.99)
;00:00:16.736: pe=2.5539 eb=0.0239 ve=0.6237 vn=0.6077 vl=10.000 db=0.49
G1 X-68.41 Y63.95 E13.2212              ; dt=0.019 draw dl=0.2@10(10<10>10) de=0.0119@0.62(0.62<0.62>0.62) l=0.30x0.50x1.00 r=(0.99<0.98>0.99)
;00:00:16.755: pe=2.5542 eb=0.0238 ve=0.6237 vn=0.6104 vl=10.000 db=0.49
G1 X-68.09 Y63.88 E13.2416              ; dt=0.033 draw dl=0.3@10(10<10>10) de=0.0204@0.62(0.62<0.62>0.62) l=0.30x0.50x1.00 r=(0.99<0.98>0.98)
;00:00:16.788: pe=2.5546 eb=0.0237 ve=0.6237 vn=0.6125 vl=10.000 db=0.49
G1 X-67.86 Y63.71 E13.2594              ; dt=0.029 draw dl=0.3@10(10<10>10) de=0.0178@0.62(0.62<0.62>0.62) l=0.30x0.50x1.00 r=(0.98<0.98>0.98)
;00:00:16.817: pe=2.5549 eb=0.0237 ve=0.6237 vn=0.6131 vl=10.000 db=0.49
G1 X-67.76 Y63.51 E13.2734              ; dt=0.022 draw dl=0.2@10(10<10>10) de=0.0139@0.62(0.62<0.62>0.62) l=0.30x0.50x1.00 r=(0.98<0.98>0.98)
;00:00:16.839: pe=2.5552 eb=0.0237 ve=0.6236 vn=0.6133 vl=10.000 db=0.49
G1 X-67.67 Y63.08 E13.3008              ; dt=0.044 draw dl=0.4@10(10<10>10) de=0.0274@0.62(0.62<0.62>0.62) l=0.30x0.50x1.00 r=(0.98<0.98>0.98)
;00:00:16.883: pe=2.5556 eb=0.0237 ve=0.6236 vn=0.6136 vl=10.000 db=0.49
G1 X-67.67 Y61.48 E13.4006              ; dt=0.170 draw dl=1.6@10(10<10>0) de=0.0998@0.62(0.62<0.62>0.0) l=0.30x0.50x1.00 r=(0.98<1.04>1.09)
;00:00:17.053: pe=2.5518 eb=0.0291 ve=0.0000 vn=0.5057 vl=0.000 db=0.54
G1 E9.1488 F2400                        ; dt=0.146 retract de=-4.2518@-40.0(0.0<-40.0>0.0) l=0.30x0.50x0.00 r=1.25
;00:00:17.199: pe=-1.7092 eb=0.0383 ve=0.0000 vn=0.0000 vl=0.000 db=0.62
G1 Z0.500 F420                          ; dt=0.029 hopup dz=0.20@7 l=0.50x0.50x0.00 r=0.97
;00:00:17.228: pe=-1.7092 eb=0.0383 ve=0.0000 vn=0.0000 vl=0.000 db=0.48
G1 X-66.61 Y63.26 F6000                 ; dt=0.137 move dl=2.1@100(0<23>0) l=0.50x0.50x0.00 r=(0.97<0.00>0.00)
;00:00:17.364: pe=-1.7092 eb=0.0000 ve=0.0000 vn=0.0000 vl=0.000 db=0.00
G1 Z0.300 F420                          ; dt=0.029 hopdn dz=-0.20@7 l=0.30x0.50x0.00 r=0.00
;00:00:17.393: pe=-1.7092 eb=0.0000 ve=0.0000 vn=0.0000 vl=0.000 db=0.00
G1 E13.3748 F1800                       ; dt=0.171 restore de=4.2260@30.0(0.0<30.0>0.0) l=0.30x0.50x0.00 r=1.13
;00:00:17.564: pe=2.4856 eb=0.0312 ve=0.0000 vn=0.4246 vl=0.000 db=0.56
G1 X-64.92 Y63.26 E13.4802 F600         ; dt=0.189 draw dl=1.7@10(0<10>0) de=0.1054@0.62(0.0<0.62>0.0) l=0.30x0.50x1.00 r=(1.13<0.97>1.06)
;00:00:17.753: pe=2.4885 eb=0.0278 ve=0.0000 vn=0.4906 vl=0.000 db=0.53
G1 E9.2917 F2400                        ; dt=0.145 retract de=-4.1885@-40.0(0.0<-40.0>0.0) l=0.30x0.50x0.00 r=1.22
;00:00:17.898: pe=-1.7088 eb=0.0365 ve=0.0000 vn=0.0000 vl=0.000 db=0.61
G1 Z0.500 F420                          ; dt=0.029 hopup dz=0.20@7 l=0.50x0.50x0.00 r=0.95
;00:00:17.926: pe=-1.7088 eb=0.0365 ve=0.0000 vn=0.0000 vl=0.000 db=0.47
G1 X-64.92 Y62.55 F6000                 ; dt=0.080 move dl=0.7@100(0<13>0) l=0.50x0.50x0.00 r=(0.95<0.00>0.02)
;00:00:18.006: pe=-1.7088 eb=0.0000 ve=0.0000 vn=0.0000 vl=0.000 db=0.01
G1 Z0.300 F420                          ; dt=0.029 hopdn dz=-0.20@7 l=0.30x0.50x0.00 r=0.03
;00:00:18.035: pe=-1.7088 eb=0.0000 ve=0.0000 vn=0.0000 vl=0.000 db=0.01
G1 E13.5173 F1800                       ; dt=0.171 restore de=4.2256@30.0(0.0<30.0>0.0) l=0.30x0.50x0.00 r=1.13
;00:00:18.205: pe=2.4856 eb=0.0312 ve=0.0000 vn=0.4246 vl=0.000 db=0.56
G1 X-66.61 Y62.55 E13.6227 F600         ; dt=0.189 draw dl=1.7@10(0<10>0) de=0.1054@0.62(0.0<0.62>0.0) l=0.30x0.50x1.00 r=(1.13<0.97>1.06)
;00:00:18.394: pe=2.4885 eb=0.0278 ve=0.0000 vn=0.4906 vl=0.000 db=0.53
G1 E9.4342 F2400                        ; dt=0.145 retract de=-4.1885@-40.0(0.0<-40.0>0.0) l=0.30x0.50x0.00 r=1.22
;00:00:18.539: pe=-1.7088 eb=0.0365 ve=0.0000 vn=0.0000 vl=0.000 db=0.61
G1 Z0.500 F420                          ; dt=0.029 hopup dz=0.20@7 l=0.50x0.50x0.00 r=0.95
;00:00:18.568: pe=-1.7088 eb=0.0365 ve=0.0000 vn=0.0000 vl=0.000 db=0.47
G1 X-62.64 Y64.94 F6000                 ; dt=0.204 move dl=4.6@100(0<34>0) l=0.50x0.50x0.00 r=(0.95<0.00>0.00)
;00:00:18.772: pe=-1.7088 eb=0.0000 ve=0.0000 vn=0.0000 vl=0.000 db=0.00
G1 Z0.300 F420                          ; dt=0.029 hopdn dz=-0.20@7 l=0.30x0.50x0.00 r=0.00
;00:00:18.801: pe=-1.7088 eb=0.0000 ve=0.0000 vn=0.0000 vl=0.000 db=0.00
G1 E13.7477 F1800                       ; dt=0.174 restore de=4.3134@30.0(0.0<30.0>0.0) l=0.30x0.50x0.00 r=1.16
;00:00:18.974: pe=2.5715 eb=0.0332 ve=0.0000 vn=0.4428 vl=0.000 db=0.58
G1 X-62.13 Y64.80 E13.7807 F600         ; dt=0.063 draw dl=0.5@10(0<10>10) de=0.0330@0.62(0.0<0.62>0.62) l=0.30x0.50x1.00 r=(1.16<0.91>1.04)
;00:00:19.037: pe=2.5743 eb=0.0265 ve=0.6237 vn=0.5683 vl=10.000 db=0.52
G1 X-61.74 Y64.42 E13.8146              ; dt=0.054 draw dl=0.5@10(10<10>10) de=0.0340@0.62(0.62<0.62>0.62) l=0.30x0.50x1.00 r=(1.04<0.95>1.00)
;00:00:19.092: pe=2.5759 eb=0.0245 ve=0.6237 vn=0.6104 vl=10.000 db=0.50
G1 X-61.50 Y63.86 E13.8526              ; dt=0.061 draw dl=0.6@10(10<10>10) de=0.0380@0.62(0.62<0.62>0.62) l=0.30x0.50x1.00 r=(1.00<0.99>0.99)
;00:00:19.153: pe=2.5764 eb=0.0241 ve=0.6237 vn=0.6176 vl=10.000 db=0.50
G1 X-61.42 Y63.18 E13.8953              ; dt=0.068 draw dl=0.7@10(10<10>10) de=0.0427@0.62(0.62<0.62>0.62) l=0.30x0.50x1.00 r=(0.99<0.99>0.99)
;00:00:19.221: pe=2.5768 eb=0.0241 ve=0.6237 vn=0.6185 vl=10.000 db=0.50
G1 X-61.50 Y62.51 E13.9374              ; dt=0.067 draw dl=0.7@10(10<10>10) de=0.0421@0.62(0.62<0.62>0.62) l=0.30x0.50x1.00 r=(0.99<0.99>0.99)
;00:00:19.289: pe=2.5771 eb=0.0241 ve=0.6237 vn=0.6187 vl=10.000 db=0.50
G1 X-61.74 Y61.95 E13.9754              ; dt=0.061 draw dl=0.6@10(10<10>10) de=0.0380@0.62(0.62<0.62>0.62) l=0.30x0.50x1.00 r=(0.99<0.99>0.99)
;00:00:19.349: pe=2.5774 eb=0.0241 ve=0.6237 vn=0.6188 vl=10.000 db=0.50
G1 X-62.13 Y61.56 E14.0098              ; dt=0.055 draw dl=0.6@10(10<10>10) de=0.0344@0.62(0.62<0.62>0.62) l=0.30x0.50x1.00 r=(0.99<0.99>0.99)
;00:00:19.405: pe=2.5777 eb=0.0241 ve=0.6237 vn=0.6188 vl=10.000 db=0.50
G1 X-62.64 Y61.42 E14.0428              ; dt=0.053 draw dl=0.5@10(10<10>10) de=0.0330@0.62(0.62<0.62>0.62) l=0.30x0.50x1.00 r=(0.99<0.99>0.99)
;00:00:19.458: pe=2.5779 eb=0.0241 ve=0.6237 vn=0.6189 vl=10.000 db=0.50
G1 X-63.16 Y61.56 E14.0764              ; dt=0.054 draw dl=0.5@10(10<10>10) de=0.0336@0.62(0.62<0.62>0.62) l=0.30x0.50x1.00 r=(0.99<0.99>0.99)
;00:00:19.511: pe=2.5782 eb=0.0241 ve=0.6237 vn=0.6190 vl=10.000 db=0.50
G1 X-63.54 Y61.95 E14.1103              ; dt=0.054 draw dl=0.5@10(10<10>10) de=0.0340@0.62(0.62<0.62>0.62) l=0.30x0.50x1.00 r=(0.99<0.99>0.99)
;00:00:19.566: pe=2.5784 eb=0.0241 ve=0.6237 vn=0.6190 vl=10.000 db=0.50
G1 X-63.78 Y62.51 E14.1483              ; dt=0.061 draw dl=0.6@10(10<10>10) de=0.0380@0.62(0.62<0.62>0.62) l=0.30x0.50x1.00 r=(0.99<0.99>0.99)
;00:00:19.627: pe=2.5787 eb=0.0241 ve=0.6237 vn=0.6191 vl=10.000 db=0.50
G1 X-63.86 Y63.18 E14.1904              ; dt=0.067 draw dl=0.7@10(10<10>10) de=0.0421@0.62(0.62<0.62>0.62) l=0.30x0.50x1.00 r=(0.99<0.99>0.99)
;00:00:19.694: pe=2.5790 eb=0.0241 ve=0.6237 vn=0.6192 vl=10.000 db=0.50
G1 X-63.78 Y63.85 E14.2325              ; dt=0.067 draw dl=0.7@10(10<10>10) de=0.0421@0.62(0.62<0.62>0.62) l=0.30x0.50x1.00 r=(0.99<0.99>0.99)
;00:00:19.762: pe=2.5793 eb=0.0241 ve=0.6237 vn=0.6192 vl=10.000 db=0.50
G1 X-63.54 Y64.42 E14.2711              ; dt=0.062 draw dl=0.6@10(10<10>10) de=0.0386@0.62(0.62<0.62>0.62) l=0.30x0.50x1.00 r=(0.99<0.99>0.99)
;00:00:19.824: pe=2.5796 eb=0.0241 ve=0.6237 vn=0.6193 vl=10.000 db=0.50
G1 X-63.16 Y64.80 E14.3046              ; dt=0.054 draw dl=0.5@10(10<10>10) de=0.0335@0.62(0.62<0.62>0.62) l=0.30x0.50x1.00 r=(0.99<0.99>0.99)
;00:00:19.877: pe=2.5798 eb=0.0241 ve=0.6236 vn=0.6194 vl=10.000 db=0.50
G1 X-62.64 Y64.94 E14.3382              ; dt=0.064 draw dl=0.5@10(10<10>0) de=0.0336@0.62(0.62<0.62>0.0) l=0.30x0.50x1.00 r=(0.99<1.16>1.10)
;00:00:19.941: pe=2.5746 eb=0.0295 ve=0.0000 vn=0.5110 vl=0.000 db=0.55
G1 E10.0636 F2400                       ; dt=0.147 retract de=-4.2746@-40.0(0.0<-40.0>0.0) l=0.30x0.50x0.00 r=1.26
;00:00:20.088: pe=-1.7094 eb=0.0389 ve=0.0000 vn=0.0000 vl=0.000 db=0.63
G1 Z0.500 F420                          ; dt=0.029 hopup dz=0.20@7 l=0.50x0.50x0.00 r=0.98
;00:00:20.117: pe=-1.7094 eb=0.0389 ve=0.0000 vn=0.0000 vl=0.000 db=0.49
G1 X-60.36 Y61.71 F6000                 ; dt=0.189 move dl=4.0@100(0<31>0) l=0.50x0.50x0.00 r=(0.98<0.00>0.00)
;00:00:20.305: pe=-1.7094 eb=0.0000 ve=0.0000 vn=0.0000 vl=0.000 db=0.00
G1 Z0.300 F420                          ; dt=0.029 hopdn dz=-0.20@7 l=0.30x0.50x0.00 r=0.00
;00:00:20.334: pe=-1.7094 eb=0.0000 ve=0.0000 vn=0.0000 vl=0.000 db=0.00
G1 E13.6552 F1800                       ; dt=0.150 restore de=3.5916@30.0(0.0<30.0>0.0) l=0.30x0.50x0.00 r=0.87
;00:00:20.484: pe=1.8637 eb=0.0185 ve=0.0000 vn=0.2946 vl=0.000 db=0.44
G1 X-60.36 Y61.65 E13.6589 F600         ; dt=0.023 draw dl=0.1@10(0<4>0) de=0.0037@0.62(0.0<0.24>0.0) l=0.30x0.50x1.00 r=(0.87<1.63>0.93)
;00:00:20.507: pe=1.8614 eb=0.0213 ve=0.0000 vn=0.2318 vl=0.000 db=0.47
G1 E10.0976 F2400                       ; dt=0.129 retract de=-3.5614@-40.0(0.0<-40.0>0.0) l=0.30x0.50x0.00 r=1.00
;00:00:20.636: pe=-1.7030 eb=0.0243 ve=0.0000 vn=0.0000 vl=0.000 db=0.50
G1 Z0.500 F420                          ; dt=0.029 hopup dz=0.20@7 l=0.50x0.50x0.00 r=0.77
;00:00:20.664: pe=-1.7030 eb=0.0243 ve=0.0000 vn=0.0000 vl=0.000 db=0.39
G1 X-59.29 Y64.00 F6000                 ; dt=0.152 move dl=2.6@100(0<25>0) l=0.50x0.50x0.00 r=(0.77<0.00>0.00)
;00:00:20.817: pe=-1.7030 eb=0.0000 ve=0.0000 vn=0.0000 vl=0.000 db=0.00
G1 Z0.300 F420                          ; dt=0.029 hopdn dz=-0.20@7 l=0.30x0.50x0.00 r=0.00
;00:00:20.845: pe=-1.7030 eb=0.0000 ve=0.0000 vn=0.0000 vl=0.000 db=0.00
G1 E14.3753 F1800                       ; dt=0.173 restore de=4.2777@30.0(0.0<30.0>0.0) l=0.30x0.50x0.00 r=1.15
;00:00:21.018: pe=2.5422 eb=0.0325 ve=0.0000 vn=0.4366 vl=0.000 db=0.58
G1 X-58.82 Y64.24 E14.4082 F600         ; dt=0.063 draw dl=0.5@10(0<10>10) de=0.0329@0.62(0.0<0.62>0.62) l=0.30x0.50x1.00 r=(1.15<0.90>1.03)
;00:00:21.081: pe=2.5454 eb=0.0259 ve=0.6237 vn=0.5623 vl=10.000 db=0.51
G1 X-58.45 Y64.55 E14.4383              ; dt=0.048 draw dl=0.5@10(10<10>10) de=0.0301@0.62(0.62<0.62>0.62) l=0.30x0.50x1.00 r=(1.03<0.94>0.99)
;00:00:21.129: pe=2.5472 eb=0.0240 ve=0.6237 vn=0.6021 vl=10.000 db=0.49
G1 X-58.20 Y64.88 E14.4641              ; dt=0.044 draw dl=0.4@10(10<10>5) de=0.0258@0.62(0.62<0.62>0.3) l=0.30x0.50x1.00 r=(0.99<1.03>1.01)
;00:00:21.173: pe=2.5463 eb=0.0252 ve=0.3015 vn=0.5780 vl=4.834 db=0.51
G1 X-58.20 Y61.48 E14.6762              ; dt=0.353 draw dl=3.4@10(5<10>0) de=0.2121@0.62(0.3<0.62>0.0) l=0.30x0.50x1.00 r=(1.01<1.00>1.09)
;00:00:21.526: pe=2.5453 eb=0.0289 ve=0.0000 vn=0.5042 vl=0.000 db=0.54
G1 E10.4309 F2400                       ; dt=0.146 retract de=-4.2453@-40.0(0.0<-40.0>0.0) l=0.30x0.50x0.00 r=1.25
;00:00:21.672: pe=-1.7092 eb=0.0381 ve=0.0000 vn=0.0000 vl=0.000 db=0.62
G1 Z0.500 F420                          ; dt=0.029 hopup dz=0.20@7 l=0.50x0.50x0.00 r=0.97
;00:00:21.700: pe=-1.7092 eb=0.0381 ve=0.0000 vn=0.0000 vl=0.000 db=0.48
G1 X-56.12 Y64.92 F6000                 ; dt=0.190 move dl=4.0@100(0<32>0) l=0.50x0.50x0.00 r=(0.97<0.00>0.00)
;00:00:21.891: pe=-1.7092 eb=0.0000 ve=0.0000 vn=0.0000 vl=0.000 db=0.00
G1 Z0.300 F420                          ; dt=0.029 hopdn dz=-0.20@7 l=0.30x0.50x0.00 r=0.00
;00:00:21.919: pe=-1.7092 eb=0.0000 ve=0.0000 vn=0.0000 vl=0.000 db=0.00
G1 E14.7550 F1800                       ; dt=0.174 restore de=4.3242@30.0(0.0<30.0>0.0) l=0.30x0.50x0.00 r=1.17
;00:00:22.093: pe=2.5816 eb=0.0334 ve=0.0000 vn=0.4450 vl=0.000 db=0.58
G1 X-55.77 Y64.86 E14.7772 F600         ; dt=0.046 draw dl=0.4@10(0<10>10) de=0.0221@0.62(0.0<0.62>0.62) l=0.30x0.50x1.00 r=(1.17<0.93>1.08)
;00:00:22.139: pe=2.5831 eb=0.0287 ve=0.6237 vn=0.5325 vl=10.000 db=0.54
G1 X-55.48 Y64.71 E14.7975              ; dt=0.033 draw dl=0.3@10(10<10>10) de=0.0204@0.62(0.62<0.62>0.62) l=0.30x0.50x1.00 r=(1.08<0.91>1.03)
;00:00:22.172: pe=2.5850 eb=0.0257 ve=0.6237 vn=0.5902 vl=10.000 db=0.51
G1 X-55.29 Y64.46 E14.8171              ; dt=0.031 draw dl=0.3@10(10<10>10) de=0.0196@0.62(0.62<0.62>0.62) l=0.30x0.50x1.00 r=(1.03<0.96>1.01)
;00:00:22.203: pe=2.5857 eb=0.0248 ve=0.6237 vn=0.6102 vl=10.000 db=0.50
G1 X-55.22 Y64.11 E14.8394              ; dt=0.036 draw dl=0.4@10(10<10>10) de=0.0223@0.62(0.62<0.62>0.62) l=0.30x0.50x1.00 r=(1.01<0.99>1.00)
;00:00:22.239: pe=2.5860 eb=0.0244 ve=0.6237 vn=0.6177 vl=10.000 db=0.50
G1 X-55.37 Y63.66 E14.8690              ; dt=0.047 draw dl=0.5@10(10<10>10) de=0.0296@0.62(0.62<0.62>0.62) l=0.30x0.50x1.00 r=(1.00<0.99>1.00)
;00:00:22.286: pe=2.5862 eb=0.0243 ve=0.6237 vn=0.6203 vl=10.000 db=0.50
G1 X-55.65 Y63.40 E14.8928              ; dt=0.038 draw dl=0.4@10(10<10>10) de=0.0238@0.62(0.62<0.62>0.62) l=0.30x0.50x1.00 r=(1.00<1.00>1.00)
;00:00:22.324: pe=2.5863 eb=0.0243 ve=0.6237 vn=0.6207 vl=10.000 db=0.50
G1 X-56.58 Y63.12 E14.9534              ; dt=0.097 draw dl=1.0@10(10<10>10) de=0.0606@0.62(0.62<0.62>0.62) l=0.30x0.50x1.00 r=(1.00<1.00>1.00)
;00:00:22.421: pe=2.5866 eb=0.0243 ve=0.6237 vn=0.6210 vl=10.000 db=0.50
G1 X-56.97 Y62.84 E14.9833              ; dt=0.048 draw dl=0.5@10(10<10>10) de=0.0299@0.62(0.62<0.62>0.62) l=0.30x0.50x1.00 r=(1.00<1.00>1.00)
;00:00:22.469: pe=2.5867 eb=0.0243 ve=0.6237 vn=0.6210 vl=10.000 db=0.50
G1 X-57.14 Y62.35 E15.0157              ; dt=0.052 draw dl=0.5@10(10<10>10) de=0.0323@0.62(0.62<0.62>0.62) l=0.30x0.50x1.00 r=(1.00<1.00>1.00)
;00:00:22.521: pe=2.5869 eb=0.0243 ve=0.6237 vn=0.6210 vl=10.000 db=0.50
G1 X-57.06 Y61.95 E15.0411              ; dt=0.041 draw dl=0.4@10(10<10>10) de=0.0254@0.62(0.62<0.62>0.62) l=0.30x0.50x1.00 r=(1.00<1.00>1.00)
;00:00:22.562: pe=2.5870 eb=0.0243 ve=0.6237 vn=0.6211 vl=10.000 db=0.50
G1 X-56.86 Y61.66 E15.0631              ; dt=0.035 draw dl=0.4@10(10<10>10) de=0.0220@0.62(0.62<0.62>0.62) l=0.30x0.50x1.00 r=(1.00<1.00>1.00)
;00:00:22.597: pe=2.5871 eb=0.0243 ve=0.6237 vn=0.6211 vl=10.000 db=0.50
G1 X-56.52 Y61.48 E15.0871              ; dt=0.038 draw dl=0.4@10(10<10>10) de=0.0240@0.62(0.62<0.62>0.62) l=0.30x0.50x1.00 r=(1.00<1.00>1.00)
;00:00:22.636: pe=2.5872 eb=0.0243 ve=0.6237 vn=0.6211 vl=10.000 db=0.50
G1 X-56.12 Y61.42 E15.1123              ; dt=0.040 draw dl=0.4@10(10<10>10) de=0.0252@0.62(0.62<0.62>0.62) l=0.30x0.50x1.00 r=(1.00<1.00>1.00)
;00:00:22.676: pe=2.5873 eb=0.0243 ve=0.6237 vn=0.6211 vl=10.000 db=0.50
G1 X-55.71 Y61.48 E15.1382              ; dt=0.041 draw dl=0.4@10(10<10>10) de=0.0258@0.62(0.62<0.62>0.62) l=0.30x0.50x1.00 r=(1.00<1.00>1.00)
;00:00:22.718: pe=2.5874 eb=0.0243 ve=0.6237 vn=0.6212 vl=10.000 db=0.50
G1 X-55.38 Y61.66 E15.1616              ; dt=0.038 draw dl=0.4@10(10<10>10) de=0.0234@0.62(0.62<0.62>0.62) l=0.30x0.50x1.00 r=(1.00<1.00>1.00)
;00:00:22.755: pe=2.5875 eb=0.0243 ve=0.6237 vn=0.6212 vl=10.000 db=0.50
G1 X-55.17 Y61.95 E15.1839              ; dt=0.036 draw dl=0.4@10(10<10>10) de=0.0223@0.62(0.62<0.62>0.62) l=0.30x0.50x1.00 r=(1.00<1.00>1.00)
;00:00:22.791: pe=2.5876 eb=0.0243 ve=0.6237 vn=0.6212 vl=10.000 db=0.50
G1 X-55.09 Y62.35 E15.2094              ; dt=0.041 draw dl=0.4@10(10<10>10) de=0.0254@0.62(0.62<0.62>0.62) l=0.30x0.50x1.00 r=(1.00<1.00>1.00)
;00:00:22.832: pe=2.5877 eb=0.0243 ve=0.6237 vn=0.6212 vl=10.000 db=0.50
G1 X-55.27 Y62.84 E15.2419              ; dt=0.052 draw dl=0.5@10(10<10>10) de=0.0326@0.62(0.62<0.62>0.62) l=0.30x0.50x1.00 r=(1.00<1.00>1.00)
;00:00:22.884: pe=2.5878 eb=0.0243 ve=0.6238 vn=0.6213 vl=10.000 db=0.50
G1 X-55.65 Y63.12 E15.2714              ; dt=0.047 draw dl=0.5@10(10<10>10) de=0.0294@0.62(0.62<0.62>0.62) l=0.30x0.50x1.00 r=(1.00<1.00>1.00)
;00:00:22.931: pe=2.5879 eb=0.0243 ve=0.6237 vn=0.6213 vl=10.000 db=0.50
G1 X-56.58 Y63.40 E15.3320              ; dt=0.097 draw dl=1.0@10(10<10>10) de=0.0606@0.62(0.62<0.62>0.62) l=0.30x0.50x1.00 r=(1.00<1.00>1.00)
;00:00:23.028: pe=2.5882 eb=0.0243 ve=0.6238 vn=0.6213 vl=10.000 db=0.50
G1 X-56.88 Y63.66 E15.3567              ; dt=0.040 draw dl=0.4@10(10<10>10) de=0.0248@0.62(0.62<0.62>0.62) l=0.30x0.50x1.00 r=(1.00<1.00>1.00)
;00:00:23.068: pe=2.5882 eb=0.0243 ve=0.6237 vn=0.6214 vl=10.000 db=0.50
G1 X-57.01 Y64.11 E15.3859              ; dt=0.047 draw dl=0.5@10(10<10>10) de=0.0292@0.62(0.62<0.62>0.62) l=0.30x0.50x1.00 r=(1.00<1.00>1.00)
;00:00:23.115: pe=2.5884 eb=0.0243 ve=0.6237 vn=0.6214 vl=10.000 db=0.50
G1 X-56.95 Y64.46 E15.4081              ; dt=0.036 draw dl=0.4@10(10<10>10) de=0.0221@0.62(0.62<0.62>0.62) l=0.30x0.50x1.00 r=(1.00<1.00>1.00)
;00:00:23.150: pe=2.5884 eb=0.0243 ve=0.6237 vn=0.6214 vl=10.000 db=0.50
G1 X-56.75 Y64.71 E15.4281              ; dt=0.032 draw dl=0.3@10(10<10>10) de=0.0200@0.62(0.62<0.62>0.62) l=0.30x0.50x1.00 r=(1.00<1.00>1.00)
;00:00:23.182: pe=2.5885 eb=0.0243 ve=0.6237 vn=0.6214 vl=10.000 db=0.50
G1 X-56.47 Y64.86 E15.4479              ; dt=0.032 draw dl=0.3@10(10<10>10) de=0.0198@0.62(0.62<0.62>0.62) l=0.30x0.50x1.00 r=(1.00<1.00>1.00)
;00:00:23.214: pe=2.5886 eb=0.0243 ve=0.6237 vn=0.6214 vl=10.000 db=0.50
G1 X-56.12 Y64.92 E15.4700              ; dt=0.046 draw dl=0.4@10(10<10>0) de=0.0221@0.62(0.62<0.62>0.0) l=0.30x0.50x1.00 r=(1.00<1.25>1.10)
;00:00:23.260: pe=2.5832 eb=0.0297 ve=0.0000 vn=0.5129 vl=0.000 db=0.55
G1 E11.1869 F2400                       ; dt=0.147 retract de=-4.2832@-40.0(0.0<-40.0>0.0) l=0.30x0.50x0.00 r=1.26
;00:00:23.407: pe=-1.7094 eb=0.0391 ve=0.0000 vn=0.0000 vl=0.000 db=0.63
G1 Z0.500 F420                          ; dt=0.029 hopup dz=0.20@7 l=0.50x0.50x0.00 r=0.98
;00:00:23.435: pe=-1.7094 eb=0.0391 ve=0.0000 vn=0.0000 vl=0.000 db=0.49
G1 X-54.04 Y62.90 F6000                 ; dt=0.162 move dl=2.9@100(0<27>0) l=0.50x0.50x0.00 r=(0.98<0.00>0.00)
;00:00:23.597: pe=-1.7094 eb=0.0000 ve=0.0000 vn=0.0000 vl=0.000 db=0.00
G1 Z0.300 F420                          ; dt=0.029 hopdn dz=-0.20@7 l=0.30x0.50x0.00 r=0.00
;00:00:23.625: pe=-1.7094 eb=0.0000 ve=0.0000 vn=0.0000 vl=0.000 db=0.00
G1 E15.4230 F1800                       ; dt=0.171 restore de=4.2362@30.0(0.0<30.0>0.0) l=0.30x0.50x0.00 r=1.13
;00:00:23.797: pe=2.4953 eb=0.0314 ve=0.0000 vn=0.4267 vl=0.000 db=0.57
G1 X-52.16 Y62.90 E15.5403 F600         ; dt=0.208 draw dl=1.9@10(0<10>0) de=0.1173@0.62(0.0<0.62>0.0) l=0.30x0.50x1.00 r=(1.13<0.98>1.07)
;00:00:24.005: pe=2.4983 eb=0.0280 ve=0.0000 vn=0.4931 vl=0.000 db=0.53
G1 E11.3420 F2400                       ; dt=0.145 retract de=-4.1983@-40.0(0.0<-40.0>0.0) l=0.30x0.50x0.00 r=1.23
;00:00:24.150: pe=-1.7088 eb=0.0368 ve=0.0000 vn=0.0000 vl=0.000 db=0.61
G1 Z0.500 F420                          ; dt=0.029 hopup dz=0.20@7 l=0.50x0.50x0.00 r=0.95
;00:00:24.178: pe=-1.7088 eb=0.0368 ve=0.0000 vn=0.0000 vl=0.000 db=0.47
G1 X-49.89 Y64.94 F6000                 ; dt=0.166 move dl=3.1@100(0<28>0) l=0.50x0.50x0.00 r=(0.95<0.00>0.00)
;00:00:24.344: pe=-1.7088 eb=0.0000 ve=0.0000 vn=0.0000 vl=0.000 db=0.00
G1 Z0.300 F420                          ; dt=0.029 hopdn dz=-0.20@7 l=0.30x0.50x0.00 r=0.00
;00:00:24.372: pe=-1.7088 eb=0.0000 ve=0.0000 vn=0.0000 vl=0.000 db=0.00
G1 E15.6559 F1800                       ; dt=0.174 restore de=4.3138@30.0(0.0<30.0>0.0) l=0.30x0.50x0.00 r=1.16
;00:00:24.546: pe=2.5718 eb=0.0332 ve=0.0000 vn=0.4429 vl=0.000 db=0.58
G1 X-49.38 Y64.80 E15.6888 F600         ; dt=0.063 draw dl=0.5@10(0<10>10) de=0.0330@0.62(0.0<0.62>0.62) l=0.30x0.50x1.00 r=(1.16<0.91>1.04)
;00:00:24.609: pe=2.5746 eb=0.0265 ve=0.6237 vn=0.5683 vl=10.000 db=0.52
G1 X-48.98 Y64.42 E15.7233              ; dt=0.055 draw dl=0.6@10(10<10>10) de=0.0344@0.62(0.62<0.62>0.62) l=0.30x0.50x1.00 r=(1.04<0.95>1.00)
;00:00:24.664: pe=2.5762 eb=0.0245 ve=0.6237 vn=0.6107 vl=10.000 db=0.50
G1 X-48.75 Y63.86 E15.7610              ; dt=0.061 draw dl=0.6@10(10<10>10) de=0.0378@0.62(0.62<0.62>0.62) l=0.30x0.50x1.00 r=(1.00<0.99>0.99)
;00:00:24.725: pe=2.5767 eb=0.0241 ve=0.6237 vn=0.6176 vl=10.000 db=0.50
G1 X-48.66 Y63.18 E15.8038              ; dt=0.069 draw dl=0.7@10(10<10>10) de=0.0428@0.62(0.62<0.62>0.62) l=0.30x0.50x1.00 r=(0.99<0.99>0.99)
;00:00:24.793: pe=2.5771 eb=0.0241 ve=0.6237 vn=0.6186 vl=10.000 db=0.50
G1 X-48.75 Y62.51 E15.8460              ; dt=0.068 draw dl=0.7@10(10<10>10) de=0.0422@0.62(0.62<0.62>0.62) l=0.30x0.50x1.00 r=(0.99<0.99>0.99)
;00:00:24.861: pe=2.5774 eb=0.0241 ve=0.6237 vn=0.6188 vl=10.000 db=0.50
G1 X-48.98 Y61.95 E15.8837              ; dt=0.061 draw dl=0.6@10(10<10>10) de=0.0378@0.62(0.62<0.62>0.62) l=0.30x0.50x1.00 r=(0.99<0.99>0.99)
;00:00:24.922: pe=2.5777 eb=0.0241 ve=0.6237 vn=0.6189 vl=10.000 db=0.50
G1 X-49.38 Y61.56 E15.9186              ; dt=0.056 draw dl=0.6@10(10<10>10) de=0.0348@0.62(0.62<0.62>0.62) l=0.30x0.50x1.00 r=(0.99<0.99>0.99)
;00:00:24.977: pe=2.5780 eb=0.0241 ve=0.6237 vn=0.6189 vl=10.000 db=0.50
G1 X-49.89 Y61.42 E15.9516              ; dt=0.053 draw dl=0.5@10(10<10>10) de=0.0330@0.62(0.62<0.62>0.62) l=0.30x0.50x1.00 r=(0.99<0.99>0.99)
;00:00:25.030: pe=2.5782 eb=0.0241 ve=0.6237 vn=0.6190 vl=10.000 db=0.50
G1 X-50.41 Y61.56 E15.9851              ; dt=0.054 draw dl=0.5@10(10<10>10) de=0.0336@0.62(0.62<0.62>0.62) l=0.30x0.50x1.00 r=(0.99<0.99>0.99)
;00:00:25.084: pe=2.5785 eb=0.0241 ve=0.6237 vn=0.6190 vl=10.000 db=0.50
G1 X-50.79 Y61.95 E16.0191              ; dt=0.054 draw dl=0.5@10(10<10>10) de=0.0340@0.62(0.62<0.62>0.62) l=0.30x0.50x1.00 r=(0.99<0.99>0.99)
;00:00:25.139: pe=2.5787 eb=0.0241 ve=0.6237 vn=0.6191 vl=10.000 db=0.50
G1 X-51.03 Y62.51 E16.0571              ; dt=0.061 draw dl=0.6@10(10<10>10) de=0.0380@0.62(0.62<0.62>0.62) l=0.30x0.50x1.00 r=(0.99<0.99>0.99)
;00:00:25.200: pe=2.5790 eb=0.0241 ve=0.6237 vn=0.6192 vl=10.000 db=0.50
G1 X-51.11 Y63.18 E16.0992              ; dt=0.067 draw dl=0.7@10(10<10>10) de=0.0421@0.62(0.62<0.62>0.62) l=0.30x0.50x1.00 r=(0.99<0.99>0.99)
;00:00:25.267: pe=2.5793 eb=0.0241 ve=0.6237 vn=0.6192 vl=10.000 db=0.50
G1 X-51.03 Y63.85 E16.1413              ; dt=0.067 draw dl=0.7@10(10<10>10) de=0.0421@0.62(0.62<0.62>0.62) l=0.30x0.50x1.00 r=(0.99<0.99>0.99)
;00:00:25.335: pe=2.5796 eb=0.0241 ve=0.6237 vn=0.6193 vl=10.000 db=0.50
G1 X-50.79 Y64.42 E16.1799              ; dt=0.062 draw dl=0.6@10(10<10>10) de=0.0386@0.62(0.62<0.62>0.62) l=0.30x0.50x1.00 r=(0.99<0.99>0.99)
;00:00:25.396: pe=2.5799 eb=0.0242 ve=0.6237 vn=0.6194 vl=10.000 db=0.50
G1 X-50.41 Y64.80 E16.2134              ; dt=0.054 draw dl=0.5@10(10<10>10) de=0.0335@0.62(0.62<0.62>0.62) l=0.30x0.50x1.00 r=(0.99<0.99>0.99)
;00:00:25.450: pe=2.5801 eb=0.0242 ve=0.6237 vn=0.6194 vl=10.000 db=0.50
G1 X-49.89 Y64.94 E16.2470              ; dt=0.064 draw dl=0.5@10(10<10>0) de=0.0336@0.62(0.62<0.62>0.0) l=0.30x0.50x1.00 r=(0.99<1.16>1.10)
;00:00:25.514: pe=2.5749 eb=0.0295 ve=0.0000 vn=0.5110 vl=0.000 db=0.55
G1 E11.9721 F2400                       ; dt=0.147 retract de=-4.2749@-40.0(0.0<-40.0>0.0) l=0.30x0.50x0.00 r=1.26
;00:00:25.661: pe=-1.7094 eb=0.0389 ve=0.0000 vn=0.0000 vl=0.000 db=0.63
G1 Z0.500 F420                          ; dt=0.029 hopup dz=0.20@7 l=0.50x0.50x0.00 r=0.98
;00:00:25.689: pe=-1.7094 eb=0.0389 ve=0.0000 vn=0.0000 vl=0.000 db=0.49
G1 X-47.60 Y61.71 F6000                 ; dt=0.189 move dl=4.0@100(0<31>0) l=0.50x0.50x0.00 r=(0.98<0.00>0.00)
;00:00:25.878: pe=-1.7094 eb=0.0000 ve=0.0000 vn=0.0000 vl=0.000 db=0.00
G1 Z0.300 F420                          ; dt=0.029 hopdn dz=-0.20@7 l=0.30x0.50x0.00 r=0.00
;00:00:25.907: pe=-1.7094 eb=0.0000 ve=0.0000 vn=0.0000 vl=0.000 db=0.00
G1 E15.5637 F1800                       ; dt=0.150 restore de=3.5916@30.0(0.0<30.0>0.0) l=0.30x0.50x0.00 r=0.87
;00:00:26.056: pe=1.8637 eb=0.0185 ve=0.0000 vn=0.2946 vl=0.000 db=0.44
G1 X-47.60 Y61.65 E15.5674 F600         ; dt=0.023 draw dl=0.1@10(0<4>0) de=0.0037@0.62(0.0<0.24>0.0) l=0.30x0.50x1.00 r=(0.87<1.63>0.93)
;00:00:26.080: pe=1.8614 eb=0.0213 ve=0.0000 vn=0.2318 vl=0.000 db=0.47
G1 E12.0061 F2400                       ; dt=0.129 retract de=-3.5614@-40.0(0.0<-40.0>0.0) l=0.30x0.50x0.00 r=1.00
;00:00:26.209: pe=-1.7030 eb=0.0243 ve=0.0000 vn=0.0000 vl=0.000 db=0.50
G1 Z0.500 F420                          ; dt=0.029 hopup dz=0.20@7 l=0.50x0.50x0.00 r=0.77
;00:00:26.237: pe=-1.7030 eb=0.0243 ve=0.0000 vn=0.0000 vl=0.000 db=0.39
G1 X-46.49 Y64.13 F6000                 ; dt=0.156 move dl=2.7@100(0<26>0) l=0.50x0.50x0.00 r=(0.77<0.00>0.00)
;00:00:26.394: pe=-1.7030 eb=0.0000 ve=0.0000 vn=0.0000 vl=0.000 db=0.00
G1 Z0.300 F420                          ; dt=0.029 hopdn dz=-0.20@7 l=0.30x0.50x0.00 r=0.00
;00:00:26.422: pe=-1.7030 eb=0.0000 ve=0.0000 vn=0.0000 vl=0.000 db=0.00
G1 E16.3075 F1800                       ; dt=0.173 restore de=4.3014@30.0(0.0<30.0>0.0) l=0.30x0.50x0.00 r=1.16
;00:00:26.596: pe=2.5654 eb=0.0331 ve=0.0000 vn=0.4416 vl=0.000 db=0.58
G1 X-46.38 Y64.47 E16.3298 F600         ; dt=0.046 draw dl=0.4@10(0<10>10) de=0.0223@0.62(0.0<0.62>0.62) l=0.30x0.50x1.00 r=(1.16<0.93>1.07)
;00:00:26.641: pe=2.5670 eb=0.0283 ve=0.6237 vn=0.5300 vl=10.000 db=0.54
G1 X-46.17 Y64.73 E16.3506              ; dt=0.033 draw dl=0.3@10(10<10>10) de=0.0208@0.62(0.62<0.62>0.62) l=0.30x0.50x1.00 r=(1.07<0.90>1.02)
;00:00:26.675: pe=2.5690 eb=0.0254 ve=0.6237 vn=0.5879 vl=10.000 db=0.51
G1 X-45.88 Y64.89 E16.3713              ; dt=0.033 draw dl=0.3@10(10<10>10) de=0.0207@0.62(0.62<0.62>0.62) l=0.30x0.50x1.00 r=(1.02<0.96>1.00)
;00:00:26.708: pe=2.5698 eb=0.0244 ve=0.6237 vn=0.6076 vl=10.000 db=0.50
G1 X-45.54 Y64.94 E16.3927              ; dt=0.034 draw dl=0.3@10(10<10>10) de=0.0214@0.62(0.62<0.62>0.62) l=0.30x0.50x1.00 r=(1.00<0.98>0.99)
;00:00:26.742: pe=2.5703 eb=0.0241 ve=0.6237 vn=0.6142 vl=10.000 db=0.50
G1 X-45.15 Y64.87 E16.4174              ; dt=0.040 draw dl=0.4@10(10<10>10) de=0.0247@0.62(0.62<0.62>0.62) l=0.30x0.50x1.00 r=(0.99<0.99>0.99)
;00:00:26.782: pe=2.5706 eb=0.0240 ve=0.6237 vn=0.6164 vl=10.000 db=0.50
G1 X-44.86 Y64.68 E16.4391              ; dt=0.035 draw dl=0.3@10(10<10>10) de=0.0216@0.62(0.62<0.62>0.62) l=0.30x0.50x1.00 r=(0.99<0.99>0.99)
;00:00:26.817: pe=2.5708 eb=0.0240 ve=0.6237 vn=0.6170 vl=10.000 db=0.49
G1 X-44.68 Y64.41 E16.4593              ; dt=0.032 draw dl=0.3@10(10<10>10) de=0.0202@0.62(0.62<0.62>0.62) l=0.30x0.50x1.00 r=(0.99<0.99>0.99)
;00:00:26.849: pe=2.5710 eb=0.0240 ve=0.6237 vn=0.6172 vl=10.000 db=0.49
G1 X-44.61 Y64.06 E16.4816              ; dt=0.036 draw dl=0.4@10(10<10>10) de=0.0223@0.62(0.62<0.62>0.62) l=0.30x0.50x1.00 r=(0.99<0.99>0.99)
;00:00:26.885: pe=2.5713 eb=0.0240 ve=0.6237 vn=0.6173 vl=10.000 db=0.49
G1 X-44.68 Y63.85 E16.4954              ; dt=0.022 draw dl=0.2@10(10<10>10) de=0.0138@0.62(0.62<0.62>0.62) l=0.30x0.50x1.00 r=(0.99<0.99>0.99)
;00:00:26.907: pe=2.5714 eb=0.0240 ve=0.6237 vn=0.6174 vl=10.000 db=0.49
G1 X-44.82 Y63.68 E16.5091              ; dt=0.022 draw dl=0.2@10(10<10>10) de=0.0137@0.62(0.62<0.62>0.62) l=0.30x0.50x1.00 r=(0.99<0.99>0.99)
;00:00:26.929: pe=2.5715 eb=0.0240 ve=0.6237 vn=0.6174 vl=10.000 db=0.49
G1 X-45.19 Y63.45 E16.5363              ; dt=0.044 draw dl=0.4@10(10<10>10) de=0.0272@0.62(0.62<0.62>0.62) l=0.30x0.50x1.00 r=(0.99<0.99>0.99)
;00:00:26.972: pe=2.5718 eb=0.0240 ve=0.6237 vn=0.6175 vl=10.000 db=0.49
G1 X-45.63 Y63.30 E16.5653              ; dt=0.049 draw dl=0.5@10(10<10>5) de=0.0290@0.62(0.62<0.62>0.28) l=0.30x0.50x1.00 r=(0.99<1.05>1.02)
;00:00:27.022: pe=2.5704 eb=0.0257 ve=0.2839 vn=0.5825 vl=4.552 db=0.51
G1 X-45.19 Y63.18 E16.5937              ; dt=0.049 draw dl=0.5@10(5<10>10) de=0.0284@0.62(0.28<0.62>0.62) l=0.30x0.50x1.00 r=(1.02<0.99>1.01)
;00:00:27.071: pe=2.5706 eb=0.0247 ve=0.6237 vn=0.6015 vl=10.000 db=0.50
G1 X-44.83 Y63.02 E16.6183              ; dt=0.039 draw dl=0.4@10(10<10>10) de=0.0246@0.62(0.62<0.62>0.62) l=0.30x0.50x1.00 r=(1.01<0.98>0.99)
;00:00:27.110: pe=2.5712 eb=0.0242 ve=0.6237 vn=0.6132 vl=10.000 db=0.50
G1 X-44.54 Y62.74 E16.6434              ; dt=0.040 draw dl=0.4@10(10<10>10) de=0.0251@0.62(0.62<0.62>0.62) l=0.30x0.50x1.00 r=(0.99<0.99>0.99)
;00:00:27.150: pe=2.5716 eb=0.0240 ve=0.6236 vn=0.6164 vl=10.000 db=0.50
G1 X-44.44 Y62.45 E16.6626              ; dt=0.031 draw dl=0.3@10(10<10>10) de=0.0191@0.62(0.62<0.62>0.62) l=0.30x0.50x1.00 r=(0.99<0.99>0.99)
;00:00:27.181: pe=2.5718 eb=0.0240 ve=0.6237 vn=0.6171 vl=10.000 db=0.50
G1 X-44.51 Y62.03 E16.6891              ; dt=0.043 draw dl=0.4@10(10<10>10) de=0.0266@0.62(0.62<0.62>0.62) l=0.30x0.50x1.00 r=(0.99<0.99>0.99)
;00:00:27.223: pe=2.5720 eb=0.0240 ve=0.6237 vn=0.6174 vl=10.000 db=0.50
G1 X-44.74 Y61.70 E16.7142              ; dt=0.040 draw dl=0.4@10(10<10>10) de=0.0251@0.62(0.62<0.62>0.62) l=0.30x0.50x1.00 r=(0.99<0.99>0.99)
;00:00:27.264: pe=2.5723 eb=0.0240 ve=0.6237 vn=0.6176 vl=10.000 db=0.50
G1 X-45.08 Y61.50 E16.7388              ; dt=0.039 draw dl=0.4@10(10<10>10) de=0.0246@0.62(0.62<0.62>0.62) l=0.30x0.50x1.00 r=(0.99<0.99>0.99)
;00:00:27.303: pe=2.5725 eb=0.0240 ve=0.6237 vn=0.6176 vl=10.000 db=0.50
G1 X-45.50 Y61.42 E16.7655              ; dt=0.043 draw dl=0.4@10(10<10>10) de=0.0267@0.62(0.62<0.62>0.62) l=0.30x0.50x1.00 r=(0.99<0.99>0.99)
;00:00:27.346: pe=2.5728 eb=0.0240 ve=0.6237 vn=0.6177 vl=10.000 db=0.50
G1 X-45.90 Y61.48 E16.7907              ; dt=0.040 draw dl=0.4@10(10<10>10) de=0.0252@0.62(0.62<0.62>0.62) l=0.30x0.50x1.00 r=(0.99<0.99>0.99)
;00:00:27.386: pe=2.5730 eb=0.0240 ve=0.6237 vn=0.6177 vl=10.000 db=0.50
G1 X-46.22 Y61.65 E16.8133              ; dt=0.036 draw dl=0.4@10(10<10>10) de=0.0226@0.62(0.62<0.62>0.62) l=0.30x0.50x1.00 r=(0.99<0.99>0.99)
;00:00:27.423: pe=2.5732 eb=0.0240 ve=0.6237 vn=0.6178 vl=10.000 db=0.50
G1 X-46.44 Y61.92 E16.8350              ; dt=0.035 draw dl=0.3@10(10<10>10) de=0.0217@0.62(0.62<0.62>0.62) l=0.30x0.50x1.00 r=(0.99<0.99>0.99)
;00:00:27.457: pe=2.5734 eb=0.0240 ve=0.6237 vn=0.6178 vl=10.000 db=0.50
G1 X-46.54 Y62.28 E16.8583              ; dt=0.047 draw dl=0.4@10(10<10>0) de=0.0233@0.62(0.62<0.62>0.0) l=0.30x0.50x1.00 r=(0.99<1.23>1.10)
;00:00:27.505: pe=2.5682 eb=0.0294 ve=0.0000 vn=0.5095 vl=0.000 db=0.55
G1 E12.5901 F2400                       ; dt=0.147 retract de=-4.2682@-40.0(0.0<-40.0>0.0) l=0.30x0.50x0.00 r=1.26
;00:00:27.651: pe=-1.7093 eb=0.0387 ve=0.0000 vn=0.0000 vl=0.000 db=0.63
G1 Z0.500 F420                          ; dt=0.029 hopup dz=0.20@7 l=0.50x0.50x0.00 r=0.97
;00:00:27.680: pe=-1.7093 eb=0.0387 ve=0.0000 vn=0.0000 vl=0.000 db=0.49
G1 X-42.35 Y64.92 F6000                 ; dt=0.211 move dl=5.0@100(0<35>0) l=0.50x0.50x0.00 r=(0.97<0.00>0.00)
;00:00:27.891: pe=-1.7093 eb=0.0000 ve=0.0000 vn=0.0000 vl=0.000 db=0.00
G1 Z0.300 F420                          ; dt=0.029 hopdn dz=-0.20@7 l=0.30x0.50x0.00 r=0.00
;00:00:27.920: pe=-1.7093 eb=0.0000 ve=0.0000 vn=0.0000 vl=0.000 db=0.00
G1 E16.9142 F1800                       ; dt=0.174 restore de=4.3241@30.0(0.0<30.0>0.0) l=0.30x0.50x0.00 r=1.17
;00:00:28.094: pe=2.5813 eb=0.0334 ve=0.0000 vn=0.4449 vl=0.000 db=0.58
G1 X-41.99 Y64.86 E16.9369 F600         ; dt=0.046 draw dl=0.4@10(0<10>10) de=0.0228@0.62(0.0<0.62>0.62) l=0.30x0.50x1.00 r=(1.17<0.93>1.08)
;00:00:28.140: pe=2.5829 eb=0.0285 ve=0.6237 vn=0.5351 vl=10.000 db=0.54
G1 X-41.71 Y64.71 E16.9568              ; dt=0.032 draw dl=0.3@10(10<10>10) de=0.0198@0.62(0.62<0.62>0.62) l=0.30x0.50x1.00 r=(1.08<0.91>1.03)
;00:00:28.172: pe=2.5847 eb=0.0257 ve=0.6237 vn=0.5903 vl=10.000 db=0.51
G1 X-41.52 Y64.46 E16.9763              ; dt=0.031 draw dl=0.3@10(10<10>10) de=0.0196@0.62(0.62<0.62>0.62) l=0.30x0.50x1.00 r=(1.03<0.96>1.01)
;00:00:28.204: pe=2.5854 eb=0.0248 ve=0.6237 vn=0.6102 vl=10.000 db=0.50
G1 X-41.45 Y64.11 E16.9986              ; dt=0.036 draw dl=0.4@10(10<10>10) de=0.0223@0.62(0.62<0.62>0.62) l=0.30x0.50x1.00 r=(1.01<0.99>1.00)
;00:00:28.239: pe=2.5857 eb=0.0244 ve=0.6237 vn=0.6176 vl=10.000 db=0.50
G1 X-41.59 Y63.66 E17.0280              ; dt=0.047 draw dl=0.5@10(10<10>10) de=0.0294@0.62(0.62<0.62>0.62) l=0.30x0.50x1.00 r=(1.00<0.99>1.00)
;00:00:28.286: pe=2.5859 eb=0.0243 ve=0.6237 vn=0.6202 vl=10.000 db=0.50
G1 X-41.88 Y63.40 E17.0523              ; dt=0.039 draw dl=0.4@10(10<10>10) de=0.0243@0.62(0.62<0.62>0.62) l=0.30x0.50x1.00 r=(1.00<0.99>1.00)
;00:00:28.325: pe=2.5861 eb=0.0243 ve=0.6237 vn=0.6207 vl=10.000 db=0.50
G1 X-42.81 Y63.12 E17.1129              ; dt=0.097 draw dl=1.0@10(10<10>10) de=0.0606@0.62(0.62<0.62>0.62) l=0.30x0.50x1.00 r=(1.00<1.00>1.00)
;00:00:28.422: pe=2.5863 eb=0.0243 ve=0.6237 vn=0.6209 vl=10.000 db=0.50
G1 X-43.20 Y62.84 E17.1428              ; dt=0.048 draw dl=0.5@10(10<10>10) de=0.0299@0.62(0.62<0.62>0.62) l=0.30x0.50x1.00 r=(1.00<1.00>1.00)
;00:00:28.470: pe=2.5865 eb=0.0243 ve=0.6237 vn=0.6209 vl=10.000 db=0.50
G1 X-43.37 Y62.35 E17.1752              ; dt=0.052 draw dl=0.5@10(10<10>10) de=0.0323@0.62(0.62<0.62>0.62) l=0.30x0.50x1.00 r=(1.00<1.00>1.00)
;00:00:28.522: pe=2.5866 eb=0.0243 ve=0.6237 vn=0.6210 vl=10.000 db=0.50
G1 X-43.29 Y61.95 E17.2006              ; dt=0.041 draw dl=0.4@10(10<10>10) de=0.0254@0.62(0.62<0.62>0.62) l=0.30x0.50x1.00 r=(1.00<1.00>1.00)
;00:00:28.563: pe=2.5867 eb=0.0243 ve=0.6237 vn=0.6210 vl=10.000 db=0.50
G1 X-43.08 Y61.66 E17.2229              ; dt=0.036 draw dl=0.4@10(10<10>10) de=0.0223@0.62(0.62<0.62>0.62) l=0.30x0.50x1.00 r=(1.00<1.00>1.00)
;00:00:28.599: pe=2.5868 eb=0.0243 ve=0.6237 vn=0.6210 vl=10.000 db=0.50
G1 X-42.75 Y61.48 E17.2464              ; dt=0.038 draw dl=0.4@10(10<10>10) de=0.0234@0.62(0.62<0.62>0.62) l=0.30x0.50x1.00 r=(1.00<1.00>1.00)
;00:00:28.636: pe=2.5869 eb=0.0243 ve=0.6237 vn=0.6210 vl=10.000 db=0.50
G1 X-42.35 Y61.42 E17.2716              ; dt=0.040 draw dl=0.4@10(10<10>10) de=0.0252@0.62(0.62<0.62>0.62) l=0.30x0.50x1.00 r=(1.00<1.00>1.00)
;00:00:28.677: pe=2.5870 eb=0.0243 ve=0.6237 vn=0.6211 vl=10.000 db=0.50
G1 X-41.94 Y61.48 E17.2974              ; dt=0.041 draw dl=0.4@10(10<10>10) de=0.0258@0.62(0.62<0.62>0.62) l=0.30x0.50x1.00 r=(1.00<1.00>1.00)
;00:00:28.718: pe=2.5871 eb=0.0243 ve=0.6237 vn=0.6211 vl=10.000 db=0.50
G1 X-41.61 Y61.66 E17.3209              ; dt=0.038 draw dl=0.4@10(10<10>10) de=0.0234@0.62(0.62<0.62>0.62) l=0.30x0.50x1.00 r=(1.00<1.00>1.00)
;00:00:28.756: pe=2.5872 eb=0.0243 ve=0.6237 vn=0.6211 vl=10.000 db=0.50
G1 X-41.40 Y61.95 E17.3432              ; dt=0.036 draw dl=0.4@10(10<10>10) de=0.0223@0.62(0.62<0.62>0.62) l=0.30x0.50x1.00 r=(1.00<1.00>1.00)
;00:00:28.792: pe=2.5873 eb=0.0243 ve=0.6237 vn=0.6211 vl=10.000 db=0.50
G1 X-41.32 Y62.35 E17.3687              ; dt=0.041 draw dl=0.4@10(10<10>10) de=0.0254@0.62(0.62<0.62>0.62) l=0.30x0.50x1.00 r=(1.00<1.00>1.00)
;00:00:28.833: pe=2.5874 eb=0.0243 ve=0.6237 vn=0.6212 vl=10.000 db=0.50
G1 X-41.49 Y62.84 E17.4010              ; dt=0.052 draw dl=0.5@10(10<10>10) de=0.0323@0.62(0.62<0.62>0.62) l=0.30x0.50x1.00 r=(1.00<1.00>1.00)
;00:00:28.884: pe=2.5876 eb=0.0243 ve=0.6237 vn=0.6212 vl=10.000 db=0.50
G1 X-41.88 Y63.12 E17.4309              ; dt=0.048 draw dl=0.5@10(10<10>10) de=0.0299@0.62(0.62<0.62>0.62) l=0.30x0.50x1.00 r=(1.00<1.00>1.00)
;00:00:28.932: pe=2.5877 eb=0.0243 ve=0.6237 vn=0.6212 vl=10.000 db=0.50
G1 X-42.81 Y63.40 E17.4915              ; dt=0.097 draw dl=1.0@10(10<10>10) de=0.0606@0.62(0.62<0.62>0.62) l=0.30x0.50x1.00 r=(1.00<1.00>1.00)
;00:00:29.030: pe=2.5879 eb=0.0243 ve=0.6237 vn=0.6213 vl=10.000 db=0.50
G1 X-43.10 Y63.66 E17.5158              ; dt=0.039 draw dl=0.4@10(10<10>10) de=0.0243@0.62(0.62<0.62>0.62) l=0.30x0.50x1.00 r=(1.00<1.00>1.00)
;00:00:29.069: pe=2.5880 eb=0.0243 ve=0.6237 vn=0.6213 vl=10.000 db=0.50
G1 X-43.24 Y64.11 E17.5452              ; dt=0.047 draw dl=0.5@10(10<10>10) de=0.0294@0.62(0.62<0.62>0.62) l=0.30x0.50x1.00 r=(1.00<1.00>1.00)
;00:00:29.116: pe=2.5881 eb=0.0243 ve=0.6237 vn=0.6213 vl=10.000 db=0.50
G1 X-43.17 Y64.46 E17.5675              ; dt=0.036 draw dl=0.4@10(10<10>10) de=0.0223@0.62(0.62<0.62>0.62) l=0.30x0.50x1.00 r=(1.00<1.00>1.00)
;00:00:29.151: pe=2.5882 eb=0.0243 ve=0.6237 vn=0.6213 vl=10.000 db=0.50
G1 X-42.98 Y64.71 E17.5870              ; dt=0.031 draw dl=0.3@10(10<10>10) de=0.0196@0.62(0.62<0.62>0.62) l=0.30x0.50x1.00 r=(1.00<1.00>1.00)
;00:00:29.183: pe=2.5883 eb=0.0243 ve=0.6237 vn=0.6214 vl=10.000 db=0.50
G1 X-42.70 Y64.86 E17.6069              ; dt=0.032 draw dl=0.3@10(10<10>10) de=0.0198@0.62(0.62<0.62>0.62) l=0.30x0.50x1.00 r=(1.00<1.00>1.00)
;00:00:29.214: pe=2.5883 eb=0.0243 ve=0.6237 vn=0.6214 vl=10.000 db=0.50
G1 X-42.35 Y64.92 E17.6290              ; dt=0.046 draw dl=0.4@10(10<10>0) de=0.0221@0.62(0.62<0.62>0.0) l=0.30x0.50x1.00 r=(1.00<1.25>1.10)
;00:00:29.260: pe=2.5829 eb=0.0297 ve=0.0000 vn=0.5129 vl=0.000 db=0.55
G1 E13.3461 F2400                       ; dt=0.147 retract de=-4.2829@-40.0(0.0<-40.0>0.0) l=0.30x0.50x0.00 r=1.26
;00:00:29.407: pe=-1.7094 eb=0.0391 ve=0.0000 vn=0.0000 vl=0.000 db=0.63
G1 Z0.500 F420                          ; dt=0.029 hopup dz=0.20@7 l=0.50x0.50x0.00 r=0.98
;00:00:29.436: pe=-1.7094 eb=0.0391 ve=0.0000 vn=0.0000 vl=0.000 db=0.49
G1 X-67.52 Y59.88 F6000                 ; dt=0.481 move dl=25.7@100(0<80>0) l=0.50x0.50x0.00 r=(0.98<0.00>0.00)
;00:00:29.916: pe=-1.7094 eb=0.0000 ve=0.0000 vn=0.0000 vl=0.000 db=0.00
G1 Z0.300 F420                          ; dt=0.029 hopdn dz=-0.20@7 l=0.30x0.50x0.00 r=0.00
;00:00:29.945: pe=-1.7094 eb=0.0000 ve=0.0000 vn=0.0000 vl=0.000 db=0.00
G1 E17.6225 F1800                       ; dt=0.173 restore de=4.2765@30.0(0.0<30.0>0.0) l=0.30x0.50x0.00 r=1.15
;00:00:30.117: pe=2.5347 eb=0.0323 ve=0.0000 vn=0.4350 vl=0.000 db=0.57
G1 X-67.52 Y56.48 E17.8346 F600         ; dt=0.360 draw dl=3.4@10(0<10>0) de=0.2120@0.62(0.0<0.62>0.0) l=0.30x0.50x1.00 r=(1.15<0.98>1.08)
;00:00:30.477: pe=2.5379 eb=0.0288 ve=0.0000 vn=0.5025 vl=0.000 db=0.54
G1 E13.5967 F2400                       ; dt=0.146 retract de=-4.2379@-40.0(0.0<-40.0>0.0) l=0.30x0.50x0.00 r=1.24
;00:00:30.623: pe=-1.7091 eb=0.0379 ve=0.0000 vn=0.0000 vl=0.000 db=0.62
G1 Z0.500 F420                          ; dt=0.029 hopup dz=0.20@7 l=0.50x0.50x0.00 r=0.96
;00:00:30.652: pe=-1.7091 eb=0.0379 ve=0.0000 vn=0.0000 vl=0.000 db=0.48
G1 X-67.52 Y56.98 F6000                 ; dt=0.067 move dl=0.5@100(0<11>0) l=0.50x0.50x0.00 r=(0.96<0.00>0.32)
;00:00:30.719: pe=-1.7091 eb=0.0042 ve=0.0000 vn=0.0000 vl=0.000 db=0.16
G1 Z0.300 F420                          ; dt=0.029 hopdn dz=-0.20@7 l=0.30x0.50x0.00 r=0.41
;00:00:30.748: pe=-1.7091 eb=0.0042 ve=0.0000 vn=0.0000 vl=0.000 db=0.21
G1 E17.9023 F1800                       ; dt=0.174 restore de=4.3056@30.0(0.0<30.0>0.0) l=0.30x0.50x0.00 r=1.17
;00:00:30.921: pe=2.5674 eb=0.0333 ve=0.0000 vn=0.4388 vl=0.000 db=0.58
G1 X-67.77 Y56.74 E17.9239 F600         ; dt=0.045 draw dl=0.3@10(0<10>10) de=0.0216@0.62(0.0<0.62>0.62) l=0.30x0.50x1.00 r=(1.17<0.93>1.08)
;00:00:30.966: pe=2.5690 eb=0.0285 ve=0.6237 vn=0.5264 vl=10.000 db=0.54
G1 X-68.16 Y56.49 E17.9528              ; dt=0.046 draw dl=0.5@10(10<10>10) de=0.0289@0.62(0.62<0.62>0.62) l=0.30x0.50x1.00 r=(1.08<0.91>1.01)
;00:00:31.012: pe=2.5715 eb=0.0250 ve=0.6237 vn=0.5977 vl=10.000 db=0.50
G1 X-68.54 Y56.42 E17.9769              ; dt=0.039 draw dl=0.4@10(10<10>10) de=0.0241@0.62(0.62<0.62>0.62) l=0.30x0.50x1.00 r=(1.01<0.97>1.00)
;00:00:31.051: pe=2.5722 eb=0.0243 ve=0.6237 vn=0.6123 vl=10.000 db=0.50
G1 X-68.92 Y56.51 E18.0012              ; dt=0.039 draw dl=0.4@10(10<10>10) de=0.0244@0.62(0.62<0.62>0.62) l=0.30x0.50x1.00 r=(1.00<0.99>0.99)
;00:00:31.090: pe=2.5725 eb=0.0241 ve=0.6237 vn=0.6162 vl=10.000 db=0.50
G1 X-69.22 Y56.77 E18.0260              ; dt=0.040 draw dl=0.4@10(10<10>10) de=0.0248@0.62(0.62<0.62>0.62) l=0.30x0.50x1.00 r=(0.99<0.99>0.99)
;00:00:31.129: pe=2.5728 eb=0.0240 ve=0.6237 vn=0.6173 vl=10.000 db=0.50
G1 X-69.43 Y57.18 E18.0547              ; dt=0.046 draw dl=0.5@10(10<10>10) de=0.0287@0.62(0.62<0.62>0.62) l=0.30x0.50x1.00 r=(0.99<0.99>0.99)
;00:00:31.176: pe=2.5731 eb=0.0240 ve=0.6237 vn=0.6177 vl=10.000 db=0.50
G1 X-69.50 Y57.71 E18.0881              ; dt=0.053 draw dl=0.5@10(10<10>10) de=0.0333@0.62(0.62<0.62>0.62) l=0.30x0.50x1.00 r=(0.99<0.99>0.99)
;00:00:31.229: pe=2.5734 eb=0.0240 ve=0.6237 vn=0.6178 vl=10.000 db=0.50
G1 X-69.44 Y58.22 E18.1201              ; dt=0.051 draw dl=0.5@10(10<10>10) de=0.0320@0.62(0.62<0.62>0.62) l=0.30x0.50x1.00 r=(0.99<0.99>0.99)
;00:00:31.280: pe=2.5737 eb=0.0240 ve=0.6237 vn=0.6179 vl=10.000 db=0.50
G1 X-69.26 Y58.61 E18.1469              ; dt=0.043 draw dl=0.4@10(10<10>10) de=0.0268@0.62(0.62<0.62>0.62) l=0.30x0.50x1.00 r=(0.99<0.99>0.99)
;00:00:31.323: pe=2.5739 eb=0.0240 ve=0.6237 vn=0.6180 vl=10.000 db=0.50
G1 X-68.97 Y58.86 E18.1708              ; dt=0.038 draw dl=0.4@10(10<10>10) de=0.0239@0.62(0.62<0.62>0.62) l=0.30x0.50x1.00 r=(0.99<0.99>0.99)
;00:00:31.362: pe=2.5741 eb=0.0240 ve=0.6237 vn=0.6180 vl=10.000 db=0.50
G1 X-68.57 Y58.95 E18.1963              ; dt=0.041 draw dl=0.4@10(10<10>10) de=0.0256@0.62(0.62<0.62>0.62) l=0.30x0.50x1.00 r=(0.99<0.99>0.99)
;00:00:31.403: pe=2.5744 eb=0.0240 ve=0.6237 vn=0.6181 vl=10.000 db=0.50
G1 X-68.38 Y58.93 E18.2082              ; dt=0.019 draw dl=0.2@10(10<10>10) de=0.0119@0.62(0.62<0.62>0.62) l=0.30x0.50x1.00 r=(0.99<0.99>0.99)
;00:00:31.422: pe=2.5745 eb=0.0240 ve=0.6237 vn=0.6181 vl=10.000 db=0.50
G1 X-68.18 Y58.85 E18.2217              ; dt=0.022 draw dl=0.2@10(10<10>10) de=0.0134@0.62(0.62<0.62>0.62) l=0.30x0.50x1.00 r=(0.99<0.99>0.99)
;00:00:31.443: pe=2.5746 eb=0.0241 ve=0.6237 vn=0.6181 vl=10.000 db=0.50
G1 X-67.97 Y58.72 E18.2371              ; dt=0.025 draw dl=0.2@10(10<10>10) de=0.0154@0.62(0.62<0.62>0.62) l=0.30x0.50x1.00 r=(0.99<0.99>0.99)
;00:00:31.468: pe=2.5747 eb=0.0241 ve=0.6236 vn=0.6182 vl=10.000 db=0.50
G1 X-67.77 Y58.50 E18.2556              ; dt=0.030 draw dl=0.3@10(10<10>10) de=0.0185@0.62(0.62<0.62>0.62) l=0.30x0.50x1.00 r=(0.99<0.99>0.99)
;00:00:31.498: pe=2.5749 eb=0.0241 ve=0.6236 vn=0.6182 vl=10.000 db=0.50
G1 X-67.52 Y58.03 E18.2888              ; dt=0.063 draw dl=0.5@10(10<10>0) de=0.0332@0.62(0.62<0.62>0.0) l=0.30x0.50x1.00 r=(0.99<1.16>1.10)
;00:00:31.561: pe=2.5697 eb=0.0294 ve=0.0000 vn=0.5098 vl=0.000 db=0.55
G1 E14.0191 F2400                       ; dt=0.147 retract de=-4.2697@-40.0(0.0<-40.0>0.0) l=0.30x0.50x0.00 r=1.26
;00:00:31.708: pe=-1.7093 eb=0.0388 ve=0.0000 vn=0.0000 vl=0.000 db=0.63
G1 Z0.500 F420                          ; dt=0.029 hopup dz=0.20@7 l=0.50x0.50x0.00 r=0.97
;00:00:31.736: pe=-1.7093 eb=0.0388 ve=0.0000 vn=0.0000 vl=0.000 db=0.49
G1 X-66.46 Y58.89 F6000                 ; dt=0.111 move dl=1.4@100(0<18>0) l=0.50x0.50x0.00 r=(0.97<0.00>0.00)
;00:00:31.847: pe=-1.7093 eb=0.0000 ve=0.0000 vn=0.0000 vl=0.000 db=0.00
G1 Z0.300 F420                          ; dt=0.029 hopdn dz=-0.20@7 l=0.30x0.50x0.00 r=0.00
;00:00:31.876: pe=-1.7093 eb=0.0000 ve=0.0000 vn=0.0000 vl=0.000 db=0.00
G1 E18.2823 F1800                       ; dt=0.172 restore de=4.2632@30.0(0.0<30.0>0.0) l=0.30x0.50x0.00 r=1.14
;00:00:32.048: pe=2.5218 eb=0.0320 ve=0.0000 vn=0.4323 vl=0.000 db=0.57
G1 X-65.29 Y56.44 E18.4516 F600         ; dt=0.292 draw dl=2.7@10(0<10>0) de=0.1693@0.62(0.0<0.62>0.0) l=0.30x0.50x1.00 r=(1.14<0.98>1.08)
;00:00:32.339: pe=2.5249 eb=0.0285 ve=0.0000 vn=0.4995 vl=0.000 db=0.54
G1 E14.2267 F2400                       ; dt=0.146 retract de=-4.2249@-40.0(0.0<-40.0>0.0) l=0.30x0.50x0.00 r=1.24
;00:00:32.485: pe=-1.7090 eb=0.0375 ve=0.0000 vn=0.0000 vl=0.000 db=0.62
G1 Z0.500 F420                          ; dt=0.029 hopup dz=0.20@7 l=0.50x0.50x0.00 r=0.96
;00:00:32.513: pe=-1.7090 eb=0.0375 ve=0.0000 vn=0.0000 vl=0.000 db=0.48
G1 X-66.29 Y55.57 F6000                 ; dt=0.109 move dl=1.3@100(0<18>0) l=0.50x0.50x0.00 r=(0.96<0.00>0.00)
;00:00:32.623: pe=-1.7090 eb=0.0000 ve=0.0000 vn=0.0000 vl=0.000 db=0.00
G1 Z0.300 F420                          ; dt=0.029 hopdn dz=-0.20@7 l=0.30x0.50x0.00 r=0.00
;00:00:32.651: pe=-1.7090 eb=0.0000 ve=0.0000 vn=0.0000 vl=0.000 db=0.00
G1 E18.5219 F1800                       ; dt=0.173 restore de=4.2952@30.0(0.0<30.0>0.0) l=0.30x0.50x0.00 r=1.16
;00:00:32.824: pe=2.5534 eb=0.0328 ve=0.0000 vn=0.4390 vl=0.000 db=0.58
G1 X-66.19 Y55.56 E18.5282 F600         ; dt=0.020 draw dl=0.1@10(0<10>10) de=0.0063@0.62(0.0<0.62>0.62) l=0.30x0.50x1.00 r=(1.16<1.31>1.17)
;00:00:32.844: pe=2.5515 eb=0.0335 ve=0.6236 vn=0.4244 vl=10.000 db=0.59
G1 X-66.10 Y55.56 E18.5338              ; dt=0.009 draw dl=0.1@10(10<10>10) de=0.0056@0.62(0.62<0.62>0.62) l=0.30x0.50x1.00 r=(1.17<0.71>1.13)
;00:00:32.853: pe=2.5531 eb=0.0311 ve=0.6236 vn=0.4690 vl=10.000 db=0.56
G1 X-65.84 Y55.62 E18.5504              ; dt=0.027 draw dl=0.3@10(10<10>10) de=0.0166@0.62(0.62<0.62>0.62) l=0.30x0.50x1.00 r=(1.13<0.82>1.05)
;00:00:32.880: pe=2.5560 eb=0.0268 ve=0.6236 vn=0.5516 vl=10.000 db=0.52
G1 X-65.63 Y55.78 E18.5669              ; dt=0.026 draw dl=0.3@10(10<10>10) de=0.0165@0.62(0.62<0.62>0.62) l=0.30x0.50x1.00 r=(1.05<0.92>1.01)
;00:00:32.907: pe=2.5574 eb=0.0250 ve=0.6236 vn=0.5882 vl=10.000 db=0.51
G1 X-65.45 Y56.06 E18.5876              ; dt=0.033 draw dl=0.3@10(10<10>10) de=0.0208@0.62(0.62<0.62>0.62) l=0.30x0.50x1.00 r=(1.01<0.96>0.99)
;00:00:32.940: pe=2.5582 eb=0.0241 ve=0.6236 vn=0.6059 vl=10.000 db=0.50
G1 X-65.29 Y56.44 E18.6134              ; dt=0.041 draw dl=0.4@10(10<10>10) de=0.0257@0.62(0.62<0.62>0.62) l=0.30x0.50x1.00 r=(0.99<0.98>0.99)
;00:00:32.981: pe=2.5588 eb=0.0239 ve=0.6236 vn=0.6124 vl=10.000 db=0.49
G1 X-64.41 Y58.89 E18.7757              ; dt=0.270 draw dl=2.6@10(10<10>0) de=0.1623@0.62(0.62<0.62>0.0) l=0.30x0.50x1.00 r=(0.99<1.02>1.09)
;00:00:33.251: pe=2.5557 eb=0.0291 ve=0.0000 vn=0.5066 vl=0.000 db=0.55
G1 E14.5200 F2400                       ; dt=0.146 retract de=-4.2557@-40.0(0.0<-40.0>0.0) l=0.30x0.50x0.00 r=1.25
;00:00:33.398: pe=-1.7092 eb=0.0384 ve=0.0000 vn=0.0000 vl=0.000 db=0.63
G1 Z0.500 F420                          ; dt=0.029 hopup dz=0.20@7 l=0.50x0.50x0.00 r=0.97
;00:00:33.426: pe=-1.7092 eb=0.0384 ve=0.0000 vn=0.0000 vl=0.000 db=0.48
G1 X-63.35 Y58.76 F6000                 ; dt=0.098 move dl=1.1@100(0<16>0) l=0.50x0.50x0.00 r=(0.97<0.00>0.00)
;00:00:33.524: pe=-1.7092 eb=0.0000 ve=0.0000 vn=0.0000 vl=0.000 db=0.00
G1 Z0.300 F420                          ; dt=0.029 hopdn dz=-0.20@7 l=0.30x0.50x0.00 r=0.00
;00:00:33.553: pe=-1.7092 eb=0.0000 ve=0.0000 vn=0.0000 vl=0.000 db=0.00
G1 E18.7708 F1800                       ; dt=0.172 restore de=4.2509@30.0(0.0<30.0>0.0) l=0.30x0.50x0.00 r=1.14
;00:00:33.725: pe=2.5099 eb=0.0318 ve=0.0000 vn=0.4298 vl=0.000 db=0.57
G1 X-63.35 Y56.48 E18.9130 F600         ; dt=0.248 draw dl=2.3@10(0<10>0) de=0.1422@0.62(0.0<0.62>0.0) l=0.30x0.50x1.00 r=(1.14<0.98>1.07)
;00:00:33.973: pe=2.5129 eb=0.0282 ve=0.0000 vn=0.4967 vl=0.000 db=0.54
G1 E14.7001 F2400                       ; dt=0.145 retract de=-4.2129@-40.0(0.0<-40.0>0.0) l=0.30x0.50x0.00 r=1.23
;00:00:34.118: pe=-1.7089 eb=0.0372 ve=0.0000 vn=0.0000 vl=0.000 db=0.62
G1 Z0.500 F420                          ; dt=0.029 hopup dz=0.20@7 l=0.50x0.50x0.00 r=0.95
;00:00:34.147: pe=-1.7089 eb=0.0372 ve=0.0000 vn=0.0000 vl=0.000 db=0.48
G1 X-63.35 Y57.89 F6000                 ; dt=0.113 move dl=1.4@100(0<19>0) l=0.50x0.50x0.00 r=(0.95<0.00>0.00)
;00:00:34.259: pe=-1.7089 eb=0.0000 ve=0.0000 vn=0.0000 vl=0.000 db=0.00
G1 Z0.300 F420                          ; dt=0.029 hopdn dz=-0.20@7 l=0.30x0.50x0.00 r=0.00
;00:00:34.288: pe=-1.7089 eb=0.0000 ve=0.0000 vn=0.0000 vl=0.000 db=0.00
G1 E18.9915 F1800                       ; dt=0.173 restore de=4.2914@30.0(0.0<30.0>0.0) l=0.30x0.50x0.00 r=1.16
;00:00:34.461: pe=2.5498 eb=0.0327 ve=0.0000 vn=0.4382 vl=0.000 db=0.58
G1 X-63.11 Y58.34 E19.0233 F600         ; dt=0.061 draw dl=0.5@10(0<10>10) de=0.0318@0.62(0.0<0.62>0.62) l=0.30x0.50x1.00 r=(1.16<0.91>1.03)
;00:00:34.522: pe=2.5527 eb=0.0262 ve=0.6236 vn=0.5608 vl=10.000 db=0.52
G1 X-62.92 Y58.67 E19.0471              ; dt=0.038 draw dl=0.4@10(10<10>10) de=0.0237@0.62(0.62<0.62>0.62) l=0.30x0.50x1.00 r=(1.03<0.94>1.00)
;00:00:34.560: pe=2.5543 eb=0.0244 ve=0.6236 vn=0.5988 vl=10.000 db=0.50
G1 X-62.70 Y58.86 E19.0652              ; dt=0.029 draw dl=0.3@10(10<10>10) de=0.0181@0.62(0.62<0.62>0.62) l=0.30x0.50x1.00 r=(1.00<0.97>0.99)
;00:00:34.589: pe=2.5548 eb=0.0239 ve=0.6236 vn=0.6081 vl=10.000 db=0.49
G1 X-62.49 Y58.93 E19.0790              ; dt=0.022 draw dl=0.2@10(10<10>10) de=0.0138@0.62(0.62<0.62>0.62) l=0.30x0.50x1.00 r=(0.99<0.98>0.99)
;00:00:34.611: pe=2.5552 eb=0.0238 ve=0.6236 vn=0.6110 vl=10.000 db=0.49
G1 X-62.28 Y58.95 E19.0921              ; dt=0.021 draw dl=0.2@10(10<10>10) de=0.0132@0.62(0.62<0.62>0.62) l=0.30x0.50x1.00 r=(0.99<0.98>0.98)
;00:00:34.632: pe=2.5554 eb=0.0237 ve=0.6236 vn=0.6124 vl=10.000 db=0.49
G1 X-61.95 Y58.88 E19.1132              ; dt=0.034 draw dl=0.3@10(10<10>10) de=0.0210@0.62(0.62<0.62>0.62) l=0.30x0.50x1.00 r=(0.98<0.98>0.98)
;00:00:34.666: pe=2.5558 eb=0.0237 ve=0.6236 vn=0.6133 vl=10.000 db=0.49
G1 X-61.77 Y58.73 E19.1278              ; dt=0.023 draw dl=0.2@10(10<10>10) de=0.0146@0.62(0.62<0.62>0.62) l=0.30x0.50x1.00 r=(0.98<0.98>0.98)
;00:00:34.689: pe=2.5560 eb=0.0237 ve=0.6236 vn=0.6135 vl=10.000 db=0.49
G1 X-61.67 Y58.40 E19.1493              ; dt=0.034 draw dl=0.3@10(10<10>10) de=0.0215@0.62(0.62<0.62>0.62) l=0.30x0.50x1.00 r=(0.98<0.98>0.98)
;00:00:34.724: pe=2.5564 eb=0.0237 ve=0.6236 vn=0.6137 vl=10.000 db=0.49
G1 X-61.61 Y58.08 E19.1696              ; dt=0.033 draw dl=0.3@10(10<10>10) de=0.0203@0.62(0.62<0.62>0.62) l=0.30x0.50x1.00 r=(0.98<0.98>0.98)
;00:00:34.756: pe=2.5567 eb=0.0237 ve=0.6236 vn=0.6138 vl=10.000 db=0.49
G1 X-61.61 Y56.48 E19.2694              ; dt=0.170 draw dl=1.6@10(10<10>0) de=0.0998@0.62(0.62<0.62>0.0) l=0.30x0.50x1.00 r=(0.98<1.04>1.09)
;00:00:34.926: pe=2.5528 eb=0.0291 ve=0.0000 vn=0.5059 vl=0.000 db=0.54
G1 E15.0166 F2400                       ; dt=0.146 retract de=-4.2528@-40.0(0.0<-40.0>0.0) l=0.30x0.50x0.00 r=1.25
;00:00:35.073: pe=-1.7092 eb=0.0383 ve=0.0000 vn=0.0000 vl=0.000 db=0.63
G1 Z0.500 F420                          ; dt=0.029 hopup dz=0.20@7 l=0.50x0.50x0.00 r=0.97
;00:00:35.101: pe=-1.7092 eb=0.0383 ve=0.0000 vn=0.0000 vl=0.000 db=0.48
G1 X-60.55 Y56.48 F6000                 ; dt=0.098 move dl=1.1@100(0<16>0) l=0.50x0.50x0.00 r=(0.97<0.00>0.00)
;00:00:35.199: pe=-1.7092 eb=0.0000 ve=0.0000 vn=0.0000 vl=0.000 db=0.00
G1 Z0.300 F420                          ; dt=0.029 hopdn dz=-0.20@7 l=0.30x0.50x0.00 r=0.00
;00:00:35.228: pe=-1.7092 eb=0.0000 ve=0.0000 vn=0.0000 vl=0.000 db=0.00
G1 E19.2717 F1800                       ; dt=0.172 restore de=4.2551@30.0(0.0<30.0>0.0) l=0.30x0.50x0.00 r=1.14
;00:00:35.399: pe=2.5140 eb=0.0319 ve=0.0000 vn=0.4306 vl=0.000 db=0.57
G1 X-60.55 Y58.89 E19.4220 F600         ; dt=0.261 draw dl=2.4@10(0<10>0) de=0.1503@0.62(0.0<0.62>0.0) l=0.30x0.50x1.00 r=(1.14<0.98>1.08)
;00:00:35.660: pe=2.5170 eb=0.0283 ve=0.0000 vn=0.4977 vl=0.000 db=0.54
G1 E15.2049 F2400                       ; dt=0.145 retract de=-4.2170@-40.0(0.0<-40.0>0.0) l=0.30x0.50x0.00 r=1.23
;00:00:35.806: pe=-1.7090 eb=0.0373 ve=0.0000 vn=0.0000 vl=0.000 db=0.62
G1 Z0.500 F420                          ; dt=0.029 hopup dz=0.20@7 l=0.50x0.50x0.00 r=0.96
;00:00:35.834: pe=-1.7090 eb=0.0373 ve=0.0000 vn=0.0000 vl=0.000 db=0.48
G1 X-60.55 Y58.20 F6000                 ; dt=0.079 move dl=0.7@100(0<13>0) l=0.50x0.50x0.00 r=(0.96<0.00>0.06)
;00:00:35.913: pe=-1.7090 eb=0.0002 ve=0.0000 vn=0.0000 vl=0.000 db=0.03
G1 Z0.300 F420                          ; dt=0.029 hopdn dz=-0.20@7 l=0.30x0.50x0.00 r=0.08
;00:00:35.942: pe=-1.7090 eb=0.0002 ve=0.0000 vn=0.0000 vl=0.000 db=0.04
G1 E19.4513 F1800                       ; dt=0.172 restore de=4.2464@30.0(0.0<30.0>0.0) l=0.30x0.50x0.00 r=1.14
;00:00:36.113: pe=2.5059 eb=0.0317 ve=0.0000 vn=0.4289 vl=0.000 db=0.57
G1 X-60.30 Y58.55 E19.4781 F600         ; dt=0.053 draw dl=0.4@10(0<10>10) de=0.0268@0.62(0.0<0.62>0.62) l=0.30x0.50x1.00 r=(1.14<0.89>1.03)
;00:00:36.166: pe=2.5087 eb=0.0260 ve=0.6236 vn=0.5368 vl=10.000 db=0.52
G1 X-60.09 Y58.76 E19.4966              ; dt=0.030 draw dl=0.3@10(10<10>10) de=0.0185@0.62(0.62<0.62>0.62) l=0.30x0.50x1.00 r=(1.03<0.90>0.99)
;00:00:36.196: pe=2.5106 eb=0.0240 ve=0.6236 vn=0.5789 vl=10.000 db=0.50
G1 X-59.89 Y58.88 E19.5112              ; dt=0.023 draw dl=0.2@10(10<10>10) de=0.0145@0.62(0.62<0.62>0.62) l=0.30x0.50x1.00 r=(0.99<0.94>0.98)
;00:00:36.219: pe=2.5115 eb=0.0234 ve=0.6237 vn=0.5924 vl=10.000 db=0.49
G1 X-59.70 Y58.94 E19.5236              ; dt=0.020 draw dl=0.2@10(10<10>10) de=0.0124@0.62(0.62<0.62>0.62) l=0.30x0.50x1.00 r=(0.98<0.95>0.97)
;00:00:36.239: pe=2.5121 eb=0.0231 ve=0.6236 vn=0.5979 vl=10.000 db=0.49
G1 X-59.54 Y58.95 E19.5336              ; dt=0.016 draw dl=0.2@10(10<10>10) de=0.0100@0.62(0.62<0.62>0.62) l=0.30x0.50x1.00 r=(0.97<0.96>0.97)
;00:00:36.255: pe=2.5124 eb=0.0230 ve=0.6237 vn=0.6003 vl=10.000 db=0.48
G1 X-59.49 Y58.95 E19.5367              ; dt=0.006 draw dl=0.1@10(10<10>7) de=0.0031@0.62(0.62<0.62>0.45) l=0.30x0.50x1.00 r=(0.97<1.12>0.98)
;00:00:36.261: pe=2.5121 eb=0.0235 ve=0.4453 vn=0.5907 vl=7.141 db=0.49
G1 X-59.44 Y58.94 E19.5399              ; dt=0.014 draw dl=0.1@10(7<7>0) de=0.0032@0.62(0.45<0.45>0.0) l=0.30x0.50x1.00 r=(0.98<2.48>1.07)
;00:00:36.275: pe=2.5074 eb=0.0282 ve=0.0000 vn=0.4939 vl=0.000 db=0.54
G1 E15.3325 F2400                       ; dt=0.145 retract de=-4.2074@-40.0(0.0<-40.0>0.0) l=0.30x0.50x0.00 r=1.23
;00:00:36.421: pe=-1.7089 eb=0.0371 ve=0.0000 vn=0.0000 vl=0.000 db=0.62
G1 Z0.500 F420                          ; dt=0.029 hopup dz=0.20@7 l=0.50x0.50x0.00 r=0.95
;00:00:36.449: pe=-1.7089 eb=0.0371 ve=0.0000 vn=0.0000 vl=0.000 db=0.48
G1 X-58.38 Y57.69 F6000                 ; dt=0.121 move dl=1.6@100(0<20>0) l=0.50x0.50x0.00 r=(0.95<0.00>0.00)
;00:00:36.571: pe=-1.7089 eb=0.0000 ve=0.0000 vn=0.0000 vl=0.000 db=0.00
G1 Z0.300 F420                          ; dt=0.029 hopdn dz=-0.20@7 l=0.30x0.50x0.00 r=0.00
;00:00:36.599: pe=-1.7089 eb=0.0000 ve=0.0000 vn=0.0000 vl=0.000 db=0.00
G1 E19.6448 F1800                       ; dt=0.174 restore de=4.3122@30.0(0.0<30.0>0.0) l=0.30x0.50x0.00 r=1.16
;00:00:36.773: pe=2.5702 eb=0.0332 ve=0.0000 vn=0.4426 vl=0.000 db=0.58
G1 X-56.24 Y57.69 E19.7782 F600         ; dt=0.224 draw dl=2.1@10(0<10>10) de=0.1335@0.62(0.0<0.62>0.6) l=0.30x0.50x1.00 r=(1.16<0.96>0.99)
;00:00:36.997: pe=2.5754 eb=0.0241 ve=0.6039 vn=0.6180 vl=9.683 db=0.50
G1 X-56.32 Y58.22 E19.8117              ; dt=0.054 draw dl=0.5@10(10<10>10) de=0.0334@0.62(0.6<0.62>0.62) l=0.30x0.50x1.00 r=(0.99<0.99>0.99)
;00:00:37.051: pe=2.5757 eb=0.0241 ve=0.6237 vn=0.6183 vl=10.000 db=0.50
G1 X-56.53 Y58.61 E19.8393              ; dt=0.044 draw dl=0.4@10(10<10>10) de=0.0276@0.62(0.62<0.62>0.62) l=0.30x0.50x1.00 r=(0.99<0.99>0.99)
;00:00:37.095: pe=2.5760 eb=0.0241 ve=0.6236 vn=0.6184 vl=10.000 db=0.50
G1 X-56.87 Y58.86 E19.8656              ; dt=0.042 draw dl=0.4@10(10<10>10) de=0.0263@0.62(0.62<0.62>0.62) l=0.30x0.50x1.00 r=(0.99<0.99>0.99)
;00:00:37.137: pe=2.5762 eb=0.0241 ve=0.6236 vn=0.6185 vl=10.000 db=0.50
G1 X-57.31 Y58.95 E19.8936              ; dt=0.045 draw dl=0.4@10(10<10>10) de=0.0280@0.62(0.62<0.62>0.62) l=0.30x0.50x1.00 r=(0.99<0.99>0.99)
;00:00:37.182: pe=2.5764 eb=0.0241 ve=0.6237 vn=0.6185 vl=10.000 db=0.50
G1 X-57.74 Y58.86 E19.9210              ; dt=0.044 draw dl=0.4@10(10<10>10) de=0.0274@0.62(0.62<0.62>0.62) l=0.30x0.50x1.00 r=(0.99<0.99>0.99)
;00:00:37.226: pe=2.5766 eb=0.0241 ve=0.6236 vn=0.6186 vl=10.000 db=0.50
G1 X-58.08 Y58.61 E19.9473              ; dt=0.042 draw dl=0.4@10(10<10>10) de=0.0263@0.62(0.62<0.62>0.62) l=0.30x0.50x1.00 r=(0.99<0.99>0.99)
;00:00:37.268: pe=2.5768 eb=0.0241 ve=0.6236 vn=0.6187 vl=10.000 db=0.50
G1 X-58.30 Y58.22 E19.9753              ; dt=0.045 draw dl=0.4@10(10<10>10) de=0.0279@0.62(0.62<0.62>0.62) l=0.30x0.50x1.00 r=(0.99<0.99>0.99)
;00:00:37.313: pe=2.5771 eb=0.0241 ve=0.6236 vn=0.6187 vl=10.000 db=0.50
G1 X-58.38 Y57.69 E20.0087              ; dt=0.054 draw dl=0.5@10(10<10>10) de=0.0334@0.62(0.62<0.62>0.62) l=0.30x0.50x1.00 r=(0.99<0.99>0.99)
;00:00:37.366: pe=2.5773 eb=0.0241 ve=0.6237 vn=0.6188 vl=10.000 db=0.50
G1 X-58.30 Y57.15 E20.0427              ; dt=0.055 draw dl=0.5@10(10<10>10) de=0.0340@0.62(0.62<0.62>0.62) l=0.30x0.50x1.00 r=(0.99<0.99>0.99)
;00:00:37.421: pe=2.5776 eb=0.0241 ve=0.6237 vn=0.6188 vl=10.000 db=0.50
G1 X-58.07 Y56.75 E20.0715              ; dt=0.046 draw dl=0.5@10(10<10>10) de=0.0288@0.62(0.62<0.62>0.62) l=0.30x0.50x1.00 r=(0.99<0.99>0.99)
;00:00:37.467: pe=2.5778 eb=0.0241 ve=0.6237 vn=0.6189 vl=10.000 db=0.50
G1 X-57.72 Y56.51 E20.0980              ; dt=0.042 draw dl=0.4@10(10<10>10) de=0.0265@0.62(0.62<0.62>0.62) l=0.30x0.50x1.00 r=(0.99<0.99>0.99)
;00:00:37.510: pe=2.5780 eb=0.0241 ve=0.6237 vn=0.6189 vl=10.000 db=0.50
G1 X-57.26 Y56.42 E20.1272              ; dt=0.047 draw dl=0.5@10(10<10>10) de=0.0292@0.62(0.62<0.62>0.62) l=0.30x0.50x1.00 r=(0.99<0.99>0.99)
;00:00:37.556: pe=2.5782 eb=0.0241 ve=0.6237 vn=0.6190 vl=10.000 db=0.50
G1 X-56.92 Y56.47 E20.1486              ; dt=0.034 draw dl=0.3@10(10<10>10) de=0.0214@0.62(0.62<0.62>0.62) l=0.30x0.50x1.00 r=(0.99<0.99>0.99)
;00:00:37.591: pe=2.5784 eb=0.0241 ve=0.6236 vn=0.6190 vl=10.000 db=0.50
G1 X-56.63 Y56.61 E20.1687              ; dt=0.032 draw dl=0.3@10(10<10>10) de=0.0201@0.62(0.62<0.62>0.62) l=0.30x0.50x1.00 r=(0.99<0.99>0.99)
;00:00:37.623: pe=2.5785 eb=0.0241 ve=0.6236 vn=0.6191 vl=10.000 db=0.50
G1 X-56.42 Y56.83 E20.1877              ; dt=0.030 draw dl=0.3@10(10<10>10) de=0.0190@0.62(0.62<0.62>0.62) l=0.30x0.50x1.00 r=(0.99<0.99>0.99)
;00:00:37.653: pe=2.5787 eb=0.0241 ve=0.6236 vn=0.6191 vl=10.000 db=0.50
G1 X-56.30 Y57.13 E20.2078              ; dt=0.042 draw dl=0.3@10(10<10>0) de=0.0202@0.62(0.62<0.62>0.0) l=0.30x0.50x1.00 r=(0.99<1.26>1.10)
;00:00:37.696: pe=2.5733 eb=0.0295 ve=0.0000 vn=0.5107 vl=0.000 db=0.55
G1 E15.9345 F2400                       ; dt=0.147 retract de=-4.2733@-40.0(0.0<-40.0>0.0) l=0.30x0.50x0.00 r=1.26
;00:00:37.843: pe=-1.7093 eb=0.0389 ve=0.0000 vn=0.0000 vl=0.000 db=0.63
G1 Z0.500 F420                          ; dt=0.029 hopup dz=0.20@7 l=0.50x0.50x0.00 r=0.98
;00:00:37.871: pe=-1.7093 eb=0.0389 ve=0.0000 vn=0.0000 vl=0.000 db=0.49
G1 X-53.99 Y56.46 F6000                 ; dt=0.147 move dl=2.4@100(0<25>0) l=0.50x0.50x0.00 r=(0.98<0.00>0.00)
;00:00:38.018: pe=-1.7093 eb=0.0000 ve=0.0000 vn=0.0000 vl=0.000 db=0.00
G1 Z0.300 F420                          ; dt=0.029 hopdn dz=-0.20@7 l=0.30x0.50x0.00 r=0.00
;00:00:38.047: pe=-1.7093 eb=0.0000 ve=0.0000 vn=0.0000 vl=0.000 db=0.00
G1 E20.2214 F1800                       ; dt=0.173 restore de=4.2869@30.0(0.0<30.0>0.0) l=0.30x0.50x0.00 r=1.15
;00:00:38.220: pe=2.5450 eb=0.0326 ve=0.0000 vn=0.4372 vl=0.000 db=0.58
G1 X-54.14 Y56.45 E20.2307 F600         ; dt=0.025 draw dl=0.2@10(0<10>10) de=0.0094@0.62(0.0<0.62>0.62) l=0.30x0.50x1.00 r=(1.15<1.10>1.14)
;00:00:38.245: pe=2.5440 eb=0.0319 ve=0.6236 vn=0.4488 vl=10.000 db=0.57
G1 X-54.32 Y56.50 E20.2424              ; dt=0.019 draw dl=0.2@10(10<10>10) de=0.0117@0.62(0.62<0.62>0.62) l=0.30x0.50x1.00 r=(1.14<0.78>1.07)
;00:00:38.263: pe=2.5466 eb=0.0281 ve=0.6236 vn=0.5205 vl=10.000 db=0.54
G1 X-54.48 Y56.62 E20.2549              ; dt=0.020 draw dl=0.2@10(10<10>10) de=0.0125@0.62(0.62<0.62>0.62) l=0.30x0.50x1.00 r=(1.07<0.87>1.03)
;00:00:38.283: pe=2.5482 eb=0.0259 ve=0.6236 vn=0.5644 vl=10.000 db=0.51
G1 X-54.60 Y56.81 E20.2689              ; dt=0.022 draw dl=0.2@10(10<10>10) de=0.0140@0.62(0.62<0.62>0.62) l=0.30x0.50x1.00 r=(1.03<0.93>1.00)
;00:00:38.306: pe=2.5492 eb=0.0247 ve=0.6236 vn=0.5898 vl=10.000 db=0.50
G1 X-54.68 Y57.19 E20.2931              ; dt=0.039 draw dl=0.4@10(10<10>10) de=0.0242@0.62(0.62<0.62>0.62) l=0.30x0.50x1.00 r=(1.00<0.96>0.99)
;00:00:38.345: pe=2.5501 eb=0.0239 ve=0.6236 vn=0.6064 vl=10.000 db=0.49
G1 X-54.68 Y59.52 E20.4384              ; dt=0.243 draw dl=2.3@10(10<10>0) de=0.1453@0.62(0.62<0.62>0.0) l=0.30x0.50x1.00 r=(0.99<1.02>1.09)
;00:00:38.588: pe=2.5474 eb=0.0290 ve=0.0000 vn=0.5047 vl=0.000 db=0.54
G1 E16.1910 F2400                       ; dt=0.146 retract de=-4.2474@-40.0(0.0<-40.0>0.0) l=0.30x0.50x0.00 r=1.25
;00:00:38.734: pe=-1.7092 eb=0.0381 ve=0.0000 vn=0.0000 vl=0.000 db=0.62
G1 Z0.500 F420                          ; dt=0.029 hopup dz=0.20@7 l=0.50x0.50x0.00 r=0.97
;00:00:38.763: pe=-1.7092 eb=0.0381 ve=0.0000 vn=0.0000 vl=0.000 db=0.48
G1 X-55.18 Y58.76 F6000                 ; dt=0.090 move dl=0.9@100(0<15>0) l=0.50x0.50x0.00 r=(0.97<0.00>0.00)
;00:00:38.853: pe=-1.7092 eb=0.0000 ve=0.0000 vn=0.0000 vl=0.000 db=0.00
G1 Z0.300 F420                          ; dt=0.029 hopdn dz=-0.20@7 l=0.30x0.50x0.00 r=0.00
;00:00:38.882: pe=-1.7092 eb=0.0000 ve=0.0000 vn=0.0000 vl=0.000 db=0.00
G1 E20.3665 F1800                       ; dt=0.169 restore de=4.1755@30.0(0.0<30.0>0.0) l=0.30x0.50x0.00 r=1.11
;00:00:39.051: pe=2.4363 eb=0.0301 ve=0.0000 vn=0.4142 vl=0.000 db=0.55
G1 X-54.10 Y58.76 E20.4339 F600         ; dt=0.128 draw dl=1.1@10(0<10>0) de=0.0674@0.62(0.0<0.62>0.0) l=0.30x0.50x1.00 r=(1.11<0.96>1.05)
;00:00:39.179: pe=2.4388 eb=0.0270 ve=0.0000 vn=0.4751 vl=0.000 db=0.52
G1 E16.2951 F2400                       ; dt=0.143 retract de=-4.1388@-40.0(0.0<-40.0>0.0) l=0.30x0.50x0.00 r=1.20
;00:00:39.322: pe=-1.7084 eb=0.0353 ve=0.0000 vn=0.0000 vl=0.000 db=0.60
G1 Z0.500 F420                          ; dt=0.029 hopup dz=0.20@7 l=0.50x0.50x0.00 r=0.93
;00:00:39.351: pe=-1.7084 eb=0.0353 ve=0.0000 vn=0.0000 vl=0.000 db=0.47
G1 X-52.92 Y58.26 F6000                 ; dt=0.107 move dl=1.3@100(0<18>0) l=0.50x0.50x0.00 r=(0.93<0.00>0.00)
;00:00:39.458: pe=-1.7084 eb=0.0000 ve=0.0000 vn=0.0000 vl=0.000 db=0.00
G1 Z0.300 F420                          ; dt=0.029 hopdn dz=-0.20@7 l=0.30x0.50x0.00 r=0.00
;00:00:39.487: pe=-1.7084 eb=0.0000 ve=0.0000 vn=0.0000 vl=0.000 db=0.00
G1 E20.5201 F1800                       ; dt=0.171 restore de=4.2250@30.0(0.0<30.0>0.0) l=0.30x0.50x0.00 r=1.13
;00:00:39.658: pe=2.4855 eb=0.0312 ve=0.0000 vn=0.4246 vl=0.000 db=0.56
G1 X-51.23 Y58.26 E20.6255 F600         ; dt=0.189 draw dl=1.7@10(0<10>0) de=0.1054@0.62(0.0<0.62>0.0) l=0.30x0.50x1.00 r=(1.13<0.97>1.06)
;00:00:39.847: pe=2.4883 eb=0.0278 ve=0.0000 vn=0.4905 vl=0.000 db=0.53
G1 E16.4372 F2400                       ; dt=0.145 retract de=-4.1883@-40.0(0.0<-40.0>0.0) l=0.30x0.50x0.00 r=1.22
;00:00:39.991: pe=-1.7088 eb=0.0365 ve=0.0000 vn=0.0000 vl=0.000 db=0.61
G1 Z0.500 F420                          ; dt=0.029 hopup dz=0.20@7 l=0.50x0.50x0.00 r=0.95
;00:00:40.020: pe=-1.7088 eb=0.0365 ve=0.0000 vn=0.0000 vl=0.000 db=0.47
G1 X-51.23 Y57.55 F6000                 ; dt=0.080 move dl=0.7@100(0<13>0) l=0.50x0.50x0.00 r=(0.95<0.00>0.02)
;00:00:40.100: pe=-1.7088 eb=0.0000 ve=0.0000 vn=0.0000 vl=0.000 db=0.01
G1 Z0.300 F420                          ; dt=0.029 hopdn dz=-0.20@7 l=0.30x0.50x0.00 r=0.03
;00:00:40.128: pe=-1.7088 eb=0.0000 ve=0.0000 vn=0.0000 vl=0.000 db=0.01
G1 E20.6626 F1800                       ; dt=0.171 restore de=4.2255@30.0(0.0<30.0>0.0) l=0.30x0.50x0.00 r=1.13
;00:00:40.299: pe=2.4855 eb=0.0312 ve=0.0000 vn=0.4246 vl=0.000 db=0.56
G1 X-52.92 Y57.55 E20.7680 F600         ; dt=0.189 draw dl=1.7@10(0<10>0) de=0.1054@0.62(0.0<0.62>0.0) l=0.30x0.50x1.00 r=(1.13<0.97>1.06)
;00:00:40.488: pe=2.4884 eb=0.0278 ve=0.0000 vn=0.4905 vl=0.000 db=0.53
G1 E16.5797 F2400                       ; dt=0.145 retract de=-4.1884@-40.0(0.0<-40.0>0.0) l=0.30x0.50x0.00 r=1.22
;00:00:40.633: pe=-1.7088 eb=0.0365 ve=0.0000 vn=0.0000 vl=0.000 db=0.61
G1 Z0.500 F420                          ; dt=0.029 hopup dz=0.20@7 l=0.50x0.50x0.00 r=0.95
;00:00:40.662: pe=-1.7088 eb=0.0365 ve=0.0000 vn=0.0000 vl=0.000 db=0.47
G1 X-48.95 Y59.94 F6000                 ; dt=0.204 move dl=4.6@100(0<34>0) l=0.50x0.50x0.00 r=(0.95<0.00>0.00)
;00:00:40.866: pe=-1.7088 eb=0.0000 ve=0.0000 vn=0.0000 vl=0.000 db=0.00
G1 Z0.300 F420                          ; dt=0.029 hopdn dz=-0.20@7 l=0.30x0.50x0.00 r=0.00
;00:00:40.894: pe=-1.7088 eb=0.0000 ve=0.0000 vn=0.0000 vl=0.000 db=0.00
G1 E20.8930 F1800                       ; dt=0.174 restore de=4.3133@30.0(0.0<30.0>0.0) l=0.30x0.50x0.00 r=1.16
;00:00:41.068: pe=2.5714 eb=0.0332 ve=0.0000 vn=0.4428 vl=0.000 db=0.58
G1 X-48.44 Y59.80 E20.9260 F600         ; dt=0.063 draw dl=0.5@10(0<10>10) de=0.0330@0.62(0.0<0.62>0.62) l=0.30x0.50x1.00 r=(1.16<0.91>1.04)
;00:00:41.131: pe=2.5742 eb=0.0265 ve=0.6236 vn=0.5682 vl=10.000 db=0.52
G1 X-48.05 Y59.42 E20.9599              ; dt=0.054 draw dl=0.5@10(10<10>10) de=0.0340@0.62(0.62<0.62>0.62) l=0.30x0.50x1.00 r=(1.04<0.95>1.00)
;00:00:41.185: pe=2.5758 eb=0.0245 ve=0.6236 vn=0.6104 vl=10.000 db=0.50
G1 X-47.81 Y58.86 E20.9979              ; dt=0.061 draw dl=0.6@10(10<10>10) de=0.0380@0.62(0.62<0.62>0.62) l=0.30x0.50x1.00 r=(1.00<0.99>0.99)
;00:00:41.246: pe=2.5763 eb=0.0241 ve=0.6236 vn=0.6175 vl=10.000 db=0.50
G1 X-47.73 Y58.18 E21.0406              ; dt=0.068 draw dl=0.7@10(10<10>10) de=0.0427@0.62(0.62<0.62>0.62) l=0.30x0.50x1.00 r=(0.99<0.99>0.99)
;00:00:41.315: pe=2.5767 eb=0.0241 ve=0.6236 vn=0.6185 vl=10.000 db=0.50
G1 X-47.81 Y57.51 E21.0827              ; dt=0.067 draw dl=0.7@10(10<10>10) de=0.0421@0.62(0.62<0.62>0.62) l=0.30x0.50x1.00 r=(0.99<0.99>0.99)
;00:00:41.382: pe=2.5770 eb=0.0241 ve=0.6236 vn=0.6187 vl=10.000 db=0.50
G1 X-48.05 Y56.95 E21.1207              ; dt=0.061 draw dl=0.6@10(10<10>10) de=0.0380@0.62(0.62<0.62>0.62) l=0.30x0.50x1.00 r=(0.99<0.99>0.99)
;00:00:41.443: pe=2.5773 eb=0.0241 ve=0.6236 vn=0.6188 vl=10.000 db=0.50
G1 X-48.44 Y56.56 E21.1551              ; dt=0.055 draw dl=0.6@10(10<10>10) de=0.0344@0.62(0.62<0.62>0.62) l=0.30x0.50x1.00 r=(0.99<0.99>0.99)
;00:00:41.498: pe=2.5776 eb=0.0241 ve=0.6236 vn=0.6188 vl=10.000 db=0.50
G1 X-48.95 Y56.42 E21.1881              ; dt=0.053 draw dl=0.5@10(10<10>10) de=0.0330@0.62(0.62<0.62>0.62) l=0.30x0.50x1.00 r=(0.99<0.99>0.99)
;00:00:41.551: pe=2.5778 eb=0.0241 ve=0.6236 vn=0.6189 vl=10.000 db=0.50
G1 X-49.47 Y56.56 E21.2217              ; dt=0.054 draw dl=0.5@10(10<10>10) de=0.0336@0.62(0.62<0.62>0.62) l=0.30x0.50x1.00 r=(0.99<0.99>0.99)
;00:00:41.605: pe=2.5781 eb=0.0241 ve=0.6236 vn=0.6189 vl=10.000 db=0.50
G1 X-49.85 Y56.95 E21.2556              ; dt=0.054 draw dl=0.5@10(10<10>10) de=0.0340@0.62(0.62<0.62>0.62) l=0.30x0.50x1.00 r=(0.99<0.99>0.99)
;00:00:41.660: pe=2.5783 eb=0.0241 ve=0.6236 vn=0.6190 vl=10.000 db=0.50
G1 X-50.09 Y57.51 E21.2936              ; dt=0.061 draw dl=0.6@10(10<10>10) de=0.0380@0.62(0.62<0.62>0.62) l=0.30x0.50x1.00 r=(0.99<0.99>0.99)
;00:00:41.721: pe=2.5786 eb=0.0241 ve=0.6236 vn=0.6191 vl=10.000 db=0.50
G1 X-50.17 Y58.18 E21.3357              ; dt=0.067 draw dl=0.7@10(10<10>10) de=0.0421@0.62(0.62<0.62>0.62) l=0.30x0.50x1.00 r=(0.99<0.99>0.99)
;00:00:41.788: pe=2.5789 eb=0.0241 ve=0.6236 vn=0.6191 vl=10.000 db=0.50
G1 X-50.09 Y58.85 E21.3778              ; dt=0.067 draw dl=0.7@10(10<10>10) de=0.0421@0.62(0.62<0.62>0.62) l=0.30x0.50x1.00 r=(0.99<0.99>0.99)
;00:00:41.855: pe=2.5792 eb=0.0241 ve=0.6236 vn=0.6192 vl=10.000 db=0.50
G1 X-49.85 Y59.42 E21.4164              ; dt=0.062 draw dl=0.6@10(10<10>10) de=0.0386@0.62(0.62<0.62>0.62) l=0.30x0.50x1.00 r=(0.99<0.99>0.99)
;00:00:41.917: pe=2.5795 eb=0.0241 ve=0.6236 vn=0.6193 vl=10.000 db=0.50
G1 X-49.47 Y59.80 E21.4499              ; dt=0.054 draw dl=0.5@10(10<10>10) de=0.0335@0.62(0.62<0.62>0.62) l=0.30x0.50x1.00 r=(0.99<0.99>0.99)
;00:00:41.971: pe=2.5797 eb=0.0241 ve=0.6236 vn=0.6193 vl=10.000 db=0.50
G1 X-48.95 Y59.94 E21.4835              ; dt=0.064 draw dl=0.5@10(10<10>0) de=0.0336@0.62(0.62<0.62>0.0) l=0.30x0.50x1.00 r=(0.99<1.16>1.10)
;00:00:42.035: pe=2.5745 eb=0.0295 ve=0.0000 vn=0.5109 vl=0.000 db=0.55
G1 E17.2090 F2400                       ; dt=0.147 retract de=-4.2745@-40.0(0.0<-40.0>0.0) l=0.30x0.50x0.00 r=1.26
;00:00:42.182: pe=-1.7094 eb=0.0389 ve=0.0000 vn=0.0000 vl=0.000 db=0.63
G1 Z0.500 F420                          ; dt=0.029 hopup dz=0.20@7 l=0.50x0.50x0.00 r=0.98
;00:00:42.210: pe=-1.7094 eb=0.0389 ve=0.0000 vn=0.0000 vl=0.000 db=0.49
;structure:shell-outer
G1 X70.00 Y0.00 F6000                   ; dt=1.532 move dl=133.2@100(0<100>0) l=0.50x0.50x0.00 r=(0.98<0.00>0.00)
;00:00:43.742: pe=-1.7094 eb=0.0000 ve=0.0000 vn=0.0000 vl=0.000 db=0.00
G1 Z0.300 F420                          ; dt=0.029 hopdn dz=-0.20@7 l=0.30x0.50x0.00 r=0.00
;00:00:43.771: pe=-1.7094 eb=0.0000 ve=0.0000 vn=0.0000 vl=0.000 db=0.00
G1 E21.5326 F1800                       ; dt=0.174 restore de=4.3236@30.0(0.0<30.0>0.0) l=0.30x0.50x0.00 r=1.17
;00:00:43.945: pe=2.5808 eb=0.0334 ve=0.0000 vn=0.4448 vl=0.000 db=0.58
;00:00:43.945: spiral RC0=(70.0,0.000) dRC=(0.0,1.000) dl=439.8@10 de=27.429@0.6 l=0.30x0.50x1.00
G1 X69.73 Y6.10 E21.9134 F600           ; dt=0.621 draw dl=6.1@10(0<10>10) de=0.3808@0.62(0.0<0.62>0.62) l=0.30x0.50x1.00 r=(1.17<0.98>1.00)
;00:00:44.566: pe=2.5867 eb=0.0243 ve=0.6236 vn=0.6210 vl=10.000 db=0.50
G1 X68.94 Y12.16 E22.2943               ; dt=0.611 draw dl=6.1@10(10<10>10) de=0.3808@0.62(0.62<0.62>0.62) l=0.30x0.50x1.00 r=(1.00<1.00>1.00)
;00:00:45.176: pe=2.5882 eb=0.0243 ve=0.6236 vn=0.6213 vl=10.000 db=0.50
G1 X67.61 Y18.12 E22.6751               ; dt=0.611 draw dl=6.1@10(10<10>10) de=0.3808@0.62(0.62<0.62>0.62) l=0.30x0.50x1.00 r=(1.00<1.00>1.00)
;00:00:45.787: pe=2.5895 eb=0.0243 ve=0.6236 vn=0.6217 vl=10.000 db=0.50
G1 X65.78 Y23.94 E23.0559               ; dt=0.611 draw dl=6.1@10(10<10>10) de=0.3808@0.62(0.62<0.62>0.62) l=0.30x0.50x1.00 r=(1.00<1.00>1.00)
;00:00:46.398: pe=2.5906 eb=0.0244 ve=0.6236 vn=0.6219 vl=10.000 db=0.50
G1 X63.44 Y29.58 E23.4368               ; dt=0.611 draw dl=6.1@10(10<10>10) de=0.3808@0.62(0.62<0.62>0.62) l=0.30x0.50x1.00 r=(1.00<1.00>1.00)
;00:00:47.008: pe=2.5916 eb=0.0244 ve=0.6236 vn=0.6221 vl=10.000 db=0.50
G1 X60.62 Y35.00 E23.8176               ; dt=0.611 draw dl=6.1@10(10<10>10) de=0.3808@0.62(0.62<0.62>0.62) l=0.30x0.50x1.00 r=(1.00<1.00>1.00)
;00:00:47.619: pe=2.5924 eb=0.0244 ve=0.6236 vn=0.6223 vl=10.000 db=0.50
G1 X57.34 Y40.15 E24.1984               ; dt=0.611 draw dl=6.1@10(10<10>10) de=0.3808@0.62(0.62<0.62>0.62) l=0.30x0.50x1.00 r=(1.00<1.00>1.00)
;00:00:48.230: pe=2.5931 eb=0.0244 ve=0.6236 vn=0.6225 vl=10.000 db=0.50
G1 X53.62 Y45.00 E24.5793               ; dt=0.611 draw dl=6.1@10(10<10>10) de=0.3808@0.62(0.62<0.62>0.62) l=0.30x0.50x1.00 r=(1.00<1.00>1.00)
;00:00:48.840: pe=2.5938 eb=0.0244 ve=0.6236 vn=0.6227 vl=10.000 db=0.50
G1 X49.50 Y49.50 E24.9601               ; dt=0.611 draw dl=6.1@10(10<10>10) de=0.3808@0.62(0.62<0.62>0.62) l=0.30x0.50x1.00 r=(1.00<1.00>1.00)
;00:00:49.451: pe=2.5943 eb=0.0244 ve=0.6236 vn=0.6228 vl=10.000 db=0.50
G1 X45.00 Y53.62 E25.3409               ; dt=0.611 draw dl=6.1@10(10<10>10) de=0.3808@0.62(0.62<0.62>0.62) l=0.30x0.50x1.00 r=(1.00<1.00>1.00)
;00:00:50.062: pe=2.5948 eb=0.0244 ve=0.6236 vn=0.6229 vl=10.000 db=0.50
G1 X40.15 Y57.34 E25.7218               ; dt=0.611 draw dl=6.1@10(10<10>10) de=0.3808@0.62(0.62<0.62>0.62) l=0.30x0.50x1.00 r=(1.00<1.00>1.00)
;00:00:50.672: pe=2.5952 eb=0.0244 ve=0.6236 vn=0.6230 vl=10.000 db=0.50
G1 X35.00 Y60.62 E26.1026               ; dt=0.611 draw dl=6.1@10(10<10>10) de=0.3808@0.62(0.62<0.62>0.62) l=0.30x0.50x1.00 r=(1.00<1.00>1.00)
;00:00:51.283: pe=2.5955 eb=0.0244 ve=0.6236 vn=0.6231 vl=10.000 db=0.50
G1 X29.58 Y63.44 E26.4834               ; dt=0.611 draw dl=6.1@10(10<10>10) de=0.3808@0.62(0.62<0.62>0.62) l=0.30x0.50x1.00 r=(1.00<1.00>1.00)
;00:00:51.894: pe=2.5959 eb=0.0245 ve=0.6236 vn=0.6232 vl=10.000 db=0.50
G1 X23.94 Y65.78 E26.8642               ; dt=0.611 draw dl=6.1@10(10<10>10) de=0.3808@0.62(0.62<0.62>0.62) l=0.30x0.50x1.00 r=(1.00<1.00>1.00)
;00:00:52.504: pe=2.5961 eb=0.0245 ve=0.6236 vn=0.6232 vl=10.000 db=0.50
G1 X18.12 Y67.61 E27.2451               ; dt=0.611 draw dl=6.1@10(10<10>10) de=0.3808@0.62(0.62<0.62>0.62) l=0.30x0.50x1.00 r=(1.00<1.00>1.00)
;00:00:53.115: pe=2.5963 eb=0.0245 ve=0.6236 vn=0.6233 vl=10.000 db=0.50
G1 X12.16 Y68.94 E27.6259               ; dt=0.611 draw dl=6.1@10(10<10>10) de=0.3808@0.62(0.62<0.62>0.62) l=0.30x0.50x1.00 r=(1.00<1.00>1.00)
;00:00:53.726: pe=2.5965 eb=0.0245 ve=0.6236 vn=0.6233 vl=10.000 db=0.50
G1 X6.10 Y69.73 E28.0067                ; dt=0.611 draw dl=6.1@10(10<10>10) de=0.3808@0.62(0.62<0.62>0.62) l=0.30x0.50x1.00 r=(1.00<1.00>1.00)
;00:00:54.336: pe=2.5967 eb=0.0245 ve=0.6236 vn=0.6234 vl=10.000 db=0.50
G1 X0.00 Y70.00 E28.3876                ; dt=0.611 draw dl=6.1@10(10<10>10) de=0.3808@0.62(0.62<0.62>0.62) l=0.30x0.50x1.00 r=(1.00<1.00>1.00)
;00:00:54.947: pe=2.5969 eb=0.0245 ve=0.6236 vn=0.6234 vl=10.000 db=0.50
G1 X-6.10 Y69.73 E28.7684               ; dt=0.611 draw dl=6.1@10(10<10>10) de=0.3808@0.62(0.62<0.62>0.62) l=0.30x0.50x1.00 r=(1.00<1.00>1.00)
;00:00:55.558: pe=2.5970 eb=0.0245 ve=0.6236 vn=0.6234 vl=10.000 db=0.50
G1 X-12.16 Y68.94 E29.1492              ; dt=0.611 draw dl=6.1@10(10<10>10) de=0.3808@0.62(0.62<0.62>0.62) l=0.30x0.50x1.00 r=(1.00<1.00>1.00)
;00:00:56.168: pe=2.5971 eb=0.0245 ve=0.6236 vn=0.6235 vl=10.000 db=0.50
G1 X-18.12 Y67.61 E29.5301              ; dt=0.611 draw dl=6.1@10(10<10>10) de=0.3808@0.62(0.62<0.62>0.62) l=0.30x0.50x1.00 r=(1.00<1.00>1.00)
;00:00:56.779: pe=2.5972 eb=0.0245 ve=0.6236 vn=0.6235 vl=10.000 db=0.50
G1 X-23.94 Y65.78 E29.9109              ; dt=0.611 draw dl=6.1@10(10<10>10) de=0.3808@0.62(0.62<0.62>0.62) l=0.30x0.50x1.00 r=(1.00<1.00>1.00)
;00:00:57.390: pe=2.5973 eb=0.0245 ve=0.6236 vn=0.6235 vl=10.000 db=0.50
G1 X-29.58 Y63.44 E30.2917              ; dt=0.611 draw dl=6.1@10(10<10>10) de=0.3808@0.62(0.62<0.62>0.62) l=0.30x0.50x1.00 r=(1.00<1.00>1.00)
;00:00:58.000: pe=2.5973 eb=0.0245 ve=0.6236 vn=0.6235 vl=10.000 db=0.50
G1 X-35.00 Y60.62 E30.6726              ; dt=0.611 draw dl=6.1@10(10<10>10) de=0.3808@0.62(0.62<0.62>0.62) l=0.30x0.50x1.00 r=(1.00<1.00>1.00)
;00:00:58.611: pe=2.5974 eb=0.0245 ve=0.6236 vn=0.6235 vl=10.000 db=0.50
G1 X-40.15 Y57.34 E31.0534              ; dt=0.611 draw dl=6.1@10(10<10>10) de=0.3808@0.62(0.62<0.62>0.62) l=0.30x0.50x1.00 r=(1.00<1.00>1.00)
;00:00:59.222: pe=2.5975 eb=0.0245 ve=0.6236 vn=0.6235 vl=10.000 db=0.50
G1 X-45.00 Y53.62 E31.4342              ; dt=0.611 draw dl=6.1@10(10<10>10) de=0.3808@0.62(0.62<0.62>0.62) l=0.30x0.50x1.00 r=(1.00<1.00>1.00)
;00:00:59.832: pe=2.5975 eb=0.0245 ve=0.6236 vn=0.6236 vl=10.000 db=0.50
G1 X-49.50 Y49.50 E31.8151              ; dt=0.611 draw dl=6.1@10(10<10>10) de=0.3808@0.62(0.62<0.62>0.62) l=0.30x0.50x1.00 r=(1.00<1.00>1.00)
;00:01:00.443: pe=2.5975 eb=0.0245 ve=0.6236 vn=0.6236 vl=10.000 db=0.50
G1 X-53.62 Y45.00 E32.1959              ; dt=0.611 draw dl=6.1@10(10<10>10) de=0.3808@0.62(0.62<0.62>0.62) l=0.30x0.50x1.00 r=(1.00<1.00>1.00)
;00:01:01.054: pe=2.5976 eb=0.0245 ve=0.6236 vn=0.6236 vl=10.000 db=0.50
G1 X-57.34 Y40.15 E32.5767              ; dt=0.611 draw dl=6.1@10(10<10>10) de=0.3808@0.62(0.62<0.62>0.62) l=0.30x0.50x1.00 r=(1.00<1.00>1.00)
;00:01:01.664: pe=2.5976 eb=0.0245 ve=0.6236 vn=0.6236 vl=10.000 db=0.50
G1 X-60.62 Y35.00 E32.9576              ; dt=0.611 draw dl=6.1@10(10<10>10) de=0.3808@0.62(0.62<0.62>0.62) l=0.30x0.50x1.00 r=(1.00<1.00>1.00)
;00:01:02.275: pe=2.5976 eb=0.0245 ve=0.6236 vn=0.6236 vl=10.000 db=0.50
G1 X-63.44 Y29.58 E33.3384              ; dt=0.611 draw dl=6.1@10(10<10>10) de=0.3808@0.62(0.62<0.62>0.62) l=0.30x0.50x1.00 r=(1.00<1.00>1.00)
;00:01:02.886: pe=2.5977 eb=0.0245 ve=0.6236 vn=0.6236 vl=10.000 db=0.50
G1 X-65.78 Y23.94 E33.7192              ; dt=0.611 draw dl=6.1@10(10<10>10) de=0.3808@0.62(0.62<0.62>0.62) l=0.30x0.50x1.00 r=(1.00<1.00>1.00)
;00:01:03.497: pe=2.5977 eb=0.0245 ve=0.6236 vn=0.6236 vl=10.000 db=0.50
G1 X-67.61 Y18.12 E34.1001              ; dt=0.611 draw dl=6.1@10(10<10>10) de=0.3808@0.62(0.62<0.62>0.62) l=0.30x0.50x1.00 r=(1.00<1.00>1.00)
;00:01:04.107: pe=2.5977 eb=0.0245 ve=0.6236 vn=0.6236 vl=10.000 db=0.50
G1 X-68.94 Y12.16 E34.4809              ; dt=0.611 draw dl=6.1@10(10<10>10) de=0.3808@0.62(0.62<0.62>0.62) l=0.30x0.50x1.00 r=(1.00<1.00>1.00)
;00:01:04.718: pe=2.5977 eb=0.0245 ve=0.6236 vn=0.6236 vl=10.000 db=0.50
G1 X-69.73 Y6.10 E34.8617               ; dt=0.611 draw dl=6.1@10(10<10>10) de=0.3808@0.62(0.62<0.62>0.62) l=0.30x0.50x1.00 r=(1.00<1.00>1.00)
;00:01:05.329: pe=2.5977 eb=0.0245 ve=0.6236 vn=0.6236 vl=10.000 db=0.50
G1 X-70.00 Y0.00 E35.2425               ; dt=0.611 draw dl=6.1@10(10<10>10) de=0.3808@0.62(0.62<0.62>0.62) l=0.30x0.50x1.00 r=(1.00<1.00>1.00)
;00:01:05.939: pe=2.5977 eb=0.0245 ve=0.6236 vn=0.6236 vl=10.000 db=0.50
G1 X-69.73 Y-6.10 E35.6234              ; dt=0.611 draw dl=6.1@10(10<10>10) de=0.3808@0.62(0.62<0.62>0.62) l=0.30x0.50x1.00 r=(1.00<1.00>1.00)
;00:01:06.550: pe=2.5977 eb=0.0245 ve=0.6236 vn=0.6236 vl=10.000 db=0.50
G1 X-68.94 Y-12.16 E36.0042             ; dt=0.611 draw dl=6.1@10(10<10>10) de=0.3808@0.62(0.62<0.62>0.62) l=0.30x0.50x1.00 r=(1.00<1.00>1.00)
;00:01:07.161: pe=2.5978 eb=0.0245 ve=0.6236 vn=0.6236 vl=10.000 db=0.50
G1 X-67.61 Y-18.12 E36.3850             ; dt=0.611 draw dl=6.1@10(10<10>10) de=0.3808@0.62(0.62<0.62>0.62) l=0.30x0.50x1.00 r=(1.00<1.00>1.00)
;00:01:07.771: pe=2.5978 eb=0.0245 ve=0.6236 vn=0.6236 vl=10.000 db=0.50
G1 X-65.78 Y-23.94 E36.7659             ; dt=0.611 draw dl=6.1@10(10<10>10) de=0.3808@0.62(0.62<0.62>0.62) l=0.30x0.50x1.00 r=(1.00<1.00>1.00)
;00:01:08.382: pe=2.5978 eb=0.0245 ve=0.6236 vn=0.6236 vl=10.000 db=0.50
G1 X-63.44 Y-29.58 E37.1467             ; dt=0.611 draw dl=6.1@10(10<10>10) de=0.3808@0.62(0.62<0.62>0.62) l=0.30x0.50x1.00 r=(1.00<1.00>1.00)
;00:01:08.993: pe=2.5978 eb=0.0245 ve=0.6236 vn=0.6236 vl=10.000 db=0.50
G1 X-60.62 Y-35.00 E37.5275             ; dt=0.611 draw dl=6.1@10(10<10>10) de=0.3808@0.62(0.62<0.62>0.62) l=0.30x0.50x1.00 r=(1.00<1.00>1.00)
;00:01:09.603: pe=2.5978 eb=0.0245 ve=0.6236 vn=0.6236 vl=10.000 db=0.50
G1 X-57.34 Y-40.15 E37.9084             ; dt=0.611 draw dl=6.1@10(10<10>10) de=0.3808@0.62(0.62<0.62>0.62) l=0.30x0.50x1.00 r=(1.00<1.00>1.00)
;00:01:10.214: pe=2.5978 eb=0.0245 ve=0.6236 vn=0.6236 vl=10.000 db=0.50
G1 X-53.62 Y-45.00 E38.2892             ; dt=0.611 draw dl=6.1@10(10<10>10) de=0.3808@0.62(0.62<0.62>0.62) l=0.30x0.50x1.00 r=(1.00<1.00>1.00)
;00:01:10.825: pe=2.5978 eb=0.0245 ve=0.6236 vn=0.6236 vl=10.000 db=0.50
G1 X-49.50 Y-49.50 E38.6700             ; dt=0.611 draw dl=6.1@10(10<10>10) de=0.3808@0.62(0.62<0.62>0.62) l=0.30x0.50x1.00 r=(1.00<1.00>1.00)
;00:01:11.435: pe=2.5978 eb=0.0245 ve=0.6236 vn=0.6236 vl=10.000 db=0.50
G1 X-45.00 Y-53.62 E39.0509             ; dt=0.611 draw dl=6.1@10(10<10>10) de=0.3808@0.62(0.62<0.62>0.62) l=0.30x0.50x1.00 r=(1.00<1.00>1.00)
;00:01:12.046: pe=2.5978 eb=0.0245 ve=0.6236 vn=0.6236 vl=10.000 db=0.50
G1 X-40.15 Y-57.34 E39.4317             ; dt=0.611 draw dl=6.1@10(10<10>10) de=0.3808@0.62(0.62<0.62>0.62) l=0.30x0.50x1.00 r=(1.00<1.00>1.00)
;00:01:12.657: pe=2.5978 eb=0.0245 ve=0.6236 vn=0.6236 vl=10.000 db=0.50
