;gcode_flavor: flashforge
;machine_type: Adventurer 3 Series
;filament_diameter0: 1.75
;right_extruder_temperature: 210
;platform_temperature: 50
;extruder_fan: 100%
;case_fan: 100%
;base_print_speed: 60
;travel_speed: 100
;vertical_speed: 7
;retract_speed: 40
;restore_speed: 30
;layer_height: 0.30
;line_width: 0.50
;extrusion_ratio: 1.00
;command_line: ./gcodetest.py -Te=210 -Tp=50 -Fe=1.0 -Fc=1.0 -Kf=1.0 -Kb=2.0 -Re=2.0 -R
;start gcode
M118 X75.00 Y75.00 Z150.00 T0
M140 S50 T0
M104 S210 T0
M104 S0 T1
M107
M900 K0.000 T0
G90
G28
M132 X Y Z A B
G1 Z50.000 F420
G161 X Y F3300
M7 T0
M6 T0
M652 S255
M108 T0
M106
;preExtrude:0.20
G1 X69.29 Y28.70 F6000
G1 Z0.200 F420
G1 E3.0876 F1800
G1 X66.53 Y34.63 E3.9580 F600
G1 X63.25 Y40.30 E4.8285
G1 X59.50 Y45.66 E5.6990
G1 X55.30 Y50.67 E6.5695
G1 X50.67 Y55.30 E7.4399
G1 X45.66 Y59.50 E8.3104
G1 X40.30 Y63.25 E9.1809
G1 X34.63 Y66.53 E10.0514
G1 X28.70 Y69.29 E10.9218
G1 X28.70 Y69.29
G1 E6.0044 F2400
G1 Z0.400 F420
;layer:0.30
;structure:shell-outer
G1 X-69.50 Y68.89 F6000
G1 Z0.300 F420
G1 E9.6460 F1800
G1 X-68.48 Y66.48 E9.8092 F600
G1 X-67.46 Y68.89 E9.9724
G1 E6.3773 F2400
G1 Z0.500 F420
G1 X-66.40 Y67.69 F6000
G1 Z0.300 F420
G1 E10.0162 F1800
G1 X-64.26 Y67.69 E10.1496 F600
G1 X-64.34 Y68.22 E10.1830
G1 X-64.55 Y68.61 E10.2107
G1 X-64.89 Y68.86 E10.2370
G1 X-65.33 Y68.95 E10.2650
G1 X-65.76 Y68.86 E10.2924
G1 X-66.10 Y68.61 E10.3187
G1 X-66.32 Y68.22 E10.3466
G1 X-66.40 Y67.69 E10.3801
G1 X-66.32 Y67.15 E10.4141
G1 X-66.09 Y66.75 E10.4429
G1 X-65.74 Y66.51 E10.4693
G1 X-65.28 Y66.42 E10.4986
G1 X-64.94 Y66.47 E10.5200
G1 X-64.65 Y66.61 E10.5401
G1 X-64.44 Y66.83 E10.5591
G1 X-64.32 Y67.13 E10.5792
G1 E6.9699 F2400
G1 Z0.500 F420
G1 X-63.20 Y68.26 F6000
G1 Z0.300 F420
G1 E10.5546 F1800
G1 X-61.51 Y68.26 E10.6600 F600
G1 E7.1027 F2400
G1 Z0.500 F420
G1 X-61.51 Y67.55 F6000
G1 Z0.300 F420
G1 E10.6873 F1800
G1 X-63.20 Y67.55 E10.7926 F600
G1 E7.2353 F2400
G1 Z0.500 F420
G1 X-60.45 Y69.00 F6000
G1 Z0.300 F420
G1 E10.8560 F1800
G1 X-59.98 Y69.24 E10.8889 F600
G1 X-59.61 Y69.55 E10.9190
G1 X-59.36 Y69.88 E10.9448
G1 X-59.36 Y66.48 E11.1569
G1 E7.5646 F2400
G1 Z0.500 F420
G1 X-58.30 Y66.71 F6000
G1 Z0.300 F420
G1 E10.7527 F1800
G1 X-58.30 Y66.65 E10.7565 F600
G1 E7.5874 F2400
G1 Z0.500 F420
G1 X-56.01 Y69.94 F6000
G1 Z0.300 F420
G1 E11.2256 F1800
G1 X-55.50 Y69.80 E11.2586 F600
G1 X-55.11 Y69.42 E11.2926
G1 X-54.88 Y68.86 E11.3303
G1 X-54.79 Y68.18 E11.3731
G1 X-54.88 Y67.51 E11.4153
G1 X-55.11 Y66.95 E11.4530
G1 X-55.50 Y66.56 E11.4874
G1 X-56.01 Y66.42 E11.5204
G1 X-56.54 Y66.56 E11.5546
G1 X-56.91 Y66.95 E11.5881
G1 X-57.15 Y67.51 E11.6261
G1 X-57.23 Y68.18 E11.6682
G1 X-57.15 Y68.85 E11.7103
G1 X-56.91 Y69.42 E11.7489
G1 X-56.54 Y69.80 E11.7819
G1 X-56.01 Y69.94 E11.8161
G1 E8.2061 F2400
G1 Z0.500 F420
G1 X-69.50 Y64.88 F6000
G1 Z0.300 F420
G1 E11.8223 F1800
G1 X-69.50 Y61.48 E12.0343 F600
G1 E8.4464 F2400
G1 Z0.500 F420
G1 X-69.50 Y63.23 F6000
G1 Z0.300 F420
G1 E12.0715 F1800
G1 X-69.25 Y63.53 E12.0959 F600
G1 X-69.02 Y63.75 E12.1158
G1 X-68.80 Y63.88 E12.1317
G1 X-68.60 Y63.93 E12.1445
G1 X-68.41 Y63.95 E12.1565
G1 X-68.09 Y63.88 E12.1769
G1 X-67.86 Y63.71 E12.1947
G1 X-67.76 Y63.51 E12.2087
G1 X-67.67 Y63.08 E12.2361
G1 X-67.67 Y61.48 E12.3359
G1 E8.7395 F2400
G1 Z0.500 F420
G1 X-66.61 Y63.26 F6000
G1 Z0.300 F420
G1 E12.3243 F1800
G1 X-64.92 Y63.26 E12.4297 F600
G1 E8.8723 F2400
G1 Z0.500 F420
G1 X-64.92 Y62.55 F6000
G1 Z0.300 F420
G1 E12.4569 F1800
G1 X-66.61 Y62.55 E12.5623 F600
G1 E9.0049 F2400
G1 Z0.500 F420
G1 X-62.64 Y64.94 F6000
G1 Z0.300 F420
G1 E12.6444 F1800
G1 X-62.13 Y64.80 E12.6774 F600
G1 X-61.74 Y64.42 E12.7114
G1 X-61.50 Y63.86 E12.7494
G1 X-61.42 Y63.18 E12.7921
G1 X-61.50 Y62.51 E12.8341
G1 X-61.74 Y61.95 E12.8721
G1 X-62.13 Y61.56 E12.9065
G1 X-62.64 Y61.42 E12.9395
G1 X-63.16 Y61.56 E12.9731
G1 X-63.54 Y61.95 E13.0071
G1 X-63.78 Y62.51 E13.0451
G1 X-63.86 Y63.18 E13.0871
G1 X-63.78 Y63.85 E13.1292
G1 X-63.54 Y64.42 E13.1678
G1 X-63.16 Y64.80 E13.2013
G1 X-62.64 Y64.94 E13.2349
G1 E9.6249 F2400
G1 Z0.500 F420
G1 X-60.36 Y61.71 F6000
G1 Z0.300 F420
G1 E12.8131 F1800
G1 X-60.36 Y61.65 E12.8168 F600
G1 E9.6478 F2400
G1 Z0.500 F420
G1 X-59.24 Y64.13 F6000
G1 Z0.300 F420
G1 E13.2820 F1800
G1 X-59.13 Y64.47 E13.3043 F600
G1 X-58.92 Y64.73 E13.3252
G1 X-58.63 Y64.89 E13.3458
G1 X-58.29 Y64.94 E13.3672
G1 X-57.90 Y64.87 E13.3920
G1 X-57.61 Y64.68 E13.4136
G1 X-57.43 Y64.41 E13.4338
G1 X-57.36 Y64.06 E13.4561
G1 X-57.43 Y63.85 E13.4699
G1 X-57.57 Y63.68 E13.4836
G1 X-57.94 Y63.45 E13.5108
G1 X-58.38 Y63.30 E13.5398
G1 X-57.94 Y63.18 E13.5682
G1 X-57.58 Y63.02 E13.5928
G1 X-57.29 Y62.74 E13.6179
G1 X-57.19 Y62.45 E13.6371
G1 X-57.26 Y62.03 E13.6636
G1 X-57.49 Y61.70 E13.6887
G1 X-57.83 Y61.50 E13.7133
G1 X-58.25 Y61.42 E13.7400
G1 X-58.65 Y61.48 E13.7652
G1 X-58.97 Y61.65 E13.7878
G1 X-59.19 Y61.92 E13.8095
G1 X-59.29 Y62.28 E13.8328
G1 E10.2268 F2400
G1 Z0.500 F420
G1 X-67.52 Y59.88 F6000
G1 Z0.300 F420
G1 E13.8429 F1800
G1 X-67.52 Y56.48 E14.0550 F600
G1 E10.4671 F2400
G1 Z0.500 F420
G1 X-67.52 Y56.98 F6000
G1 Z0.300 F420
G1 E14.1015 F1800
G1 X-67.77 Y56.74 E14.1231 F600
G1 X-68.16 Y56.49 E14.1520
G1 X-68.54 Y56.42 E14.1761
G1 X-68.92 Y56.51 E14.2005
G1 X-69.22 Y56.77 E14.2252
G1 X-69.43 Y57.18 E14.2540
G1 X-69.50 Y57.71 E14.2873
G1 X-69.44 Y58.22 E14.3193
G1 X-69.26 Y58.61 E14.3461
G1 X-68.97 Y58.86 E14.3700
G1 X-68.57 Y58.95 E14.3956
G1 X-68.38 Y58.93 E14.4075
G1 X-68.18 Y58.85 E14.4209
G1 X-67.97 Y58.72 E14.4363
G1 X-67.77 Y58.50 E14.4549
G1 X-67.52 Y58.03 E14.4881
G1 E10.8814 F2400
G1 Z0.500 F420
G1 X-66.46 Y58.89 F6000
G1 Z0.300 F420
G1 E14.4894 F1800
G1 X-65.29 Y56.44 E14.6587 F600
G1 E11.0788 F2400
G1 Z0.500 F420
G1 X-66.29 Y55.57 F6000
G1 Z0.300 F420
G1 E14.7068 F1800
G1 X-66.19 Y55.56 E14.7131 F600
G1 X-66.10 Y55.56 E14.7187
G1 X-65.84 Y55.62 E14.7353
G1 X-65.63 Y55.78 E14.7518
G1 X-65.45 Y56.06 E14.7726
G1 X-65.29 Y56.44 E14.7983
G1 X-64.41 Y58.89 E14.9606
G1 E11.3620 F2400
G1 Z0.500 F420
G1 X-63.35 Y58.76 F6000
G1 Z0.300 F420
G1 E14.9623 F1800
G1 X-63.35 Y56.48 E15.1045 F600
G1 E11.5320 F2400
G1 Z0.500 F420
G1 X-63.35 Y57.89 F6000
G1 Z0.300 F420
G1 E15.1577 F1800
G1 X-63.11 Y58.34 E15.1895 F600
G1 X-62.92 Y58.67 E15.2132
G1 X-62.70 Y58.86 E15.2313
G1 X-62.49 Y58.93 E15.2451
G1 X-62.28 Y58.95 E15.2583
G1 X-61.95 Y58.88 E15.2793
G1 X-61.77 Y58.73 E15.2940
G1 X-61.67 Y58.40 E15.3155
G1 X-61.61 Y58.08 E15.3358
G1 X-61.61 Y56.48 E15.4355
G1 E11.8386 F2400
G1 Z0.500 F420
G1 X-60.55 Y56.48 F6000
G1 Z0.300 F420
G1 E15.4415 F1800
G1 X-60.55 Y58.89 E15.5918 F600
G1 E12.0167 F2400
G1 Z0.500 F420
G1 X-60.55 Y58.20 F6000
G1 Z0.300 F420
G1 E15.6143 F1800
G1 X-60.30 Y58.55 E15.6411 F600
G1 X-60.09 Y58.76 E15.6596
G1 X-59.89 Y58.88 E15.6742
G1 X-59.70 Y58.94 E15.6866
G1 X-59.54 Y58.95 E15.6966
G1 X-59.49 Y58.95 E15.6997
G1 X-59.44 Y58.94 E15.7029
G1 E12.1343 F2400
G1 Z0.500 F420
G1 X-58.38 Y57.69 F6000
G1 Z0.300 F420
G1 E15.7731 F1800
G1 X-56.24 Y57.69 E15.9065 F600
G1 X-56.32 Y58.22 E15.9399
G1 X-56.53 Y58.61 E15.9676
G1 X-56.87 Y58.86 E15.9939
G1 X-57.31 Y58.95 E16.0219
G1 X-57.74 Y58.86 E16.0493
G1 X-58.08 Y58.61 E16.0756
G1 X-58.30 Y58.22 E16.1035
G1 X-58.38 Y57.69 E16.1370
G1 X-58.30 Y57.15 E16.1710
G1 X-58.07 Y56.75 E16.1998
G1 X-57.72 Y56.51 E16.2263
G1 X-57.26 Y56.42 E16.2555
G1 X-56.92 Y56.47 E16.2769
G1 X-56.63 Y56.61 E16.2970
G1 X-56.42 Y56.83 E16.3160
G1 X-56.30 Y57.13 E16.3361
G1 E12.7268 F2400
G1 Z0.500 F420
G1 X-53.99 Y56.46 F6000
G1 Z0.300 F420
G1 E16.3496 F1800
G1 X-54.14 Y56.45 E16.3589 F600
G1 X-54.32 Y56.50 E16.3706
G1 X-54.48 Y56.62 E16.3830
G1 X-54.60 Y56.81 E16.3971
G1 X-54.68 Y57.19 E16.4213
G1 X-54.68 Y59.52 E16.5666
G1 E12.9730 F2400
G1 Z0.500 F420
G1 X-55.18 Y58.76 F6000
G1 Z0.300 F420
G1 E16.5262 F1800
G1 X-54.10 Y58.76 E16.5936 F600
G1 E13.0669 F2400
G1 Z0.500 F420
G1 X-52.92 Y58.26 F6000
G1 Z0.300 F420
G1 E16.6514 F1800
G1 X-51.23 Y58.26 E16.7568 F600
G1 E13.1994 F2400
G1 Z0.500 F420
G1 X-51.23 Y57.55 F6000
G1 Z0.300 F420
G1 E16.7840 F1800
G1 X-52.92 Y57.55 E16.8894 F600
G1 E13.3320 F2400
G1 Z0.500 F420
G1 X-48.95 Y59.94 F6000
G1 Z0.300 F420
G1 E16.9715 F1800
G1 X-48.44 Y59.80 E17.0045 F600
G1 X-48.05 Y59.42 E17.0384
G1 X-47.81 Y58.86 E17.0764
G1 X-47.73 Y58.18 E17.1191
G1 X-47.81 Y57.51 E17.1612
G1 X-48.05 Y56.95 E17.1992
G1 X-48.44 Y56.56 E17.2336
G1 X-48.95 Y56.42 E17.2666
G1 X-49.47 Y56.56 E17.3002
G1 X-49.85 Y56.95 E17.3341
G1 X-50.09 Y57.51 E17.3721
G1 X-50.17 Y58.18 E17.4142
G1 X-50.09 Y58.85 E17.4563
G1 X-49.85 Y59.42 E17.4949
G1 X-49.47 Y59.80 E17.5284
G1 X-48.95 Y59.94 E17.5619
G1 E13.9520 F2400
G1 Z0.500 F420
;structure:shell-outer
G1 X70.00 Y0.00 F6000
G1 Z0.300 F420
G1 E17.5977 F1800
G1 X69.73 Y6.10 E17.9785 F600
G1 X68.94 Y12.16 E18.3594
G1 X67.61 Y18.12 E18.7402
G1 X65.78 Y23.94 E19.1210
G1 X63.44 Y29.58 E19.5019
G1 X60.62 Y35.00 E19.8827
G1 X57.34 Y40.15 E20.2635
G1 X53.62 Y45.00 E20.6443
G1 X49.50 Y49.50 E21.0252
G1 X45.00 Y53.62 E21.4060
G1 X40.15 Y57.34 E21.7868
G1 X35.00 Y60.62 E22.1677
G1 X29.58 Y63.44 E22.5485
G1 X23.94 Y65.78 E22.9293
G1 X18.12 Y67.61 E23.3102
G1 X12.16 Y68.94 E23.6910
G1 X6.10 Y69.73 E24.0718
G1 X0.00 Y70.00 E24.4527
G1 X-6.10 Y69.73 E24.8335
G1 X-12.16 Y68.94 E25.2143
G1 X-18.12 Y67.61 E25.5952
G1 X-23.94 Y65.78 E25.9760
G1 X-29.58 Y63.44 E26.3568
G1 X-35.00 Y60.62 E26.7377
G1 X-40.15 Y57.34 E27.1185
G1 X-45.00 Y53.62 E27.4993
G1 X-49.50 Y49.50 E27.8802
G1 X-53.62 Y45.00 E28.2610
G1 X-57.34 Y40.15 E28.6418
G1 X-60.62 Y35.00 E29.0226
G1 X-63.44 Y29.58 E29.4035
G1 X-65.78 Y23.94 E29.7843
G1 X-67.61 Y18.12 E30.1651
G1 X-68.94 Y12.16 E30.5460
G1 X-69.73 Y6.10 E30.9268
G1 X-70.00 Y0.00 E31.3076
G1 X-69.73 Y-6.10 E31.6885
G1 X-68.94 Y-12.16 E32.0693
G1 X-67.61 Y-18.12 E32.4501
G1 X-65.78 Y-23.94 E32.8310
G1 X-63.44 Y-29.58 E33.2118
G1 X-60.62 Y-35.00 E33.5926
G1 X-57.34 Y-40.15 E33.9735
G1 X-53.62 Y-45.00 E34.3543
G1 X-49.50 Y-49.50 E34.7351
G1 X-45.00 Y-53.62 E35.1160
G1 X-40.15 Y-57.34 E35.4968
G1 X-35.00 Y-60.62 E35.8776
G1 X-29.58 Y-63.44 E36.2585
G1 X-23.94 Y-65.78 E36.6393
G1 X-18.12 Y-67.61 E37.0201
G1 X-12.16 Y-68.94 E37.4009
G1 X-6.10 Y-69.73 E37.7818
G1 X0.00 Y-70.00 E38.1626
G1 X6.10 Y-69.73 E38.5434
G1 X12.16 Y-68.94 E38.9243
G1 X18.12 Y-67.61 E39.3051
G1 X23.94 Y-65.78 E39.6859
G1 X29.58 Y-63.44 E40.0668
G1 X35.00 Y-60.62 E40.4476
G1 X40.15 Y-57.34 E40.8284
G1 X45.00 Y-53.62 E41.2093
G1 X49.50 Y-49.50 E41.5901
G1 X53.62 Y-45.00 E41.9709
G1 X57.34 Y-40.15 E42.3518
G1 X60.62 Y-35.00 E42.7326
G1 X63.44 Y-29.58 E43.1134
G1 X65.78 Y-23.94 E43.4943
G1 X67.61 Y-18.12 E43.8751
G1 X68.94 Y-12.16 E44.2559
G1 X69.73 Y-6.10 E44.6368
G1 X70.00 Y0.00 E45.0176
G1 E41.3995 F2400
G1 Z0.500 F420
G1 Z0.300
G1 E45.0113 F1800
G1 X73.00 Y0.00 E45.1983 F600
G1 E41.5908 F2400
G1 Z0.500 F420
G1 X69.73 Y6.10 F6000
G1 Z0.300 F420
G1 E45.1682 F1800
G1 X71.23 Y6.23 E45.2617 F600
G1 E41.7116 F2400
G1 Z0.500 F420
G1 X68.94 Y12.16 F6000
G1 Z0.300 F420
G1 E45.2887 F1800
G1 X70.41 Y12.42 E45.3823 F600
G1 E41.8322 F2400
G1 Z0.500 F420
G1 X67.61 Y18.12 F6000
G1 Z0.300 F420
G1 E45.4093 F1800
G1 X69.06 Y18.51 E45.5028 F600
G1 E41.9527 F2400
G1 Z0.500 F420
G1 X65.78 Y23.94 F6000
G1 Z0.300 F420
G1 E45.5298 F1800
G1 X67.19 Y24.45 E45.6234 F600
G1 E42.0732 F2400
G1 Z0.500 F420
G1 X63.44 Y29.58 F6000
G1 Z0.300 F420
G1 E45.6504 F1800
G1 X64.80 Y30.22 E45.7439 F600
G1 E42.1938 F2400
G1 Z0.500 F420
G1 X60.62 Y35.00 F6000
G1 Z0.300 F420
G1 E45.8053 F1800
G1 X63.22 Y36.50 E45.9924 F600
G1 E42.4088 F2400
G1 Z0.500 F420
G1 X57.34 Y40.15 F6000
G1 Z0.300 F420
G1 E45.9861 F1800
G1 X58.57 Y41.01 E46.0796 F600
G1 E42.5295 F2400
G1 Z0.500 F420
G1 X53.62 Y45.00 F6000
G1 Z0.300 F420
G1 E46.1066 F1800
G1 X54.77 Y45.96 E46.2001 F600
G1 E42.6500 F2400
G1 Z0.500 F420
G1 X49.50 Y49.50 F6000
G1 Z0.300 F420
G1 E46.2271 F1800
G1 X50.56 Y50.56 E46.3207 F600
G1 E42.7705 F2400
G1 Z0.500 F420
G1 X45.00 Y53.62 F6000
G1 Z0.300 F420
G1 E46.3477 F1800
G1 X45.96 Y54.77 E46.4412 F600
G1 E42.8911 F2400
G1 Z0.500 F420
G1 X40.15 Y57.34 F6000
G1 Z0.300 F420
G1 E46.4682 F1800
G1 X41.01 Y58.57 E46.5618 F600
G1 E43.0116 F2400
G1 Z0.500 F420
G1 X35.00 Y60.62 F6000
G1 Z0.300 F420
G1 E46.6232 F1800
G1 X36.50 Y63.22 E46.8103 F600
G1 E43.2266 F2400
G1 Z0.500 F420
G1 X29.58 Y63.44 F6000
G1 Z0.300 F420
G1 E46.8039 F1800
G1 X30.22 Y64.80 E46.8975 F600
G1 E43.3473 F2400
G1 Z0.500 F420
G1 X23.94 Y65.78 F6000
G1 Z0.300 F420
G1 E46.9245 F1800
G1 X24.45 Y67.19 E47.0180 F600
G1 E43.4679 F2400
G1 Z0.500 F420
G1 X18.12 Y67.61 F6000
G1 Z0.300 F420
G1 E47.0450 F1800
G1 X18.51 Y69.06 E47.1385 F600
G1 E43.5884 F2400
G1 Z0.500 F420
G1 X12.16 Y68.94 F6000
G1 Z0.300 F420
G1 E47.1655 F1800
G1 X12.42 Y70.41 E47.2591 F600
G1 E43.7089 F2400
G1 Z0.500 F420
G1 X6.10 Y69.73 F6000
G1 Z0.300 F420
G1 E47.2861 F1800
G1 X6.23 Y71.23 E47.3796 F600
G1 E43.8295 F2400
G1 Z0.500 F420
G1 X0.00 Y70.00 F6000
G1 Z0.300 F420
G1 E47.4410 F1800
G1 X0.00 Y73.00 E47.6281 F600
G1 E44.0445 F2400
G1 Z0.500 F420
G1 X-6.10 Y69.73 F6000
G1 Z0.300 F420
G1 E47.6218 F1800
G1 X-6.23 Y71.23 E47.7153 F600
G1 E44.1652 F2400
G1 Z0.500 F420
G1 X-12.16 Y68.94 F6000
G1 Z0.300 F420
G1 E47.7423 F1800
G1 X-12.42 Y70.41 E47.8358 F600
G1 E44.2857 F2400
G1 Z0.500 F420
G1 X-18.12 Y67.61 F6000
G1 Z0.300 F420
G1 E47.8628 F1800
G1 X-18.51 Y69.06 E47.9564 F600
G1 E44.4062 F2400
G1 Z0.500 F420
G1 X-23.94 Y65.78 F6000
G1 Z0.300 F420
G1 E47.9834 F1800
G1 X-24.45 Y67.19 E48.0769 F600
G1 E44.5268 F2400
G1 Z0.500 F420
G1 X-29.58 Y63.44 F6000
G1 Z0.300 F420
G1 E48.1039 F1800
G1 X-30.22 Y64.80 E48.1975 F600
G1 E44.6473 F2400
G1 Z0.500 F420
G1 X-35.00 Y60.62 F6000
G1 Z0.300 F420
G1 E48.2589 F1800
G1 X-36.50 Y63.22 E48.4460 F600
G1 E44.8623 F2400
G1 Z0.500 F420
G1 X-40.15 Y57.34 F6000
G1 Z0.300 F420
G1 E48.4396 F1800
G1 X-41.01 Y58.57 E48.5332 F600
G1 E44.9830 F2400
G1 Z0.500 F420
G1 X-45.00 Y53.62 F6000
G1 Z0.300 F420
G1 E48.5602 F1800
G1 X-45.96 Y54.77 E48.6537 F600
G1 E45.1036 F2400
G1 Z0.500 F420
G1 X-49.50 Y49.50 F6000
G1 Z0.300 F420
G1 E48.6807 F1800
G1 X-50.56 Y50.56 E48.7742 F600
G1 E45.2241 F2400
G1 Z0.500 F420
G1 X-53.62 Y45.00 F6000
G1 Z0.300 F420
G1 E48.8012 F1800
G1 X-54.77 Y45.96 E48.8948 F600
G1 E45.3446 F2400
G1 Z0.500 F420
G1 X-57.34 Y40.15 F6000
G1 Z0.300 F420
G1 E48.9218 F1800
G1 X-58.57 Y41.01 E49.0153 F600
G1 E45.4652 F2400
G1 Z0.500 F420
G1 X-60.62 Y35.00 F6000
G1 Z0.300 F420
G1 E49.0767 F1800
G1 X-63.22 Y36.50 E49.2638 F600
G1 E45.6802 F2400
G1 Z0.500 F420
G1 X-63.44 Y29.58 F6000
G1 Z0.300 F420
G1 E49.2575 F1800
G1 X-64.80 Y30.22 E49.3510 F600
G1 E45.8009 F2400
G1 Z0.500 F420
G1 X-65.78 Y23.94 F6000
G1 Z0.300 F420
G1 E49.3780 F1800
G1 X-67.19 Y24.45 E49.4715 F600
G1 E45.9214 F2400
G1 Z0.500 F420
G1 X-67.61 Y18.12 F6000
G1 Z0.300 F420
G1 E49.4985 F1800
G1 X-69.06 Y18.51 E49.5921 F600
G1 E46.0420 F2400
G1 Z0.500 F420
G1 X-68.94 Y12.16 F6000
G1 Z0.300 F420
G1 E49.6191 F1800
G1 X-70.41 Y12.42 E49.7126 F600
G1 E46.1625 F2400
G1 Z0.500 F420
G1 X-69.73 Y6.10 F6000
G1 Z0.300 F420
G1 E49.7396 F1800
G1 X-71.23 Y6.23 E49.8332 F600
G1 E46.2830 F2400
G1 Z0.500 F420
G1 X-70.00 Y0.00 F6000
G1 Z0.300 F420
G1 E49.8946 F1800
G1 X-73.00 Y0.00 E50.0817 F600
G1 E46.4980 F2400
G1 Z0.500 F420
G1 X-69.73 Y-6.10 F6000
G1 Z0.300 F420
G1 E50.0753 F1800
G1 X-71.23 Y-6.23 E50.1689 F600
G1 E46.6187 F2400
G1 Z0.500 F420
G1 X-68.94 Y-12.16 F6000
G1 Z0.300 F420
G1 E50.1959 F1800
G1 X-70.41 Y-12.42 E50.2894 F600
G1 E46.7393 F2400
G1 Z0.500 F420
G1 X-67.61 Y-18.12 F6000
G1 Z0.300 F420
G1 E50.3164 F1800
G1 X-69.06 Y-18.51 E50.4099 F600
G1 E46.8598 F2400
G1 Z0.500 F420
G1 X-65.78 Y-23.94 F6000
G1 Z0.300 F420
G1 E50.4369 F1800
G1 X-67.19 Y-24.45 E50.5305 F600
G1 E46.9803 F2400
G1 Z0.500 F420
G1 X-63.44 Y-29.58 F6000
G1 Z0.300 F420
G1 E50.5575 F1800
G1 X-64.80 Y-30.22 E50.6510 F600
G1 E47.1009 F2400
G1 Z0.500 F420
G1 X-60.62 Y-35.00 F6000
G1 Z0.300 F420
G1 E50.7124 F1800
G1 X-63.22 Y-36.50 E50.8995 F600
G1 E47.3159 F2400
G1 Z0.500 F420
G1 X-57.34 Y-40.15 F6000
G1 Z0.300 F420
G1 E50.8932 F1800
G1 X-58.57 Y-41.01 E50.9867 F600
G1 E47.4366 F2400
G1 Z0.500 F420
G1 X-53.62 Y-45.00 F6000
G1 Z0.300 F420
G1 E51.0137 F1800
G1 X-54.77 Y-45.96 E51.1073 F600
G1 E47.5571 F2400
G1 Z0.500 F420
G1 X-49.50 Y-49.50 F6000
G1 Z0.300 F420
G1 E51.1343 F1800
G1 X-50.56 Y-50.56 E51.2278 F600
G1 E47.6777 F2400
G1 Z0.500 F420
G1 X-45.00 Y-53.62 F6000
G1 Z0.300 F420
G1 E51.2548 F1800
G1 X-45.96 Y-54.77 E51.3483 F600
G1 E47.7982 F2400
G1 Z0.500 F420
G1 X-40.15 Y-57.34 F6000
G1 Z0.300 F420
G1 E51.3753 F1800
G1 X-41.01 Y-58.57 E51.4689 F600
G1 E47.9187 F2400
G1 Z0.500 F420
G1 X-35.00 Y-60.62 F6000
G1 Z0.300 F420
G1 E51.5303 F1800
G1 X-36.50 Y-63.22 E51.7174 F600
G1 E48.1337 F2400
G1 Z0.500 F420
G1 X-29.58 Y-63.44 F6000
G1 Z0.300 F420
G1 E51.7110 F1800
G1 X-30.22 Y-64.80 E51.8046 F600
G1 E48.2544 F2400
G1 Z0.500 F420
G1 X-23.94 Y-65.78 F6000
G1 Z0.300 F420
G1 E51.8316 F1800
G1 X-24.45 Y-67.19 E51.9251 F600
G1 E48.3750 F2400
G1 Z0.500 F420
G1 X-18.12 Y-67.61 F6000
G1 Z0.300 F420
G1 E51.9521 F1800
G1 X-18.51 Y-69.06 E52.0456 F600
G1 E48.4955 F2400
G1 Z0.500 F420
G1 X-12.16 Y-68.94 F6000
G1 Z0.300 F420
G1 E52.0726 F1800
G1 X-12.42 Y-70.41 E52.1662 F600
G1 E48.6160 F2400
G1 Z0.500 F420
G1 X-6.10 Y-69.73 F6000
G1 Z0.300 F420
G1 E52.1932 F1800
G1 X-6.23 Y-71.23 E52.2867 F600
G1 E48.7366 F2400
G1 Z0.500 F420
G1 X0.00 Y-70.00 F6000
G1 Z0.300 F420
G1 E52.3481 F1800
G1 X0.00 Y-73.00 E52.5352 F600
G1 E48.9516 F2400
G1 Z0.500 F420
G1 X6.10 Y-69.73 F6000
G1 Z0.300 F420
G1 E52.5289 F1800
G1 X6.23 Y-71.23 E52.6224 F600
G1 E49.0723 F2400
G1 Z0.500 F420
G1 X12.16 Y-68.94 F6000
G1 Z0.300 F420
G1 E52.6494 F1800
G1 X12.42 Y-70.41 E52.7430 F600
G1 E49.1928 F2400
G1 Z0.500 F420
G1 X18.12 Y-67.61 F6000
G1 Z0.300 F420
G1 E52.7700 F1800
G1 X18.51 Y-69.06 E52.8635 F600
G1 E49.3134 F2400
G1 Z0.500 F420
G1 X23.94 Y-65.78 F6000
G1 Z0.300 F420
G1 E52.8905 F1800
G1 X24.45 Y-67.19 E52.9840 F600
G1 E49.4339 F2400
G1 Z0.500 F420
G1 X29.58 Y-63.44 F6000
G1 Z0.300 F420
G1 E53.0110 F1800
G1 X30.22 Y-64.80 E53.1046 F600
G1 E49.5544 F2400
G1 Z0.500 F420
G1 X35.00 Y-60.62 F6000
G1 Z0.300 F420
G1 E53.1660 F1800
G1 X36.50 Y-63.22 E53.3531 F600
G1 E49.7694 F2400
G1 Z0.500 F420
G1 X40.15 Y-57.34 F6000
G1 Z0.300 F420
G1 E53.3467 F1800
G1 X41.01 Y-58.57 E53.4403 F600
G1 E49.8901 F2400
G1 Z0.500 F420
G1 X45.00 Y-53.62 F6000
G1 Z0.300 F420
G1 E53.4673 F1800
G1 X45.96 Y-54.77 E53.5608 F600
G1 E50.0107 F2400
G1 Z0.500 F420
G1 X49.50 Y-49.50 F6000
G1 Z0.300 F420
G1 E53.5878 F1800
G1 X50.56 Y-50.56 E53.6813 F600
G1 E50.1312 F2400
G1 Z0.500 F420
G1 X53.62 Y-45.00 F6000
G1 Z0.300 F420
G1 E53.7083 F1800
G1 X54.77 Y-45.96 E53.8019 F600
G1 E50.2518 F2400
G1 Z0.500 F420
G1 X57.34 Y-40.15 F6000
G1 Z0.300 F420
G1 E53.8289 F1800
G1 X58.57 Y-41.01 E53.9224 F600
G1 E50.3723 F2400
G1 Z0.500 F420
G1 X60.62 Y-35.00 F6000
G1 Z0.300 F420
G1 E53.9838 F1800
G1 X63.22 Y-36.50 E54.1709 F600
G1 E50.5873 F2400
G1 Z0.500 F420
G1 X63.44 Y-29.58 F6000
G1 Z0.300 F420
G1 E54.1646 F1800
G1 X64.80 Y-30.22 E54.2581 F600
G1 E50.7080 F2400
G1 Z0.500 F420
G1 X65.78 Y-23.94 F6000
G1 Z0.300 F420
G1 E54.2851 F1800
G1 X67.19 Y-24.45 E54.3787 F600
G1 E50.8285 F2400
G1 Z0.500 F420
G1 X67.61 Y-18.12 F6000
G1 Z0.300 F420
G1 E54.4057 F1800
G1 X69.06 Y-18.51 E54.4992 F600
G1 E50.9491 F2400
G1 Z0.500 F420
G1 X68.94 Y-12.16 F6000
G1 Z0.300 F420
G1 E54.5262 F1800
G1 X70.41 Y-12.42 E54.6197 F600
G1 E51.0696 F2400
G1 Z0.500 F420
G1 X69.73 Y-6.10 F6000
G1 Z0.300 F420
G1 E54.6467 F1800
G1 X71.23 Y-6.23 E54.7403 F600
G1 E51.1901 F2400
G1 Z0.500 F420
G1 X42.00 Y0.00 F6000
G1 Z0.300 F420
G1 E54.8351 F1800
G1 X41.84 Y3.66 E55.0636 F600
G1 X41.36 Y7.29 E55.2921
G1 X40.57 Y10.87 E55.5206
G1 X39.47 Y14.36 E55.7491
G1 X38.06 Y17.75 E55.9776
G1 X36.37 Y21.00 E56.2061
G1 X34.40 Y24.09 E56.4346
G1 X32.17 Y27.00 E56.6631
G1 X29.70 Y29.70 E56.8916
G1 X27.00 Y32.17 E57.1201
G1 X24.09 Y34.40 E57.3486
G1 X21.00 Y36.37 E57.5771
G1 X17.75 Y38.06 E57.8056
G1 X14.36 Y39.47 E58.0341
G1 X10.87 Y40.57 E58.2626
G1 X7.29 Y41.36 E58.4911
G1 X3.66 Y41.84 E58.7196
G1 X0.00 Y42.00 E58.9481
G1 X-3.66 Y41.84 E59.1766
G1 X-7.29 Y41.36 E59.4051
G1 X-10.87 Y40.57 E59.6336
G1 X-14.36 Y39.47 E59.8621
G1 X-17.75 Y38.06 E60.0906
G1 X-21.00 Y36.37 E60.3191
G1 X-24.09 Y34.40 E60.5476
G1 X-27.00 Y32.17 E60.7761
G1 X-29.70 Y29.70 E61.0046
G1 X-32.17 Y27.00 E61.2331
G1 X-34.40 Y24.09 E61.4616
G1 X-36.37 Y21.00 E61.6901
G1 X-38.06 Y17.75 E61.9186
G1 X-39.47 Y14.36 E62.1471
G1 X-40.57 Y10.87 E62.3756
G1 X-41.36 Y7.29 E62.6041
G1 X-41.84 Y3.66 E62.8326
G1 X-42.00 Y0.00 E63.0611
G1 X-41.84 Y-3.66 E63.2896
G1 X-41.36 Y-7.29 E63.5181
G1 X-40.57 Y-10.87 E63.7466
G1 X-39.47 Y-14.36 E63.9751
G1 X-38.06 Y-17.75 E64.2036
G1 X-36.37 Y-21.00 E64.4321
G1 X-34.40 Y-24.09 E64.6606
G1 X-32.17 Y-27.00 E64.8891
G1 X-29.70 Y-29.70 E65.1176
G1 X-27.00 Y-32.17 E65.3461
G1 X-24.09 Y-34.40 E65.5746
G1 X-21.00 Y-36.37 E65.8031
G1 X-17.75 Y-38.06 E66.0316
G1 X-14.36 Y-39.47 E66.2601
G1 X-10.87 Y-40.57 E66.4886
G1 X-7.29 Y-41.36 E66.7171
G1 X-3.66 Y-41.84 E66.9456
G1 X0.00 Y-42.00 E67.1741
G1 X3.66 Y-41.84 E67.4026
G1 X7.29 Y-41.36 E67.6311
G1 X10.87 Y-40.57 E67.8596
G1 X14.36 Y-39.47 E68.0881
G1 X17.75 Y-38.06 E68.3166
G1 X21.00 Y-36.37 E68.5451
G1 X24.09 Y-34.40 E68.7736
G1 X27.00 Y-32.17 E69.0021
G1 X29.70 Y-29.70 E69.2306
G1 X32.17 Y-27.00 E69.4591
G1 X34.40 Y-24.09 E69.6876
G1 X36.37 Y-21.00 E69.9161
G1 X38.06 Y-17.75 E70.1446
G1 X39.47 Y-14.36 E70.3731
G1 X40.57 Y-10.87 E70.6016
G1 X41.36 Y-7.29 E70.8301
G1 X41.84 Y-3.66 E71.0586
G1 X42.00 Y0.00 E71.2871
G1 E67.6689 F2400
G1 Z0.500 F420
G1 Z0.300
G1 E71.2807 F1800
G1 X39.00 Y0.00 E71.4678 F600
G1 E67.8603 F2400
G1 Z0.500 F420
G1 X41.84 Y3.66 F6000
G1 Z0.300 F420
G1 E71.4377 F1800
G1 X40.35 Y3.53 E71.5312 F600
G1 E67.9811 F2400
G1 Z0.500 F420
G1 X41.36 Y7.29 F6000
G1 Z0.300 F420
G1 E71.5582 F1800
G1 X39.88 Y7.03 E71.6518 F600
G1 E68.1016 F2400
G1 Z0.500 F420
G1 X40.57 Y10.87 F6000
G1 Z0.300 F420
G1 E71.6788 F1800
G1 X39.12 Y10.48 E71.7723 F600
G1 E68.2222 F2400
G1 Z0.500 F420
G1 X39.47 Y14.36 F6000
G1 Z0.300 F420
G1 E71.7993 F1800
G1 X38.06 Y13.85 E71.8929 F600
G1 E68.3427 F2400
G1 Z0.500 F420
G1 X38.06 Y17.75 F6000
G1 Z0.300 F420
G1 E71.9199 F1800
G1 X36.71 Y17.12 E72.0134 F600
G1 E68.4633 F2400
G1 Z0.500 F420
G1 X36.37 Y21.00 F6000
G1 Z0.300 F420
G1 E72.0748 F1800
G1 X33.77 Y19.50 E72.2619 F600
G1 E68.6783 F2400
G1 Z0.500 F420
G1 X34.40 Y24.09 F6000
G1 Z0.300 F420
G1 E72.2555 F1800
G1 X33.18 Y23.23 E72.3491 F600
G1 E68.7989 F2400
G1 Z0.500 F420
G1 X32.17 Y27.00 F6000
G1 Z0.300 F420
G1 E72.3761 F1800
G1 X31.02 Y26.03 E72.4696 F600
G1 E68.9195 F2400
G1 Z0.500 F420
G1 X29.70 Y29.70 F6000
G1 Z0.300 F420
G1 E72.4966 F1800
G1 X28.64 Y28.64 E72.5902 F600
G1 E69.0400 F2400
G1 Z0.500 F420
G1 X27.00 Y32.17 F6000
G1 Z0.300 F420
G1 E72.6172 F1800
G1 X26.03 Y31.02 E72.7107 F600
G1 E69.1606 F2400
G1 Z0.500 F420
G1 X24.09 Y34.40 F6000
G1 Z0.300 F420
G1 E72.7377 F1800
G1 X23.23 Y33.18 E72.8313 F600
G1 E69.2811 F2400
G1 Z0.500 F420
G1 X21.00 Y36.37 F6000
G1 Z0.300 F420
G1 E72.8926 F1800
G1 X19.50 Y33.77 E73.0797 F600
G1 E69.4961 F2400
G1 Z0.500 F420
G1 X17.75 Y38.06 F6000
G1 Z0.300 F420
G1 E73.0734 F1800
G1 X17.12 Y36.71 E73.1669 F600
G1 E69.6168 F2400
G1 Z0.500 F420
G1 X14.36 Y39.47 F6000
G1 Z0.300 F420
G1 E73.1939 F1800
G1 X13.85 Y38.06 E73.2875 F600
G1 E69.7373 F2400
G1 Z0.500 F420
G1 X10.87 Y40.57 F6000
G1 Z0.300 F420
G1 E73.3145 F1800
G1 X10.48 Y39.12 E73.4080 F600
G1 E69.8579 F2400
G1 Z0.500 F420
G1 X7.29 Y41.36 F6000
G1 Z0.300 F420
G1 E73.4350 F1800
G1 X7.03 Y39.88 E73.5286 F600
G1 E69.9784 F2400
G1 Z0.500 F420
G1 X3.66 Y41.84 F6000
G1 Z0.300 F420
G1 E73.5556 F1800
G1 X3.53 Y40.35 E73.6491 F600
G1 E70.0990 F2400
G1 Z0.500 F420
G1 X0.00 Y42.00 F6000
G1 Z0.300 F420
G1 E73.7105 F1800
G1 X0.00 Y39.00 E73.8976 F600
G1 E70.3140 F2400
G1 Z0.500 F420
G1 X-3.66 Y41.84 F6000
G1 Z0.300 F420
G1 E73.8912 F1800
G1 X-3.53 Y40.35 E73.9848 F600
G1 E70.4346 F2400
G1 Z0.500 F420
G1 X-7.29 Y41.36 F6000
G1 Z0.300 F420
G1 E74.0118 F1800
G1 X-7.03 Y39.88 E74.1053 F600
G1 E70.5552 F2400
G1 Z0.500 F420
G1 X-10.87 Y40.57 F6000
G1 Z0.300 F420
G1 E74.1323 F1800
G1 X-10.48 Y39.12 E74.2259 F600
G1 E70.6757 F2400
G1 Z0.500 F420
G1 X-14.36 Y39.47 F6000
G1 Z0.300 F420
G1 E74.2529 F1800
G1 X-13.85 Y38.06 E74.3464 F600
G1 E70.7963 F2400
G1 Z0.500 F420
G1 X-17.75 Y38.06 F6000
G1 Z0.300 F420
G1 E74.3734 F1800
G1 X-17.12 Y36.71 E74.4670 F600
G1 E70.9168 F2400
G1 Z0.500 F420
G1 X-21.00 Y36.37 F6000
G1 Z0.300 F420
G1 E74.5283 F1800
G1 X-19.50 Y33.77 E74.7154 F600
G1 E71.1318 F2400
G1 Z0.500 F420
G1 X-24.09 Y34.40 F6000
G1 Z0.300 F420
G1 E74.7091 F1800
G1 X-23.23 Y33.18 E74.8026 F600
G1 E71.2525 F2400
G1 Z0.500 F420
G1 X-27.00 Y32.17 F6000
G1 Z0.300 F420
G1 E74.8296 F1800
G1 X-26.03 Y31.02 E74.9232 F600
G1 E71.3730 F2400
G1 Z0.500 F420
G1 X-29.70 Y29.70 F6000
G1 Z0.300 F420
G1 E74.9502 F1800
G1 X-28.64 Y28.64 E75.0437 F600
G1 E71.4936 F2400
G1 Z0.500 F420
G1 X-32.17 Y27.00 F6000
G1 Z0.300 F420
G1 E75.0707 F1800
G1 X-31.02 Y26.03 E75.1643 F600
G1 E71.6141 F2400
G1 Z0.500 F420
G1 X-34.40 Y24.09 F6000
G1 Z0.300 F420
G1 E75.1913 F1800
G1 X-33.18 Y23.23 E75.2848 F600
G1 E71.7347 F2400
G1 Z0.500 F420
G1 X-36.37 Y21.00 F6000
G1 Z0.300 F420
G1 E75.3462 F1800
G1 X-33.77 Y19.50 E75.5333 F600
G1 E71.9497 F2400
G1 Z0.500 F420
G1 X-38.06 Y17.75 F6000
G1 Z0.300 F420
G1 E75.5269 F1800
G1 X-36.71 Y17.12 E75.6205 F600
G1 E72.0703 F2400
G1 Z0.500 F420
G1 X-39.47 Y14.36 F6000
G1 Z0.300 F420
G1 E75.6475 F1800
G1 X-38.06 Y13.85 E75.7410 F600
G1 E72.1909 F2400
G1 Z0.500 F420
G1 X-40.57 Y10.87 F6000
G1 Z0.300 F420
G1 E75.7680 F1800
G1 X-39.12 Y10.48 E75.8616 F600
G1 E72.3114 F2400
G1 Z0.500 F420
G1 X-41.36 Y7.29 F6000
G1 Z0.300 F420
G1 E75.8886 F1800
G1 X-39.88 Y7.03 E75.9821 F600
G1 E72.4320 F2400
G1 Z0.500 F420
G1 X-41.84 Y3.66 F6000
G1 Z0.300 F420
G1 E76.0091 F1800
G1 X-40.35 Y3.53 E76.1027 F600
G1 E72.5525 F2400
G1 Z0.500 F420
G1 X-42.00 Y0.00 F6000
G1 Z0.300 F420
G1 E76.1640 F1800
G1 X-39.00 Y0.00 E76.3511 F600
G1 E72.7675 F2400
G1 Z0.500 F420
G1 X-41.84 Y-3.66 F6000
G1 Z0.300 F420
G1 E76.3448 F1800
G1 X-40.35 Y-3.53 E76.4383 F600
G1 E72.8882 F2400
G1 Z0.500 F420
G1 X-41.36 Y-7.29 F6000
G1 Z0.300 F420
G1 E76.4653 F1800
G1 X-39.88 Y-7.03 E76.5589 F600
G1 E73.0087 F2400
G1 Z0.500 F420
G1 X-40.57 Y-10.87 F6000
G1 Z0.300 F420
G1 E76.5859 F1800
G1 X-39.12 Y-10.48 E76.6794 F600
G1 E73.1293 F2400
G1 Z0.500 F420
G1 X-39.47 Y-14.36 F6000
G1 Z0.300 F420
G1 E76.7064 F1800
G1 X-38.06 Y-13.85 E76.8000 F600
G1 E73.2498 F2400
G1 Z0.500 F420
G1 X-38.06 Y-17.75 F6000
G1 Z0.300 F420
G1 E76.8270 F1800
G1 X-36.71 Y-17.12 E76.9205 F600
G1 E73.3704 F2400
G1 Z0.500 F420
G1 X-36.37 Y-21.00 F6000
G1 Z0.300 F420
G1 E76.9819 F1800
G1 X-33.77 Y-19.50 E77.1690 F600
G1 E73.5854 F2400
G1 Z0.500 F420
G1 X-34.40 Y-24.09 F6000
G1 Z0.300 F420
G1 E77.1626 F1800
G1 X-33.18 Y-23.23 E77.2562 F600
G1 E73.7060 F2400
G1 Z0.500 F420
G1 X-32.17 Y-27.00 F6000
G1 Z0.300 F420
G1 E77.2832 F1800
G1 X-31.02 Y-26.03 E77.3767 F600
G1 E73.8266 F2400
G1 Z0.500 F420
G1 X-29.70 Y-29.70 F6000
G1 Z0.300 F420
G1 E77.4037 F1800
G1 X-28.64 Y-28.64 E77.4973 F600
G1 E73.9471 F2400
G1 Z0.500 F420
G1 X-27.00 Y-32.17 F6000
G1 Z0.300 F420
G1 E77.5243 F1800
G1 X-26.03 Y-31.02 E77.6178 F600
G1 E74.0677 F2400
G1 Z0.500 F420
G1 X-24.09 Y-34.40 F6000
G1 Z0.300 F420
G1 E77.6448 F1800
G1 X-23.23 Y-33.18 E77.7384 F600
G1 E74.1882 F2400
G1 Z0.500 F420
G1 X-21.00 Y-36.37 F6000
G1 Z0.300 F420
G1 E77.7997 F1800
G1 X-19.50 Y-33.77 E77.9868 F600
G1 E74.4032 F2400
G1 Z0.500 F420
G1 X-17.75 Y-38.06 F6000
G1 Z0.300 F420
G1 E77.9805 F1800
G1 X-17.12 Y-36.71 E78.0740 F600
G1 E74.5239 F2400
G1 Z0.500 F420
G1 X-14.36 Y-39.47 F6000
G1 Z0.300 F420
G1 E78.1010 F1800
G1 X-13.85 Y-38.06 E78.1946 F600
G1 E74.6444 F2400
G1 Z0.500 F420
G1 X-10.87 Y-40.57 F6000
G1 Z0.300 F420
G1 E78.2216 F1800
G1 X-10.48 Y-39.12 E78.3151 F600
G1 E74.7650 F2400
G1 Z0.500 F420
G1 X-7.29 Y-41.36 F6000
G1 Z0.300 F420
G1 E78.3421 F1800
G1 X-7.03 Y-39.88 E78.4357 F600
G1 E74.8855 F2400
G1 Z0.500 F420
G1 X-3.66 Y-41.84 F6000
G1 Z0.300 F420
G1 E78.4627 F1800
G1 X-3.53 Y-40.35 E78.5562 F600
G1 E75.0061 F2400
G1 Z0.500 F420
G1 X0.00 Y-42.00 F6000
G1 Z0.300 F420
G1 E78.6176 F1800
G1 X0.00 Y-39.00 E78.8047 F600
G1 E75.2211 F2400
G1 Z0.500 F420
G1 X3.66 Y-41.84 F6000
G1 Z0.300 F420
G1 E78.7983 F1800
G1 X3.53 Y-40.35 E78.8919 F600
G1 E75.3417 F2400
G1 Z0.500 F420
G1 X7.29 Y-41.36 F6000
G1 Z0.300 F420
G1 E78.9189 F1800
G1 X7.03 Y-39.88 E79.0124 F600
G1 E75.4623 F2400
G1 Z0.500 F420
G1 X10.87 Y-40.57 F6000
G1 Z0.300 F420
G1 E79.0394 F1800
G1 X10.48 Y-39.12 E79.1330 F600
G1 E75.5828 F2400
G1 Z0.500 F420
G1 X14.36 Y-39.47 F6000
G1 Z0.300 F420
G1 E79.1600 F1800
G1 X13.85 Y-38.06 E79.2535 F600
G1 E75.7034 F2400
G1 Z0.500 F420
G1 X17.75 Y-38.06 F6000
G1 Z0.300 F420
G1 E79.2805 F1800
G1 X17.12 Y-36.71 E79.3741 F600
G1 E75.8239 F2400
G1 Z0.500 F420
G1 X21.00 Y-36.37 F6000
G1 Z0.300 F420
G1 E79.4355 F1800
G1 X19.50 Y-33.77 E79.6225 F600
G1 E76.0389 F2400
G1 Z0.500 F420
G1 X24.09 Y-34.40 F6000
G1 Z0.300 F420
G1 E79.6162 F1800
G1 X23.23 Y-33.18 E79.7097 F600
G1 E76.1596 F2400
G1 Z0.500 F420
G1 X27.00 Y-32.17 F6000
G1 Z0.300 F420
G1 E79.7367 F1800
G1 X26.03 Y-31.02 E79.8303 F600
G1 E76.2801 F2400
G1 Z0.500 F420
G1 X29.70 Y-29.70 F6000
G1 Z0.300 F420
G1 E79.8573 F1800
G1 X28.64 Y-28.64 E79.9508 F600
G1 E76.4007 F2400
G1 Z0.500 F420
G1 X32.17 Y-27.00 F6000
G1 Z0.300 F420
G1 E79.9778 F1800
G1 X31.02 Y-26.03 E80.0714 F600
G1 E76.5212 F2400
G1 Z0.500 F420
G1 X34.40 Y-24.09 F6000
G1 Z0.300 F420
G1 E80.0984 F1800
G1 X33.18 Y-23.23 E80.1919 F600
G1 E76.6418 F2400
G1 Z0.500 F420
G1 X36.37 Y-21.00 F6000
G1 Z0.300 F420
G1 E80.2533 F1800
G1 X33.77 Y-19.50 E80.4404 F600
G1 E76.8568 F2400
G1 Z0.500 F420
G1 X38.06 Y-17.75 F6000
G1 Z0.300 F420
G1 E80.4340 F1800
G1 X36.71 Y-17.12 E80.5276 F600
G1 E76.9774 F2400
G1 Z0.500 F420
G1 X39.47 Y-14.36 F6000
G1 Z0.300 F420
G1 E80.5546 F1800
G1 X38.06 Y-13.85 E80.6481 F600
G1 E77.0980 F2400
G1 Z0.500 F420
G1 X40.57 Y-10.87 F6000
G1 Z0.300 F420
G1 E80.6751 F1800
G1 X39.12 Y-10.48 E80.7687 F600
G1 E77.2185 F2400
G1 Z0.500 F420
G1 X41.36 Y-7.29 F6000
G1 Z0.300 F420
G1 E80.7957 F1800
G1 X39.88 Y-7.03 E80.8892 F600
G1 E77.3391 F2400
G1 Z0.500 F420
G1 X41.84 Y-3.66 F6000
G1 Z0.300 F420
G1 E80.9162 F1800
G1 X40.35 Y-3.53 E81.0098 F600
G1 E77.4596 F2400
G1 Z0.500 F420
;structure:shell-outer
G1 X70.00 Y0.00 F6000
G1 Z0.300 F420
G1 E81.1057 F1800
G1 X42.00 Y0.00 E82.8519 F600
G1 E79.2356 F2400
G1 Z0.500 F420
;structure:shell-outer
G1 X0.50 Y21.48 F6000
G1 Z0.300 F420
G1 E82.8710 F1800
G1 X0.50 Y24.88 E83.0831 F600
G1 X1.73 Y24.88 E83.1598
G1 X2.12 Y24.78 E83.1849
G1 X2.43 Y24.58 E83.2079
G1 X2.53 Y24.45 E83.2181
G1 X2.66 Y24.04 E83.2450
G1 X2.61 Y23.80 E83.2602
G1 X2.50 Y23.56 E83.2767
G1 X2.28 Y23.36 E83.2952
G1 X1.51 Y23.18 E83.3446
G1 E79.7382 F2400
G1 Z0.500 F420
G1 X0.50 Y23.18 F6000
G1 Z0.300 F420
G1 E83.3539 F1800
G1 X1.51 Y23.18 E83.4169 F600
G1 X2.02 Y23.00 E83.4506
G1 X2.41 Y22.38 E83.4963
G1 X2.66 Y21.48 E83.5545
G1 E79.9673 F2400
G1 Z0.500 F420
G1 X3.72 Y22.69 F6000
G1 Z0.300 F420
G1 E83.6061 F1800
G1 X5.86 Y22.69 E83.7396 F600
G1 X5.78 Y23.22 E83.7730
G1 X5.57 Y23.61 E83.8006
G1 X5.23 Y23.86 E83.8269
G1 X4.79 Y23.95 E83.8550
G1 X4.36 Y23.86 E83.8824
G1 X4.02 Y23.61 E83.9087
G1 X3.80 Y23.22 E83.9366
G1 X3.72 Y22.69 E83.9700
G1 X3.80 Y22.15 E84.0041
G1 X4.03 Y21.75 E84.0328
G1 X4.38 Y21.51 E84.0593
G1 X4.84 Y21.42 E84.0885
G1 X5.18 Y21.47 E84.1100
G1 X5.47 Y21.61 E84.1301
G1 X5.68 Y21.83 E84.1490
G1 X5.80 Y22.13 E84.1692
G1 E80.5598 F2400
G1 Z0.500 F420
G1 X6.92 Y23.26 F6000
G1 Z0.300 F420
G1 E84.1446 F1800
G1 X8.61 Y23.26 E84.2500 F600
G1 E80.6927 F2400
G1 Z0.500 F420
G1 X8.61 Y22.55 F6000
G1 Z0.300 F420
G1 E84.2772 F1800
G1 X6.92 Y22.55 E84.3826 F600
G1 E80.8253 F2400
G1 Z0.500 F420
G1 X9.72 Y24.13 F6000
G1 Z0.300 F420
G1 E84.4607 F1800
G1 X9.83 Y24.47 E84.4830 F600
G1 X10.04 Y24.73 E84.5039
G1 X10.33 Y24.89 E84.5245
G1 X10.67 Y24.94 E84.5460
G1 X11.06 Y24.87 E84.5707
G1 X11.35 Y24.68 E84.5923
G1 X11.53 Y24.41 E84.6125
G1 X11.60 Y24.06 E84.6348
G1 X11.53 Y23.85 E84.6486
G1 X11.39 Y23.68 E84.6623
G1 X11.02 Y23.45 E84.6895
G1 X10.58 Y23.30 E84.7185
G1 X11.02 Y23.18 E84.7469
G1 X11.38 Y23.02 E84.7715
G1 X11.67 Y22.74 E84.7966
G1 X11.77 Y22.45 E84.8158
G1 X11.70 Y22.03 E84.8423
G1 X11.47 Y21.70 E84.8674
G1 X11.13 Y21.50 E84.8920
G1 X10.71 Y21.42 E84.9187
G1 X10.31 Y21.48 E84.9439
G1 X9.99 Y21.65 E84.9665
G1 X9.77 Y21.92 E84.9882
G1 X9.67 Y22.28 E85.0115
G1 E81.4056 F2400
G1 Z0.500 F420
G1 X12.84 Y21.71 F6000
G1 Z0.300 F420
G1 E84.5934 F1800
G1 X12.84 Y21.65 E84.5972 F600
G1 E81.4284 F2400
G1 Z0.500 F420
G1 X15.61 Y21.48 F6000
G1 Z0.300 F420
G1 E85.0575 F1800
G1 X15.61 Y24.88 E85.2695 F600
G1 X13.90 Y22.65 E85.4447
G1 X16.21 Y22.65 E85.5888
G1 E81.9870 F2400
G1 Z0.500 F420
G1 X17.28 Y22.90 F6000
G1 Z0.300 F420
G1 E85.5771 F1800
G1 X19.15 Y22.90 E85.6937 F600
G1 E82.1311 F2400
G1 Z0.500 F420
G1 X21.92 Y21.48 F6000
G1 Z0.300 F420
G1 E85.7616 F1800
G1 X21.92 Y24.88 E85.9736 F600
G1 X20.21 Y22.65 E86.1488
G1 X22.52 Y22.65 E86.2928
G1 E82.6911 F2400
G1 Z0.500 F420
G1 X23.58 Y21.71 F6000
G1 Z0.300 F420
G1 E85.8789 F1800
G1 X23.58 Y21.65 E85.8826 F600
G1 E82.7139 F2400
G1 Z0.500 F420
G1 X26.35 Y21.48 F6000
G1 Z0.300 F420
G1 E86.3430 F1800
G1 X26.35 Y24.88 E86.5550 F600
G1 X24.64 Y22.65 E86.7302
G1 X26.95 Y22.65 E86.8742
G1 E83.2725 F2400
G1 Z0.500 F420
G1 X0.50 Y19.88 F6000
G1 Z0.300 F420
G1 E86.8988 F1800
G1 X1.47 Y19.88 E86.9592 F600
G1 X1.86 Y19.78 E86.9843
G1 X2.17 Y19.58 E87.0073
G1 X2.27 Y19.45 E87.0176
G1 X2.40 Y19.04 E87.0444
G1 X2.35 Y18.80 E87.0597
G1 X2.28 Y18.56 E87.0753
G1 X2.02 Y18.36 E87.0957
G1 X1.51 Y18.18 E87.1294
G1 X0.50 Y18.18 E87.1924
G1 E83.5949 F2400
G1 Z0.500 F420
G1 X1.51 Y18.18 F6000
G1 Z0.300 F420
G1 E87.2300 F1800
G1 X2.28 Y18.01 E87.2791 F600
G1 X2.50 Y17.81 E87.2977
G1 X2.61 Y17.56 E87.3147
G1 X2.66 Y17.32 E87.3300
G1 X2.53 Y16.91 E87.3568
G1 X2.43 Y16.78 E87.3670
G1 X2.12 Y16.59 E87.3897
G1 X1.73 Y16.48 E87.4150
G1 X0.50 Y16.48 E87.4917
G1 X0.50 Y19.88 E87.7036
G1 E84.0977 F2400
G1 Z0.500 F420
G1 X3.72 Y17.69 F6000
G1 Z0.300 F420
G1 E87.7361 F1800
G1 X5.86 Y17.69 E87.8696 F600
G1 X5.78 Y18.22 E87.9030
G1 X5.57 Y18.61 E87.9306
G1 X5.23 Y18.86 E87.9569
G1 X4.79 Y18.95 E87.9849
G1 X4.36 Y18.86 E88.0123
G1 X4.02 Y18.61 E88.0386
G1 X3.80 Y18.22 E88.0665
G1 X3.72 Y17.69 E88.1000
G1 X3.80 Y17.15 E88.1340
G1 X4.03 Y16.75 E88.1628
G1 X4.38 Y16.51 E88.1892
G1 X4.84 Y16.42 E88.2184
G1 X5.18 Y16.47 E88.2399
G1 X5.47 Y16.61 E88.2600
G1 X5.68 Y16.83 E88.2789
G1 X5.80 Y17.13 E88.2991
G1 E84.6901 F2400
G1 Z0.500 F420
G1 X6.92 Y18.26 F6000
G1 Z0.300 F420
G1 E88.2746 F1800
G1 X8.61 Y18.26 E88.3799 F600
G1 E84.8229 F2400
G1 Z0.500 F420
G1 X8.61 Y17.55 F6000
G1 Z0.300 F420
G1 E88.4071 F1800
G1 X6.92 Y17.55 E88.5125 F600
G1 E84.9555 F2400
G1 Z0.500 F420
G1 X10.89 Y19.94 F6000
G1 Z0.300 F420
G1 E88.5946 F1800
G1 X11.40 Y19.80 E88.6276 F600
G1 X11.79 Y19.42 E88.6615
G1 X12.03 Y18.86 E88.6995
G1 X12.11 Y18.18 E88.7422
G1 X12.03 Y17.51 E88.7843
G1 X11.79 Y16.95 E88.8223
G1 X11.40 Y16.56 E88.8567
G1 X10.89 Y16.42 E88.8896
G1 X10.37 Y16.56 E88.9232
G1 X9.99 Y16.95 E88.9572
G1 X9.75 Y17.51 E88.9952
G1 X9.67 Y18.18 E89.0372
G1 X9.75 Y18.85 E89.0793
G1 X9.99 Y19.42 E89.1179
G1 X10.37 Y19.80 E89.1514
G1 X10.89 Y19.94 E89.1849
G1 E85.5753 F2400
G1 Z0.500 F420
G1 X13.18 Y16.71 F6000
G1 Z0.300 F420
G1 E88.7632 F1800
G1 X13.18 Y16.65 E88.7669 F600
G1 E85.5982 F2400
G1 Z0.500 F420
G1 X16.28 Y19.17 F6000
G1 Z0.300 F420
G1 E89.2417 F1800
G1 X15.97 Y19.74 E89.2822 F600
G1 X15.38 Y19.94 E89.3210
G1 X14.87 Y19.82 E89.3537
G1 X14.52 Y19.47 E89.3846
G1 X14.31 Y18.87 E89.4242
G1 X14.24 Y18.05 E89.4755
G1 X14.31 Y17.36 E89.5187
G1 X14.53 Y16.84 E89.5539
G1 X14.87 Y16.53 E89.5826
G1 X15.34 Y16.42 E89.6127
G1 X15.79 Y16.51 E89.6413
G1 X16.11 Y16.76 E89.6667
G1 X16.29 Y17.13 E89.6923
G1 X16.36 Y17.56 E89.7195
G1 X16.29 Y17.96 E89.7448
G1 X16.10 Y18.31 E89.7696
G1 X15.79 Y18.54 E89.7937
G1 X15.39 Y18.62 E89.8191
G1 X14.93 Y18.53 E89.8484
G1 X14.51 Y18.28 E89.8788
G1 X14.24 Y18.05 E89.9010
G1 E86.2872 F2400
G1 Z0.500 F420
G1 X0.50 Y13.89 F6000
G1 Z0.300 F420
G1 E89.9162 F1800
G1 X1.36 Y11.48 E90.0757 F600
G1 X2.10 Y13.89 E90.2329
G1 X2.87 Y11.48 E90.3907
G1 X3.71 Y13.89 E90.5498
G1 E86.9497 F2400
G1 Z0.500 F420
G1 X4.77 Y13.26 F6000
G1 Z0.300 F420
G1 E90.5342 F1800
G1 X6.46 Y13.26 E90.6396 F600
G1 E87.0825 F2400
G1 Z0.500 F420
G1 X6.46 Y12.55 F6000
G1 Z0.300 F420
G1 E90.6668 F1800
G1 X4.77 Y12.55 E90.7722 F600
G1 E87.2151 F2400
G1 Z0.500 F420
G1 X8.74 Y14.94 F6000
G1 Z0.300 F420
G1 E90.8543 F1800
G1 X9.25 Y14.80 E90.8873 F600
G1 X9.64 Y14.42 E90.9212
G1 X9.88 Y13.86 E90.9592
G1 X9.96 Y13.18 E91.0019
G1 X9.88 Y12.51 E91.0440
G1 X9.64 Y11.95 E91.0820
G1 X9.25 Y11.56 E91.1164
G1 X8.74 Y11.42 E91.1493
G1 X8.22 Y11.56 E91.1829
G1 X7.84 Y11.95 E91.2169
G1 X7.60 Y12.51 E91.2549
G1 X7.52 Y13.18 E91.2969
G1 X7.60 Y13.85 E91.3390
G1 X7.84 Y14.42 E91.3776
G1 X8.22 Y14.80 E91.4111
G1 X8.74 Y14.94 E91.4447
G1 E87.8349 F2400
G1 Z0.500 F420
G1 X11.02 Y11.71 F6000
G1 Z0.300 F420
G1 E91.0228 F1800
G1 X11.02 Y11.65 E91.0266 F600
G1 E87.8578 F2400
G1 Z0.500 F420
G1 X14.12 Y14.17 F6000
G1 Z0.300 F420
G1 E91.5014 F1800
G1 X13.82 Y14.74 E91.5416 F600
G1 X13.23 Y14.94 E91.5804
G1 X12.71 Y14.82 E91.6137
G1 X12.37 Y14.47 E91.6441
G1 X12.16 Y13.87 E91.6837
G1 X12.09 Y13.05 E91.7350
G1 X12.16 Y12.36 E91.7783
G1 X12.38 Y11.84 E91.8135
G1 X12.71 Y11.53 E91.8417
G1 X13.19 Y11.42 E91.8724
G1 X13.64 Y11.51 E91.9010
G1 X13.96 Y11.76 E91.9264
G1 X14.14 Y12.13 E91.9520
G1 X14.21 Y12.56 E91.9792
G1 X14.14 Y12.96 E92.0045
G1 X13.95 Y13.31 E92.0293
G1 X13.64 Y13.54 E92.0534
G1 X13.24 Y13.62 E92.0788
G1 X12.78 Y13.53 E92.1081
G1 X12.36 Y13.28 E92.1385
G1 X12.09 Y13.05 E92.1606
G1 E88.5469 F2400
G1 Z0.500 F420
;structure:shell-inner
G1 X68.00 Y0.00 F6000
G1 Z0.300 F420
G1 E91.5470 F1800
G1 X67.71 Y5.92 E91.9169 F60
G1 X66.91 Y11.80
G1 X65.60 Y17.58
G1 X63.79 Y23.22
G1 E95.3169 F1800
G1 X61.50 Y28.68 E95.7600 F802
G1 X58.75 Y33.92 E96.2030
G1 X55.54 Y38.89 E96.6457
G1 X51.92 Y43.57 E97.0883
G1 X47.91 Y47.91 E97.5307
G1 X43.53 Y51.88 E97.9729
G1 X38.83 Y55.45 E98.4150
G1 X33.83 Y58.60 E98.8568
G1 X28.59 Y61.30 E99.2985
G1 X28.38 Y61.40 E99.3157
G1 E95.3157 F2400
G1 X22.91 Y63.61 F300
G1 X17.27 Y65.34
G1 X11.51 Y66.57
G1 X9.23 Y66.91
G1 E100.0008 F1800
G1 X3.36 Y67.43 E100.3682 F60
G1 X-2.53 Y67.44 E100.7354
G1 X-8.39 Y66.94 E101.1025
G1 E98.2008 F2400
G1 Z0.500 F420
G1 X66.00 Y0.00 F6000
G1 Z0.300 F420
G1 E100.7008 F1800
G1 X65.72 Y5.75 E101.0598 F60
G1 X64.94 Y11.45
G1 X63.67 Y17.06
G1 X61.92 Y22.54
G1 E104.6598 F1800
G1 X59.69 Y27.83 E105.0899 F802
G1 X57.01 Y32.92 E105.5198
G1 X53.90 Y37.74 E105.9495
G1 X50.39 Y42.28 E106.3790
G1 X46.49 Y46.49 E106.8084
G1 X42.25 Y50.35 E107.2375
G1 X37.68 Y53.81 E107.6665
G1 X32.83 Y56.87 E108.0953
G1 X27.74 Y59.49 E108.5239
G1 X26.10 Y60.22 E108.6586
G1 E104.4586 F2400
G1 X20.74 Y62.24 F300
G1 X15.23 Y63.78
G1 X9.61 Y64.84
G1 X6.80 Y65.18
G1 E109.3237 F1800
G1 X1.09 Y65.50 E109.6801 F60
G1 X-4.62 Y65.31 E110.0365
G1 X-10.29 Y64.64 E110.3926
G1 E107.4808 F2400
G1 Z0.500 F420
G1 X64.00 Y0.00 F6000
G1 Z0.300 F420
G1 E109.9808 F1800
G1 X63.73 Y5.58 E110.3289 F60
G1 X62.97 Y11.10
G1 X61.74 Y16.54
G1 X60.04 Y21.85
G1 E114.1289 F1800
G1 X57.88 Y26.99 E114.5460 F802
G1 X55.28 Y31.92 E114.9628
G1 X52.27 Y36.60 E115.3795
G1 X48.86 Y41.00 E115.7959
G1 X45.08 Y45.08 E116.2122
G1 X40.96 Y48.81 E116.6283
G1 X36.53 Y52.18 E117.0442
G1 X31.83 Y55.14 E117.4600
G1 X26.89 Y57.68 E117.8756
G1 X23.80 Y59.00 E118.1278
G1 E113.7278 F2400
G1 X18.56 Y60.83 F300
G1 X13.18 Y62.19
G1 X7.70 Y63.07
G1 X4.36 Y63.37
G1 E118.7793 F1800
G1 X-1.18 Y63.48 E119.1248 F60
G1 X-6.70 Y63.11 E119.4702
G1 X-12.17 Y62.26 E119.8154
G1 E116.8932 F2400
G1 Z0.500 F420
G1 X62.00 Y0.00 F6000
G1 Z0.300 F420
G1 E119.3933 F1800
G1 X61.74 Y5.40 E119.7305 F60
G1 X61.00 Y10.76
G1 X59.81 Y16.03
G1 X58.16 Y21.17
G1 E123.7305 F1800
G1 X56.07 Y26.14 E124.1345 F802
G1 X53.55 Y30.92 E124.5383
G1 X50.63 Y35.45 E124.9419
G1 X47.32 Y39.71 E125.3453
G1 X43.66 Y43.66 E125.7485
G1 X39.67 Y47.28 E126.1516
G1 X35.39 Y50.54 E126.5544
G1 X30.83 Y53.40 E126.9571
G1 X26.05 Y55.86 E127.3596
G1 X21.48 Y57.75 E127.7293
G1 E123.1293 F2400
G1 X16.36 Y59.37 F300
G1 X11.12 Y60.55
G1 X5.80 Y61.26
G1 X1.92 Y61.48
G1 E128.3682 F1800
G1 X-3.44 Y61.39 E128.7027 F60
G1 X-8.77 Y60.82 E129.0372
G1 X-14.04 Y59.80 E129.3714
G1 E126.4386 F2400
G1 Z0.500 F420
G1 X60.00 Y0.00 F6000
G1 Z0.300 F420
G1 E128.9386 F1800
G1 X59.74 Y5.23 E129.2650 F60
G1 X59.03 Y10.41
G1 X57.88 Y15.51
G1 X56.28 Y20.48
G1 E133.4650 F1800
G1 X54.25 Y25.30 E133.8559 F802
G1 X51.82 Y29.92 E134.2466
G1 X48.99 Y34.30 E134.6371
G1 X45.79 Y38.42 E135.0275
G1 X42.25 Y42.25 E135.4177
G1 X38.39 Y45.75 E135.8077
G1 X34.24 Y48.90 E136.1975
G1 X29.83 Y51.67 E136.5871
G1 X25.20 Y54.05 E136.9766
G1 X20.39 Y56.02 E137.3658
G1 X19.15 Y56.44 E137.4638
G1 E132.6638 F2400
G1 X14.15 Y57.87 F300
G1 X9.05 Y58.86
G1 X3.88 Y59.39
G1 X-0.52 Y59.49
G1 E138.1016 F1800
G1 X-5.70 Y59.20 E138.4252 F60
G1 X-10.83 Y58.45 E138.7487
G1 X-15.88 Y57.25 E139.0720
G1 E136.1282 F2400
G1 Z0.500 F420
G1 X58.00 Y0.00 F6000
G1 Z0.300 F420
G1 E138.6282 F1800
G1 X57.75 Y5.05 E138.9437 F60
G1 X57.06 Y10.06
G1 X55.94 Y14.99
G1 X54.40 Y19.80
G1 E143.3437 F1800
G1 X52.44 Y24.45 E143.7216 F802
G1 X50.09 Y28.92 E144.0992
G1 X47.35 Y33.16 E144.4767
G1 X44.26 Y37.14 E144.8540
G1 X40.84 Y40.84 E145.2311
G1 X37.10 Y44.22 E145.6081
G1 X33.09 Y47.26 E145.9848
G1 X28.83 Y49.94 E146.3614
G1 X24.36 Y52.24 E146.7378
G1 X19.70 Y54.14 E147.1140
G1 X16.80 Y55.09 E147.3425
G1 E142.3425 F2400
G1 X11.93 Y56.32 F300
G1 X6.97 Y57.11
G1 X1.97 Y57.48
G1 X-2.96 Y57.41
G1 E147.9688 F1800
G1 X-7.95 Y56.90 E148.2815 F60
G1 X-12.87 Y55.97 E148.5940
G1 X-17.69 Y54.61 E148.9064
G1 E145.9512 F2400
G1 Z0.500 F420
;structure:shell-outer
G1 X-29.50 Y21.48 F6000
G1 Z0.300 F420
G1 E149.0801 F1800
G1 X-29.50 Y24.88 E149.2922 F600
G1 X-28.27 Y24.88 E149.3689
G1 X-27.88 Y24.78 E149.3940
G1 X-27.57 Y24.58 E149.4170
G1 X-27.47 Y24.45 E149.4272
G1 X-27.34 Y24.04 E149.4540
G1 X-27.39 Y23.80 E149.4693
G1 X-27.50 Y23.56 E149.4858
G1 X-27.72 Y23.36 E149.5043
G1 X-28.49 Y23.18 E149.5537
G1 E145.9473 F2400
G1 Z0.500 F420
G1 X-29.50 Y23.18 F6000
G1 Z0.300 F420
G1 E149.5630 F1800
G1 X-28.49 Y23.18 E149.6259 F600
G1 X-27.98 Y23.00 E149.6597
G1 X-27.59 Y22.38 E149.7054
G1 X-27.34 Y21.48 E149.7636
G1 E146.1764 F2400
G1 Z0.500 F420
G1 X-26.28 Y22.69 F6000
G1 Z0.300 F420
G1 E149.8152 F1800
G1 X-24.14 Y22.69 E149.9487 F600
G1 X-24.22 Y23.22 E149.9821
G1 X-24.43 Y23.61 E150.0097
G1 X-24.77 Y23.86 E150.0360
G1 X-25.21 Y23.95 E150.0640
G1 X-25.64 Y23.86 E150.0914
G1 X-25.98 Y23.61 E150.1178
G1 X-26.20 Y23.22 E150.1457
G1 X-26.28 Y22.69 E150.1791
G1 X-26.20 Y22.15 E150.2132
G1 X-25.97 Y21.75 E150.2419
G1 X-25.62 Y21.51 E150.2684
G1 X-25.16 Y21.42 E150.2976
G1 X-24.82 Y21.47 E150.3191
G1 X-24.53 Y21.61 E150.3391
G1 X-24.32 Y21.83 E150.3581
G1 X-24.20 Y22.13 E150.3783
G1 E146.7689 F2400
G1 Z0.500 F420
G1 X-23.08 Y23.26 F6000
G1 Z0.300 F420
G1 E150.3537 F1800
G1 X-21.39 Y23.26 E150.4591 F600
G1 E146.9017 F2400
G1 Z0.500 F420
G1 X-21.39 Y22.55 F6000
G1 Z0.300 F420
G1 E150.4863 F1800
G1 X-23.08 Y22.55 E150.5917 F600
G1 E147.0343 F2400
G1 Z0.500 F420
G1 X-18.62 Y21.48 F6000
G1 Z0.300 F420
G1 E150.6651 F1800
G1 X-18.62 Y24.88 E150.8772 F600
G1 X-20.33 Y22.65 E151.0524
G1 X-18.02 Y22.65 E151.1965
G1 E147.5944 F2400
G1 Z0.500 F420
G1 X-16.95 Y21.71 F6000
G1 Z0.300 F420
G1 E150.7826 F1800
G1 X-16.95 Y21.65 E150.7863 F600
G1 E147.6173 F2400
G1 Z0.500 F420
G1 X-14.67 Y24.94 F6000
G1 Z0.300 F420
G1 E151.2555 F1800
G1 X-14.16 Y24.80 E151.2884 F600
G1 X-13.77 Y24.42 E151.3224
G1 X-13.53 Y23.86 E151.3604
G1 X-13.45 Y23.18 E151.4031
G1 X-13.53 Y22.51 E151.4452
G1 X-13.77 Y21.95 E151.4832
G1 X-14.16 Y21.56 E151.5176
G1 X-14.67 Y21.42 E151.5506
G1 X-15.19 Y21.56 E151.5842
G1 X-15.57 Y21.95 E151.6181
G1 X-15.81 Y22.51 E151.6561
G1 X-15.89 Y23.18 E151.6982
G1 X-15.81 Y23.85 E151.7403
G1 X-15.57 Y24.42 E151.7788
G1 X-15.19 Y24.80 E151.8124
G1 X-14.67 Y24.94 E151.8459
G1 E148.2359 F2400
G1 Z0.500 F420
G1 X-12.39 Y22.90 F6000
G1 Z0.300 F420
G1 E151.8265 F1800
G1 X-10.52 Y22.90 E151.9431 F600
G1 E148.3801 F2400
G1 Z0.500 F420
G1 X-7.47 Y24.88 F6000
G1 Z0.300 F420
G1 E152.0162 F1800
G1 X-9.22 Y24.88 E152.1254 F600
G1 X-9.36 Y23.14 E152.2343
G1 X-9.08 Y23.45 E152.2603
G1 X-8.91 Y23.57 E152.2733
G1 X-8.72 Y23.64 E152.2859
G1 X-8.53 Y23.67 E152.2979
G1 X-8.33 Y23.68 E152.3104
G1 X-7.92 Y23.59 E152.3366
G1 X-7.60 Y23.37 E152.3608
G1 X-7.39 Y23.03 E152.3857
G1 X-7.31 Y22.61 E152.4124
G1 X-7.38 Y22.14 E152.4420
G1 X-7.59 Y21.77 E152.4686
G1 X-7.94 Y21.51 E152.4957
G1 X-8.44 Y21.42 E152.5274
G1 X-8.81 Y21.48 E152.5508
G1 X-9.12 Y21.64 E152.5726
G1 X-9.34 Y21.91 E152.5943
G1 X-9.46 Y22.27 E152.6180
G1 E149.0110 F2400
G1 Z0.500 F420
G1 X-6.25 Y21.71 F6000
G1 Z0.300 F420
G1 E152.1992 F1800
G1 X-6.25 Y21.65 E152.2030 F600
G1 E149.0339 F2400
G1 Z0.500 F420
G1 X-3.96 Y24.94 F6000
G1 Z0.300 F420
G1 E152.6721 F1800
G1 X-3.45 Y24.80 E152.7051 F600
G1 X-3.06 Y24.42 E152.7391
G1 X-2.82 Y23.86 E152.7771
G1 X-2.74 Y23.18 E152.8198
G1 X-2.82 Y22.51 E152.8618
G1 X-3.06 Y21.95 E152.8998
G1 X-3.45 Y21.56 E152.9342
G1 X-3.96 Y21.42 E152.9672
G1 X-4.48 Y21.56 E153.0008
G1 X-4.86 Y21.95 E153.0348
G1 X-5.10 Y22.51 E153.0728
G1 X-5.18 Y23.18 E153.1148
G1 X-5.10 Y23.85 E153.1569
G1 X-4.86 Y24.42 E153.1955
G1 X-4.48 Y24.80 E153.2290
G1 X-3.96 Y24.94 E153.2626
G1 E149.6525 F2400
G1 Z0.500 F420
G1 X-29.50 Y19.88 F6000
G1 Z0.300 F420
G1 E153.2793 F1800
G1 X-28.53 Y19.88 E153.3398 F600
G1 X-28.14 Y19.78 E153.3649
G1 X-27.83 Y19.58 E153.3879
G1 X-27.73 Y19.45 E153.3982
G1 X-27.60 Y19.04 E153.4250
G1 X-27.65 Y18.80 E153.4403
G1 X-27.72 Y18.56 E153.4559
G1 X-27.98 Y18.36 E153.4763
G1 X-28.49 Y18.18 E153.5100
G1 X-29.50 Y18.18 E153.5730
G1 E149.9751 F2400
G1 Z0.500 F420
G1 X-28.49 Y18.18 F6000
G1 Z0.300 F420
G1 E153.6106 F1800
G1 X-27.72 Y18.01 E153.6598 F600
G1 X-27.50 Y17.81 E153.6783
G1 X-27.39 Y17.56 E153.6954
G1 X-27.34 Y17.32 E153.7107
G1 X-27.47 Y16.91 E153.7375
G1 X-27.57 Y16.78 E153.7477
G1 X-27.88 Y16.59 E153.7704
G1 X-28.27 Y16.48 E153.7957
G1 X-29.50 Y16.48 E153.8724
G1 X-29.50 Y19.88 E154.0844
G1 E150.4780 F2400
G1 Z0.500 F420
G1 X-26.28 Y17.69 F6000
G1 Z0.300 F420
G1 E154.1169 F1800
G1 X-24.14 Y17.69 E154.2504 F600
G1 X-24.22 Y18.22 E154.2838
G1 X-24.43 Y18.61 E154.3115
G1 X-24.77 Y18.86 E154.3378
G1 X-25.21 Y18.95 E154.3658
G1 X-25.64 Y18.86 E154.3932
G1 X-25.98 Y18.61 E154.4195
G1 X-26.20 Y18.22 E154.4474
G1 X-26.28 Y17.69 E154.4809
G1 X-26.20 Y17.15 E154.5149
G1 X-25.97 Y16.75 E154.5437
G1 X-25.62 Y16.51 E154.5702
G1 X-25.16 Y16.42 E154.5994
G1 X-24.82 Y16.47 E154.6208
G1 X-24.53 Y16.61 E154.6409
G1 X-24.32 Y16.83 E154.6599
G1 X-24.20 Y17.13 E154.6800
G1 E151.0706 F2400
G1 Z0.500 F420
G1 X-23.08 Y18.26 F6000
G1 Z0.300 F420
G1 E154.6555 F1800
G1 X-21.39 Y18.26 E154.7609 F600
G1 E151.2035 F2400
G1 Z0.500 F420
G1 X-21.39 Y17.55 F6000
G1 Z0.300 F420
G1 E154.7881 F1800
G1 X-23.08 Y17.55 E154.8935 F600
G1 E151.3361 F2400
G1 Z0.500 F420
G1 X-19.11 Y19.94 F6000
G1 Z0.300 F420
G1 E154.9756 F1800
G1 X-18.60 Y19.80 E155.0086 F600
G1 X-18.21 Y19.42 E155.0425
G1 X-17.97 Y18.86 E155.0805
G1 X-17.89 Y18.18 E155.1232
G1 X-17.97 Y17.51 E155.1653
G1 X-18.21 Y16.95 E155.2033
G1 X-18.60 Y16.56 E155.2377
G1 X-19.11 Y16.42 E155.2707
G1 X-19.63 Y16.56 E155.3043
G1 X-20.01 Y16.95 E155.3382
G1 X-20.25 Y17.51 E155.3762
G1 X-20.33 Y18.18 E155.4183
G1 X-20.25 Y18.85 E155.4604
G1 X-20.01 Y19.42 E155.4990
G1 X-19.63 Y19.80 E155.5325
G1 X-19.11 Y19.94 E155.5661
G1 E151.9560 F2400
G1 Z0.500 F420
G1 X-16.82 Y16.71 F6000
G1 Z0.300 F420
G1 E155.1442 F1800
G1 X-16.82 Y16.65 E155.1480 F600
G1 E151.9789 F2400
G1 Z0.500 F420
G1 X-15.76 Y19.00 F6000
G1 Z0.300 F420
G1 E155.5984 F1800
G1 X-15.29 Y19.24 E155.6313 F600
G1 X-14.92 Y19.55 E155.6614
G1 X-14.67 Y19.88 E155.6872
G1 X-14.67 Y16.48 E155.8992
G1 E152.3069 F2400
G1 Z0.500 F420
G1 X-29.50 Y13.89 F6000
G1 Z0.300 F420
G1 E155.9361 F1800
G1 X-28.64 Y11.48 E156.0957 F600
G1 X-27.90 Y13.89 E156.2530
G1 X-27.13 Y11.48 E156.4108
G1 X-26.29 Y13.89 E156.5699
G1 E152.9695 F2400
G1 Z0.500 F420
G1 X-25.23 Y13.26 F6000
G1 Z0.300 F420
G1 E156.5544 F1800
G1 X-23.54 Y13.26 E156.6598 F600
G1 E153.1023 F2400
G1 Z0.500 F420
G1 X-23.54 Y12.55 F6000
G1 Z0.300 F420
G1 E156.6870 F1800
G1 X-25.23 Y12.55 E156.7924 F600
G1 E153.2349 F2400
G1 Z0.500 F420
G1 X-21.26 Y14.94 F6000
G1 Z0.300 F420
G1 E156.8745 F1800
G1 X-20.75 Y14.80 E156.9075 F600
G1 X-20.36 Y14.42 E156.9415
G1 X-20.12 Y13.86 E156.9795
G1 X-20.04 Y13.18 E157.0222
G1 X-20.12 Y12.51 E157.0642
G1 X-20.36 Y11.95 E157.1022
G1 X-20.75 Y11.56 E157.1366
G1 X-21.26 Y11.42 E157.1696
G1 X-21.78 Y11.56 E157.2032
G1 X-22.16 Y11.95 E157.2372
G1 X-22.40 Y12.51 E157.2752
G1 X-22.48 Y13.18 E157.3173
G1 X-22.40 Y13.85 E157.3593
G1 X-22.16 Y14.42 E157.3979
G1 X-21.78 Y14.80 E157.4314
G1 X-21.26 Y14.94 E157.4650
G1 E153.8549 F2400
G1 Z0.500 F420
G1 X-18.98 Y11.71 F6000
G1 Z0.300 F420
G1 E157.0431 F1800
G1 X-18.98 Y11.65 E157.0468 F600
G1 E153.8778 F2400
G1 Z0.500 F420
G1 X-16.89 Y14.92 F6000
G1 Z0.300 F420
G1 E157.5223 F1800
G1 X-16.54 Y14.86 E157.5444 F600
G1 X-16.25 Y14.71 E157.5648
G1 X-16.06 Y14.46 E157.5844
G1 X-15.99 Y14.11 E157.6066
G1 X-16.13 Y13.66 E157.6360
G1 X-16.42 Y13.40 E157.6603
G1 X-17.35 Y13.12 E157.7209
G1 X-17.74 Y12.84 E157.7508
G1 X-17.91 Y12.35 E157.7832
G1 X-17.83 Y11.95 E157.8086
G1 X-17.62 Y11.66 E157.8310
G1 X-17.29 Y11.48 E157.8544
G1 X-16.89 Y11.42 E157.8796
G1 X-16.48 Y11.48 E157.9055
G1 X-16.15 Y11.66 E157.9289
G1 X-15.94 Y11.95 E157.9513
G1 X-15.86 Y12.35 E157.9767
G1 X-16.04 Y12.84 E158.0093
G1 X-16.42 Y13.12 E158.0387
G1 X-17.35 Y13.40 E158.0993
G1 X-17.64 Y13.66 E158.1236
G1 X-17.78 Y14.11 E158.1530
G1 X-17.71 Y14.46 E158.1752
G1 X-17.52 Y14.71 E158.1948
G1 X-17.24 Y14.86 E158.2146
G1 X-16.89 Y14.92 E158.2368
G1 E154.6221 F2400
G1 Z0.500 F420
;structure:shell-inner
G1 X56.00 Y0.00 F6000
G1 Z0.300 F420
G1 E157.6223 F1800
G1 X55.76 Y4.88 E157.9269 F60
G1 X55.09 Y9.71
G1 X54.01 Y14.47
G1 X52.52 Y19.12
G1 E161.9269 F1800
G1 X50.63 Y23.61 E162.4133 F601
G1 X48.35 Y27.92 E162.8994
G1 X45.71 Y32.01 E163.3853
G1 X42.73 Y35.85 E163.8710
G1 X39.42 Y39.42 E164.3564
G1 X35.82 Y42.69 E164.8415
G1 X31.95 Y45.62 E165.3265
G1 X27.83 Y48.21 E165.8112
G1 X26.83 Y48.77 E165.9257
G1 E161.8257 F2400
G1 X22.47 Y50.89 F300
G1 X17.94 Y52.63
G1 X13.27 Y53.97
G1 X8.52 Y54.89
G1 X7.93 Y54.98
G1 E166.3647 F1800
G1 X3.11 Y55.43 E166.6668 F60
G1 X-1.73 Y55.46 E166.9688
G1 X-6.56 Y55.07 E167.2706
G1 E164.3043 F2400
G1 Z0.500 F420
G1 X54.00 Y0.00 F6000
G1 Z0.300 F420
G1 E166.8043 F1800
G1 X53.77 Y4.70 E167.0980 F60
G1 X53.12 Y9.37
G1 X52.08 Y13.95
G1 X50.64 Y18.43
G1 E171.2980 F1800
G1 X48.81 Y22.76 E171.7670 F601
G1 X46.62 Y26.92 E172.2358
G1 X44.07 Y30.86 E172.7042
G1 X41.20 Y34.57 E173.1725
G1 X38.01 Y38.01 E173.6405
G1 X34.53 Y41.15 E174.1083
G1 X30.80 Y43.98 E174.5758
G1 X26.83 Y46.48 E175.0431
G1 X24.59 Y47.68 E175.2969
G1 E170.9969 F2400
G1 X20.33 Y49.62 F300
G1 X15.92 Y51.18
G1 X11.40 Y52.34
G1 X6.79 Y53.11
G1 X5.50 Y53.25
G1 E175.7284 F1800
G1 X0.84 Y53.50 E176.0196 F60
G1 X-3.82 Y53.34 E176.3106
G1 X-8.45 Y52.78 E176.6015
G1 E173.6232 F2400
G1 Z0.500 F420
G1 X52.00 Y0.00 F6000
G1 Z0.300 F420
G1 E176.1232 F1800
G1 X51.77 Y4.53 E176.4061 F60
G1 X51.16 Y9.02
G1 X50.15 Y13.44
G1 X48.76 Y17.75
G1 E180.8061 F1800
G1 X47.00 Y21.92 E181.2576 F601
G1 X44.89 Y25.92 E181.7090
G1 X42.44 Y29.71 E182.1600
G1 X39.66 Y33.28 E182.6109
G1 X36.59 Y36.59 E183.0615
G1 X33.25 Y39.62 E183.5118
G1 X29.65 Y42.35 E183.9619
G1 X25.83 Y44.74 E184.4118
G1 X22.34 Y46.56 E184.8049
G1 E180.3049 F2400
G1 X18.18 Y48.31 F300
G1 X13.90 Y49.68
G1 X9.51 Y50.67
G1 X5.05 Y51.28
G1 X3.07 Y51.43
G1 E185.2294 F1800
G1 X-1.43 Y51.47 E185.5097 F60
G1 X-5.90 Y51.12 E185.7897
G1 X-10.33 Y50.39 E186.0696
G1 E183.0791 F2400
G1 Z0.500 F420
G1 X50.00 Y0.00 F6000
G1 Z0.300 F420
G1 E185.5791 F1800
G1 X49.78 Y4.36 E185.8511 F60
G1 X49.19 Y8.67
G1 X48.22 Y12.92
G1 X46.88 Y17.06
G1 E190.4511 F1800
G1 X45.19 Y21.07 E190.8852 F601
G1 X43.16 Y24.92 E191.3191
G1 X40.80 Y28.57 E191.7528
G1 X38.13 Y32.00 E192.1862
G1 X35.18 Y35.18 E192.6194
G1 X31.96 Y38.09 E193.0524
G1 X28.50 Y40.71 E193.4851
G1 X24.83 Y43.01 E193.9175
G1 X20.98 Y44.99 E194.3498
G1 X20.06 Y45.40 E194.4499
G1 E189.7499 F2400
G1 X16.02 Y46.95 F300
G1 X11.86 Y48.14
G1 X7.62 Y48.96
G1 X3.32 Y49.41
G1 X0.63 Y49.50
G1 E194.8854 F1800
G1 X-3.69 Y49.34 E195.1546 F60
G1 X-7.97 Y48.80 E195.4237
G1 X-12.19 Y47.89 E195.6927
G1 E192.6894 F2400
G1 Z0.500 F420
G1 X48.00 Y0.00 F6000
G1 Z0.300 F420
G1 E195.1895 F1800
G1 X47.79 Y4.18 E195.4506 F60
G1 X47.22 Y8.33
G1 X46.28 Y12.40
G1 X45.00 Y16.38
G1 E200.2506 F1800
G1 X43.38 Y20.23 E200.6673 F601
G1 X41.42 Y23.92 E201.0838
G1 X39.16 Y27.42 E201.5001
G1 X36.60 Y30.71 E201.9161
G1 X33.76 Y33.76 E202.3319
G1 X30.68 Y36.56 E202.7474
G1 X27.36 Y39.07 E203.1627
G1 X23.83 Y41.28 E203.5778
G1 X20.13 Y43.18 E203.9926
G1 X17.76 Y44.18 E204.2494
G1 E199.3494 F2400
G1 X13.84 Y45.54 F300
G1 X9.81 Y46.54
G1 X5.71 Y47.19
G1 X1.58 Y47.48
G1 X-1.82 Y47.45
G1 E204.6765 F1800
G1 X-5.94 Y47.09 E204.9348 F60
G1 X-10.02 Y46.36 E205.1929
G1 X-14.01 Y45.29 E205.4509
G1 E202.4346 F2400
G1 Z0.500 F420
G1 X46.00 Y0.00 F6000
G1 Z0.300 F420
G1 E204.9346 F1800
G1 X45.80 Y4.01 E205.1848 F60
G1 X45.25 Y7.98
G1 X44.35 Y11.88
G1 X43.12 Y15.69
G1 E210.1848 F1800
G1 X41.56 Y19.38 E210.5841 F601
G1 X39.69 Y22.92 E210.9832
G1 X37.52 Y26.27 E211.3821
G1 X35.07 Y29.43 E211.7807
G1 X32.35 Y32.35 E212.1791
G1 X29.39 Y35.03 E212.5772
G1 X26.21 Y37.43 E212.9751
G1 X22.83 Y39.55 E213.3727
G1 X19.29 Y41.36 E213.7702
G1 X15.60 Y42.86 E214.1673
G1 X15.45 Y42.92 E214.1836
G1 E209.0836 F2400
G1 X11.64 Y44.07 F300
G1 X7.75 Y44.89
G1 X3.81 Y45.37
G1 X-0.16 Y45.50
G1 X-4.13 Y45.28
G1 X-4.25 Y45.27
G1 E214.6238 F1800
G1 X-8.18 Y44.70 E214.8711 F60
G1 X-12.04 Y43.79 E215.1182
G1 X-15.80 Y42.55 E215.3652
G1 E212.3355 F2400
G1 Z0.500 F420
;structure:shell-outer
G1 X-70.00 Y0.00 F6000
G1 Z0.300 F420
G1 E215.4753 F1800
G1 X-42.00 Y0.00 E217.2215 F600
G1 E213.6052 F2400
G1 Z0.500 F420
;structure:shell-outer
G1 X-29.50 Y-3.52 F6000
G1 Z0.300 F420
G1 E217.2407 F1800
G1 X-29.50 Y-0.12 E217.4527 F600
G1 X-28.27 Y-0.12 E217.5294
G1 X-27.88 Y-0.22 E217.5545
G1 X-27.57 Y-0.42 E217.5775
G1 X-27.47 Y-0.55 E217.5877
G1 X-27.34 Y-0.96 E217.6146
G1 X-27.39 Y-1.20 E217.6299
G1 X-27.50 Y-1.44 E217.6463
G1 X-27.72 Y-1.64 E217.6649
G1 X-28.49 Y-1.82 E217.7142
G1 E214.1078 F2400
G1 Z0.500 F420
G1 X-29.50 Y-1.82 F6000
G1 Z0.300 F420
G1 E217.7235 F1800
G1 X-28.49 Y-1.82 E217.7865 F600
G1 X-27.98 Y-2.00 E217.8202
G1 X-27.59 Y-2.62 E217.8659
G1 X-27.34 Y-3.52 E217.9241
G1 E214.3369 F2400
G1 Z0.500 F420
G1 X-26.28 Y-2.31 F6000
G1 Z0.300 F420
G1 E217.9757 F1800
G1 X-24.14 Y-2.31 E218.1092 F600
G1 X-24.22 Y-1.78 E218.1426
G1 X-24.43 Y-1.39 E218.1702
G1 X-24.77 Y-1.14 E218.1966
G1 X-25.21 Y-1.05 E218.2246
G1 X-25.64 Y-1.14 E218.2520
G1 X-25.98 Y-1.39 E218.2783
G1 X-26.20 Y-1.78 E218.3062
G1 X-26.28 Y-2.31 E218.3396
G1 X-26.20 Y-2.85 E218.3737
G1 X-25.97 Y-3.25 E218.4025
G1 X-25.62 Y-3.49 E218.4289
G1 X-25.16 Y-3.58 E218.4582
G1 X-24.82 Y-3.53 E218.4796
G1 X-24.53 Y-3.39 E218.4997
G1 X-24.32 Y-3.17 E218.5186
G1 X-24.20 Y-2.87 E218.5388
G1 E214.9295 F2400
G1 Z0.500 F420
G1 X-23.08 Y-1.74 F6000
G1 Z0.300 F420
G1 E218.5142 F1800
G1 X-21.39 Y-1.74 E218.6196 F600
G1 E215.0623 F2400
G1 Z0.500 F420
G1 X-21.39 Y-2.45 F6000
G1 Z0.300 F420
G1 E218.6468 F1800
G1 X-23.08 Y-2.45 E218.7522 F600
G1 E215.1949 F2400
G1 Z0.500 F420
G1 X-18.62 Y-3.52 F6000
G1 Z0.300 F420
G1 E218.8257 F1800
G1 X-18.62 Y-0.12 E219.0377 F600
G1 X-20.33 Y-2.35 E219.2129
G1 X-18.02 Y-2.35 E219.3570
G1 E215.7549 F2400
G1 Z0.500 F420
G1 X-16.95 Y-3.29 F6000
G1 Z0.300 F420
G1 E218.9431 F1800
G1 X-16.95 Y-3.35 E218.9468 F600
G1 E215.7778 F2400
G1 Z0.500 F420
G1 X-15.89 Y-1.00 F6000
G1 Z0.300 F420
G1 E219.3972 F1800
G1 X-15.42 Y-0.76 E219.4301 F600
G1 X-15.05 Y-0.45 E219.4602
G1 X-14.80 Y-0.12 E219.4860
G1 X-14.80 Y-3.52 E219.6981
G1 E216.1057 F2400
G1 Z0.500 F420
G1 X-13.74 Y-2.10 F6000
G1 Z0.300 F420
G1 E219.6963 F1800
G1 X-11.87 Y-2.10 E219.8129 F600
G1 E216.2499 F2400
G1 Z0.500 F420
G1 X-8.82 Y-0.12 F6000
G1 Z0.300 F420
G1 E219.8861 F1800
G1 X-10.57 Y-0.12 E219.9952 F600
G1 X-10.71 Y-1.86 E220.1041
G1 X-10.43 Y-1.55 E220.1301
G1 X-10.26 Y-1.43 E220.1431
G1 X-10.07 Y-1.36 E220.1557
G1 X-9.88 Y-1.33 E220.1677
G1 X-9.68 Y-1.32 E220.1802
G1 X-9.27 Y-1.41 E220.2064
G1 X-8.95 Y-1.63 E220.2306
G1 X-8.74 Y-1.97 E220.2555
G1 X-8.66 Y-2.39 E220.2822
G1 X-8.73 Y-2.86 E220.3118
G1 X-8.94 Y-3.23 E220.3384
G1 X-9.29 Y-3.49 E220.3656
G1 X-9.79 Y-3.58 E220.3973
G1 X-10.16 Y-3.52 E220.4206
G1 X-10.47 Y-3.36 E220.4424
G1 X-10.69 Y-3.09 E220.4641
G1 X-10.81 Y-2.73 E220.4878
G1 E216.8808 F2400
G1 Z0.500 F420
G1 X-7.60 Y-3.29 F6000
G1 Z0.300 F420
G1 E220.0690 F1800
G1 X-7.60 Y-3.35 E220.0728 F600
G1 E216.9037 F2400
G1 Z0.500 F420
G1 X-6.54 Y-1.00 F6000
G1 Z0.300 F420
G1 E220.5231 F1800
G1 X-6.07 Y-0.76 E220.5561 F600
G1 X-5.70 Y-0.45 E220.5862
G1 X-5.45 Y-0.12 E220.6120
G1 X-5.45 Y-3.52 E220.8240
G1 E217.2317 F2400
G1 Z0.500 F420
G1 X-29.50 Y-5.12 F6000
G1 Z0.300 F420
G1 E220.8584 F1800
G1 X-28.53 Y-5.12 E220.9189 F600
G1 X-28.14 Y-5.22 E220.9440
G1 X-27.83 Y-5.42 E220.9670
G1 X-27.73 Y-5.55 E220.9772
G1 X-27.60 Y-5.96 E221.0041
G1 X-27.65 Y-6.20 E221.0194
G1 X-27.72 Y-6.44 E221.0349
G1 X-27.98 Y-6.64 E221.0554
G1 X-28.49 Y-6.82 E221.0891
G1 X-29.50 Y-6.82 E221.1521
G1 E217.5542 F2400
G1 Z0.500 F420
G1 X-28.49 Y-6.82 F6000
G1 Z0.300 F420
G1 E221.1897 F1800
G1 X-27.72 Y-6.99 E221.2389 F600
G1 X-27.50 Y-7.19 E221.2574
G1 X-27.39 Y-7.44 E221.2744
G1 X-27.34 Y-7.68 E221.2897
G1 X-27.47 Y-8.09 E221.3166
G1 X-27.57 Y-8.22 E221.3268
G1 X-27.88 Y-8.41 E221.3495
G1 X-28.27 Y-8.52 E221.3747
G1 X-29.50 Y-8.52 E221.4514
G1 X-29.50 Y-5.12 E221.6635
G1 E218.0571 F2400
G1 Z0.500 F420
G1 X-26.28 Y-7.31 F6000
G1 Z0.300 F420
G1 E221.6960 F1800
G1 X-24.14 Y-7.31 E221.8295 F600
G1 X-24.22 Y-6.78 E221.8629
G1 X-24.43 Y-6.39 E221.8905
G1 X-24.77 Y-6.14 E221.9169
G1 X-25.21 Y-6.05 E221.9449
G1 X-25.64 Y-6.14 E221.9723
G1 X-25.98 Y-6.39 E221.9986
G1 X-26.20 Y-6.78 E222.0265
G1 X-26.28 Y-7.31 E222.0599
G1 X-26.20 Y-7.85 E222.0940
G1 X-25.97 Y-8.25 E222.1228
G1 X-25.62 Y-8.49 E222.1492
G1 X-25.16 Y-8.58 E222.1785
G1 X-24.82 Y-8.53 E222.1999
G1 X-24.53 Y-8.39 E222.2200
G1 X-24.32 Y-8.17 E222.2389
G1 X-24.20 Y-7.87 E222.2591
G1 E218.6497 F2400
G1 Z0.500 F420
G1 X-23.08 Y-6.74 F6000
G1 Z0.300 F420
G1 E222.2345 F1800
G1 X-21.39 Y-6.74 E222.3399 F600
G1 E218.7825 F2400
G1 Z0.500 F420
G1 X-21.39 Y-7.45 F6000
G1 Z0.300 F420
G1 E222.3671 F1800
G1 X-23.08 Y-7.45 E222.4725 F600
G1 E218.9151 F2400
G1 Z0.500 F420
G1 X-19.11 Y-5.06 F6000
G1 Z0.300 F420
G1 E222.5547 F1800
G1 X-18.60 Y-5.20 E222.5876 F600
G1 X-18.21 Y-5.58 E222.6216
G1 X-17.97 Y-6.14 E222.6596
G1 X-17.89 Y-6.82 E222.7023
G1 X-17.97 Y-7.49 E222.7444
G1 X-18.21 Y-8.05 E222.7824
G1 X-18.60 Y-8.44 E222.8168
G1 X-19.11 Y-8.58 E222.8498
G1 X-19.63 Y-8.44 E222.8833
G1 X-20.01 Y-8.05 E222.9173
G1 X-20.25 Y-7.49 E222.9553
G1 X-20.33 Y-6.82 E222.9974
G1 X-20.25 Y-6.15 E223.0395
G1 X-20.01 Y-5.58 E223.0780
G1 X-19.63 Y-5.20 E223.1115
G1 X-19.11 Y-5.06 E223.1451
G1 E219.5351 F2400
G1 Z0.500 F420
G1 X-16.82 Y-8.29 F6000
G1 Z0.300 F420
G1 E222.7233 F1800
G1 X-16.82 Y-8.35 E222.7271 F600
G1 E219.5580 F2400
G1 Z0.500 F420
G1 X-15.76 Y-6.00 F6000
G1 Z0.300 F420
G1 E223.1774 F1800
G1 X-15.29 Y-5.76 E223.2103 F600
G1 X-14.92 Y-5.45 E223.2404
G1 X-14.67 Y-5.12 E223.2663
G1 X-14.67 Y-8.52 E223.4783
G1 E219.8860 F2400
G1 Z0.500 F420
G1 X-29.50 Y-11.11 F6000
G1 Z0.300 F420
G1 E223.5152 F1800
G1 X-28.64 Y-13.52 E223.6748 F600
G1 X-27.90 Y-11.11 E223.8320
G1 X-27.13 Y-13.52 E223.9898
G1 X-26.29 Y-11.11 E224.1490
G1 E220.5486 F2400
G1 Z0.500 F420
G1 X-25.23 Y-11.74 F6000
G1 Z0.300 F420
G1 E224.1334 F1800
G1 X-23.54 Y-11.74 E224.2388 F600
G1 E220.6814 F2400
G1 Z0.500 F420
G1 X-23.54 Y-12.45 F6000
G1 Z0.300 F420
G1 E224.2660 F1800
G1 X-25.23 Y-12.45 E224.3715 F600
G1 E220.8140 F2400
G1 Z0.500 F420
G1 X-22.48 Y-11.00 F6000
G1 Z0.300 F420
G1 E224.4348 F1800
G1 X-22.01 Y-10.76 E224.4677 F600
G1 X-21.64 Y-10.45 E224.4978
G1 X-21.39 Y-10.12 E224.5236
G1 X-21.39 Y-13.52 E224.7357
G1 E221.1433 F2400
G1 Z0.500 F420
G1 X-20.33 Y-13.29 F6000
G1 Z0.300 F420
G1 E224.3314 F1800
G1 X-20.33 Y-13.35 E224.3352 F600
G1 E221.1661 F2400
G1 Z0.500 F420
G1 X-19.27 Y-10.56 F6000
G1 Z0.300 F420
G1 E224.8006 F1800
G1 X-19.08 Y-10.35 E224.8182 F600
G1 X-18.85 Y-10.19 E224.8357
G1 X-18.59 Y-10.10 E224.8529
G1 X-18.31 Y-10.06 E224.8705
G1 X-17.94 Y-10.12 E224.8939
G1 X-17.64 Y-10.32 E224.9164
G1 X-17.45 Y-10.61 E224.9380
G1 X-17.38 Y-10.98 E224.9615
G1 X-17.48 Y-11.37 E224.9866
G1 X-17.76 Y-11.73 E225.0150
G1 X-18.54 Y-12.36 E225.0776
G1 X-18.84 Y-12.77 E225.1093
G1 X-19.23 Y-13.52 E225.1620
G1 X-17.41 Y-13.52 E225.2755
G1 E221.6690 F2400
G1 Z0.500 F420
;structure:shell-inner
G1 X-68.00 Y0.00 F6000
G1 Z0.300 F420
G1 E224.6691 F1800
G1 X-67.71 Y-5.92 E225.0389 F60
G1 X-66.91 Y-11.80
G1 X-65.60 Y-17.58
G1 X-63.79 Y-23.22
G1 E229.1389 F1800
G1 X-61.50 Y-28.68 E230.0252 F401
G1 X-58.75 Y-33.92 E230.9111
G1 X-55.54 Y-38.89 E231.7966
G1 X-51.92 Y-43.57 E232.6818
G1 X-49.90 Y-45.85 E233.1378
G1 E228.9378 F2400
G1 X-45.70 Y-50.00 F300
G1 X-41.15 Y-53.77
G1 X-36.29 Y-57.13
G1 X-34.35 Y-58.30
G1 E233.5411 F1800
G1 X-29.12 Y-61.05 E233.9092 F60
G1 X-23.68 Y-63.33 E234.2771
G1 X-18.06 Y-65.13 E234.6449
G1 E231.7438 F2400
G1 Z0.500 F420
G1 X-66.00 Y0.00 F6000
G1 Z0.300 F420
G1 E234.2438 F1800
G1 X-65.72 Y-5.75 E234.6028 F60
G1 X-64.94 Y-11.45
G1 X-63.67 Y-17.06
G1 X-61.92 Y-22.54
G1 E238.9028 F1800
G1 X-59.69 Y-27.83 E239.7629 F401
G1 X-57.01 Y-32.92 E240.6227
G1 X-53.90 Y-37.74 E241.4821
G1 X-50.39 Y-42.28 E242.3412
G1 X-47.89 Y-45.07 E242.9017
G1 E238.5017 F2400
G1 X-43.76 Y-49.05 F300
G1 X-39.30 Y-52.65
G1 X-34.55 Y-55.86
G1 X-32.13 Y-57.26
G1 E243.3006 F1800
G1 X-27.01 Y-59.82 E243.6578 F60
G1 X-21.68 Y-61.92 E244.0148
G1 X-16.20 Y-63.55 E244.3716
G1 E241.4605 F2400
G1 Z0.500 F420
G1 X-64.00 Y0.00 F6000
G1 Z0.300 F420
G1 E243.9605 F1800
G1 X-63.73 Y-5.58 E244.3086 F60
G1 X-62.97 Y-11.10
G1 X-61.74 Y-16.54
G1 X-60.04 Y-21.85
G1 E248.8086 F1800
G1 X-57.88 Y-26.99 E249.6427 F401
G1 X-55.28 Y-31.92 E250.4763
G1 X-52.27 Y-36.60 E251.3096
G1 X-48.86 Y-41.00 E252.1426
G1 X-45.87 Y-44.28 E252.8075
G1 E248.2075 F2400
G1 X-41.82 Y-48.09 F300
G1 X-37.45 Y-51.53
G1 X-32.80 Y-54.57
G1 X-29.90 Y-56.19
G1 E253.2022 F1800
G1 X-24.88 Y-58.56 E253.5484 F60
G1 X-19.67 Y-60.48 E253.8945
G1 X-14.32 Y-61.94 E254.2405
G1 E251.3190 F2400
G1 Z0.500 F420
G1 X-62.00 Y0.00 F6000
G1 Z0.300 F420
G1 E253.8190 F1800
G1 X-61.74 Y-5.40 E254.1563 F60
G1 X-61.00 Y-10.76
G1 X-59.81 Y-16.03
G1 X-58.16 Y-21.17
G1 E258.8563 F1800
G1 X-56.07 Y-26.14 E259.6642 F401
G1 X-53.55 Y-30.92 E260.4717
G1 X-50.63 Y-35.45 E261.2789
G1 X-47.32 Y-39.71 E262.0858
G1 X-43.84 Y-43.49 E262.8551
G1 E258.0551 F2400
G1 X-39.87 Y-47.12 F300
G1 X-35.59 Y-50.40
G1 X-31.05 Y-53.28
G1 X-27.66 Y-55.09
G1 E263.2457 F1800
G1 X-22.74 Y-57.27 E263.5810 F60
G1 X-17.66 Y-59.01 E263.9162
G1 X-12.44 Y-60.29 E264.2512
G1 E261.3191 F2400
G1 Z0.500 F420
G1 X-60.00 Y0.00 F6000
G1 Z0.300 F420
G1 E263.8191 F1800
G1 X-59.74 Y-5.23 E264.1455 F60
G1 X-59.03 Y-10.41
G1 X-57.88 Y-15.51
G1 X-56.28 Y-20.48
G1 E269.0455 F1800
G1 X-54.25 Y-25.30 E269.8273 F401
G1 X-51.82 Y-29.92 E270.6087
G1 X-48.99 Y-34.30 E271.3898
G1 X-45.79 Y-38.42 E272.1705
G1 X-42.25 Y-42.25 E272.9509
G1 X-41.80 Y-42.69 E273.0443
G1 E268.0443 F2400
G1 X-37.91 Y-46.15 F300
G1 X-33.72 Y-49.25
G1 X-29.29 Y-51.98
G1 X-25.40 Y-53.96
G1 E273.4430 F1800
G1 X-20.59 Y-55.94 E273.7674 F60
G1 X-15.63 Y-57.50 E274.0916
G1 X-10.55 Y-58.61 E274.4157
G1 E271.4727 F2400
G1 Z0.500 F420
G1 X-58.00 Y0.00 F6000
G1 Z0.300 F420
G1 E273.9727 F1800
G1 X-57.75 Y-5.05 E274.2882 F60
G1 X-57.06 Y-10.06
G1 X-55.94 Y-14.99
G1 X-54.40 Y-19.80
G1 E279.3882 F1800
G1 X-52.44 Y-24.45 E280.1439 F401
G1 X-50.09 Y-28.92 E280.8992
G1 X-47.35 Y-33.16 E281.6542
G1 X-44.26 Y-37.14 E282.4088
G1 X-40.84 Y-40.84 E283.1630
G1 X-39.76 Y-41.87 E283.3871
G1 E278.1871 F2400
G1 X-35.94 Y-45.16 F300
G1 X-31.85 Y-48.10
G1 X-27.53 Y-50.66
G1 X-23.12 Y-52.79
G1 E283.7805 F1800
G1 X-18.42 Y-54.58 E284.0939 F60
G1 X-13.59 Y-55.95 E284.4073
G1 X-8.66 Y-56.89 E284.7204
G1 E281.7661 F2400
G1 Z0.500 F420
;structure:shell-outer
G1 X0.50 Y-3.52 F6000
G1 Z0.300 F420
G1 E284.8979 F1800
G1 X0.50 Y-0.12 E285.1099 F600
G1 X1.73 Y-0.12 E285.1866
G1 X2.12 Y-0.22 E285.2117
G1 X2.43 Y-0.42 E285.2348
G1 X2.53 Y-0.55 E285.2450
G1 X2.66 Y-0.96 E285.2718
G1 X2.61 Y-1.20 E285.2871
G1 X2.50 Y-1.44 E285.3036
G1 X2.28 Y-1.64 E285.3221
G1 X1.51 Y-1.82 E285.3714
G1 E281.7651 F2400
G1 Z0.500 F420
G1 X0.50 Y-1.82 F6000
G1 Z0.300 F420
G1 E285.3807 F1800
G1 X1.51 Y-1.82 E285.4437 F600
G1 X2.02 Y-2.00 E285.4774
G1 X2.41 Y-2.62 E285.5231
G1 X2.66 Y-3.52 E285.5814
G1 E281.9941 F2400
G1 Z0.500 F420
G1 X3.72 Y-2.31 F6000
G1 Z0.300 F420
G1 E285.6330 F1800
G1 X5.86 Y-2.31 E285.7664 F600
G1 X5.78 Y-1.78 E285.7999
G1 X5.57 Y-1.39 E285.8275
G1 X5.23 Y-1.14 E285.8538
G1 X4.79 Y-1.05 E285.8818
G1 X4.36 Y-1.14 E285.9092
G1 X4.02 Y-1.39 E285.9355
G1 X3.80 Y-1.78 E285.9634
G1 X3.72 Y-2.31 E285.9969
G1 X3.80 Y-2.85 E286.0309
G1 X4.03 Y-3.25 E286.0597
G1 X4.38 Y-3.49 E286.0862
G1 X4.84 Y-3.58 E286.1154
G1 X5.18 Y-3.53 E286.1368
G1 X5.47 Y-3.39 E286.1569
G1 X5.68 Y-3.17 E286.1759
G1 X5.80 Y-2.87 E286.1960
G1 E282.5867 F2400
G1 Z0.500 F420
G1 X6.92 Y-1.74 F6000
G1 Z0.300 F420
G1 E286.1714 F1800
G1 X8.61 Y-1.74 E286.2768 F600
G1 E282.7195 F2400
G1 Z0.500 F420
G1 X8.61 Y-2.45 F6000
G1 Z0.300 F420
G1 E286.3040 F1800
G1 X6.92 Y-2.45 E286.4094 F600
G1 E282.8521 F2400
G1 Z0.500 F420
G1 X11.38 Y-3.52 F6000
G1 Z0.300 F420
G1 E286.4829 F1800
G1 X11.38 Y-0.12 E286.6949 F600
G1 X9.67 Y-2.35 E286.8702
G1 X11.98 Y-2.35 E287.0142
G1 E283.4121 F2400
G1 Z0.500 F420
G1 X13.05 Y-3.29 F6000
G1 Z0.300 F420
G1 E286.6003 F1800
G1 X13.05 Y-3.35 E286.6041 F600
G1 E283.4350 F2400
G1 Z0.500 F420
G1 X14.11 Y-0.56 F6000
G1 Z0.300 F420
G1 E287.0695 F1800
G1 X14.30 Y-0.35 E287.0871 F600
G1 X14.53 Y-0.19 E287.1046
G1 X14.79 Y-0.10 E287.1218
G1 X15.07 Y-0.06 E287.1394
G1 X15.44 Y-0.12 E287.1628
G1 X15.74 Y-0.32 E287.1853
G1 X15.93 Y-0.61 E287.2069
G1 X16.00 Y-0.98 E287.2304
G1 X15.90 Y-1.37 E287.2555
G1 X15.62 Y-1.73 E287.2839
G1 X14.84 Y-2.36 E287.3465
G1 X14.54 Y-2.77 E287.3782
G1 X14.15 Y-3.52 E287.4309
G1 X15.97 Y-3.52 E287.5444
G1 E283.9379 F2400
G1 Z0.500 F420
G1 X17.06 Y-2.10 F6000
G1 Z0.300 F420
G1 E287.5286 F1800
G1 X18.93 Y-2.10 E287.6452 F600
G1 E284.0821 F2400
G1 Z0.500 F420
G1 X21.98 Y-0.12 F6000
G1 Z0.300 F420
G1 E287.7183 F1800
G1 X20.23 Y-0.12 E287.8275 F600
G1 X20.09 Y-1.86 E287.9363
G1 X20.37 Y-1.55 E287.9624
G1 X20.54 Y-1.43 E287.9754
G1 X20.73 Y-1.36 E287.9880
G1 X20.92 Y-1.33 E288.0000
G1 X21.12 Y-1.32 E288.0125
G1 X21.53 Y-1.41 E288.0387
G1 X21.85 Y-1.63 E288.0629
G1 X22.06 Y-1.97 E288.0878
G1 X22.14 Y-2.39 E288.1145
G1 X22.07 Y-2.86 E288.1441
G1 X21.86 Y-3.23 E288.1706
G1 X21.51 Y-3.49 E288.1978
G1 X21.01 Y-3.58 E288.2295
G1 X20.64 Y-3.52 E288.2529
G1 X20.33 Y-3.36 E288.2746
G1 X20.11 Y-3.09 E288.2964
G1 X19.99 Y-2.73 E288.3200
G1 E284.7131 F2400
G1 Z0.500 F420
G1 X23.20 Y-3.29 F6000
G1 Z0.300 F420
G1 E287.9013 F1800
G1 X23.20 Y-3.35 E287.9050 F600
G1 E284.7360 F2400
G1 Z0.500 F420
G1 X24.27 Y-0.56 F6000
G1 Z0.300 F420
G1 E288.3704 F1800
G1 X24.46 Y-0.35 E288.3881 F600
G1 X24.69 Y-0.19 E288.4055
G1 X24.95 Y-0.10 E288.4227
G1 X25.23 Y-0.06 E288.4403
G1 X25.60 Y-0.12 E288.4637
G1 X25.90 Y-0.32 E288.4862
G1 X26.09 Y-0.61 E288.5078
G1 X26.16 Y-0.98 E288.5313
G1 X26.06 Y-1.37 E288.5564
G1 X25.78 Y-1.73 E288.5849
G1 X25.00 Y-2.36 E288.6474
G1 X24.70 Y-2.77 E288.6791
G1 X24.31 Y-3.52 E288.7318
G1 X26.13 Y-3.52 E288.8453
G1 E285.2389 F2400
G1 Z0.500 F420
G1 X0.50 Y-5.12 F6000
G1 Z0.300 F420
G1 E288.8656 F1800
G1 X1.47 Y-5.12 E288.9261 F600
G1 X1.86 Y-5.22 E288.9513
G1 X2.17 Y-5.42 E288.9743
G1 X2.27 Y-5.55 E288.9845
G1 X2.40 Y-5.96 E289.0113
G1 X2.35 Y-6.20 E289.0266
G1 X2.28 Y-6.44 E289.0422
G1 X2.02 Y-6.64 E289.0627
G1 X1.51 Y-6.82 E289.0964
G1 X0.50 Y-6.82 E289.1594
G1 E285.5614 F2400
G1 Z0.500 F420
G1 X1.51 Y-6.82 F6000
G1 Z0.300 F420
G1 E289.1969 F1800
G1 X2.28 Y-6.99 E289.2461 F600
G1 X2.50 Y-7.19 E289.2647
G1 X2.61 Y-7.44 E289.2817
G1 X2.66 Y-7.68 E289.2970
G1 X2.53 Y-8.09 E289.3238
G1 X2.43 Y-8.22 E289.3340
G1 X2.12 Y-8.41 E289.3567
G1 X1.73 Y-8.52 E289.3820
G1 X0.50 Y-8.52 E289.4587
G1 X0.50 Y-5.12 E289.6707
G1 E286.0643 F2400
G1 Z0.500 F420
G1 X3.72 Y-7.31 F6000
G1 Z0.300 F420
G1 E289.7033 F1800
G1 X5.86 Y-7.31 E289.8367 F600
G1 X5.78 Y-6.78 E289.8702
G1 X5.57 Y-6.39 E289.8978
G1 X5.23 Y-6.14 E289.9241
G1 X4.79 Y-6.05 E289.9521
G1 X4.36 Y-6.14 E289.9795
G1 X4.02 Y-6.39 E290.0058
G1 X3.80 Y-6.78 E290.0338
G1 X3.72 Y-7.31 E290.0672
G1 X3.80 Y-7.85 E290.1012
G1 X4.03 Y-8.25 E290.1300
G1 X4.38 Y-8.49 E290.1565
G1 X4.84 Y-8.58 E290.1857
G1 X5.18 Y-8.53 E290.2071
G1 X5.47 Y-8.39 E290.2272
G1 X5.68 Y-8.17 E290.2462
G1 X5.80 Y-7.87 E290.2663
G1 E286.6570 F2400
G1 Z0.500 F420
G1 X6.92 Y-6.74 F6000
G1 Z0.300 F420
G1 E290.2418 F1800
G1 X8.61 Y-6.74 E290.3472 F600
G1 E286.7898 F2400
G1 Z0.500 F420
G1 X8.61 Y-7.45 F6000
G1 Z0.300 F420
G1 E290.3744 F1800
G1 X6.92 Y-7.45 E290.4798 F600
G1 E286.9224 F2400
G1 Z0.500 F420
G1 X10.89 Y-5.06 F6000
G1 Z0.300 F420
G1 E290.5619 F1800
G1 X11.40 Y-5.20 E290.5949 F600
G1 X11.79 Y-5.58 E290.6288
G1 X12.03 Y-6.14 E290.6668
G1 X12.11 Y-6.82 E290.7095
G1 X12.03 Y-7.49 E290.7516
G1 X11.79 Y-8.05 E290.7896
G1 X11.40 Y-8.44 E290.8240
G1 X10.89 Y-8.58 E290.8570
G1 X10.37 Y-8.44 E290.8906
G1 X9.99 Y-8.05 E290.9245
G1 X9.75 Y-7.49 E290.9625
G1 X9.67 Y-6.82 E291.0046
G1 X9.75 Y-6.15 E291.0467
G1 X9.99 Y-5.58 E291.0853
G1 X10.37 Y-5.20 E291.1188
G1 X10.89 Y-5.06 E291.1524
G1 E287.5423 F2400
G1 Z0.500 F420
G1 X13.18 Y-8.29 F6000
G1 Z0.300 F420
G1 E290.7306 F1800
G1 X13.18 Y-8.35 E290.7343 F600
G1 E287.5653 F2400
G1 Z0.500 F420
G1 X14.24 Y-6.00 F6000
G1 Z0.300 F420
G1 E291.1847 F1800
G1 X14.71 Y-5.76 E291.2176 F600
G1 X15.08 Y-5.45 E291.2477
G1 X15.33 Y-5.12 E291.2735
G1 X15.33 Y-8.52 E291.4856
G1 E287.8932 F2400
G1 Z0.500 F420
G1 X0.50 Y-11.11 F6000
G1 Z0.300 F420
G1 E291.5225 F1800
G1 X1.36 Y-13.52 E291.6820 F600
G1 X2.10 Y-11.11 E291.8393
G1 X2.87 Y-13.52 E291.9971
G1 X3.71 Y-11.11 E292.1563
G1 E288.5558 F2400
G1 Z0.500 F420
G1 X4.77 Y-11.74 F6000
G1 Z0.300 F420
G1 E292.1407 F1800
G1 X6.46 Y-11.74 E292.2461 F600
G1 E288.6886 F2400
G1 Z0.500 F420
G1 X6.46 Y-12.45 F6000
G1 Z0.300 F420
G1 E292.2733 F1800
G1 X4.77 Y-12.45 E292.3787 F600
G1 E288.8212 F2400
G1 Z0.500 F420
G1 X7.52 Y-11.00 F6000
G1 Z0.300 F420
G1 E292.4420 F1800
G1 X7.99 Y-10.76 E292.4749 F600
G1 X8.36 Y-10.45 E292.5050
G1 X8.61 Y-10.12 E292.5309
G1 X8.61 Y-13.52 E292.7429
G1 E289.1505 F2400
G1 Z0.500 F420
G1 X9.67 Y-13.29 F6000
G1 Z0.300 F420
G1 E292.3387 F1800
G1 X9.67 Y-13.35 E292.3424 F600
G1 E289.1734 F2400
G1 Z0.500 F420
G1 X12.77 Y-10.83 F6000
G1 Z0.300 F420
G1 E292.8174 F1800
G1 X12.46 Y-10.26 E292.8578 F600
G1 X11.87 Y-10.06 E292.8967
G1 X11.36 Y-10.18 E292.9294
G1 X11.01 Y-10.53 E292.9602
G1 X10.80 Y-11.13 E292.9999
G1 X10.73 Y-11.95 E293.0512
G1 X10.80 Y-12.64 E293.0945
G1 X11.02 Y-13.16 E293.1297
G1 X11.36 Y-13.47 E293.1584
G1 X11.83 Y-13.58 E293.1885
G1 X12.28 Y-13.49 E293.2171
G1 X12.60 Y-13.24 E293.2424
G1 X12.78 Y-12.87 E293.2681
G1 X12.85 Y-12.44 E293.2953
G1 X12.78 Y-12.04 E293.3206
G1 X12.59 Y-11.69 E293.3454
G1 X12.28 Y-11.46 E293.3695
G1 X11.88 Y-11.38 E293.3949
G1 X11.42 Y-11.47 E293.4242
G1 X11.00 Y-11.72 E293.4547
G1 X10.73 Y-11.95 E293.4768
G1 E289.8626 F2400
G1 Z0.500 F420
;structure:shell-inner
G1 X-56.00 Y0.00 F6000
G1 Z0.300 F420
G1 E292.8627 F1800
G1 X-55.76 Y-4.88 E293.1673 F60
G1 X-55.09 Y-9.71
G1 X-54.01 Y-14.47
G1 X-52.52 Y-19.12
G1 E297.3673 F1800
G1 X-50.63 Y-23.61 E298.3401 F301
G1 X-48.35 Y-27.92 E299.3124
G1 X-45.71 Y-32.01 E300.2842
G1 X-42.73 Y-35.85 E301.2555
G1 X-42.37 Y-36.27 E301.3661
G1 E297.0661 F2400
G1 X-39.03 Y-39.81 F300
G1 X-35.39 Y-43.04
G1 X-31.49 Y-45.93
G1 X-27.35 Y-48.48
G1 X-26.87 Y-48.75
G1 E301.7649 F1800
G1 X-22.51 Y-50.88 E302.0676 F60
G1 X-17.98 Y-52.62 E302.3702
G1 X-13.32 Y-53.96 E302.6726
G1 E299.7070 F2400
G1 Z0.500 F420
G1 X-54.00 Y0.00 F6000
G1 Z0.300 F420
G1 E302.2070 F1800
G1 X-53.77 Y-4.70 E302.5008 F60
G1 X-53.12 Y-9.37
G1 X-52.08 Y-13.95
G1 X-50.64 Y-18.43
G1 E306.9008 F1800
G1 X-48.81 Y-22.76 E307.8387 F301
G1 X-46.62 Y-26.92 E308.7762
G1 X-44.07 Y-30.86 E309.7132
G1 X-41.20 Y-34.57 E310.6497
G1 X-40.37 Y-35.51 E310.8996
G1 E306.3996 F2400
G1 X-37.11 Y-38.88 F300
G1 X-33.56 Y-41.94
G1 X-29.76 Y-44.68
G1 X-25.74 Y-47.08
G1 X-24.63 Y-47.66
G1 E311.2935 F1800
G1 X-20.37 Y-49.60 E311.5853 F60
G1 X-15.97 Y-51.16 E311.8770
G1 X-11.44 Y-52.33 E312.1685
G1 E309.1910 F2400
G1 Z0.500 F420
G1 X-52.00 Y0.00 F6000
G1 Z0.300 F420
G1 E311.6910 F1800
G1 X-51.77 Y-4.53 E311.9739 F60
G1 X-51.16 Y-9.02
G1 X-50.15 Y-13.44
G1 X-48.76 Y-17.75
G1 E316.5739 F1800
G1 X-47.00 Y-21.92 E317.4770 F301
G1 X-44.89 Y-25.92 E318.3796
G1 X-42.44 Y-29.71 E319.2818
G1 X-39.66 Y-33.28 E320.1835
G1 X-38.37 Y-34.74 E320.5728
G1 E315.8728 F2400
G1 X-35.18 Y-37.94 F300
G1 X-31.72 Y-40.84
G1 X-28.03 Y-43.42
G1 X-24.12 Y-45.68
G1 X-22.38 Y-46.54
G1 E320.9620 F1800
G1 X-18.23 Y-48.29 E321.2429 F60
G1 X-13.94 Y-49.67 E321.5237
G1 X-9.55 Y-50.67 E321.8043
G1 E318.8144 F2400
G1 Z0.500 F420
G1 X-50.00 Y0.00 F6000
G1 Z0.300 F420
G1 E321.3145 F1800
G1 X-49.78 Y-4.36 E321.5864 F60
G1 X-49.19 Y-8.67
G1 X-48.22 Y-12.92
G1 X-46.88 Y-17.06
G1 E326.3864 F1800
G1 X-45.19 Y-21.07 E327.2548 F301
G1 X-43.16 Y-24.92 E328.1226
G1 X-40.80 Y-28.57 E328.9899
G1 X-38.13 Y-32.00 E329.8568
G1 X-36.36 Y-33.97 E330.3854
G1 E325.4854 F2400
G1 X-33.25 Y-36.99 F300
G1 X-29.88 Y-39.72
G1 X-26.29 Y-42.15
G1 X-22.50 Y-44.26
G1 X-20.10 Y-45.38
G1 E330.7702 F1800
G1 X-16.06 Y-46.93 E331.0401 F60
G1 X-11.90 Y-48.13 E331.3099
G1 X-7.66 Y-48.95 E331.5796
G1 E328.5772 F2400
G1 Z0.500 F420
G1 X-48.00 Y0.00 F6000
G1 Z0.300 F420
G1 E331.0772 F1800
G1 X-47.79 Y-4.18 E331.3383 F60
G1 X-47.22 Y-8.33
G1 X-46.28 Y-12.40
G1 X-45.00 Y-16.38
G1 E336.3383 F1800
G1 X-43.38 Y-20.23 E337.1718 F301
G1 X-41.42 Y-23.92 E338.0048
G1 X-39.16 Y-27.42 E338.8373
G1 X-36.60 Y-30.71 E339.6694
G1 X-34.34 Y-33.18 E340.3372
G1 E335.2372 F2400
G1 X-31.30 Y-36.03 F300
G1 X-28.03 Y-38.60
G1 X-24.54 Y-40.87
G1 X-20.87 Y-42.83
G1 X-17.81 Y-44.17
G1 E340.7177 F1800
G1 X-13.88 Y-45.53 E340.9768 F60
G1 X-9.85 Y-46.53 E341.2356
G1 X-5.76 Y-47.19 E341.4943
G1 E338.4789 F2400
G1 Z0.500 F420
G1 X-46.00 Y0.00 F6000
G1 Z0.300 F420
G1 E340.9790 F1800
G1 X-45.80 Y-4.01 E341.2292 F60
G1 X-45.25 Y-7.98
G1 X-44.35 Y-11.88
G1 X-43.12 Y-15.69
G1 E346.4292 F1800
G1 X-41.56 Y-19.38 E347.2278 F301
G1 X-39.69 Y-22.92 E348.0260
G1 X-37.52 Y-26.27 E348.8237
G1 X-35.07 Y-29.43 E349.6210
G1 X-32.35 Y-32.35 E350.4177
G1 X-32.31 Y-32.39 E350.4280
G1 E345.1280 F2400
G1 X-29.35 Y-35.06 F300
G1 X-26.17 Y-37.46
G1 X-22.79 Y-39.57
G1 X-19.24 Y-41.38
G1 X-15.55 Y-42.88
G1 X-15.49 Y-42.90
G1 E350.8156 F1800
G1 X-11.68 Y-44.06 E351.0637 F60
G1 X-7.79 Y-44.88 E351.3116
G1 X-3.85 Y-45.36 E351.5594
G1 E348.5306 F2400
G1 Z0.500 F420
;structure:shell-outer
G1 X0.00 Y-70.00 F6000
G1 Z0.300 F420
G1 E351.6730 F1800
G1 X0.00 Y-42.00 E353.4192 F600
G1 E349.8029 F2400
G1 Z0.500 F420
G1 E349.8055 F2400
;end gcode
M107
M104 S0 T0
M140 S0 T0
G162 Z F1800
G28 X Y
M132 X Y A B
M652
G91
M18
