;gcode_flavor: flashforge
;machine_type: Adventurer 3 Series
;filament_diameter0: 1.75
;right_extruder_temperature: 210
;platform_temperature: 50
;extruder_fan: 100%
;case_fan: 100%
;base_print_speed: 60
;travel_speed: 100
;vertical_speed: 7
;retract_speed: 40
;restore_speed: 30
;layer_height: 0.30
;line_width: 0.50
;extrusion_ratio: 1.00
;command_line: ./gcodetest.py -Te=210 -Tp=50 -Fe=1.0 -Fc=1.0 -Kf=2.0 -Kb=3.0 -Re=1.0 -R
;start gcode
M118 X75.00 Y75.00 Z150.00 T0
M140 S50 T0
M104 S210 T0
M104 S0 T1
M107
M900 K0.000 T0
G90
G28
M132 X Y Z A B
G1 Z50.000 F420
G161 X Y F3300
M7 T0
M6 T0
M652 S255
M108 T0
M106
;preExtrude:0.20
G1 X69.29 Y28.70 F6000
G1 Z0.200 F420
G1 E5.2080 F1800
G1 X66.53 Y34.63 E6.0784 F600
G1 X63.25 Y40.30 E6.9489
G1 X59.50 Y45.66 E7.8194
G1 X55.30 Y50.67 E8.6899
G1 X50.67 Y55.30 E9.5603
G1 X45.66 Y59.50 E10.4308
G1 X40.30 Y63.25 E11.3013
G1 X34.63 Y66.53 E12.1717
G1 X28.70 Y69.29 E13.0422
G1 X28.70 Y69.29
G1 E6.9924 F2400
G1 Z0.400 F420
;layer:0.30
;structure:shell-outer
G1 X-69.50 Y68.89 F6000
G1 Z0.300 F420
G1 E10.7523 F1800
G1 X-68.48 Y66.48 E10.9155 F600
G1 X-67.46 Y68.89 E11.0787
G1 E7.3886 F2400
G1 Z0.500 F420
G1 X-66.40 Y67.69 F6000
G1 Z0.300 F420
G1 E11.1421 F1800
G1 X-64.26 Y67.69 E11.2755 F600
G1 X-64.34 Y68.22 E11.3089
G1 X-64.55 Y68.61 E11.3366
G1 X-64.89 Y68.86 E11.3629
G1 X-65.33 Y68.95 E11.3909
G1 X-65.76 Y68.86 E11.4183
G1 X-66.10 Y68.61 E11.4446
G1 X-66.32 Y68.22 E11.4725
G1 X-66.40 Y67.69 E11.5060
G1 X-66.32 Y67.15 E11.5400
G1 X-66.09 Y66.75 E11.5688
G1 X-65.74 Y66.51 E11.5952
G1 X-65.28 Y66.42 E11.6245
G1 X-64.94 Y66.47 E11.6459
G1 X-64.65 Y66.61 E11.6660
G1 X-64.44 Y66.83 E11.6850
G1 X-64.32 Y67.13 E11.7051
G1 E7.9856 F2400
G1 Z0.500 F420
G1 X-63.20 Y68.26 F6000
G1 Z0.300 F420
G1 E11.6309 F1800
G1 X-61.51 Y68.26 E11.7363 F600
G1 E8.1228 F2400
G1 Z0.500 F420
G1 X-61.51 Y67.55 F6000
G1 Z0.300 F420
G1 E11.7676 F1800
G1 X-63.20 Y67.55 E11.8730 F600
G1 E8.2595 F2400
G1 Z0.500 F420
G1 X-60.45 Y69.00 F6000
G1 Z0.300 F420
G1 E11.9766 F1800
G1 X-59.98 Y69.24 E12.0095 F600
G1 X-59.61 Y69.55 E12.0396
G1 X-59.36 Y69.88 E12.0654
G1 X-59.36 Y66.48 E12.2775
G1 E8.5930 F2400
G1 Z0.500 F420
G1 X-58.30 Y66.71 F6000
G1 Z0.300 F420
G1 E11.4451 F1800
G1 X-58.30 Y66.65 E11.4488 F600
G1 E8.6185 F2400
G1 Z0.500 F420
G1 X-56.01 Y69.94 F6000
G1 Z0.300 F420
G1 E12.3699 F1800
G1 X-55.50 Y69.80 E12.4029 F600
G1 X-55.11 Y69.42 E12.4369
G1 X-54.88 Y68.86 E12.4746
G1 X-54.79 Y68.18 E12.5174
G1 X-54.88 Y67.51 E12.5596
G1 X-55.11 Y66.95 E12.5973
G1 X-55.50 Y66.56 E12.6317
G1 X-56.01 Y66.42 E12.6647
G1 X-56.54 Y66.56 E12.6989
G1 X-56.91 Y66.95 E12.7324
G1 X-57.15 Y67.51 E12.7704
G1 X-57.23 Y68.18 E12.8125
G1 X-57.15 Y68.85 E12.8546
G1 X-56.91 Y69.42 E12.8932
G1 X-56.54 Y69.80 E12.9263
G1 X-56.01 Y69.94 E12.9605
G1 E9.2393 F2400
G1 Z0.500 F420
G1 X-69.50 Y64.88 F6000
G1 Z0.300 F420
G1 E12.9475 F1800
G1 X-69.50 Y61.48 E13.1596 F600
G1 E9.4841 F2400
G1 Z0.500 F420
G1 X-69.50 Y63.23 F6000
G1 Z0.300 F420
G1 E13.2103 F1800
G1 X-69.25 Y63.53 E13.2346 F600
G1 X-69.02 Y63.75 E13.2545
G1 X-68.80 Y63.88 E13.2704
G1 X-68.60 Y63.93 E13.2833
G1 X-68.41 Y63.95 E13.2952
G1 X-68.09 Y63.88 E13.3156
G1 X-67.86 Y63.71 E13.3335
G1 X-67.76 Y63.51 E13.3474
G1 X-67.67 Y63.08 E13.3748
G1 X-67.67 Y61.48 E13.4746
G1 E9.7818 F2400
G1 Z0.500 F420
G1 X-66.61 Y63.26 F6000
G1 Z0.300 F420
G1 E13.4271 F1800
G1 X-64.92 Y63.26 E13.5325 F600
G1 E9.9189 F2400
G1 Z0.500 F420
G1 X-64.92 Y62.55 F6000
G1 Z0.300 F420
G1 E13.5639 F1800
G1 X-66.61 Y62.55 E13.6693 F600
G1 E10.0556 F2400
G1 Z0.500 F420
G1 X-62.64 Y64.94 F6000
G1 Z0.300 F420
G1 E13.8104 F1800
G1 X-62.13 Y64.80 E13.8434 F600
G1 X-61.74 Y64.42 E13.8774
G1 X-61.50 Y63.86 E13.9154
G1 X-61.42 Y63.18 E13.9581
G1 X-61.50 Y62.51 E14.0001
G1 X-61.74 Y61.95 E14.0381
G1 X-62.13 Y61.56 E14.0725
G1 X-62.64 Y61.42 E14.1055
G1 X-63.16 Y61.56 E14.1391
G1 X-63.54 Y61.95 E14.1731
G1 X-63.78 Y62.51 E14.2111
G1 X-63.86 Y63.18 E14.2531
G1 X-63.78 Y63.85 E14.2952
G1 X-63.54 Y64.42 E14.3338
G1 X-63.16 Y64.80 E14.3673
G1 X-62.64 Y64.94 E14.4009
G1 E10.6798 F2400
G1 Z0.500 F420
G1 X-60.36 Y61.71 F6000
G1 Z0.300 F420
G1 E13.5320 F1800
G1 X-60.36 Y61.65 E13.5358 F600
G1 E10.7055 F2400
G1 Z0.500 F420
G1 X-59.24 Y64.13 F6000
G1 Z0.300 F420
G1 E14.4490 F1800
G1 X-59.13 Y64.47 E14.4713 F600
G1 X-58.92 Y64.73 E14.4922
G1 X-58.63 Y64.89 E14.5128
G1 X-58.29 Y64.94 E14.5342
G1 X-57.90 Y64.87 E14.5590
G1 X-57.61 Y64.68 E14.5806
G1 X-57.43 Y64.41 E14.6008
G1 X-57.36 Y64.06 E14.6231
G1 X-57.43 Y63.85 E14.6369
G1 X-57.57 Y63.68 E14.6506
G1 X-57.94 Y63.45 E14.6778
G1 X-58.38 Y63.30 E14.7068
G1 X-57.94 Y63.18 E14.7352
G1 X-57.58 Y63.02 E14.7598
G1 X-57.29 Y62.74 E14.7849
G1 X-57.19 Y62.45 E14.8041
G1 X-57.26 Y62.03 E14.8306
G1 X-57.49 Y61.70 E14.8557
G1 X-57.83 Y61.50 E14.8803
G1 X-58.25 Y61.42 E14.9070
G1 X-58.65 Y61.48 E14.9322
G1 X-58.97 Y61.65 E14.9548
G1 X-59.19 Y61.92 E14.9765
G1 X-59.29 Y62.28 E14.9998
G1 E11.2867 F2400
G1 Z0.500 F420
G1 X-67.52 Y59.88 F6000
G1 Z0.300 F420
G1 E14.9949 F1800
G1 X-67.52 Y56.48 E15.2069 F600
G1 E11.5315 F2400
G1 Z0.500 F420
G1 X-67.52 Y56.98 F6000
G1 Z0.300 F420
G1 E15.2762 F1800
G1 X-67.77 Y56.74 E15.2978 F600
G1 X-68.16 Y56.49 E15.3267
G1 X-68.54 Y56.42 E15.3508
G1 X-68.92 Y56.51 E15.3752
G1 X-69.22 Y56.77 E15.3999
G1 X-69.43 Y57.18 E15.4287
G1 X-69.50 Y57.71 E15.4620
G1 X-69.44 Y58.22 E15.4940
G1 X-69.26 Y58.61 E15.5208
G1 X-68.97 Y58.86 E15.5447
G1 X-68.57 Y58.95 E15.5703
G1 X-68.38 Y58.93 E15.5822
G1 X-68.18 Y58.85 E15.5956
G1 X-67.97 Y58.72 E15.6110
G1 X-67.77 Y58.50 E15.6296
G1 X-67.52 Y58.03 E15.6628
G1 E11.9496 F2400
G1 Z0.500 F420
G1 X-66.46 Y58.89 F6000
G1 Z0.300 F420
G1 E15.6413 F1800
G1 X-65.29 Y56.44 E15.8106 F600
G1 E12.1514 F2400
G1 Z0.500 F420
G1 X-66.29 Y55.57 F6000
G1 Z0.300 F420
G1 E15.8834 F1800
G1 X-66.19 Y55.56 E15.8897 F600
G1 X-66.10 Y55.56 E15.8953
G1 X-65.84 Y55.62 E15.9119
G1 X-65.63 Y55.78 E15.9284
G1 X-65.45 Y56.06 E15.9491
G1 X-65.29 Y56.44 E15.9748
G1 X-64.41 Y58.89 E16.1372
G1 E12.4393 F2400
G1 Z0.500 F420
G1 X-63.35 Y58.76 F6000
G1 Z0.300 F420
G1 E16.1158 F1800
G1 X-63.35 Y56.48 E16.2580 F600
G1 E12.6137 F2400
G1 Z0.500 F420
G1 X-63.35 Y57.89 F6000
G1 Z0.300 F420
G1 E16.3409 F1800
G1 X-63.11 Y58.34 E16.3727 F600
G1 X-62.92 Y58.67 E16.3965
G1 X-62.70 Y58.86 E16.4146
G1 X-62.49 Y58.93 E16.4284
G1 X-62.28 Y58.95 E16.4415
G1 X-61.95 Y58.88 E16.4626
G1 X-61.77 Y58.73 E16.4772
G1 X-61.67 Y58.40 E16.4987
G1 X-61.61 Y58.08 E16.5190
G1 X-61.61 Y56.48 E16.6188
G1 E12.9247 F2400
G1 Z0.500 F420
G1 X-60.55 Y56.48 F6000
G1 Z0.300 F420
G1 E16.6064 F1800
G1 X-60.55 Y58.89 E16.7567 F600
G1 E13.1073 F2400
G1 Z0.500 F420
G1 X-60.55 Y58.20 F6000
G1 Z0.300 F420
G1 E16.7782 F1800
G1 X-60.30 Y58.55 E16.8050 F600
G1 X-60.09 Y58.76 E16.8235
G1 X-59.89 Y58.88 E16.8381
G1 X-59.70 Y58.94 E16.8505
G1 X-59.54 Y58.95 E16.8605
G1 X-59.49 Y58.95 E16.8636
G1 X-59.44 Y58.94 E16.8668
G1 E13.2295 F2400
G1 Z0.500 F420
G1 X-58.38 Y57.69 F6000
G1 Z0.300 F420
G1 E16.9828 F1800
G1 X-56.24 Y57.69 E17.1162 F600
G1 X-56.32 Y58.22 E17.1497
G1 X-56.53 Y58.61 E17.1773
G1 X-56.87 Y58.86 E17.2036
G1 X-57.31 Y58.95 E17.2316
G1 X-57.74 Y58.86 E17.2590
G1 X-58.08 Y58.61 E17.2853
G1 X-58.30 Y58.22 E17.3133
G1 X-58.38 Y57.69 E17.3467
G1 X-58.30 Y57.15 E17.3807
G1 X-58.07 Y56.75 E17.4095
G1 X-57.72 Y56.51 E17.4360
G1 X-57.26 Y56.42 E17.4652
G1 X-56.92 Y56.47 E17.4866
G1 X-56.63 Y56.61 E17.5067
G1 X-56.42 Y56.83 E17.5257
G1 X-56.30 Y57.13 E17.5458
G1 E13.8263 F2400
G1 Z0.500 F420
G1 X-53.99 Y56.46 F6000
G1 Z0.300 F420
G1 E17.5477 F1800
G1 X-54.14 Y56.45 E17.5570 F600
G1 X-54.32 Y56.50 E17.5687
G1 X-54.48 Y56.62 E17.5812
G1 X-54.60 Y56.81 E17.5952
G1 X-54.68 Y57.19 E17.6194
G1 X-54.68 Y59.52 E17.7647
G1 E14.0772 F2400
G1 Z0.500 F420
G1 X-55.18 Y58.76 F6000
G1 Z0.300 F420
G1 E17.6595 F1800
G1 X-54.10 Y58.76 E17.7269 F600
G1 E14.1754 F2400
G1 Z0.500 F420
G1 X-52.92 Y58.26 F6000
G1 Z0.300 F420
G1 E17.8199 F1800
G1 X-51.23 Y58.26 E17.9253 F600
G1 E14.3117 F2400
G1 Z0.500 F420
G1 X-51.23 Y57.55 F6000
G1 Z0.300 F420
G1 E17.9566 F1800
G1 X-52.92 Y57.55 E18.0620 F600
G1 E14.4485 F2400
G1 Z0.500 F420
G1 X-48.95 Y59.94 F6000
G1 Z0.300 F420
G1 E18.2031 F1800
G1 X-48.44 Y59.80 E18.2361 F600
G1 X-48.05 Y59.42 E18.2701
G1 X-47.81 Y58.86 E18.3081
G1 X-47.73 Y58.18 E18.3508
G1 X-47.81 Y57.51 E18.3929
G1 X-48.05 Y56.95 E18.4309
G1 X-48.44 Y56.56 E18.4653
G1 X-48.95 Y56.42 E18.4982
G1 X-49.47 Y56.56 E18.5318
G1 X-49.85 Y56.95 E18.5658
G1 X-50.09 Y57.51 E18.6038
G1 X-50.17 Y58.18 E18.6459
G1 X-50.09 Y58.85 E18.6879
G1 X-49.85 Y59.42 E18.7265
G1 X-49.47 Y59.80 E18.7600
G1 X-48.95 Y59.94 E18.7936
G1 E15.0726 F2400
G1 Z0.500 F420
;structure:shell-outer
G1 X70.00 Y0.00 F6000
G1 Z0.300 F420
G1 E18.8399 F1800
G1 X69.73 Y6.10 E19.2207 F600
G1 X68.94 Y12.16 E19.6016
G1 X67.61 Y18.12 E19.9824
G1 X65.78 Y23.94 E20.3632
G1 X63.44 Y29.58 E20.7441
G1 X60.62 Y35.00 E21.1249
G1 X57.34 Y40.15 E21.5057
G1 X53.62 Y45.00 E21.8866
G1 X49.50 Y49.50 E22.2674
G1 X45.00 Y53.62 E22.6482
G1 X40.15 Y57.34 E23.0291
G1 X35.00 Y60.62 E23.4099
G1 X29.58 Y63.44 E23.7907
G1 X23.94 Y65.78 E24.1716
G1 X18.12 Y67.61 E24.5524
G1 X12.16 Y68.94 E24.9332
G1 X6.10 Y69.73 E25.3141
G1 X0.00 Y70.00 E25.6949
G1 X-6.10 Y69.73 E26.0757
G1 X-12.16 Y68.94 E26.4565
G1 X-18.12 Y67.61 E26.8374
G1 X-23.94 Y65.78 E27.2182
G1 X-29.58 Y63.44 E27.5990
G1 X-35.00 Y60.62 E27.9799
G1 X-40.15 Y57.34 E28.3607
G1 X-45.00 Y53.62 E28.7415
G1 X-49.50 Y49.50 E29.1224
G1 X-53.62 Y45.00 E29.5032
G1 X-57.34 Y40.15 E29.8840
G1 X-60.62 Y35.00 E30.2649
G1 X-63.44 Y29.58 E30.6457
G1 X-65.78 Y23.94 E31.0265
G1 X-67.61 Y18.12 E31.4074
G1 X-68.94 Y12.16 E31.7882
G1 X-69.73 Y6.10 E32.1690
G1 X-70.00 Y0.00 E32.5499
G1 X-69.73 Y-6.10 E32.9307
G1 X-68.94 Y-12.16 E33.3115
G1 X-67.61 Y-18.12 E33.6924
G1 X-65.78 Y-23.94 E34.0732
G1 X-63.44 Y-29.58 E34.4540
G1 X-60.62 Y-35.00 E34.8348
G1 X-57.34 Y-40.15 E35.2157
G1 X-53.62 Y-45.00 E35.5965
G1 X-49.50 Y-49.50 E35.9773
G1 X-45.00 Y-53.62 E36.3582
G1 X-40.15 Y-57.34 E36.7390
G1 X-35.00 Y-60.62 E37.1198
G1 X-29.58 Y-63.44 E37.5007
G1 X-23.94 Y-65.78 E37.8815
G1 X-18.12 Y-67.61 E38.2623
G1 X-12.16 Y-68.94 E38.6432
G1 X-6.10 Y-69.73 E39.0240
G1 X0.00 Y-70.00 E39.4048
G1 X6.10 Y-69.73 E39.7857
G1 X12.16 Y-68.94 E40.1665
G1 X18.12 Y-67.61 E40.5473
G1 X23.94 Y-65.78 E40.9282
G1 X29.58 Y-63.44 E41.3090
G1 X35.00 Y-60.62 E41.6898
G1 X40.15 Y-57.34 E42.0707
G1 X45.00 Y-53.62 E42.4515
G1 X49.50 Y-49.50 E42.8323
G1 X53.62 Y-45.00 E43.2131
G1 X57.34 Y-40.15 E43.5940
G1 X60.62 Y-35.00 E43.9748
G1 X63.44 Y-29.58 E44.3556
G1 X65.78 Y-23.94 E44.7365
G1 X67.61 Y-18.12 E45.1173
G1 X68.94 Y-12.16 E45.4981
G1 X69.73 Y-6.10 E45.8790
G1 X70.00 Y0.00 E46.2598
G1 E42.5182 F2400
G1 Z0.500 F420
G1 Z0.300
G1 E46.2177 F1800
G1 X73.00 Y0.00 E46.4048 F600
G1 E42.7108 F2400
G1 Z0.500 F420
G1 X69.73 Y6.10 F6000
G1 Z0.300 F420
G1 E46.3413 F1800
G1 X71.23 Y6.23 E46.4349 F600
G1 E42.8358 F2400
G1 Z0.500 F420
G1 X68.94 Y12.16 F6000
G1 Z0.300 F420
G1 E46.4659 F1800
G1 X70.41 Y12.42 E46.5594 F600
G1 E42.9604 F2400
G1 Z0.500 F420
G1 X67.61 Y18.12 F6000
G1 Z0.300 F420
G1 E46.5905 F1800
G1 X69.06 Y18.51 E46.6840 F600
G1 E43.0850 F2400
G1 Z0.500 F420
G1 X65.78 Y23.94 F6000
G1 Z0.300 F420
G1 E46.7150 F1800
G1 X67.19 Y24.45 E46.8086 F600
G1 E43.2096 F2400
G1 Z0.500 F420
G1 X63.44 Y29.58 F6000
G1 Z0.300 F420
G1 E46.8396 F1800
G1 X64.80 Y30.22 E46.9332 F600
G1 E43.3342 F2400
G1 Z0.500 F420
G1 X60.62 Y35.00 F6000
G1 Z0.300 F420
G1 E47.0330 F1800
G1 X63.22 Y36.50 E47.2201 F600
G1 E43.5534 F2400
G1 Z0.500 F420
G1 X57.34 Y40.15 F6000
G1 Z0.300 F420
G1 E47.1837 F1800
G1 X58.57 Y41.01 E47.2773 F600
G1 E43.6783 F2400
G1 Z0.500 F420
G1 X53.62 Y45.00 F6000
G1 Z0.300 F420
G1 E47.3083 F1800
G1 X54.77 Y45.96 E47.4018 F600
G1 E43.8028 F2400
G1 Z0.500 F420
G1 X49.50 Y49.50 F6000
G1 Z0.300 F420
G1 E47.4329 F1800
G1 X50.56 Y50.56 E47.5264 F600
G1 E43.9274 F2400
G1 Z0.500 F420
G1 X45.00 Y53.62 F6000
G1 Z0.300 F420
G1 E47.5575 F1800
G1 X45.96 Y54.77 E47.6510 F600
G1 E44.0520 F2400
G1 Z0.500 F420
G1 X40.15 Y57.34 F6000
G1 Z0.300 F420
G1 E47.6820 F1800
G1 X41.01 Y58.57 E47.7756 F600
G1 E44.1766 F2400
G1 Z0.500 F420
G1 X35.00 Y60.62 F6000
G1 Z0.300 F420
G1 E47.8754 F1800
G1 X36.50 Y63.22 E48.0625 F600
G1 E44.3958 F2400
G1 Z0.500 F420
G1 X29.58 Y63.44 F6000
G1 Z0.300 F420
G1 E48.0261 F1800
G1 X30.22 Y64.80 E48.1197 F600
G1 E44.5207 F2400
G1 Z0.500 F420
G1 X23.94 Y65.78 F6000
G1 Z0.300 F420
G1 E48.1507 F1800
G1 X24.45 Y67.19 E48.2442 F600
G1 E44.6452 F2400
G1 Z0.500 F420
G1 X18.12 Y67.61 F6000
G1 Z0.300 F420
G1 E48.2753 F1800
G1 X18.51 Y69.06 E48.3688 F600
G1 E44.7698 F2400
G1 Z0.500 F420
G1 X12.16 Y68.94 F6000
G1 Z0.300 F420
G1 E48.3999 F1800
G1 X12.42 Y70.41 E48.4934 F600
G1 E44.8944 F2400
G1 Z0.500 F420
G1 X6.10 Y69.73 F6000
G1 Z0.300 F420
G1 E48.5244 F1800
G1 X6.23 Y71.23 E48.6180 F600
G1 E45.0190 F2400
G1 Z0.500 F420
G1 X0.00 Y70.00 F6000
G1 Z0.300 F420
G1 E48.7178 F1800
G1 X0.00 Y73.00 E48.9049 F600
G1 E45.2382 F2400
G1 Z0.500 F420
G1 X-6.10 Y69.73 F6000
G1 Z0.300 F420
G1 E48.8685 F1800
G1 X-6.23 Y71.23 E48.9621 F600
G1 E45.3631 F2400
G1 Z0.500 F420
G1 X-12.16 Y68.94 F6000
G1 Z0.300 F420
G1 E48.9931 F1800
G1 X-12.42 Y70.41 E49.0866 F600
G1 E45.4876 F2400
G1 Z0.500 F420
G1 X-18.12 Y67.61 F6000
G1 Z0.300 F420
G1 E49.1177 F1800
G1 X-18.51 Y69.06 E49.2112 F600
G1 E45.6122 F2400
G1 Z0.500 F420
G1 X-23.94 Y65.78 F6000
G1 Z0.300 F420
G1 E49.2423 F1800
G1 X-24.45 Y67.19 E49.3358 F600
G1 E45.7368 F2400
G1 Z0.500 F420
G1 X-29.58 Y63.44 F6000
G1 Z0.300 F420
G1 E49.3668 F1800
G1 X-30.22 Y64.80 E49.4604 F600
G1 E45.8614 F2400
G1 Z0.500 F420
G1 X-35.00 Y60.62 F6000
G1 Z0.300 F420
G1 E49.5602 F1800
G1 X-36.50 Y63.22 E49.7473 F600
G1 E46.0806 F2400
G1 Z0.500 F420
G1 X-40.15 Y57.34 F6000
G1 Z0.300 F420
G1 E49.7109 F1800
G1 X-41.01 Y58.57 E49.8045 F600
G1 E46.2055 F2400
G1 Z0.500 F420
G1 X-45.00 Y53.62 F6000
G1 Z0.300 F420
G1 E49.8355 F1800
G1 X-45.96 Y54.77 E49.9290 F600
G1 E46.3300 F2400
G1 Z0.500 F420
G1 X-49.50 Y49.50 F6000
G1 Z0.300 F420
G1 E49.9601 F1800
G1 X-50.56 Y50.56 E50.0536 F600
G1 E46.4546 F2400
G1 Z0.500 F420
G1 X-53.62 Y45.00 F6000
G1 Z0.300 F420
G1 E50.0847 F1800
G1 X-54.77 Y45.96 E50.1782 F600
G1 E46.5792 F2400
G1 Z0.500 F420
G1 X-57.34 Y40.15 F6000
G1 Z0.300 F420
G1 E50.2092 F1800
G1 X-58.57 Y41.01 E50.3028 F600
G1 E46.7038 F2400
G1 Z0.500 F420
G1 X-60.62 Y35.00 F6000
G1 Z0.300 F420
G1 E50.4026 F1800
G1 X-63.22 Y36.50 E50.5897 F600
G1 E46.9230 F2400
G1 Z0.500 F420
G1 X-63.44 Y29.58 F6000
G1 Z0.300 F420
G1 E50.5533 F1800
G1 X-64.80 Y30.22 E50.6469 F600
G1 E47.0479 F2400
G1 Z0.500 F420
G1 X-65.78 Y23.94 F6000
G1 Z0.300 F420
G1 E50.6779 F1800
G1 X-67.19 Y24.45 E50.7714 F600
G1 E47.1724 F2400
G1 Z0.500 F420
G1 X-67.61 Y18.12 F6000
G1 Z0.300 F420
G1 E50.8025 F1800
G1 X-69.06 Y18.51 E50.8960 F600
G1 E47.2970 F2400
G1 Z0.500 F420
G1 X-68.94 Y12.16 F6000
G1 Z0.300 F420
G1 E50.9271 F1800
G1 X-70.41 Y12.42 E51.0206 F600
G1 E47.4216 F2400
G1 Z0.500 F420
G1 X-69.73 Y6.10 F6000
G1 Z0.300 F420
G1 E51.0516 F1800
G1 X-71.23 Y6.23 E51.1452 F600
G1 E47.5462 F2400
G1 Z0.500 F420
G1 X-70.00 Y0.00 F6000
G1 Z0.300 F420
G1 E51.2450 F1800
G1 X-73.00 Y0.00 E51.4321 F600
G1 E47.7654 F2400
G1 Z0.500 F420
G1 X-69.73 Y-6.10 F6000
G1 Z0.300 F420
G1 E51.3957 F1800
G1 X-71.23 Y-6.23 E51.4893 F600
G1 E47.8903 F2400
G1 Z0.500 F420
G1 X-68.94 Y-12.16 F6000
G1 Z0.300 F420
G1 E51.5203 F1800
G1 X-70.41 Y-12.42 E51.6138 F600
G1 E48.0148 F2400
G1 Z0.500 F420
G1 X-67.61 Y-18.12 F6000
G1 Z0.300 F420
G1 E51.6449 F1800
G1 X-69.06 Y-18.51 E51.7384 F600
G1 E48.1394 F2400
G1 Z0.500 F420
G1 X-65.78 Y-23.94 F6000
G1 Z0.300 F420
G1 E51.7695 F1800
G1 X-67.19 Y-24.45 E51.8630 F600
G1 E48.2640 F2400
G1 Z0.500 F420
G1 X-63.44 Y-29.58 F6000
G1 Z0.300 F420
G1 E51.8940 F1800
G1 X-64.80 Y-30.22 E51.9876 F600
G1 E48.3886 F2400
G1 Z0.500 F420
G1 X-60.62 Y-35.00 F6000
G1 Z0.300 F420
G1 E52.0874 F1800
G1 X-63.22 Y-36.50 E52.2745 F600
G1 E48.6078 F2400
G1 Z0.500 F420
G1 X-57.34 Y-40.15 F6000
G1 Z0.300 F420
G1 E52.2381 F1800
G1 X-58.57 Y-41.01 E52.3317 F600
G1 E48.7327 F2400
G1 Z0.500 F420
G1 X-53.62 Y-45.00 F6000
G1 Z0.300 F420
G1 E52.3627 F1800
G1 X-54.77 Y-45.96 E52.4563 F600
G1 E48.8573 F2400
G1 Z0.500 F420
G1 X-49.50 Y-49.50 F6000
G1 Z0.300 F420
G1 E52.4873 F1800
G1 X-50.56 Y-50.56 E52.5808 F600
G1 E48.9818 F2400
G1 Z0.500 F420
G1 X-45.00 Y-53.62 F6000
G1 Z0.300 F420
G1 E52.6119 F1800
G1 X-45.96 Y-54.77 E52.7054 F600
G1 E49.1064 F2400
G1 Z0.500 F420
G1 X-40.15 Y-57.34 F6000
G1 Z0.300 F420
G1 E52.7364 F1800
G1 X-41.01 Y-58.57 E52.8300 F600
G1 E49.2310 F2400
G1 Z0.500 F420
G1 X-35.00 Y-60.62 F6000
G1 Z0.300 F420
G1 E52.9298 F1800
G1 X-36.50 Y-63.22 E53.1169 F600
G1 E49.4502 F2400
G1 Z0.500 F420
G1 X-29.58 Y-63.44 F6000
G1 Z0.300 F420
G1 E53.0805 F1800
G1 X-30.22 Y-64.80 E53.1741 F600
G1 E49.5751 F2400
G1 Z0.500 F420
G1 X-23.94 Y-65.78 F6000
G1 Z0.300 F420
G1 E53.2051 F1800
G1 X-24.45 Y-67.19 E53.2987 F600
G1 E49.6997 F2400
G1 Z0.500 F420
G1 X-18.12 Y-67.61 F6000
G1 Z0.300 F420
G1 E53.3297 F1800
G1 X-18.51 Y-69.06 E53.4232 F600
G1 E49.8242 F2400
G1 Z0.500 F420
G1 X-12.16 Y-68.94 F6000
G1 Z0.300 F420
G1 E53.4543 F1800
G1 X-12.42 Y-70.41 E53.5478 F600
G1 E49.9488 F2400
G1 Z0.500 F420
G1 X-6.10 Y-69.73 F6000
G1 Z0.300 F420
G1 E53.5789 F1800
G1 X-6.23 Y-71.23 E53.6724 F600
G1 E50.0734 F2400
G1 Z0.500 F420
G1 X0.00 Y-70.00 F6000
G1 Z0.300 F420
G1 E53.7722 F1800
G1 X0.00 Y-73.00 E53.9593 F600
G1 E50.2926 F2400
G1 Z0.500 F420
G1 X6.10 Y-69.73 F6000
G1 Z0.300 F420
G1 E53.9229 F1800
G1 X6.23 Y-71.23 E54.0165 F600
G1 E50.4175 F2400
G1 Z0.500 F420
G1 X12.16 Y-68.94 F6000
G1 Z0.300 F420
G1 E54.0475 F1800
G1 X12.42 Y-70.41 E54.1411 F600
G1 E50.5421 F2400
G1 Z0.500 F420
G1 X18.12 Y-67.61 F6000
G1 Z0.300 F420
G1 E54.1721 F1800
G1 X18.51 Y-69.06 E54.2656 F600
G1 E50.6666 F2400
G1 Z0.500 F420
G1 X23.94 Y-65.78 F6000
G1 Z0.300 F420
G1 E54.2967 F1800
G1 X24.45 Y-67.19 E54.3902 F600
G1 E50.7912 F2400
G1 Z0.500 F420
G1 X29.58 Y-63.44 F6000
G1 Z0.300 F420
G1 E54.4213 F1800
G1 X30.22 Y-64.80 E54.5148 F600
G1 E50.9158 F2400
G1 Z0.500 F420
G1 X35.00 Y-60.62 F6000
G1 Z0.300 F420
G1 E54.6146 F1800
G1 X36.50 Y-63.22 E54.8017 F600
G1 E51.1350 F2400
G1 Z0.500 F420
G1 X40.15 Y-57.34 F6000
G1 Z0.300 F420
G1 E54.7653 F1800
G1 X41.01 Y-58.57 E54.8589 F600
G1 E51.2599 F2400
G1 Z0.500 F420
G1 X45.00 Y-53.62 F6000
G1 Z0.300 F420
G1 E54.8899 F1800
G1 X45.96 Y-54.77 E54.9835 F600
G1 E51.3845 F2400
G1 Z0.500 F420
G1 X49.50 Y-49.50 F6000
G1 Z0.300 F420
G1 E55.0145 F1800
G1 X50.56 Y-50.56 E55.1080 F600
G1 E51.5090 F2400
G1 Z0.500 F420
G1 X53.62 Y-45.00 F6000
G1 Z0.300 F420
G1 E55.1391 F1800
G1 X54.77 Y-45.96 E55.2326 F600
G1 E51.6336 F2400
G1 Z0.500 F420
G1 X57.34 Y-40.15 F6000
G1 Z0.300 F420
G1 E55.2637 F1800
G1 X58.57 Y-41.01 E55.3572 F600
G1 E51.7582 F2400
G1 Z0.500 F420
G1 X60.62 Y-35.00 F6000
G1 Z0.300 F420
G1 E55.4570 F1800
G1 X63.22 Y-36.50 E55.6441 F600
G1 E51.9774 F2400
G1 Z0.500 F420
G1 X63.44 Y-29.58 F6000
G1 Z0.300 F420
G1 E55.6077 F1800
G1 X64.80 Y-30.22 E55.7013 F600
G1 E52.1023 F2400
G1 Z0.500 F420
G1 X65.78 Y-23.94 F6000
G1 Z0.300 F420
G1 E55.7323 F1800
G1 X67.19 Y-24.45 E55.8259 F600
G1 E52.2269 F2400
G1 Z0.500 F420
G1 X67.61 Y-18.12 F6000
G1 Z0.300 F420
G1 E55.8569 F1800
G1 X69.06 Y-18.51 E55.9504 F600
G1 E52.3514 F2400
G1 Z0.500 F420
G1 X68.94 Y-12.16 F6000
G1 Z0.300 F420
G1 E55.9815 F1800
G1 X70.41 Y-12.42 E56.0750 F600
G1 E52.4760 F2400
G1 Z0.500 F420
G1 X69.73 Y-6.10 F6000
G1 Z0.300 F420
G1 E56.1061 F1800
G1 X71.23 Y-6.23 E56.1996 F600
G1 E52.6006 F2400
G1 Z0.500 F420
G1 X42.00 Y0.00 F6000
G1 Z0.300 F420
G1 E56.3663 F1800
G1 X41.84 Y3.66 E56.5948 F600
G1 X41.36 Y7.29 E56.8233
G1 X40.57 Y10.87 E57.0518
G1 X39.47 Y14.36 E57.2803
G1 X38.06 Y17.75 E57.5088
G1 X36.37 Y21.00 E57.7373
G1 X34.40 Y24.09 E57.9658
G1 X32.17 Y27.00 E58.1943
G1 X29.70 Y29.70 E58.4228
G1 X27.00 Y32.17 E58.6513
G1 X24.09 Y34.40 E58.8798
G1 X21.00 Y36.37 E59.1083
G1 X17.75 Y38.06 E59.3368
G1 X14.36 Y39.47 E59.5653
G1 X10.87 Y40.57 E59.7938
G1 X7.29 Y41.36 E60.0223
G1 X3.66 Y41.84 E60.2508
G1 X0.00 Y42.00 E60.4793
G1 X-3.66 Y41.84 E60.7078
G1 X-7.29 Y41.36 E60.9363
G1 X-10.87 Y40.57 E61.1648
G1 X-14.36 Y39.47 E61.3933
G1 X-17.75 Y38.06 E61.6218
G1 X-21.00 Y36.37 E61.8503
G1 X-24.09 Y34.40 E62.0788
G1 X-27.00 Y32.17 E62.3073
G1 X-29.70 Y29.70 E62.5358
G1 X-32.17 Y27.00 E62.7643
G1 X-34.40 Y24.09 E62.9928
G1 X-36.37 Y21.00 E63.2213
G1 X-38.06 Y17.75 E63.4498
G1 X-39.47 Y14.36 E63.6783
G1 X-40.57 Y10.87 E63.9068
G1 X-41.36 Y7.29 E64.1353
G1 X-41.84 Y3.66 E64.3638
G1 X-42.00 Y0.00 E64.5923
G1 X-41.84 Y-3.66 E64.8208
G1 X-41.36 Y-7.29 E65.0493
G1 X-40.57 Y-10.87 E65.2778
G1 X-39.47 Y-14.36 E65.5063
G1 X-38.06 Y-17.75 E65.7348
G1 X-36.37 Y-21.00 E65.9633
G1 X-34.40 Y-24.09 E66.1918
G1 X-32.17 Y-27.00 E66.4203
G1 X-29.70 Y-29.70 E66.6488
G1 X-27.00 Y-32.17 E66.8773
G1 X-24.09 Y-34.40 E67.1058
G1 X-21.00 Y-36.37 E67.3343
G1 X-17.75 Y-38.06 E67.5628
G1 X-14.36 Y-39.47 E67.7913
G1 X-10.87 Y-40.57 E68.0198
G1 X-7.29 Y-41.36 E68.2483
G1 X-3.66 Y-41.84 E68.4768
G1 X0.00 Y-42.00 E68.7053
G1 X3.66 Y-41.84 E68.9338
G1 X7.29 Y-41.36 E69.1623
G1 X10.87 Y-40.57 E69.3908
G1 X14.36 Y-39.47 E69.6193
G1 X17.75 Y-38.06 E69.8478
G1 X21.00 Y-36.37 E70.0763
G1 X24.09 Y-34.40 E70.3048
G1 X27.00 Y-32.17 E70.5333
G1 X29.70 Y-29.70 E70.7618
G1 X32.17 Y-27.00 E70.9903
G1 X34.40 Y-24.09 E71.2188
G1 X36.37 Y-21.00 E71.4473
G1 X38.06 Y-17.75 E71.6758
G1 X39.47 Y-14.36 E71.9043
G1 X40.57 Y-10.87 E72.1328
G1 X41.36 Y-7.29 E72.3613
G1 X41.84 Y-3.66 E72.5898
G1 X42.00 Y0.00 E72.8183
G1 E69.0767 F2400
G1 Z0.500 F420
G1 Z0.300
G1 E72.7762 F1800
G1 X39.00 Y0.00 E72.9633 F600
G1 E69.2693 F2400
G1 Z0.500 F420
G1 X41.84 Y3.66 F6000
G1 Z0.300 F420
G1 E72.8998 F1800
G1 X40.35 Y3.53 E72.9934 F600
G1 E69.3944 F2400
G1 Z0.500 F420
G1 X41.36 Y7.29 F6000
G1 Z0.300 F420
G1 E73.0244 F1800
G1 X39.88 Y7.03 E73.1179 F600
G1 E69.5189 F2400
G1 Z0.500 F420
G1 X40.57 Y10.87 F6000
G1 Z0.300 F420
G1 E73.1490 F1800
G1 X39.12 Y10.48 E73.2425 F600
G1 E69.6435 F2400
G1 Z0.500 F420
G1 X39.47 Y14.36 F6000
G1 Z0.300 F420
G1 E73.2735 F1800
G1 X38.06 Y13.85 E73.3671 F600
G1 E69.7681 F2400
G1 Z0.500 F420
G1 X38.06 Y17.75 F6000
G1 Z0.300 F420
G1 E73.3981 F1800
G1 X36.71 Y17.12 E73.4917 F600
G1 E69.8927 F2400
G1 Z0.500 F420
G1 X36.37 Y21.00 F6000
G1 Z0.300 F420
G1 E73.5915 F1800
G1 X33.77 Y19.50 E73.7786 F600
G1 E70.1119 F2400
G1 Z0.500 F420
G1 X34.40 Y24.09 F6000
G1 Z0.300 F420
G1 E73.7422 F1800
G1 X33.18 Y23.23 E73.8358 F600
G1 E70.2368 F2400
G1 Z0.500 F420
G1 X32.17 Y27.00 F6000
G1 Z0.300 F420
G1 E73.8668 F1800
G1 X31.02 Y26.03 E73.9603 F600
G1 E70.3613 F2400
G1 Z0.500 F420
G1 X29.70 Y29.70 F6000
G1 Z0.300 F420
G1 E73.9914 F1800
G1 X28.64 Y28.64 E74.0849 F600
G1 E70.4859 F2400
G1 Z0.500 F420
G1 X27.00 Y32.17 F6000
G1 Z0.300 F420
G1 E74.1160 F1800
G1 X26.03 Y31.02 E74.2095 F600
G1 E70.6105 F2400
G1 Z0.500 F420
G1 X24.09 Y34.40 F6000
G1 Z0.300 F420
G1 E74.2405 F1800
G1 X23.23 Y33.18 E74.3341 F600
G1 E70.7351 F2400
G1 Z0.500 F420
G1 X21.00 Y36.37 F6000
G1 Z0.300 F420
G1 E74.4339 F1800
G1 X19.50 Y33.77 E74.6210 F600
G1 E70.9543 F2400
G1 Z0.500 F420
G1 X17.75 Y38.06 F6000
G1 Z0.300 F420
G1 E74.5846 F1800
G1 X17.12 Y36.71 E74.6782 F600
G1 E71.0792 F2400
G1 Z0.500 F420
G1 X14.36 Y39.47 F6000
G1 Z0.300 F420
G1 E74.7092 F1800
G1 X13.85 Y38.06 E74.8027 F600
G1 E71.2037 F2400
G1 Z0.500 F420
G1 X10.87 Y40.57 F6000
G1 Z0.300 F420
G1 E74.8338 F1800
G1 X10.48 Y39.12 E74.9273 F600
G1 E71.3283 F2400
G1 Z0.500 F420
G1 X7.29 Y41.36 F6000
G1 Z0.300 F420
G1 E74.9584 F1800
G1 X7.03 Y39.88 E75.0519 F600
G1 E71.4529 F2400
G1 Z0.500 F420
G1 X3.66 Y41.84 F6000
G1 Z0.300 F420
G1 E75.0829 F1800
G1 X3.53 Y40.35 E75.1765 F600
G1 E71.5775 F2400
G1 Z0.500 F420
G1 X0.00 Y42.00 F6000
G1 Z0.300 F420
G1 E75.2763 F1800
G1 X0.00 Y39.00 E75.4634 F600
G1 E71.7967 F2400
G1 Z0.500 F420
G1 X-3.66 Y41.84 F6000
G1 Z0.300 F420
G1 E75.4270 F1800
G1 X-3.53 Y40.35 E75.5206 F600
G1 E71.9216 F2400
G1 Z0.500 F420
G1 X-7.29 Y41.36 F6000
G1 Z0.300 F420
G1 E75.5516 F1800
G1 X-7.03 Y39.88 E75.6451 F600
G1 E72.0461 F2400
G1 Z0.500 F420
G1 X-10.87 Y40.57 F6000
G1 Z0.300 F420
G1 E75.6762 F1800
G1 X-10.48 Y39.12 E75.7697 F600
G1 E72.1707 F2400
G1 Z0.500 F420
G1 X-14.36 Y39.47 F6000
G1 Z0.300 F420
G1 E75.8008 F1800
G1 X-13.85 Y38.06 E75.8943 F600
G1 E72.2953 F2400
G1 Z0.500 F420
G1 X-17.75 Y38.06 F6000
G1 Z0.300 F420
G1 E75.9253 F1800
G1 X-17.12 Y36.71 E76.0189 F600
G1 E72.4199 F2400
G1 Z0.500 F420
G1 X-21.00 Y36.37 F6000
G1 Z0.300 F420
G1 E76.1187 F1800
G1 X-19.50 Y33.77 E76.3058 F600
G1 E72.6391 F2400
G1 Z0.500 F420
G1 X-24.09 Y34.40 F6000
G1 Z0.300 F420
G1 E76.2694 F1800
G1 X-23.23 Y33.18 E76.3630 F600
G1 E72.7640 F2400
G1 Z0.500 F420
G1 X-27.00 Y32.17 F6000
G1 Z0.300 F420
G1 E76.3940 F1800
G1 X-26.03 Y31.02 E76.4875 F600
G1 E72.8885 F2400
G1 Z0.500 F420
G1 X-29.70 Y29.70 F6000
G1 Z0.300 F420
G1 E76.5186 F1800
G1 X-28.64 Y28.64 E76.6121 F600
G1 E73.0131 F2400
G1 Z0.500 F420
G1 X-32.17 Y27.00 F6000
G1 Z0.300 F420
G1 E76.6432 F1800
G1 X-31.02 Y26.03 E76.7367 F600
G1 E73.1377 F2400
G1 Z0.500 F420
G1 X-34.40 Y24.09 F6000
G1 Z0.300 F420
G1 E76.7677 F1800
G1 X-33.18 Y23.23 E76.8613 F600
G1 E73.2623 F2400
G1 Z0.500 F420
G1 X-36.37 Y21.00 F6000
G1 Z0.300 F420
G1 E76.9611 F1800
G1 X-33.77 Y19.50 E77.1482 F600
G1 E73.4815 F2400
G1 Z0.500 F420
G1 X-38.06 Y17.75 F6000
G1 Z0.300 F420
G1 E77.1118 F1800
G1 X-36.71 Y17.12 E77.2054 F600
G1 E73.6064 F2400
G1 Z0.500 F420
G1 X-39.47 Y14.36 F6000
G1 Z0.300 F420
G1 E77.2364 F1800
G1 X-38.06 Y13.85 E77.3299 F600
G1 E73.7309 F2400
G1 Z0.500 F420
G1 X-40.57 Y10.87 F6000
G1 Z0.300 F420
G1 E77.3610 F1800
G1 X-39.12 Y10.48 E77.4545 F600
G1 E73.8555 F2400
G1 Z0.500 F420
G1 X-41.36 Y7.29 F6000
G1 Z0.300 F420
G1 E77.4856 F1800
G1 X-39.88 Y7.03 E77.5791 F600
G1 E73.9801 F2400
G1 Z0.500 F420
G1 X-41.84 Y3.66 F6000
G1 Z0.300 F420
G1 E77.6101 F1800
G1 X-40.35 Y3.53 E77.7037 F600
G1 E74.1047 F2400
G1 Z0.500 F420
G1 X-42.00 Y0.00 F6000
G1 Z0.300 F420
G1 E77.8035 F1800
G1 X-39.00 Y0.00 E77.9906 F600
G1 E74.3239 F2400
G1 Z0.500 F420
G1 X-41.84 Y-3.66 F6000
G1 Z0.300 F420
G1 E77.9542 F1800
G1 X-40.35 Y-3.53 E78.0478 F600
G1 E74.4488 F2400
G1 Z0.500 F420
G1 X-41.36 Y-7.29 F6000
G1 Z0.300 F420
G1 E78.0788 F1800
G1 X-39.88 Y-7.03 E78.1724 F600
G1 E74.5733 F2400
G1 Z0.500 F420
G1 X-40.57 Y-10.87 F6000
G1 Z0.300 F420
G1 E78.2034 F1800
G1 X-39.12 Y-10.48 E78.2969 F600
G1 E74.6979 F2400
G1 Z0.500 F420
G1 X-39.47 Y-14.36 F6000
G1 Z0.300 F420
G1 E78.3280 F1800
G1 X-38.06 Y-13.85 E78.4215 F600
G1 E74.8225 F2400
G1 Z0.500 F420
G1 X-38.06 Y-17.75 F6000
G1 Z0.300 F420
G1 E78.4525 F1800
G1 X-36.71 Y-17.12 E78.5461 F600
G1 E74.9471 F2400
G1 Z0.500 F420
G1 X-36.37 Y-21.00 F6000
G1 Z0.300 F420
G1 E78.6459 F1800
G1 X-33.77 Y-19.50 E78.8330 F600
G1 E75.1663 F2400
G1 Z0.500 F420
G1 X-34.40 Y-24.09 F6000
G1 Z0.300 F420
G1 E78.7966 F1800
G1 X-33.18 Y-23.23 E78.8902 F600
G1 E75.2912 F2400
G1 Z0.500 F420
G1 X-32.17 Y-27.00 F6000
G1 Z0.300 F420
G1 E78.9212 F1800
G1 X-31.02 Y-26.03 E79.0148 F600
G1 E75.4158 F2400
G1 Z0.500 F420
G1 X-29.70 Y-29.70 F6000
G1 Z0.300 F420
G1 E79.0458 F1800
G1 X-28.64 Y-28.64 E79.1393 F600
G1 E75.5403 F2400
G1 Z0.500 F420
G1 X-27.00 Y-32.17 F6000
G1 Z0.300 F420
G1 E79.1704 F1800
G1 X-26.03 Y-31.02 E79.2639 F600
G1 E75.6649 F2400
G1 Z0.500 F420
G1 X-24.09 Y-34.40 F6000
G1 Z0.300 F420
G1 E79.2949 F1800
G1 X-23.23 Y-33.18 E79.3885 F600
G1 E75.7895 F2400
G1 Z0.500 F420
G1 X-21.00 Y-36.37 F6000
G1 Z0.300 F420
G1 E79.4883 F1800
G1 X-19.50 Y-33.77 E79.6754 F600
G1 E76.0087 F2400
G1 Z0.500 F420
G1 X-17.75 Y-38.06 F6000
G1 Z0.300 F420
G1 E79.6390 F1800
G1 X-17.12 Y-36.71 E79.7326 F600
G1 E76.1336 F2400
G1 Z0.500 F420
G1 X-14.36 Y-39.47 F6000
G1 Z0.300 F420
G1 E79.7636 F1800
G1 X-13.85 Y-38.06 E79.8572 F600
G1 E76.2582 F2400
G1 Z0.500 F420
G1 X-10.87 Y-40.57 F6000
G1 Z0.300 F420
G1 E79.8882 F1800
G1 X-10.48 Y-39.12 E79.9817 F600
G1 E76.3827 F2400
G1 Z0.500 F420
G1 X-7.29 Y-41.36 F6000
G1 Z0.300 F420
G1 E80.0128 F1800
G1 X-7.03 Y-39.88 E80.1063 F600
G1 E76.5073 F2400
G1 Z0.500 F420
G1 X-3.66 Y-41.84 F6000
G1 Z0.300 F420
G1 E80.1374 F1800
G1 X-3.53 Y-40.35 E80.2309 F600
G1 E76.6319 F2400
G1 Z0.500 F420
G1 X0.00 Y-42.00 F6000
G1 Z0.300 F420
G1 E80.3307 F1800
G1 X0.00 Y-39.00 E80.5178 F600
G1 E76.8511 F2400
G1 Z0.500 F420
G1 X3.66 Y-41.84 F6000
G1 Z0.300 F420
G1 E80.4814 F1800
G1 X3.53 Y-40.35 E80.5750 F600
G1 E76.9760 F2400
G1 Z0.500 F420
G1 X7.29 Y-41.36 F6000
G1 Z0.300 F420
G1 E80.6060 F1800
G1 X7.03 Y-39.88 E80.6996 F600
G1 E77.1006 F2400
G1 Z0.500 F420
G1 X10.87 Y-40.57 F6000
G1 Z0.300 F420
G1 E80.7306 F1800
G1 X10.48 Y-39.12 E80.8241 F600
G1 E77.2251 F2400
G1 Z0.500 F420
G1 X14.36 Y-39.47 F6000
G1 Z0.300 F420
G1 E80.8552 F1800
G1 X13.85 Y-38.06 E80.9487 F600
G1 E77.3497 F2400
G1 Z0.500 F420
G1 X17.75 Y-38.06 F6000
G1 Z0.300 F420
G1 E80.9798 F1800
G1 X17.12 Y-36.71 E81.0733 F600
G1 E77.4743 F2400
G1 Z0.500 F420
G1 X21.00 Y-36.37 F6000
G1 Z0.300 F420
G1 E81.1731 F1800
G1 X19.50 Y-33.77 E81.3602 F600
G1 E77.6935 F2400
G1 Z0.500 F420
G1 X24.09 Y-34.40 F6000
G1 Z0.300 F420
G1 E81.3238 F1800
G1 X23.23 Y-33.18 E81.4174 F600
G1 E77.8184 F2400
G1 Z0.500 F420
G1 X27.00 Y-32.17 F6000
G1 Z0.300 F420
G1 E81.4484 F1800
G1 X26.03 Y-31.02 E81.5420 F600
G1 E77.9430 F2400
G1 Z0.500 F420
G1 X29.70 Y-29.70 F6000
G1 Z0.300 F420
G1 E81.5730 F1800
G1 X28.64 Y-28.64 E81.6665 F600
G1 E78.0675 F2400
G1 Z0.500 F420
G1 X32.17 Y-27.00 F6000
G1 Z0.300 F420
G1 E81.6976 F1800
G1 X31.02 Y-26.03 E81.7911 F600
G1 E78.1921 F2400
G1 Z0.500 F420
G1 X34.40 Y-24.09 F6000
G1 Z0.300 F420
G1 E81.8222 F1800
G1 X33.18 Y-23.23 E81.9157 F600
G1 E78.3167 F2400
G1 Z0.500 F420
G1 X36.37 Y-21.00 F6000
G1 Z0.300 F420
G1 E82.0155 F1800
G1 X33.77 Y-19.50 E82.2026 F600
G1 E78.5359 F2400
G1 Z0.500 F420
G1 X38.06 Y-17.75 F6000
G1 Z0.300 F420
G1 E82.1662 F1800
G1 X36.71 Y-17.12 E82.2598 F600
G1 E78.6608 F2400
G1 Z0.500 F420
G1 X39.47 Y-14.36 F6000
G1 Z0.300 F420
G1 E82.2908 F1800
G1 X38.06 Y-13.85 E82.3844 F600
G1 E78.7854 F2400
G1 Z0.500 F420
G1 X40.57 Y-10.87 F6000
G1 Z0.300 F420
G1 E82.4154 F1800
G1 X39.12 Y-10.48 E82.5089 F600
G1 E78.9099 F2400
G1 Z0.500 F420
G1 X41.36 Y-7.29 F6000
G1 Z0.300 F420
G1 E82.5400 F1800
G1 X39.88 Y-7.03 E82.6335 F600
G1 E79.0345 F2400
G1 Z0.500 F420
G1 X41.84 Y-3.66 F6000
G1 Z0.300 F420
G1 E82.6646 F1800
G1 X40.35 Y-3.53 E82.7581 F600
G1 E79.1591 F2400
G1 Z0.500 F420
;structure:shell-outer
G1 X70.00 Y0.00 F6000
G1 Z0.300 F420
G1 E82.9270 F1800
G1 X42.00 Y0.00 E84.6732 F600
G1 E80.9382 F2400
G1 Z0.500 F420
;structure:shell-outer
G1 X0.50 Y21.48 F6000
G1 Z0.300 F420
G1 E84.6851 F1800
G1 X0.50 Y24.88 E84.8971 F600
G1 X1.73 Y24.88 E84.9738
G1 X2.12 Y24.78 E84.9990
G1 X2.43 Y24.58 E85.0220
G1 X2.53 Y24.45 E85.0322
G1 X2.66 Y24.04 E85.0590
G1 X2.61 Y23.80 E85.0743
G1 X2.50 Y23.56 E85.0908
G1 X2.28 Y23.36 E85.1093
G1 X1.51 Y23.18 E85.1586
G1 E81.4454 F2400
G1 Z0.500 F420
G1 X0.50 Y23.18 F6000
G1 Z0.300 F420
G1 E85.1525 F1800
G1 X1.51 Y23.18 E85.2155 F600
G1 X2.02 Y23.00 E85.2493
G1 X2.41 Y22.38 E85.2949
G1 X2.66 Y21.48 E85.3532
G1 E81.6790 F2400
G1 Z0.500 F420
G1 X3.72 Y22.69 F6000
G1 Z0.300 F420
G1 E85.4325 F1800
G1 X5.86 Y22.69 E85.5660 F600
G1 X5.78 Y23.22 E85.5994
G1 X5.57 Y23.61 E85.6270
G1 X5.23 Y23.86 E85.6533
G1 X4.79 Y23.95 E85.6813
G1 X4.36 Y23.86 E85.7087
G1 X4.02 Y23.61 E85.7351
G1 X3.80 Y23.22 E85.7630
G1 X3.72 Y22.69 E85.7964
G1 X3.80 Y22.15 E85.8305
G1 X4.03 Y21.75 E85.8592
G1 X4.38 Y21.51 E85.8857
G1 X4.84 Y21.42 E85.9149
G1 X5.18 Y21.47 E85.9364
G1 X5.47 Y21.61 E85.9564
G1 X5.68 Y21.83 E85.9754
G1 X5.80 Y22.13 E85.9956
G1 E82.2760 F2400
G1 Z0.500 F420
G1 X6.92 Y23.26 F6000
G1 Z0.300 F420
G1 E85.9213 F1800
G1 X8.61 Y23.26 E86.0267 F600
G1 E82.4132 F2400
G1 Z0.500 F420
G1 X8.61 Y22.55 F6000
G1 Z0.300 F420
G1 E86.0580 F1800
G1 X6.92 Y22.55 E86.1634 F600
G1 E82.5499 F2400
G1 Z0.500 F420
G1 X9.67 Y24.44 F6000
G1 Z0.300 F420
G1 E86.2972 F1800
G1 X9.86 Y24.65 E86.3149 F600
G1 X10.09 Y24.81 E86.3323
G1 X10.35 Y24.90 E86.3495
G1 X10.63 Y24.94 E86.3671
G1 X11.00 Y24.88 E86.3905
G1 X11.30 Y24.68 E86.4130
G1 X11.49 Y24.39 E86.4346
G1 X11.56 Y24.02 E86.4581
G1 X11.46 Y23.63 E86.4832
G1 X11.18 Y23.27 E86.5117
G1 X10.40 Y22.64 E86.5742
G1 X10.10 Y22.23 E86.6059
G1 X9.71 Y21.48 E86.6586
G1 X11.53 Y21.48 E86.7721
G1 E83.0584 F2400
G1 Z0.500 F420
G1 X12.62 Y21.71 F6000
G1 Z0.300 F420
G1 E85.9106 F1800
G1 X12.62 Y21.65 E85.9144 F600
G1 E83.0841 F2400
G1 Z0.500 F420
G1 X13.69 Y24.88 F6000
G1 Z0.300 F420
G1 E86.8146 F1800
G1 X15.83 Y24.88 E86.9481 F600
G1 X14.30 Y21.48 E87.1806
G1 E83.4794 F2400
G1 Z0.500 F420
G1 X16.89 Y22.90 F6000
G1 Z0.300 F420
G1 E87.1363 F1800
G1 X18.76 Y22.90 E87.2529 F600
G1 E83.6279 F2400
G1 Z0.500 F420
G1 X19.87 Y24.13 F6000
G1 Z0.300 F420
G1 E87.3749 F1800
G1 X19.98 Y24.47 E87.3972 F600
G1 X20.19 Y24.73 E87.4180
G1 X20.48 Y24.89 E87.4387
G1 X20.82 Y24.94 E87.4601
G1 X21.21 Y24.87 E87.4848
G1 X21.50 Y24.68 E87.5065
G1 X21.68 Y24.41 E87.5267
G1 X21.75 Y24.06 E87.5490
G1 X21.68 Y23.85 E87.5628
G1 X21.54 Y23.68 E87.5765
G1 X21.17 Y23.45 E87.6037
G1 X20.73 Y23.30 E87.6327
G1 X21.17 Y23.18 E87.6611
G1 X21.53 Y23.02 E87.6857
G1 X21.82 Y22.74 E87.7108
G1 X21.92 Y22.45 E87.7300
G1 X21.85 Y22.03 E87.7565
G1 X21.62 Y21.70 E87.7816
G1 X21.28 Y21.50 E87.8062
G1 X20.86 Y21.42 E87.8329
G1 X20.46 Y21.48 E87.8581
G1 X20.14 Y21.65 E87.8807
G1 X19.92 Y21.92 E87.9024
G1 X19.82 Y22.28 E87.9257
G1 E84.2126 F2400
G1 Z0.500 F420
G1 X22.99 Y21.71 F6000
G1 Z0.300 F420
G1 E87.0648 F1800
G1 X22.99 Y21.65 E87.0685 F600
G1 E84.2382 F2400
G1 Z0.500 F420
G1 X24.05 Y24.44 F6000
G1 Z0.300 F420
G1 E87.9821 F1800
G1 X24.24 Y24.65 E87.9998 F600
G1 X24.47 Y24.81 E88.0173
G1 X24.73 Y24.90 E88.0344
G1 X25.01 Y24.94 E88.0521
G1 X25.38 Y24.88 E88.0754
G1 X25.68 Y24.68 E88.0979
G1 X25.87 Y24.39 E88.1196
G1 X25.94 Y24.02 E88.1430
G1 X25.84 Y23.63 E88.1682
G1 X25.56 Y23.27 E88.1966
G1 X24.78 Y22.64 E88.2591
G1 X24.48 Y22.23 E88.2908
G1 X24.09 Y21.48 E88.3435
G1 X25.91 Y21.48 E88.4571
G1 E84.7433 F2400
G1 Z0.500 F420
G1 X0.50 Y19.88 F6000
G1 Z0.300 F420
G1 E88.4727 F1800
G1 X1.47 Y19.88 E88.5332 F600
G1 X1.86 Y19.78 E88.5583
G1 X2.17 Y19.58 E88.5813
G1 X2.27 Y19.45 E88.5916
G1 X2.40 Y19.04 E88.6184
G1 X2.35 Y18.80 E88.6337
G1 X2.28 Y18.56 E88.6493
G1 X2.02 Y18.36 E88.6697
G1 X1.51 Y18.18 E88.7035
G1 X0.50 Y18.18 E88.7665
G1 E85.0704 F2400
G1 Z0.500 F420
G1 X1.51 Y18.18 F6000
G1 Z0.300 F420
G1 E88.8173 F1800
G1 X2.28 Y18.01 E88.8665 F600
G1 X2.50 Y17.81 E88.8850
G1 X2.61 Y17.56 E88.9021
G1 X2.66 Y17.32 E88.9174
G1 X2.53 Y16.91 E88.9442
G1 X2.43 Y16.78 E88.9544
G1 X2.12 Y16.59 E88.9771
G1 X1.73 Y16.48 E89.0024
G1 X0.50 Y16.48 E89.0791
G1 X0.50 Y19.88 E89.2911
G1 E85.5777 F2400
G1 Z0.500 F420
G1 X3.72 Y17.69 F6000
G1 Z0.300 F420
G1 E89.3315 F1800
G1 X5.86 Y17.69 E89.4649 F600
G1 X5.78 Y18.22 E89.4984
G1 X5.57 Y18.61 E89.5260
G1 X5.23 Y18.86 E89.5523
G1 X4.79 Y18.95 E89.5803
G1 X4.36 Y18.86 E89.6077
G1 X4.02 Y18.61 E89.6340
G1 X3.80 Y18.22 E89.6620
G1 X3.72 Y17.69 E89.6954
G1 X3.80 Y17.15 E89.7294
G1 X4.03 Y16.75 E89.7582
G1 X4.38 Y16.51 E89.7847
G1 X4.84 Y16.42 E89.8139
G1 X5.18 Y16.47 E89.8354
G1 X5.47 Y16.61 E89.8554
G1 X5.68 Y16.83 E89.8744
G1 X5.80 Y17.13 E89.8946
G1 E86.1749 F2400
G1 Z0.500 F420
G1 X6.92 Y18.26 F6000
G1 Z0.300 F420
G1 E89.8204 F1800
G1 X8.61 Y18.26 E89.9258 F600
G1 E86.3121 F2400
G1 Z0.500 F420
G1 X8.61 Y17.55 F6000
G1 Z0.300 F420
G1 E89.9571 F1800
G1 X6.92 Y17.55 E90.0625 F600
G1 E86.4488 F2400
G1 Z0.500 F420
G1 X10.89 Y19.94 F6000
G1 Z0.300 F420
G1 E90.2036 F1800
G1 X11.40 Y19.80 E90.2366 F600
G1 X11.79 Y19.42 E90.2705
G1 X12.03 Y18.86 E90.3085
G1 X12.11 Y18.18 E90.3512
G1 X12.03 Y17.51 E90.3933
G1 X11.79 Y16.95 E90.4313
G1 X11.40 Y16.56 E90.4657
G1 X10.89 Y16.42 E90.4987
G1 X10.37 Y16.56 E90.5323
G1 X9.99 Y16.95 E90.5662
G1 X9.75 Y17.51 E90.6042
G1 X9.67 Y18.18 E90.6463
G1 X9.75 Y18.85 E90.6884
G1 X9.99 Y19.42 E90.7270
G1 X10.37 Y19.80 E90.7605
G1 X10.89 Y19.94 E90.7941
G1 E87.0730 F2400
G1 Z0.500 F420
G1 X13.18 Y16.71 F6000
G1 Z0.300 F420
G1 E89.9252 F1800
G1 X13.18 Y16.65 E89.9290 F600
G1 E87.0987 F2400
G1 Z0.500 F420
G1 X14.31 Y17.17 F6000
G1 Z0.300 F420
G1 E90.8521 F1800
G1 X14.61 Y16.61 E90.8917 F600
G1 X15.20 Y16.42 E90.9303
G1 X15.71 Y16.54 E90.9630
G1 X16.06 Y16.88 E90.9934
G1 X16.27 Y17.47 E91.0325
G1 X16.34 Y18.28 E91.0832
G1 X16.27 Y18.99 E91.1277
G1 X16.06 Y19.51 E91.1627
G1 X15.71 Y19.83 E91.1923
G1 X15.24 Y19.94 E91.2224
G1 X14.81 Y19.85 E91.2498
G1 X14.50 Y19.59 E91.2750
G1 X14.31 Y19.22 E91.3009
G1 X14.24 Y18.78 E91.3287
G1 X14.31 Y18.37 E91.3547
G1 X14.51 Y18.04 E91.3787
G1 X14.81 Y17.81 E91.4023
G1 X15.21 Y17.72 E91.4279
G1 X15.50 Y17.75 E91.4461
G1 X15.73 Y17.82 E91.4610
G1 X15.93 Y17.92 E91.4750
G1 X16.34 Y18.28 E91.5090
G1 E87.7859 F2400
G1 Z0.500 F420
G1 X0.50 Y13.89 F6000
G1 Z0.300 F420
G1 E91.5203 F1800
G1 X1.36 Y11.48 E91.6799 F600
G1 X2.10 Y13.89 E91.8371
G1 X2.87 Y11.48 E91.9949
G1 X3.71 Y13.89 E92.1541
G1 E88.4528 F2400
G1 Z0.500 F420
G1 X4.77 Y13.26 F6000
G1 Z0.300 F420
G1 E92.0983 F1800
G1 X6.46 Y13.26 E92.2037 F600
G1 E88.5899 F2400
G1 Z0.500 F420
G1 X6.46 Y12.55 F6000
G1 Z0.300 F420
G1 E92.2350 F1800
G1 X4.77 Y12.55 E92.3404 F600
G1 E88.7267 F2400
G1 Z0.500 F420
G1 X8.74 Y14.94 F6000
G1 Z0.300 F420
G1 E92.4815 F1800
G1 X9.25 Y14.80 E92.5145 F600
G1 X9.64 Y14.42 E92.5485
G1 X9.88 Y13.86 E92.5865
G1 X9.96 Y13.18 E92.6292
G1 X9.88 Y12.51 E92.6712
G1 X9.64 Y11.95 E92.7092
G1 X9.25 Y11.56 E92.7436
G1 X8.74 Y11.42 E92.7766
G1 X8.22 Y11.56 E92.8102
G1 X7.84 Y11.95 E92.8442
G1 X7.60 Y12.51 E92.8822
G1 X7.52 Y13.18 E92.9243
G1 X7.60 Y13.85 E92.9663
G1 X7.84 Y14.42 E93.0049
G1 X8.22 Y14.80 E93.0384
G1 X8.74 Y14.94 E93.0720
G1 E89.3508 F2400
G1 Z0.500 F420
G1 X11.02 Y11.71 F6000
G1 Z0.300 F420
G1 E92.2031 F1800
G1 X11.02 Y11.65 E92.2068 F600
G1 E89.3765 F2400
G1 Z0.500 F420
G1 X12.14 Y14.13 F6000
G1 Z0.300 F420
G1 E93.1201 F1800
G1 X12.25 Y14.47 E93.1424 F600
G1 X12.46 Y14.73 E93.1632
G1 X12.75 Y14.89 E93.1839
G1 X13.09 Y14.94 E93.2053
G1 X13.48 Y14.87 E93.2300
G1 X13.77 Y14.68 E93.2516
G1 X13.95 Y14.41 E93.2719
G1 X14.02 Y14.06 E93.2941
G1 X13.95 Y13.85 E93.3079
G1 X13.81 Y13.68 E93.3217
G1 X13.44 Y13.45 E93.3488
G1 X13.00 Y13.30 E93.3778
G1 X13.44 Y13.18 E93.4063
G1 X13.80 Y13.02 E93.4308
G1 X14.09 Y12.74 E93.4560
G1 X14.19 Y12.45 E93.4751
G1 X14.12 Y12.03 E93.5017
G1 X13.89 Y11.70 E93.5267
G1 X13.55 Y11.50 E93.5513
G1 X13.12 Y11.42 E93.5786
G1 X12.73 Y11.48 E93.6032
G1 X12.41 Y11.65 E93.6258
G1 X12.19 Y11.92 E93.6476
G1 X12.09 Y12.28 E93.6709
G1 E89.9577 F2400
G1 Z0.500 F420
;structure:shell-inner
G1 X68.00 Y0.00 F6000
G1 Z0.300 F420
G1 E91.9578 F1800
G1 X67.71 Y5.92 E92.3277 F60
G1 X66.91 Y11.80
G1 X65.60 Y17.58
G1 X63.79 Y23.22
G1 E95.0277 F1800
G1 X61.50 Y28.68 E95.2492 F1604
G1 X58.75 Y33.92 E95.4707
G1 X55.54 Y38.89 E95.6921
G1 X51.92 Y43.57 E95.9134
G1 X47.91 Y47.91 E96.1346
G1 X43.53 Y51.88 E96.3557
G1 X38.83 Y55.45 E96.5767
G1 X33.83 Y58.60 E96.7976
G1 X28.59 Y61.30 E97.0185
G1 X23.12 Y63.53 E97.2392
G1 X17.49 Y65.28 E97.4599
G1 X11.73 Y66.53 E97.6805
G1 X5.89 Y67.27 E97.9009
G1 X2.53 Y67.46 E98.0268
G1 E94.4268 F2400
G1 X-3.36 Y67.40 F300
G1 X-9.22 Y66.82
G1 X-15.00 Y65.74
G1 X-17.27 Y65.17
G1 E98.0268 F1800
G1 X-22.87 Y63.39 E98.3935 F60
G1 E94.4202 F2400
G1 Z0.500 F420
G1 X66.00 Y0.00 F6000
G1 Z0.300 F420
G1 E96.9204 F1800
G1 X65.72 Y5.75 E97.2794 F60
G1 X64.94 Y11.45
G1 X63.67 Y17.06
G1 X61.92 Y22.54
G1 E100.0794 F1800
G1 X59.69 Y27.83 E100.2944 F1604
G1 X57.01 Y32.92 E100.5093
G1 X53.90 Y37.74 E100.7242
G1 X50.39 Y42.28 E100.9390
G1 X46.49 Y46.49 E101.1536
G1 X42.25 Y50.35 E101.3682
G1 X37.68 Y53.81 E101.5827
G1 X32.83 Y56.87 E101.7971
G1 X27.74 Y59.49 E102.0114
G1 X22.44 Y61.65 E102.2256
G1 X16.97 Y63.35 E102.4398
G1 X11.38 Y64.56 E102.6538
G1 X5.71 Y65.28 E102.8678
G1 X0.08 Y65.50 E103.0784
G1 E99.3784 F2400
G1 X-5.62 Y65.23 F300
G1 X-11.28 Y64.47
G1 X-16.85 Y63.21
G1 X-19.59 Y62.40
G1 E103.0784 F1800
G1 X-24.95 Y60.43 E103.4342 F60
G1 E99.4418 F2400
G1 Z0.500 F420
G1 X64.00 Y0.00 F6000
G1 Z0.300 F420
G1 E101.9420 F1800
G1 X63.73 Y5.58 E102.2901 F60
G1 X62.97 Y11.10
G1 X61.74 Y16.54
G1 X60.04 Y21.85
G1 E105.1901 F1800
G1 X57.88 Y26.99 E105.3986 F1604
G1 X55.28 Y31.92 E105.6070
G1 X52.27 Y36.60 E105.8154
G1 X48.86 Y41.00 E106.0236
G1 X45.08 Y45.08 E106.2317
G1 X40.96 Y48.81 E106.4398
G1 X36.53 Y52.18 E106.6478
G1 X31.83 Y55.14 E106.8556
G1 X26.89 Y57.68 E107.0634
G1 X21.76 Y59.77 E107.2711
G1 X16.46 Y61.42 E107.4787
G1 X11.04 Y62.59 E107.6862
G1 X5.54 Y63.29 E107.8936
G1 X0.00 Y63.50 E108.1010
G1 X-2.36 Y63.44 E108.1892
G1 E104.3892 F2400
G1 X-7.87 Y62.97 F300
G1 X-13.33 Y62.02
G1 X-18.67 Y60.59
G1 X-21.88 Y59.49
G1 E108.1892 F1800
G1 X-26.97 Y57.33 E108.5340 F60
G1 E104.5330 F2400
G1 Z0.500 F420
G1 X62.00 Y0.00 F6000
G1 Z0.300 F420
G1 E107.0331 F1800
G1 X61.74 Y5.40 E107.3704 F60
G1 X61.00 Y10.76
G1 X59.81 Y16.03
G1 X58.16 Y21.17
G1 E110.3704 F1800
G1 X56.07 Y26.14 E110.5723 F1604
G1 X53.55 Y30.92 E110.7742
G1 X50.63 Y35.45 E110.9760
G1 X47.32 Y39.71 E111.1777
G1 X43.66 Y43.66 E111.3794
G1 X39.67 Y47.28 E111.5809
G1 X35.39 Y50.54 E111.7823
G1 X30.83 Y53.40 E111.9837
G1 X26.05 Y55.86 E112.1849
G1 X21.07 Y57.90 E112.3861
G1 X15.94 Y59.48 E112.5872
G1 X10.69 Y60.62 E112.7881
G1 X5.36 Y61.29 E112.9890
G1 X0.00 Y61.50 E113.1898
G1 X-4.80 Y61.29 E113.3695
G1 E109.4695 F2400
G1 X-10.11 Y60.61 F300
G1 X-15.35 Y59.47
G1 X-20.47 Y57.88
G1 X-24.11 Y56.44
G1 E113.3695 F1800
G1 X-28.92 Y54.10 E113.7033 F60
G1 E109.6845 F2400
G1 Z0.500 F420
G1 X60.00 Y0.00 F6000
G1 Z0.300 F420
G1 E112.1847 F1800
G1 X59.74 Y5.23 E112.5110 F60
G1 X59.03 Y10.41
G1 X57.88 Y15.51
G1 X56.28 Y20.48
G1 E115.6110 F1800
G1 X54.25 Y25.30 E115.8065 F1604
G1 X51.82 Y29.92 E116.0018
G1 X48.99 Y34.30 E116.1971
G1 X45.79 Y38.42 E116.3923
G1 X42.25 Y42.25 E116.5874
G1 X38.39 Y45.75 E116.7824
G1 X34.24 Y48.90 E116.9773
G1 X29.83 Y51.67 E117.1721
G1 X25.20 Y54.05 E117.3668
G1 X20.39 Y56.02 E117.5615
G1 X15.42 Y57.55 E117.7560
G1 X10.34 Y58.65 E117.9505
G1 X5.19 Y59.30 E118.1448
G1 X-0.00 Y59.50 E118.3391
G1 X-5.18 Y59.25 E118.5333
G1 X-7.23 Y59.02 E118.6101
G1 E114.6101 F2400
G1 X-12.34 Y58.14 F300
G1 X-17.35 Y56.82
G1 X-22.22 Y55.06
G1 X-26.27 Y53.22
G1 E118.6101 F1800
G1 X-30.79 Y50.71 E118.9330 F60
G1 E114.9061 F2400
G1 Z0.500 F420
G1 X58.00 Y0.00 F6000
G1 Z0.300 F420
G1 E117.4063 F1800
G1 X57.75 Y5.05 E117.7218 F60
G1 X57.06 Y10.06
G1 X55.94 Y14.99
G1 X54.40 Y19.80
G1 E120.9218 F1800
G1 X52.44 Y24.45 E121.1107 F1604
G1 X50.09 Y28.92 E121.2996
G1 X47.35 Y33.16 E121.4883
G1 X44.26 Y37.14 E121.6769
G1 X40.84 Y40.84 E121.8655
G1 X37.10 Y44.22 E122.0540
G1 X33.09 Y47.26 E122.2424
G1 X28.83 Y49.94 E122.4306
G1 X24.36 Y52.24 E122.6188
G1 X19.70 Y54.14 E122.8069
G1 X14.90 Y55.62 E122.9950
G1 X9.99 Y56.68 E123.1829
G1 X5.01 Y57.31 E123.3707
G1 X0.00 Y57.50 E123.5585
G1 X-5.01 Y57.25 E123.7461
G1 X-9.64 Y56.63 E123.9209
G1 E119.8209 F2400
G1 X-14.53 Y55.55 F300
G1 X-19.31 Y54.05
G1 X-23.93 Y52.13
G1 X-28.34 Y49.84
G1 E123.9209 F1800
G1 X-32.56 Y47.16 E124.2328 F60
G1 E120.1894 F2400
G1 Z0.500 F420
;structure:shell-outer
G1 X-29.50 Y21.48 F6000
G1 Z0.300 F420
G1 E124.3991 F1800
G1 X-29.50 Y24.88 E124.6111 F600
G1 X-28.27 Y24.88 E124.6879
G1 X-27.88 Y24.78 E124.7130
G1 X-27.57 Y24.58 E124.7360
G1 X-27.47 Y24.45 E124.7462
G1 X-27.34 Y24.04 E124.7730
G1 X-27.39 Y23.80 E124.7883
G1 X-27.50 Y23.56 E124.8048
G1 X-27.72 Y23.36 E124.8233
G1 X-28.49 Y23.18 E124.8726
G1 E121.1594 F2400
G1 Z0.500 F420
G1 X-29.50 Y23.18 F6000
G1 Z0.300 F420
G1 E124.8666 F1800
G1 X-28.49 Y23.18 E124.9295 F600
G1 X-27.98 Y23.00 E124.9633
G1 X-27.59 Y22.38 E125.0089
G1 X-27.34 Y21.48 E125.0672
G1 E121.3930 F2400
G1 Z0.500 F420
G1 X-26.28 Y22.69 F6000
G1 Z0.300 F420
G1 E125.1465 F1800
G1 X-24.14 Y22.69 E125.2800 F600
G1 X-24.22 Y23.22 E125.3134
G1 X-24.43 Y23.61 E125.3410
G1 X-24.77 Y23.86 E125.3673
G1 X-25.21 Y23.95 E125.3953
G1 X-25.64 Y23.86 E125.4227
G1 X-25.98 Y23.61 E125.4491
G1 X-26.20 Y23.22 E125.4770
G1 X-26.28 Y22.69 E125.5104
G1 X-26.20 Y22.15 E125.5445
G1 X-25.97 Y21.75 E125.5732
G1 X-25.62 Y21.51 E125.5997
G1 X-25.16 Y21.42 E125.6289
G1 X-24.82 Y21.47 E125.6504
G1 X-24.53 Y21.61 E125.6704
G1 X-24.32 Y21.83 E125.6894
G1 X-24.20 Y22.13 E125.7096
G1 E121.9900 F2400
G1 Z0.500 F420
G1 X-23.08 Y23.26 F6000
G1 Z0.300 F420
G1 E125.6353 F1800
G1 X-21.39 Y23.26 E125.7407 F600
G1 E122.1272 F2400
G1 Z0.500 F420
G1 X-21.39 Y22.55 F6000
G1 Z0.300 F420
G1 E125.7720 F1800
G1 X-23.08 Y22.55 E125.8774 F600
G1 E122.2639 F2400
G1 Z0.500 F420
G1 X-20.33 Y24.44 F6000
G1 Z0.300 F420
G1 E126.0112 F1800
G1 X-20.14 Y24.65 E126.0289 F600
G1 X-19.91 Y24.81 E126.0463
G1 X-19.65 Y24.90 E126.0635
G1 X-19.37 Y24.94 E126.0811
G1 X-19.00 Y24.88 E126.1045
G1 X-18.70 Y24.68 E126.1270
G1 X-18.51 Y24.39 E126.1486
G1 X-18.44 Y24.02 E126.1721
G1 X-18.54 Y23.63 E126.1972
G1 X-18.82 Y23.27 E126.2257
G1 X-19.60 Y22.64 E126.2882
G1 X-19.90 Y22.23 E126.3199
G1 X-20.29 Y21.48 E126.3726
G1 X-18.47 Y21.48 E126.4861
G1 E122.7724 F2400
G1 Z0.500 F420
G1 X-17.38 Y21.71 F6000
G1 Z0.300 F420
G1 E125.6246 F1800
G1 X-17.38 Y21.65 E125.6284 F600
G1 E122.7981 F2400
G1 Z0.500 F420
G1 X-16.24 Y22.17 F6000
G1 Z0.300 F420
G1 E126.5515 F1800
G1 X-15.94 Y21.61 E126.5911 F600
G1 X-15.35 Y21.42 E126.6297
G1 X-14.84 Y21.54 E126.6624
G1 X-14.49 Y21.88 E126.6928
G1 X-14.28 Y22.47 E126.7319
G1 X-14.21 Y23.28 E126.7826
G1 X-14.28 Y23.99 E126.8271
G1 X-14.49 Y24.51 E126.8621
G1 X-14.84 Y24.83 E126.8917
G1 X-15.31 Y24.94 E126.9218
G1 X-15.74 Y24.85 E126.9492
G1 X-16.05 Y24.59 E126.9744
G1 X-16.24 Y24.22 E127.0003
G1 X-16.31 Y23.78 E127.0281
G1 X-16.24 Y23.37 E127.0541
G1 X-16.04 Y23.04 E127.0781
G1 X-15.74 Y22.81 E127.1017
G1 X-15.34 Y22.72 E127.1273
G1 X-15.05 Y22.75 E127.1455
G1 X-14.82 Y22.82 E127.1604
G1 X-14.62 Y22.92 E127.1744
G1 X-14.21 Y23.28 E127.2084
G1 E123.4853 F2400
G1 Z0.500 F420
G1 X-13.15 Y22.90 F6000
G1 Z0.300 F420
G1 E127.1423 F1800
G1 X-11.28 Y22.90 E127.2590 F600
G1 E123.6339 F2400
G1 Z0.500 F420
G1 X-10.17 Y24.13 F6000
G1 Z0.300 F420
G1 E127.3809 F1800
G1 X-10.06 Y24.47 E127.4032 F600
G1 X-9.85 Y24.73 E127.4241
G1 X-9.56 Y24.89 E127.4447
G1 X-9.22 Y24.94 E127.4662
G1 X-8.83 Y24.87 E127.4909
G1 X-8.54 Y24.68 E127.5125
G1 X-8.36 Y24.41 E127.5327
G1 X-8.29 Y24.06 E127.5550
G1 X-8.36 Y23.85 E127.5688
G1 X-8.50 Y23.68 E127.5825
G1 X-8.87 Y23.45 E127.6097
G1 X-9.31 Y23.30 E127.6387
G1 X-8.87 Y23.18 E127.6671
G1 X-8.51 Y23.02 E127.6917
G1 X-8.22 Y22.74 E127.7168
G1 X-8.12 Y22.45 E127.7360
G1 X-8.19 Y22.03 E127.7625
G1 X-8.42 Y21.70 E127.7876
G1 X-8.76 Y21.50 E127.8122
G1 X-9.18 Y21.42 E127.8389
G1 X-9.58 Y21.48 E127.8641
G1 X-9.90 Y21.65 E127.8867
G1 X-10.12 Y21.92 E127.9084
G1 X-10.22 Y22.28 E127.9317
G1 E124.2186 F2400
G1 Z0.500 F420
G1 X-7.05 Y21.71 F6000
G1 Z0.300 F420
G1 E127.0708 F1800
G1 X-7.05 Y21.65 E127.0746 F600
G1 E124.2443 F2400
G1 Z0.500 F420
G1 X-4.28 Y21.48 F6000
G1 Z0.300 F420
G1 E127.9784 F1800
G1 X-4.28 Y24.88 E128.1904 F600
G1 X-5.99 Y22.65 E128.3657
G1 X-3.68 Y22.65 E128.5097
G1 E124.8049 F2400
G1 Z0.500 F420
G1 X-29.50 Y19.88 F6000
G1 Z0.300 F420
G1 E128.5343 F1800
G1 X-28.53 Y19.88 E128.5947 F600
G1 X-28.14 Y19.78 E128.6199
G1 X-27.83 Y19.58 E128.6429
G1 X-27.73 Y19.45 E128.6531
G1 X-27.60 Y19.04 E128.6799
G1 X-27.65 Y18.80 E128.6952
G1 X-27.72 Y18.56 E128.7108
G1 X-27.98 Y18.36 E128.7313
G1 X-28.49 Y18.18 E128.7650
G1 X-29.50 Y18.18 E128.8280
G1 E125.1320 F2400
G1 Z0.500 F420
G1 X-28.49 Y18.18 F6000
G1 Z0.300 F420
G1 E128.8789 F1800
G1 X-27.72 Y18.01 E128.9281 F600
G1 X-27.50 Y17.81 E128.9466
G1 X-27.39 Y17.56 E128.9636
G1 X-27.34 Y17.32 E128.9789
G1 X-27.47 Y16.91 E129.0058
G1 X-27.57 Y16.78 E129.0160
G1 X-27.88 Y16.59 E129.0387
G1 X-28.27 Y16.48 E129.0639
G1 X-29.50 Y16.48 E129.1406
G1 X-29.50 Y19.88 E129.3527
G1 E125.6393 F2400
G1 Z0.500 F420
G1 X-26.28 Y17.69 F6000
G1 Z0.300 F420
G1 E129.3930 F1800
G1 X-24.14 Y17.69 E129.5265 F600
G1 X-24.22 Y18.22 E129.5599
G1 X-24.43 Y18.61 E129.5876
G1 X-24.77 Y18.86 E129.6139
G1 X-25.21 Y18.95 E129.6419
G1 X-25.64 Y18.86 E129.6693
G1 X-25.98 Y18.61 E129.6956
G1 X-26.20 Y18.22 E129.7235
G1 X-26.28 Y17.69 E129.7570
G1 X-26.20 Y17.15 E129.7910
G1 X-25.97 Y16.75 E129.8198
G1 X-25.62 Y16.51 E129.8463
G1 X-25.16 Y16.42 E129.8755
G1 X-24.82 Y16.47 E129.8969
G1 X-24.53 Y16.61 E129.9170
G1 X-24.32 Y16.83 E129.9360
G1 X-24.20 Y17.13 E129.9561
G1 E126.2364 F2400
G1 Z0.500 F420
G1 X-23.08 Y18.26 F6000
G1 Z0.300 F420
G1 E129.8819 F1800
G1 X-21.39 Y18.26 E129.9873 F600
G1 E126.3737 F2400
G1 Z0.500 F420
G1 X-21.39 Y17.55 F6000
G1 Z0.300 F420
G1 E130.0187 F1800
G1 X-23.08 Y17.55 E130.1240 F600
G1 E126.5104 F2400
G1 Z0.500 F420
G1 X-19.11 Y19.94 F6000
G1 Z0.300 F420
G1 E130.2652 F1800
G1 X-18.60 Y19.80 E130.2982 F600
G1 X-18.21 Y19.42 E130.3321
G1 X-17.97 Y18.86 E130.3701
G1 X-17.89 Y18.18 E130.4128
G1 X-17.97 Y17.51 E130.4549
G1 X-18.21 Y16.95 E130.4929
G1 X-18.60 Y16.56 E130.5273
G1 X-19.11 Y16.42 E130.5603
G1 X-19.63 Y16.56 E130.5939
G1 X-20.01 Y16.95 E130.6278
G1 X-20.25 Y17.51 E130.6658
G1 X-20.33 Y18.18 E130.7079
G1 X-20.25 Y18.85 E130.7500
G1 X-20.01 Y19.42 E130.7885
G1 X-19.63 Y19.80 E130.8221
G1 X-19.11 Y19.94 E130.8556
G1 E127.1346 F2400
G1 Z0.500 F420
G1 X-16.82 Y16.71 F6000
G1 Z0.300 F420
G1 E129.9868 F1800
G1 X-16.82 Y16.65 E129.9905 F600
G1 E127.1603 F2400
G1 Z0.500 F420
G1 X-15.69 Y17.17 F6000
G1 Z0.300 F420
G1 E130.9136 F1800
G1 X-15.39 Y16.61 E130.9532 F600
G1 X-14.80 Y16.42 E130.9919
G1 X-14.29 Y16.54 E131.0246
G1 X-13.94 Y16.88 E131.0550
G1 X-13.73 Y17.47 E131.0941
G1 X-13.66 Y18.28 E131.1448
G1 X-13.73 Y18.99 E131.1893
G1 X-13.94 Y19.51 E131.2242
G1 X-14.29 Y19.83 E131.2538
G1 X-14.76 Y19.94 E131.2839
G1 X-15.19 Y19.85 E131.3113
G1 X-15.50 Y19.59 E131.3366
G1 X-15.69 Y19.22 E131.3625
G1 X-15.76 Y18.78 E131.3903
G1 X-15.69 Y18.37 E131.4162
G1 X-15.49 Y18.04 E131.4403
G1 X-15.19 Y17.81 E131.4639
G1 X-14.79 Y17.72 E131.4894
G1 X-14.50 Y17.75 E131.5076
G1 X-14.27 Y17.82 E131.5226
G1 X-14.07 Y17.92 E131.5366
G1 X-13.66 Y18.28 E131.5706
G1 E127.8474 F2400
G1 Z0.500 F420
G1 X-29.50 Y13.89 F6000
G1 Z0.300 F420
G1 E131.5819 F1800
G1 X-28.64 Y11.48 E131.7414 F600
G1 X-27.90 Y13.89 E131.8987
G1 X-27.13 Y11.48 E132.0565
G1 X-26.29 Y13.89 E132.2156
G1 E128.5144 F2400
G1 Z0.500 F420
G1 X-25.23 Y13.26 F6000
G1 Z0.300 F420
G1 E132.1598 F1800
G1 X-23.54 Y13.26 E132.2652 F600
G1 E128.6515 F2400
G1 Z0.500 F420
G1 X-23.54 Y12.55 F6000
G1 Z0.300 F420
G1 E132.2966 F1800
G1 X-25.23 Y12.55 E132.4020 F600
G1 E128.7882 F2400
G1 Z0.500 F420
G1 X-21.26 Y14.94 F6000
G1 Z0.300 F420
G1 E132.5431 F1800
G1 X-20.75 Y14.80 E132.5761 F600
G1 X-20.36 Y14.42 E132.6100
G1 X-20.12 Y13.86 E132.6480
G1 X-20.04 Y13.18 E132.6907
G1 X-20.12 Y12.51 E132.7328
G1 X-20.36 Y11.95 E132.7708
G1 X-20.75 Y11.56 E132.8052
G1 X-21.26 Y11.42 E132.8382
G1 X-21.78 Y11.56 E132.8718
G1 X-22.16 Y11.95 E132.9057
G1 X-22.40 Y12.51 E132.9437
G1 X-22.48 Y13.18 E132.9858
G1 X-22.40 Y13.85 E133.0279
G1 X-22.16 Y14.42 E133.0665
G1 X-21.78 Y14.80 E133.1000
G1 X-21.26 Y14.94 E133.1336
G1 E129.4124 F2400
G1 Z0.500 F420
G1 X-18.98 Y11.71 F6000
G1 Z0.300 F420
G1 E132.2647 F1800
G1 X-18.98 Y11.65 E132.2684 F600
G1 E129.4381 F2400
G1 Z0.500 F420
G1 X-16.20 Y11.48 F6000
G1 Z0.300 F420
G1 E133.1722 F1800
G1 X-16.20 Y14.88 E133.3843 F600
G1 X-17.91 Y12.65 E133.5595
G1 X-15.60 Y12.65 E133.7036
G1 E129.9988 F2400
G1 Z0.500 F420
;structure:shell-inner
G1 X56.00 Y0.00 F6000
G1 Z0.300 F420
G1 E131.9988 F1800
G1 X55.76 Y4.88 E132.3034 F60
G1 X55.09 Y9.71
G1 X54.01 Y14.47
G1 X52.52 Y19.12
G1 E135.2034 F1800
G1 X50.63 Y23.61 E135.4466 F1203
G1 X48.35 Y27.92 E135.6897
G1 X45.71 Y32.01 E135.9327
G1 X42.73 Y35.85 E136.1755
G1 X39.42 Y39.42 E136.4182
G1 X35.82 Y42.69 E136.6608
G1 X31.95 Y45.62 E136.9032
G1 X27.83 Y48.21 E137.1456
G1 X23.51 Y50.43 E137.3878
G1 X19.02 Y52.26 E137.6299
G1 X14.39 Y53.69 E137.8719
G1 X9.65 Y54.71 E138.1138
G1 X7.89 Y54.98 E138.2026
G1 E134.4026 F2400
G1 X3.06 Y55.43 F300
G1 X-1.78 Y55.46
G1 X-6.60 Y55.07
G1 X-11.37 Y54.26
G1 X-11.99 Y54.12
G1 E138.2026 F1800
G1 X-16.65 Y52.84 E138.5041 F60
G1 E134.4295 F2400
G1 Z0.500 F420
G1 X54.00 Y0.00 F6000
G1 Z0.300 F420
G1 E136.9297 F1800
G1 X53.77 Y4.70 E137.2234 F60
G1 X53.12 Y9.37
G1 X52.08 Y13.95
G1 X50.64 Y18.43
G1 E140.2234 F1800
G1 X48.81 Y22.76 E140.4579 F1203
G1 X46.62 Y26.92 E140.6922
G1 X44.07 Y30.86 E140.9265
G1 X41.20 Y34.57 E141.1606
G1 X38.01 Y38.01 E141.3946
G1 X34.53 Y41.15 E141.6285
G1 X30.80 Y43.98 E141.8622
G1 X26.83 Y46.48 E142.0959
G1 X22.67 Y48.61 E142.3294
G1 X18.34 Y50.38 E142.5628
G1 X13.87 Y51.76 E142.7961
G1 X9.30 Y52.74 E143.0292
G1 X5.46 Y53.25 E143.2225
G1 E139.3225 F2400
G1 X0.80 Y53.50 F300
G1 X-3.87 Y53.34
G1 X-8.50 Y52.77
G1 X-13.06 Y51.80
G1 X-14.34 Y51.45
G1 E143.2225 F1800
G1 X-18.76 Y49.98 E143.5130 F60
G1 E139.4298 F2400
G1 Z0.500 F420
G1 X52.00 Y0.00 F6000
G1 Z0.300 F420
G1 E141.9300 F1800
G1 X51.77 Y4.53 E142.2128 F60
G1 X51.16 Y9.02
G1 X50.15 Y13.44
G1 X48.76 Y17.75
G1 E145.3128 F1800
G1 X47.00 Y21.92 E145.5386 F1203
G1 X44.89 Y25.92 E145.7643
G1 X42.44 Y29.71 E145.9898
G1 X39.66 Y33.28 E146.2152
G1 X36.59 Y36.59 E146.4405
G1 X33.25 Y39.62 E146.6657
G1 X29.65 Y42.35 E146.8908
G1 X25.83 Y44.74 E147.1157
G1 X21.82 Y46.80 E147.3405
G1 X17.65 Y48.50 E147.5652
G1 X13.35 Y49.83 E147.7898
G1 X8.95 Y50.77 E148.0143
G1 X4.49 Y51.33 E148.2386
G1 X3.02 Y51.43 E148.3120
G1 E144.3120 F2400
G1 X-1.47 Y51.47 F300
G1 X-5.95 Y51.12
G1 X-10.37 Y50.38
G1 X-14.72 Y49.26
G1 X-16.65 Y48.62
G1 E148.3120 F1800
G1 X-20.82 Y46.96 E148.5915 F60
G1 E144.5006 F2400
G1 Z0.500 F420
G1 X50.00 Y0.00 F6000
G1 Z0.300 F420
G1 E147.0008 F1800
G1 X49.78 Y4.36 E147.2728 F60
G1 X49.19 Y8.67
G1 X48.22 Y12.92
G1 X46.88 Y17.06
G1 E150.4728 F1800
G1 X45.19 Y21.07 E150.6898 F1203
G1 X43.16 Y24.92 E150.9068
G1 X40.80 Y28.57 E151.1236
G1 X38.13 Y32.00 E151.3403
G1 X35.18 Y35.18 E151.5569
G1 X31.96 Y38.09 E151.7734
G1 X28.50 Y40.71 E151.9898
G1 X24.83 Y43.01 E152.2060
G1 X20.98 Y44.99 E152.4221
G1 X16.97 Y46.62 E152.6381
G1 X12.83 Y47.89 E152.8540
G1 X8.61 Y48.80 E153.0697
G1 X4.32 Y49.34 E153.2854
G1 X0.58 Y49.50 E153.4719
G1 E149.3719 F2400
G1 X-3.73 Y49.33 F300
G1 X-8.01 Y48.79
G1 X-12.23 Y47.88
G1 X-16.35 Y46.61
G1 X-18.90 Y45.61
G1 E153.4719 F1800
G1 X-22.79 Y43.77 E153.7404 F60
G1 E149.6385 F2400
G1 Z0.500 F420
G1 X48.00 Y0.00 F6000
G1 Z0.300 F420
G1 E152.1387 F1800
G1 X47.79 Y4.18 E152.3998 F60
G1 X47.22 Y8.33
G1 X46.28 Y12.40
G1 X45.00 Y16.38
G1 E155.6998 F1800
G1 X43.38 Y20.23 E155.9082 F1203
G1 X41.42 Y23.92 E156.1164
G1 X39.16 Y27.42 E156.3246
G1 X36.60 Y30.71 E156.5326
G1 X33.76 Y33.76 E156.7405
G1 X30.68 Y36.56 E156.9483
G1 X27.36 Y39.07 E157.1559
G1 X23.83 Y41.28 E157.3634
G1 X20.13 Y43.18 E157.5708
G1 X16.28 Y44.74 E157.7781
G1 X12.32 Y45.96 E157.9853
G1 X8.26 Y46.83 E158.1923
G1 X4.14 Y47.35 E158.3993
G1 X-0.00 Y47.50 E158.6061
G1 X-1.86 Y47.45 E158.6990
G1 E154.4990 F2400
G1 X-5.99 Y47.08 F300
G1 X-10.06 Y46.35
G1 X-14.05 Y45.27
G1 X-17.94 Y43.85
G1 X-21.06 Y42.41
G1 E158.6990 F1800
G1 X-24.67 Y40.39 E158.9565 F60
G1 E154.8447 F2400
G1 Z0.500 F420
G1 X46.00 Y0.00 F6000
G1 Z0.300 F420
G1 E157.3449 F1800
G1 X45.80 Y4.01 E157.5951 F60
G1 X45.25 Y7.98
G1 X44.35 Y11.88
G1 X43.12 Y15.69
G1 E160.9951 F1800
G1 X41.56 Y19.38 E161.1948 F1203
G1 X39.69 Y22.92 E161.3943
G1 X37.52 Y26.27 E161.5937
G1 X35.07 Y29.43 E161.7930
G1 X32.35 Y32.35 E161.9922
G1 X29.39 Y35.03 E162.1913
G1 X26.21 Y37.43 E162.3902
G1 X22.83 Y39.55 E162.5891
G1 X19.29 Y41.36 E162.7878
G1 X15.60 Y42.86 E162.9863
G1 X11.80 Y44.03 E163.1848
G1 X7.91 Y44.86 E163.3831
G1 X3.97 Y45.35 E163.5814
G1 X0.00 Y45.50 E163.7795
G1 X-3.96 Y45.30 E163.9774
G1 X-4.30 Y45.27 E163.9942
G1 E159.6942 F2400
G1 X-8.22 Y44.69 F300
G1 X-12.08 Y43.78
G1 X-15.84 Y42.53
G1 X-19.47 Y40.97
G1 X-22.96 Y39.09
G1 X-23.12 Y38.99
G1 E163.9942 F1800
G1 X-26.41 Y36.81 E164.2408 F60
G1 E160.1175 F2400
G1 Z0.500 F420
;structure:shell-outer
G1 X-70.00 Y0.00 F6000
G1 Z0.300 F420
G1 E164.3506 F1800
G1 X-42.00 Y0.00 E166.0968 F600
G1 E162.3619 F2400
G1 Z0.500 F420
;structure:shell-outer
G1 X-29.50 Y-3.52 F6000
G1 Z0.300 F420
G1 E166.1087 F1800
G1 X-29.50 Y-0.12 E166.3207 F600
G1 X-28.27 Y-0.12 E166.3975
G1 X-27.88 Y-0.22 E166.4226
G1 X-27.57 Y-0.42 E166.4456
G1 X-27.47 Y-0.55 E166.4558
G1 X-27.34 Y-0.96 E166.4826
G1 X-27.39 Y-1.20 E166.4979
G1 X-27.50 Y-1.44 E166.5144
G1 X-27.72 Y-1.64 E166.5329
G1 X-28.49 Y-1.82 E166.5822
G1 E162.8690 F2400
G1 Z0.500 F420
G1 X-29.50 Y-1.82 F6000
G1 Z0.300 F420
G1 E166.5762 F1800
G1 X-28.49 Y-1.82 E166.6391 F600
G1 X-27.98 Y-2.00 E166.6729
G1 X-27.59 Y-2.62 E166.7186
G1 X-27.34 Y-3.52 E166.7768
G1 E163.1026 F2400
G1 Z0.500 F420
G1 X-26.28 Y-2.31 F6000
G1 Z0.300 F420
G1 E166.8561 F1800
G1 X-24.14 Y-2.31 E166.9896 F600
G1 X-24.22 Y-1.78 E167.0230
G1 X-24.43 Y-1.39 E167.0506
G1 X-24.77 Y-1.14 E167.0769
G1 X-25.21 Y-1.05 E167.1049
G1 X-25.64 Y-1.14 E167.1323
G1 X-25.98 Y-1.39 E167.1587
G1 X-26.20 Y-1.78 E167.1866
G1 X-26.28 Y-2.31 E167.2200
G1 X-26.20 Y-2.85 E167.2541
G1 X-25.97 Y-3.25 E167.2828
G1 X-25.62 Y-3.49 E167.3093
G1 X-25.16 Y-3.58 E167.3385
G1 X-24.82 Y-3.53 E167.3600
G1 X-24.53 Y-3.39 E167.3801
G1 X-24.32 Y-3.17 E167.3990
G1 X-24.20 Y-2.87 E167.4192
G1 E163.6996 F2400
G1 Z0.500 F420
G1 X-23.08 Y-1.74 F6000
G1 Z0.300 F420
G1 E167.3449 F1800
G1 X-21.39 Y-1.74 E167.4503 F600
G1 E163.8368 F2400
G1 Z0.500 F420
G1 X-21.39 Y-2.45 F6000
G1 Z0.300 F420
G1 E167.4816 F1800
G1 X-23.08 Y-2.45 E167.5870 F600
G1 E163.9735 F2400
G1 Z0.500 F420
G1 X-18.62 Y-3.52 F6000
G1 Z0.300 F420
G1 E167.7109 F1800
G1 X-18.62 Y-0.12 E167.9229 F600
G1 X-20.33 Y-2.35 E168.0982
G1 X-18.02 Y-2.35 E168.2422
G1 E164.5376 F2400
G1 Z0.500 F420
G1 X-16.95 Y-3.29 F6000
G1 Z0.300 F420
G1 E167.3898 F1800
G1 X-16.95 Y-3.35 E167.3935 F600
G1 E164.5632 F2400
G1 Z0.500 F420
G1 X-14.67 Y-0.06 F6000
G1 Z0.300 F420
G1 E168.3146 F1800
G1 X-14.16 Y-0.20 E168.3476 F600
G1 X-13.77 Y-0.58 E168.3816
G1 X-13.53 Y-1.14 E168.4196
G1 X-13.45 Y-1.82 E168.4623
G1 X-13.53 Y-2.49 E168.5044
G1 X-13.77 Y-3.05 E168.5424
G1 X-14.16 Y-3.44 E168.5768
G1 X-14.67 Y-3.58 E168.6097
G1 X-15.19 Y-3.44 E168.6433
G1 X-15.57 Y-3.05 E168.6773
G1 X-15.81 Y-2.49 E168.7153
G1 X-15.89 Y-1.82 E168.7574
G1 X-15.81 Y-1.15 E168.7994
G1 X-15.57 Y-0.58 E168.8380
G1 X-15.19 Y-0.20 E168.8715
G1 X-14.67 Y-0.06 E168.9051
G1 E165.1840 F2400
G1 Z0.500 F420
G1 X-12.39 Y-2.10 F6000
G1 Z0.300 F420
G1 E168.8410 F1800
G1 X-10.52 Y-2.10 E168.9576 F600
G1 E165.3326 F2400
G1 Z0.500 F420
G1 X-7.75 Y-3.52 F6000
G1 Z0.300 F420
G1 E169.0702 F1800
G1 X-7.75 Y-0.12 E169.2823 F600
G1 X-9.46 Y-2.35 E169.4575
G1 X-7.15 Y-2.35 E169.6016
G1 E165.8968 F2400
G1 Z0.500 F420
G1 X-6.08 Y-3.29 F6000
G1 Z0.300 F420
G1 E168.7489 F1800
G1 X-6.08 Y-3.35 E168.7527 F600
G1 E165.9224 F2400
G1 Z0.500 F420
G1 X-3.03 Y-0.12 F6000
G1 Z0.300 F420
G1 E169.6670 F1800
G1 X-4.78 Y-0.12 E169.7761 F600
G1 X-4.92 Y-1.86 E169.8850
G1 X-4.64 Y-1.55 E169.9110
G1 X-4.47 Y-1.43 E169.9240
G1 X-4.28 Y-1.36 E169.9366
G1 X-4.09 Y-1.33 E169.9486
G1 X-3.89 Y-1.32 E169.9611
G1 X-3.48 Y-1.41 E169.9873
G1 X-3.16 Y-1.63 E170.0115
G1 X-2.95 Y-1.97 E170.0365
G1 X-2.87 Y-2.39 E170.0631
G1 X-2.94 Y-2.86 E170.0928
G1 X-3.15 Y-3.23 E170.1193
G1 X-3.50 Y-3.49 E170.1465
G1 X-4.00 Y-3.58 E170.1782
G1 X-4.37 Y-3.52 E170.2015
G1 X-4.68 Y-3.36 E170.2233
G1 X-4.90 Y-3.09 E170.2450
G1 X-5.02 Y-2.73 E170.2687
G1 E166.5540 F2400
G1 Z0.500 F420
G1 X-29.50 Y-5.12 F6000
G1 Z0.300 F420
G1 E170.2832 F1800
G1 X-28.53 Y-5.12 E170.3437 F600
G1 X-28.14 Y-5.22 E170.3688
G1 X-27.83 Y-5.42 E170.3919
G1 X-27.73 Y-5.55 E170.4021
G1 X-27.60 Y-5.96 E170.4289
G1 X-27.65 Y-6.20 E170.4442
G1 X-27.72 Y-6.44 E170.4598
G1 X-27.98 Y-6.64 E170.4802
G1 X-28.49 Y-6.82 E170.5140
G1 X-29.50 Y-6.82 E170.5769
G1 E166.8811 F2400
G1 Z0.500 F420
G1 X-28.49 Y-6.82 F6000
G1 Z0.300 F420
G1 E170.6278 F1800
G1 X-27.72 Y-6.99 E170.6770 F600
G1 X-27.50 Y-7.19 E170.6955
G1 X-27.39 Y-7.44 E170.7125
G1 X-27.34 Y-7.68 E170.7278
G1 X-27.47 Y-8.09 E170.7547
G1 X-27.57 Y-8.22 E170.7649
G1 X-27.88 Y-8.41 E170.7876
G1 X-28.27 Y-8.52 E170.8128
G1 X-29.50 Y-8.52 E170.8895
G1 X-29.50 Y-5.12 E171.1016
G1 E167.3884 F2400
G1 Z0.500 F420
G1 X-26.28 Y-7.31 F6000
G1 Z0.300 F420
G1 E171.1419 F1800
G1 X-24.14 Y-7.31 E171.2753 F600
G1 X-24.22 Y-6.78 E171.3087
G1 X-24.43 Y-6.39 E171.3364
G1 X-24.77 Y-6.14 E171.3627
G1 X-25.21 Y-6.05 E171.3907
G1 X-25.64 Y-6.14 E171.4181
G1 X-25.98 Y-6.39 E171.4444
G1 X-26.20 Y-6.78 E171.4723
G1 X-26.28 Y-7.31 E171.5058
G1 X-26.20 Y-7.85 E171.5398
G1 X-25.97 Y-8.25 E171.5686
G1 X-25.62 Y-8.49 E171.5950
G1 X-25.16 Y-8.58 E171.6243
G1 X-24.82 Y-8.53 E171.6457
G1 X-24.53 Y-8.39 E171.6658
G1 X-24.32 Y-8.17 E171.6847
G1 X-24.20 Y-7.87 E171.7049
G1 E167.9855 F2400
G1 Z0.500 F420
G1 X-23.08 Y-6.74 F6000
G1 Z0.300 F420
G1 E171.6308 F1800
G1 X-21.39 Y-6.74 E171.7362 F600
G1 E168.1227 F2400
G1 Z0.500 F420
G1 X-21.39 Y-7.45 F6000
G1 Z0.300 F420
G1 E171.7675 F1800
G1 X-23.08 Y-7.45 E171.8729 F600
G1 E168.2594 F2400
G1 Z0.500 F420
G1 X-19.11 Y-5.06 F6000
G1 Z0.300 F420
G1 E172.0141 F1800
G1 X-18.60 Y-5.20 E172.0471 F600
G1 X-18.21 Y-5.58 E172.0810
G1 X-17.97 Y-6.14 E172.1190
G1 X-17.89 Y-6.82 E172.1617
G1 X-17.97 Y-7.49 E172.2038
G1 X-18.21 Y-8.05 E172.2418
G1 X-18.60 Y-8.44 E172.2762
G1 X-19.11 Y-8.58 E172.3092
G1 X-19.63 Y-8.44 E172.3428
G1 X-20.01 Y-8.05 E172.3767
G1 X-20.25 Y-7.49 E172.4147
G1 X-20.33 Y-6.82 E172.4568
G1 X-20.25 Y-6.15 E172.4989
G1 X-20.01 Y-5.58 E172.5375
G1 X-19.63 Y-5.20 E172.5710
G1 X-19.11 Y-5.06 E172.6046
G1 E168.8835 F2400
G1 Z0.500 F420
G1 X-16.82 Y-8.29 F6000
G1 Z0.300 F420
G1 E171.7358 F1800
G1 X-16.82 Y-8.35 E171.7395 F600
G1 E168.9092 F2400
G1 Z0.500 F420
G1 X-13.77 Y-5.12 F6000
G1 Z0.300 F420
G1 E172.6538 F1800
G1 X-15.52 Y-5.12 E172.7630 F600
G1 X-15.66 Y-6.86 E172.8718
G1 X-15.38 Y-6.55 E172.8979
G1 X-15.21 Y-6.43 E172.9109
G1 X-15.02 Y-6.36 E172.9235
G1 X-14.83 Y-6.33 E172.9355
G1 X-14.63 Y-6.32 E172.9480
G1 X-14.22 Y-6.41 E172.9742
G1 X-13.90 Y-6.63 E172.9984
G1 X-13.69 Y-6.97 E173.0233
G1 X-13.61 Y-7.39 E173.0500
G1 X-13.68 Y-7.86 E173.0796
G1 X-13.89 Y-8.23 E173.1061
G1 X-14.24 Y-8.49 E173.1333
G1 X-14.74 Y-8.58 E173.1650
G1 X-15.11 Y-8.52 E173.1884
G1 X-15.42 Y-8.36 E173.2101
G1 X-15.64 Y-8.09 E173.2319
G1 X-15.76 Y-7.73 E173.2555
G1 E169.5409 F2400
G1 Z0.500 F420
G1 X-29.50 Y-11.11 F6000
G1 Z0.300 F420
G1 E173.2752 F1800
G1 X-28.64 Y-13.52 E173.4348 F600
G1 X-27.90 Y-11.11 E173.5920
G1 X-27.13 Y-13.52 E173.7498
G1 X-26.29 Y-11.11 E173.9089
G1 E170.2077 F2400
G1 Z0.500 F420
G1 X-25.23 Y-11.74 F6000
G1 Z0.300 F420
G1 E173.8531 F1800
G1 X-23.54 Y-11.74 E173.9585 F600
G1 E170.3449 F2400
G1 Z0.500 F420
G1 X-23.54 Y-12.45 F6000
G1 Z0.300 F420
G1 E173.9898 F1800
G1 X-25.23 Y-12.45 E174.0952 F600
G1 E170.4816 F2400
G1 Z0.500 F420
G1 X-21.26 Y-10.06 F6000
G1 Z0.300 F420
G1 E174.2364 F1800
G1 X-20.75 Y-10.20 E174.2694 F600
G1 X-20.36 Y-10.58 E174.3033
G1 X-20.12 Y-11.14 E174.3413
G1 X-20.04 Y-11.82 E174.3840
G1 X-20.12 Y-12.49 E174.4261
G1 X-20.36 Y-13.05 E174.4641
G1 X-20.75 Y-13.44 E174.4985
G1 X-21.26 Y-13.58 E174.5315
G1 X-21.78 Y-13.44 E174.5651
G1 X-22.16 Y-13.05 E174.5990
G1 X-22.40 Y-12.49 E174.6370
G1 X-22.48 Y-11.82 E174.6791
G1 X-22.40 Y-11.15 E174.7212
G1 X-22.16 Y-10.58 E174.7598
G1 X-21.78 Y-10.20 E174.7933
G1 X-21.26 Y-10.06 E174.8269
G1 E171.1058 F2400
G1 Z0.500 F420
G1 X-18.98 Y-13.29 F6000
G1 Z0.300 F420
G1 E173.9580 F1800
G1 X-18.98 Y-13.35 E173.9618 F600
G1 E171.1315 F2400
G1 Z0.500 F420
G1 X-16.89 Y-10.08 F6000
G1 Z0.300 F420
G1 E174.8955 F1800
G1 X-16.54 Y-10.14 E174.9176 F600
G1 X-16.25 Y-10.29 E174.9380
G1 X-16.06 Y-10.54 E174.9576
G1 X-15.99 Y-10.89 E174.9798
G1 X-16.13 Y-11.34 E175.0092
G1 X-16.42 Y-11.60 E175.0335
G1 X-17.35 Y-11.88 E175.0941
G1 X-17.74 Y-12.16 E175.1240
G1 X-17.91 Y-12.65 E175.1564
G1 X-17.83 Y-13.05 E175.1818
G1 X-17.62 Y-13.34 E175.2041
G1 X-17.29 Y-13.52 E175.2276
G1 X-16.89 Y-13.58 E175.2528
G1 X-16.48 Y-13.52 E175.2787
G1 X-16.15 Y-13.34 E175.3021
G1 X-15.94 Y-13.05 E175.3244
G1 X-15.86 Y-12.65 E175.3499
G1 X-16.04 Y-12.16 E175.3824
G1 X-16.42 Y-11.88 E175.4119
G1 X-17.35 Y-11.60 E175.4724
G1 X-17.64 Y-11.34 E175.4967
G1 X-17.78 Y-10.89 E175.5261
G1 X-17.71 Y-10.54 E175.5484
G1 X-17.52 Y-10.29 E175.5680
G1 X-17.24 Y-10.14 E175.5878
G1 X-16.89 Y-10.08 E175.6099
G1 E171.8783 F2400
G1 Z0.500 F420
;structure:shell-inner
G1 X-68.00 Y0.00 F6000
G1 Z0.300 F420
G1 E173.8785 F1800
G1 X-67.71 Y-5.92 E174.2483 F60
G1 X-66.91 Y-11.80
G1 X-65.60 Y-17.58
G1 X-63.79 Y-23.22
G1 E178.2483 F1800
G1 X-61.50 Y-28.68 E178.8392 F601
G1 X-58.75 Y-33.92 E179.4298
G1 X-55.54 Y-38.89 E180.0201
G1 X-51.92 Y-43.57 E180.6103
G1 X-47.91 Y-47.91 E181.2001
G1 X-47.57 Y-48.24 E181.2474
G1 E176.7474 F2400
G1 X-43.17 Y-52.18 F300
G1 X-38.44 Y-55.72
G1 X-33.42 Y-58.83
G1 X-31.42 Y-59.92
G1 E181.2474 F1800
G1 X-26.07 Y-62.40 E181.6154 F60
G1 E177.5000 F2400
G1 Z0.500 F420
G1 X-66.00 Y0.00 F6000
G1 Z0.300 F420
G1 E180.0002 F1800
G1 X-65.72 Y-5.75 E180.3592 F60
G1 X-64.94 Y-11.45
G1 X-63.67 Y-17.06
G1 X-61.92 Y-22.54
G1 E184.4592 F1800
G1 X-59.69 Y-27.83 E185.0327 F601
G1 X-57.01 Y-32.92 E185.6058
G1 X-53.90 Y-37.74 E186.1788
G1 X-50.39 Y-42.28 E186.7515
G1 X-46.49 Y-46.49 E187.3240
G1 X-45.53 Y-47.43 E187.4583
G1 E182.8583 F2400
G1 X-41.20 Y-51.20 F300
G1 X-36.57 Y-54.57
G1 X-31.66 Y-57.52
G1 X-29.17 Y-58.81
G1 E187.4583 F1800
G1 X-23.92 Y-61.10 E187.8154 F60
G1 E183.6903 F2400
G1 Z0.500 F420
G1 X-64.00 Y0.00 F6000
G1 Z0.300 F420
G1 E186.1906 F1800
G1 X-63.73 Y-5.58 E186.5387 F60
G1 X-62.97 Y-11.10
G1 X-61.74 Y-16.54
G1 X-60.04 Y-21.85
G1 E190.7387 F1800
G1 X-57.88 Y-26.99 E191.2947 F601
G1 X-55.28 Y-31.92 E191.8505
G1 X-52.27 Y-36.60 E192.4060
G1 X-48.86 Y-41.00 E192.9613
G1 X-45.08 Y-45.08 E193.5164
G1 X-43.47 Y-46.61 E193.7378
G1 E189.0378 F2400
G1 X-39.23 Y-50.20 F300
G1 X-34.69 Y-53.41
G1 X-29.89 Y-56.20
G1 X-26.91 Y-57.67
G1 E193.7378 F1800
G1 X-21.77 Y-59.77 E194.0840 F60
G1 E189.9483 F2400
G1 Z0.500 F420
G1 X-62.00 Y0.00 F6000
G1 Z0.300 F420
G1 E192.4486 F1800
G1 X-61.74 Y-5.40 E192.7858 F60
G1 X-61.00 Y-10.76
G1 X-59.81 Y-16.03
G1 X-58.16 Y-21.17
G1 E197.0858 F1800
G1 X-56.07 Y-26.14 E197.6244 F601
G1 X-53.55 Y-30.92 E198.1628
G1 X-50.63 Y-35.45 E198.7009
G1 X-47.32 Y-39.71 E199.2388
G1 X-43.66 Y-43.66 E199.7764
G1 X-41.41 Y-45.78 E200.0850
G1 E195.2850 F2400
G1 X-37.25 Y-49.20 F300
G1 X-32.80 Y-52.23
G1 X-28.11 Y-54.87
G1 X-24.63 Y-56.50
G1 E200.0850 F1800
G1 X-19.60 Y-58.40 E200.4202 F60
G1 E196.2728 F2400
G1 Z0.500 F420
G1 X-60.00 Y0.00 F6000
G1 Z0.300 F420
G1 E198.7731 F1800
G1 X-59.74 Y-5.23 E199.0995 F60
G1 X-59.03 Y-10.41
G1 X-57.88 Y-15.51
G1 X-56.28 Y-20.48
G1 E203.4995 F1800
G1 X-54.25 Y-25.30 E204.0207 F601
G1 X-51.82 Y-29.92 E204.5416
G1 X-48.99 Y-34.30 E205.0623
G1 X-45.79 Y-38.42 E205.5828
G1 X-42.25 Y-42.25 E206.1030
G1 X-39.34 Y-44.94 E206.4986
G1 E201.5986 F2400
G1 X-35.26 Y-48.18 F300
G1 X-30.91 Y-51.04
G1 X-26.33 Y-53.52
G1 X-22.33 Y-55.28
G1 E206.4986 F1800
G1 X-17.42 Y-56.99 E206.8229 F60
G1 E202.6626 F2400
G1 Z0.500 F420
G1 X-58.00 Y0.00 F6000
G1 Z0.300 F420
G1 E205.1629 F1800
G1 X-57.75 Y-5.05 E205.4784 F60
G1 X-57.06 Y-10.06
G1 X-55.94 Y-14.99
G1 X-54.40 Y-19.80
G1 E209.9784 F1800
G1 X-52.44 Y-24.45 E210.4822 F601
G1 X-50.09 Y-28.92 E210.9858
G1 X-47.35 Y-33.16 E211.4891
G1 X-44.26 Y-37.14 E211.9921
G1 X-40.84 Y-40.84 E212.4950
G1 X-37.26 Y-44.09 E212.9775
G1 E207.9775 F2400
G1 X-33.26 Y-47.15 F300
G1 X-29.01 Y-49.84
G1 X-24.54 Y-52.15
G1 X-20.01 Y-54.02
G1 E212.9775 F1800
G1 X-15.22 Y-55.54 E213.2909 F60
G1 E209.1163 F2400
G1 Z0.500 F420
;structure:shell-outer
G1 X0.50 Y-3.52 F6000
G1 Z0.300 F420
G1 E213.3536 F1800
G1 X0.50 Y-0.12 E213.5657 F600
G1 X1.73 Y-0.12 E213.6424
G1 X2.12 Y-0.22 E213.6675
G1 X2.43 Y-0.42 E213.6905
G1 X2.53 Y-0.55 E213.7007
G1 X2.66 Y-0.96 E213.7276
G1 X2.61 Y-1.20 E213.7428
G1 X2.50 Y-1.44 E213.7593
G1 X2.28 Y-1.64 E213.7778
G1 X1.51 Y-1.82 E213.8272
G1 E210.1140 F2400
G1 Z0.500 F420
G1 X0.50 Y-1.82 F6000
G1 Z0.300 F420
G1 E213.8211 F1800
G1 X1.51 Y-1.82 E213.8841 F600
G1 X2.02 Y-2.00 E213.9178
G1 X2.41 Y-2.62 E213.9635
G1 X2.66 Y-3.52 E214.0217
G1 E210.3476 F2400
G1 Z0.500 F420
G1 X3.72 Y-2.31 F6000
G1 Z0.300 F420
G1 E214.1010 F1800
G1 X5.86 Y-2.31 E214.2345 F600
G1 X5.78 Y-1.78 E214.2679
G1 X5.57 Y-1.39 E214.2955
G1 X5.23 Y-1.14 E214.3219
G1 X4.79 Y-1.05 E214.3499
G1 X4.36 Y-1.14 E214.3773
G1 X4.02 Y-1.39 E214.4036
G1 X3.80 Y-1.78 E214.4315
G1 X3.72 Y-2.31 E214.4649
G1 X3.80 Y-2.85 E214.4990
G1 X4.03 Y-3.25 E214.5278
G1 X4.38 Y-3.49 E214.5542
G1 X4.84 Y-3.58 E214.5835
G1 X5.18 Y-3.53 E214.6049
G1 X5.47 Y-3.39 E214.6250
G1 X5.68 Y-3.17 E214.6439
G1 X5.80 Y-2.87 E214.6641
G1 E210.9445 F2400
G1 Z0.500 F420
G1 X6.92 Y-1.74 F6000
G1 Z0.300 F420
G1 E214.5899 F1800
G1 X8.61 Y-1.74 E214.6952 F600
G1 E211.0817 F2400
G1 Z0.500 F420
G1 X8.61 Y-2.45 F6000
G1 Z0.300 F420
G1 E214.7266 F1800
G1 X6.92 Y-2.45 E214.8320 F600
G1 E211.2184 F2400
G1 Z0.500 F420
G1 X11.38 Y-3.52 F6000
G1 Z0.300 F420
G1 E214.9558 F1800
G1 X11.38 Y-0.12 E215.1678 F600
G1 X9.67 Y-2.35 E215.3431
G1 X11.98 Y-2.35 E215.4871
G1 E211.7825 F2400
G1 Z0.500 F420
G1 X13.05 Y-3.29 F6000
G1 Z0.300 F420
G1 E214.6347 F1800
G1 X13.05 Y-3.35 E214.6384 F600
G1 E211.8081 F2400
G1 Z0.500 F420
G1 X14.11 Y-0.56 F6000
G1 Z0.300 F420
G1 E215.5520 F1800
G1 X14.30 Y-0.35 E215.5697 F600
G1 X14.53 Y-0.19 E215.5872
G1 X14.79 Y-0.10 E215.6043
G1 X15.07 Y-0.06 E215.6220
G1 X15.44 Y-0.12 E215.6453
G1 X15.74 Y-0.32 E215.6678
G1 X15.93 Y-0.61 E215.6895
G1 X16.00 Y-0.98 E215.7129
G1 X15.90 Y-1.37 E215.7381
G1 X15.62 Y-1.73 E215.7665
G1 X14.84 Y-2.36 E215.8290
G1 X14.54 Y-2.77 E215.8607
G1 X14.15 Y-3.52 E215.9134
G1 X15.97 Y-3.52 E216.0270
G1 E212.3132 F2400
G1 Z0.500 F420
G1 X17.06 Y-2.10 F6000
G1 Z0.300 F420
G1 E215.9703 F1800
G1 X18.93 Y-2.10 E216.0870 F600
G1 E212.4618 F2400
G1 Z0.500 F420
G1 X21.70 Y-3.52 F6000
G1 Z0.300 F420
G1 E216.1996 F1800
G1 X21.70 Y-0.12 E216.4116 F600
G1 X19.99 Y-2.35 E216.5869
G1 X22.30 Y-2.35 E216.7310
G1 E213.0260 F2400
G1 Z0.500 F420
G1 X23.37 Y-3.29 F6000
G1 Z0.300 F420
G1 E215.8782 F1800
G1 X23.37 Y-3.35 E215.8820 F600
G1 E213.0517 F2400
G1 Z0.500 F420
G1 X24.43 Y-0.12 F6000
G1 Z0.300 F420
G1 E216.7822 F1800
G1 X26.57 Y-0.12 E216.9156 F600
G1 X25.04 Y-3.52 E217.1482
G1 E213.4469 F2400
G1 Z0.500 F420
G1 X0.50 Y-5.12 F6000
G1 Z0.300 F420
G1 E217.1762 F1800
G1 X1.47 Y-5.12 E217.2367 F600
G1 X1.86 Y-5.22 E217.2618
G1 X2.17 Y-5.42 E217.2848
G1 X2.27 Y-5.55 E217.2951
G1 X2.40 Y-5.96 E217.3219
G1 X2.35 Y-6.20 E217.3372
G1 X2.28 Y-6.44 E217.3528
G1 X2.02 Y-6.64 E217.3732
G1 X1.51 Y-6.82 E217.4070
G1 X0.50 Y-6.82 E217.4699
G1 E213.7740 F2400
G1 Z0.500 F420
G1 X1.51 Y-6.82 F6000
G1 Z0.300 F420
G1 E217.5209 F1800
G1 X2.28 Y-6.99 E217.5700 F600
G1 X2.50 Y-7.19 E217.5886
G1 X2.61 Y-7.44 E217.6056
G1 X2.66 Y-7.68 E217.6209
G1 X2.53 Y-8.09 E217.6477
G1 X2.43 Y-8.22 E217.6580
G1 X2.12 Y-8.41 E217.6806
G1 X1.73 Y-8.52 E217.7059
G1 X0.50 Y-8.52 E217.7826
G1 X0.50 Y-5.12 E217.9947
G1 E214.2813 F2400
G1 Z0.500 F420
G1 X3.72 Y-7.31 F6000
G1 Z0.300 F420
G1 E218.0350 F1800
G1 X5.86 Y-7.31 E218.1685 F600
G1 X5.78 Y-6.78 E218.2019
G1 X5.57 Y-6.39 E218.2295
G1 X5.23 Y-6.14 E218.2559
G1 X4.79 Y-6.05 E218.2839
G1 X4.36 Y-6.14 E218.3113
G1 X4.02 Y-6.39 E218.3376
G1 X3.80 Y-6.78 E218.3655
G1 X3.72 Y-7.31 E218.3989
G1 X3.80 Y-7.85 E218.4330
G1 X4.03 Y-8.25 E218.4618
G1 X4.38 Y-8.49 E218.4882
G1 X4.84 Y-8.58 E218.5175
G1 X5.18 Y-8.53 E218.5389
G1 X5.47 Y-8.39 E218.5590
G1 X5.68 Y-8.17 E218.5780
G1 X5.80 Y-7.87 E218.5981
G1 E214.8784 F2400
G1 Z0.500 F420
G1 X6.92 Y-6.74 F6000
G1 Z0.300 F420
G1 E218.5239 F1800
G1 X8.61 Y-6.74 E218.6293 F600
G1 E215.0156 F2400
G1 Z0.500 F420
G1 X8.61 Y-7.45 F6000
G1 Z0.300 F420
G1 E218.6606 F1800
G1 X6.92 Y-7.45 E218.7660 F600
G1 E215.1524 F2400
G1 Z0.500 F420
G1 X10.89 Y-5.06 F6000
G1 Z0.300 F420
G1 E218.9071 F1800
G1 X11.40 Y-5.20 E218.9401 F600
G1 X11.79 Y-5.58 E218.9741
G1 X12.03 Y-6.14 E219.0121
G1 X12.11 Y-6.82 E219.0548
G1 X12.03 Y-7.49 E219.0969
G1 X11.79 Y-8.05 E219.1349
G1 X11.40 Y-8.44 E219.1693
G1 X10.89 Y-8.58 E219.2022
G1 X10.37 Y-8.44 E219.2358
G1 X9.99 Y-8.05 E219.2698
G1 X9.75 Y-7.49 E219.3078
G1 X9.67 Y-6.82 E219.3499
G1 X9.75 Y-6.15 E219.3920
G1 X9.99 Y-5.58 E219.4305
G1 X10.37 Y-5.20 E219.4640
G1 X10.89 Y-5.06 E219.4976
G1 E215.7765 F2400
G1 Z0.500 F420
G1 X13.18 Y-8.29 F6000
G1 Z0.300 F420
G1 E218.6288 F1800
G1 X13.18 Y-8.35 E218.6325 F600
G1 E215.8022 F2400
G1 Z0.500 F420
G1 X16.23 Y-5.12 F6000
G1 Z0.300 F420
G1 E219.5468 F1800
G1 X14.48 Y-5.12 E219.6559 F600
G1 X14.34 Y-6.86 E219.7648
G1 X14.62 Y-6.55 E219.7909
G1 X14.79 Y-6.43 E219.8038
G1 X14.98 Y-6.36 E219.8165
G1 X15.17 Y-6.33 E219.8285
G1 X15.37 Y-6.32 E219.8410
G1 X15.78 Y-6.41 E219.8671
G1 X16.10 Y-6.63 E219.8914
G1 X16.31 Y-6.97 E219.9163
G1 X16.39 Y-7.39 E219.9429
G1 X16.32 Y-7.86 E219.9726
G1 X16.11 Y-8.23 E219.9991
G1 X15.76 Y-8.49 E220.0263
G1 X15.26 Y-8.58 E220.0580
G1 X14.89 Y-8.52 E220.0814
G1 X14.58 Y-8.36 E220.1031
G1 X14.36 Y-8.09 E220.1248
G1 X14.24 Y-7.73 E220.1485
G1 E216.4339 F2400
G1 Z0.500 F420
G1 X0.50 Y-11.11 F6000
G1 Z0.300 F420
G1 E220.1682 F1800
G1 X1.36 Y-13.52 E220.3277 F600
G1 X2.10 Y-11.11 E220.4850
G1 X2.87 Y-13.52 E220.6427
G1 X3.71 Y-11.11 E220.8019
G1 E217.1007 F2400
G1 Z0.500 F420
G1 X4.77 Y-11.74 F6000
G1 Z0.300 F420
G1 E220.7461 F1800
G1 X6.46 Y-11.74 E220.8515 F600
G1 E217.2379 F2400
G1 Z0.500 F420
G1 X6.46 Y-12.45 F6000
G1 Z0.300 F420
G1 E220.8828 F1800
G1 X4.77 Y-12.45 E220.9882 F600
G1 E217.3746 F2400
G1 Z0.500 F420
G1 X7.52 Y-11.00 F6000
G1 Z0.300 F420
G1 E221.0918 F1800
G1 X7.99 Y-10.76 E221.1247 F600
G1 X8.36 Y-10.45 E221.1548
G1 X8.61 Y-10.12 E221.1806
G1 X8.61 Y-13.52 E221.3927
G1 E217.7081 F2400
G1 Z0.500 F420
G1 X9.67 Y-13.29 F6000
G1 Z0.300 F420
G1 E220.5602 F1800
G1 X9.67 Y-13.35 E220.5640 F600
G1 E217.7337 F2400
G1 Z0.500 F420
G1 X12.77 Y-10.83 F6000
G1 Z0.300 F420
G1 E221.4967 F1800
G1 X12.46 Y-10.26 E221.5372 F600
G1 X11.87 Y-10.06 E221.5760
G1 X11.36 Y-10.18 E221.6087
G1 X11.01 Y-10.53 E221.6396
G1 X10.80 Y-11.13 E221.6792
G1 X10.73 Y-11.95 E221.7305
G1 X10.80 Y-12.64 E221.7738
G1 X11.02 Y-13.16 E221.8090
G1 X11.36 Y-13.47 E221.8377
G1 X11.83 Y-13.58 E221.8678
G1 X12.28 Y-13.49 E221.8964
G1 X12.60 Y-13.24 E221.9217
G1 X12.78 Y-12.87 E221.9474
G1 X12.85 Y-12.44 E221.9746
G1 X12.78 Y-12.04 E221.9999
G1 X12.59 Y-11.69 E222.0247
G1 X12.28 Y-11.46 E222.0488
G1 X11.88 Y-11.38 E222.0743
G1 X11.42 Y-11.47 E222.1035
G1 X11.00 Y-11.72 E222.1340
G1 X10.73 Y-11.95 E222.1561
G1 E218.4255 F2400
G1 Z0.500 F420
;structure:shell-inner
G1 X-56.00 Y0.00 F6000
G1 Z0.300 F420
G1 E220.4256 F1800
G1 X-55.76 Y-4.88 E220.7302 F60
G1 X-55.09 Y-9.71
G1 X-54.01 Y-14.47
G1 X-52.52 Y-19.12
G1 E224.9302 F1800
G1 X-50.63 Y-23.61 E225.9029 F301
G1 X-48.35 Y-27.92 E226.8752
G1 X-45.71 Y-32.01 E227.8470
G1 X-45.47 Y-32.34 E227.9293
G1 E223.2293 F2400
G1 X-42.46 Y-36.17 F300
G1 X-39.13 Y-39.71
G1 X-35.50 Y-42.95
G1 X-31.61 Y-45.86
G1 X-31.16 Y-46.16
G1 E227.9293 F1800
G1 X-27.00 Y-48.67 E228.2322 F60
G1 E224.0461 F2400
G1 Z0.500 F420
G1 X-54.00 Y0.00 F6000
G1 Z0.300 F420
G1 E226.5465 F1800
G1 X-53.77 Y-4.70 E226.8402 F60
G1 X-53.12 Y-9.37
G1 X-52.08 Y-13.95
G1 X-50.64 Y-18.43
G1 E231.1402 F1800
G1 X-48.81 Y-22.76 E232.0782 F301
G1 X-46.62 Y-26.92 E233.0157
G1 X-44.07 Y-30.86 E233.9526
G1 X-43.53 Y-31.62 E234.1394
G1 E229.3394 F2400
G1 X-40.58 Y-35.28 F300
G1 X-37.34 Y-38.66
G1 X-33.81 Y-41.74
G1 X-30.03 Y-44.51
G1 X-28.99 Y-45.18
G1 E234.1394 F1800
G1 X-24.92 Y-47.51 E234.4314 F60
G1 E230.2283 F2400
G1 Z0.500 F420
G1 X-52.00 Y0.00 F6000
G1 Z0.300 F420
G1 E232.7288 F1800
G1 X-51.77 Y-4.53 E233.0117 F60
G1 X-51.16 Y-9.02
G1 X-50.15 Y-13.44
G1 X-48.76 Y-17.75
G1 E237.4117 F1800
G1 X-47.00 Y-21.92 E238.3148 F301
G1 X-44.89 Y-25.92 E239.2174
G1 X-42.44 Y-29.71 E240.1196
G1 X-41.58 Y-30.89 E240.4109
G1 E235.5109 F2400
G1 X-38.70 Y-34.38 F300
G1 X-35.54 Y-37.60
G1 X-32.11 Y-40.54
G1 X-28.44 Y-43.16
G1 X-26.80 Y-44.18
G1 E240.4109 F1800
G1 X-22.83 Y-46.33 E240.6919 F60
G1 E236.4702 F2400
G1 Z0.500 F420
G1 X-50.00 Y0.00 F6000
G1 Z0.300 F420
G1 E238.9707 F1800
G1 X-49.78 Y-4.36 E239.2427 F60
G1 X-49.19 Y-8.67
G1 X-48.22 Y-12.92
G1 X-46.88 Y-17.06
G1 E243.7427 F1800
G1 X-45.19 Y-21.07 E244.6110 F301
G1 X-43.16 Y-24.92 E245.4788
G1 X-40.80 Y-28.57 E246.3462
G1 X-39.62 Y-30.16 E246.7419
G1 E241.7419 F2400
G1 X-36.82 Y-33.48 F300
G1 X-33.74 Y-36.54
G1 X-30.41 Y-39.32
G1 X-26.85 Y-41.80
G1 X-24.59 Y-43.15
G1 E246.7419 F1800
G1 X-20.72 Y-45.10 E247.0120 F60
G1 E242.7697 F2400
G1 Z0.500 F420
G1 X-48.00 Y0.00 F6000
G1 Z0.300 F420
G1 E245.2703 F1800
G1 X-47.79 Y-4.18 E245.5314 F60
G1 X-47.22 Y-8.33
G1 X-46.28 Y-12.40
G1 X-45.00 Y-16.38
G1 E250.1314 F1800
G1 X-43.38 Y-20.23 E250.9649 F301
G1 X-41.42 Y-23.92 E251.7979
G1 X-39.16 Y-27.42 E252.6304
G1 X-37.66 Y-29.42 E253.1306
G1 E248.0306 F2400
G1 X-34.93 Y-32.58 F300
G1 X-31.94 Y-35.48
G1 X-28.71 Y-38.10
G1 X-25.26 Y-40.44
G1 X-22.36 Y-42.08
G1 E253.1306 F1800
G1 X-18.60 Y-43.85 E253.3898 F60
G1 E249.1247 F2400
G1 Z0.500 F420
G1 X-46.00 Y0.00 F6000
G1 Z0.300 F420
G1 E251.6254 F1800
G1 X-45.80 Y-4.01 E251.8756 F60
G1 X-45.25 Y-7.98
G1 X-44.35 Y-11.88
G1 X-43.12 Y-15.69
G1 E256.5756 F1800
G1 X-41.56 Y-19.38 E257.3743 F301
G1 X-39.69 Y-22.92 E258.1725
G1 X-37.52 Y-26.27 E258.9702
G1 X-35.69 Y-28.68 E259.5748
G1 E254.3748 F2400
G1 X-33.03 Y-31.67 F300
G1 X-30.13 Y-34.40
G1 X-27.00 Y-36.87
G1 X-23.67 Y-39.06
G1 X-20.16 Y-40.95
G1 X-20.11 Y-40.98
G1 E259.5748 F1800
G1 X-16.45 Y-42.55 E259.8231 F60
G1 E255.5329 F2400
G1 Z0.500 F420
;structure:shell-outer
G1 X0.00 Y-70.00 F6000
G1 Z0.300 F420
G1 E259.7942 F1800
G1 X0.00 Y-42.00 E261.5404 F600
G1 E257.8054 F2400
G1 Z0.500 F420
G1 E257.8111 F2400
;end gcode
M107
M104 S0 T0
M140 S0 T0
G162 Z F1800
G28 X Y
M132 X Y A B
M652
G91
M18
