;gcode_flavor: flashforge
;machine_type: Adventurer 3 Series
;filament_diameter0: 1.75
;right_extruder_temperature: 210
;platform_temperature: 50
;extruder_fan: 100%
;case_fan: 100%
;base_print_speed: 60
;travel_speed: 100
;vertical_speed: 7
;retract_speed: 40
;restore_speed: 30
;layer_height: 0.30
;line_width: 0.50
;extrusion_ratio: 1.00
;command_line: ./gcodetest.py -Te=210 -Tp=50 -Fe=1.0 -Fc=1.0 -Kf=1.6 -Kb=3.2 -Re=1.5 -R
;start gcode
M118 X75.00 Y75.00 Z150.00 T0
M140 S50 T0
M104 S210 T0
M104 S0 T1
M107
M900 K0.000 T0
G90
G28
M132 X Y Z A B
G1 Z50.000 F420
G161 X Y F3300
M7 T0
M6 T0
M652 S255
M108 T0
M106
;preExtrude:0.20
G1 X69.29 Y28.70 F6000
G1 Z0.200 F420
G1 E4.8398 F1800
G1 X66.53 Y34.63 E5.7103 F600
G1 X63.25 Y40.30 E6.5808
G1 X59.50 Y45.66 E7.4512
G1 X55.30 Y50.67 E8.3217
G1 X50.67 Y55.30 E9.1922
G1 X45.66 Y59.50 E10.0626
G1 X40.30 Y63.25 E10.9331
G1 X34.63 Y66.53 E11.8036
G1 X28.70 Y69.29 E12.6741
G1 X28.70 Y69.29
G1 E6.4973 F2400
G1 Z0.400 F420
;layer:0.30
;structure:shell-outer
G1 X-69.50 Y68.89 F6000
G1 Z0.300 F420
G1 E10.6098 F1800
G1 X-68.48 Y66.48 E10.7730 F600
G1 X-67.46 Y68.89 E10.9362
G1 E6.8846 F2400
G1 Z0.500 F420
G1 X-66.40 Y67.69 F6000
G1 Z0.300 F420
G1 E10.9919 F1800
G1 X-64.26 Y67.69 E11.1253 F600
G1 X-64.34 Y68.22 E11.1588
G1 X-64.55 Y68.61 E11.1864
G1 X-64.89 Y68.86 E11.2127
G1 X-65.33 Y68.95 E11.2407
G1 X-65.76 Y68.86 E11.2681
G1 X-66.10 Y68.61 E11.2944
G1 X-66.32 Y68.22 E11.3224
G1 X-66.40 Y67.69 E11.3558
G1 X-66.32 Y67.15 E11.3898
G1 X-66.09 Y66.75 E11.4186
G1 X-65.74 Y66.51 E11.4451
G1 X-65.28 Y66.42 E11.4743
G1 X-64.94 Y66.47 E11.4957
G1 X-64.65 Y66.61 E11.5158
G1 X-64.44 Y66.83 E11.5348
G1 X-64.32 Y67.13 E11.5549
G1 E7.4798 F2400
G1 Z0.500 F420
G1 X-63.20 Y68.26 F6000
G1 Z0.300 F420
G1 E11.5006 F1800
G1 X-61.51 Y68.26 E11.6060 F600
G1 E7.6156 F2400
G1 Z0.500 F420
G1 X-61.51 Y67.55 F6000
G1 Z0.300 F420
G1 E11.6360 F1800
G1 X-63.20 Y67.55 E11.7414 F600
G1 E7.7510 F2400
G1 Z0.500 F420
G1 X-60.45 Y69.00 F6000
G1 Z0.300 F420
G1 E11.8292 F1800
G1 X-59.98 Y69.24 E11.8622 F600
G1 X-59.61 Y69.55 E11.8923
G1 X-59.36 Y69.88 E11.9181
G1 X-59.36 Y66.48 E12.1301
G1 E8.0830 F2400
G1 Z0.500 F420
G1 X-58.30 Y66.71 F6000
G1 Z0.300 F420
G1 E11.4692 F1800
G1 X-58.30 Y66.65 E11.4730 F600
G1 E8.1089 F2400
G1 Z0.500 F420
G1 X-56.01 Y69.94 F6000
G1 Z0.300 F420
G1 E12.2149 F1800
G1 X-55.50 Y69.80 E12.2479 F600
G1 X-55.11 Y69.42 E12.2818
G1 X-54.88 Y68.86 E12.3196
G1 X-54.79 Y68.18 E12.3624
G1 X-54.88 Y67.51 E12.4045
G1 X-55.11 Y66.95 E12.4423
G1 X-55.50 Y66.56 E12.4767
G1 X-56.01 Y66.42 E12.5097
G1 X-56.54 Y66.56 E12.5439
G1 X-56.91 Y66.95 E12.5774
G1 X-57.15 Y67.51 E12.6154
G1 X-57.23 Y68.18 E12.6575
G1 X-57.15 Y68.85 E12.6996
G1 X-56.91 Y69.42 E12.7381
G1 X-56.54 Y69.80 E12.7712
G1 X-56.01 Y69.94 E12.8054
G1 E8.7290 F2400
G1 Z0.500 F420
G1 X-69.50 Y64.88 F6000
G1 Z0.300 F420
G1 E12.8001 F1800
G1 X-69.50 Y61.48 E13.0121 F600
G1 E8.9722 F2400
G1 Z0.500 F420
G1 X-69.50 Y63.23 F6000
G1 Z0.300 F420
G1 E13.0576 F1800
G1 X-69.25 Y63.53 E13.0820 F600
G1 X-69.02 Y63.75 E13.1018
G1 X-68.80 Y63.88 E13.1178
G1 X-68.60 Y63.93 E13.1306
G1 X-68.41 Y63.95 E13.1425
G1 X-68.09 Y63.88 E13.1630
G1 X-67.86 Y63.71 E13.1808
G1 X-67.76 Y63.51 E13.1948
G1 X-67.67 Y63.08 E13.2222
G1 X-67.67 Y61.48 E13.3219
G1 E9.2682 F2400
G1 Z0.500 F420
G1 X-66.61 Y63.26 F6000
G1 Z0.300 F420
G1 E13.2890 F1800
G1 X-64.92 Y63.26 E13.3944 F600
G1 E9.4039 F2400
G1 Z0.500 F420
G1 X-64.92 Y62.55 F6000
G1 Z0.300 F420
G1 E13.4244 F1800
G1 X-66.61 Y62.55 E13.5298 F600
G1 E9.5393 F2400
G1 Z0.500 F420
G1 X-62.64 Y64.94 F6000
G1 Z0.300 F420
G1 E13.6477 F1800
G1 X-62.13 Y64.80 E13.6807 F600
G1 X-61.74 Y64.42 E13.7146
G1 X-61.50 Y63.86 E13.7526
G1 X-61.42 Y63.18 E13.7953
G1 X-61.50 Y62.51 E13.8374
G1 X-61.74 Y61.95 E13.8754
G1 X-62.13 Y61.56 E13.9098
G1 X-62.64 Y61.42 E13.9428
G1 X-63.16 Y61.56 E13.9764
G1 X-63.54 Y61.95 E14.0103
G1 X-63.78 Y62.51 E14.0483
G1 X-63.86 Y63.18 E14.0904
G1 X-63.78 Y63.85 E14.1325
G1 X-63.54 Y64.42 E14.1711
G1 X-63.16 Y64.80 E14.2046
G1 X-62.64 Y64.94 E14.2382
G1 E10.1619 F2400
G1 Z0.500 F420
G1 X-60.36 Y61.71 F6000
G1 Z0.300 F420
G1 E13.5481 F1800
G1 X-60.36 Y61.65 E13.5519 F600
G1 E10.1878 F2400
G1 Z0.500 F420
G1 X-59.24 Y64.13 F6000
G1 Z0.300 F420
G1 E14.2875 F1800
G1 X-59.13 Y64.47 E14.3098 F600
G1 X-58.92 Y64.73 E14.3306
G1 X-58.63 Y64.89 E14.3513
G1 X-58.29 Y64.94 E14.3727
G1 X-57.90 Y64.87 E14.3974
G1 X-57.61 Y64.68 E14.4191
G1 X-57.43 Y64.41 E14.4393
G1 X-57.36 Y64.06 E14.4616
G1 X-57.43 Y63.85 E14.4754
G1 X-57.57 Y63.68 E14.4891
G1 X-57.94 Y63.45 E14.5163
G1 X-58.38 Y63.30 E14.5453
G1 X-57.94 Y63.18 E14.5737
G1 X-57.58 Y63.02 E14.5983
G1 X-57.29 Y62.74 E14.6234
G1 X-57.19 Y62.45 E14.6425
G1 X-57.26 Y62.03 E14.6691
G1 X-57.49 Y61.70 E14.6942
G1 X-57.83 Y61.50 E14.7188
G1 X-58.25 Y61.42 E14.7454
G1 X-58.65 Y61.48 E14.7707
G1 X-58.97 Y61.65 E14.7933
G1 X-59.19 Y61.92 E14.8150
G1 X-59.29 Y62.28 E14.8383
G1 E10.7683 F2400
G1 Z0.500 F420
G1 X-67.52 Y59.88 F6000
G1 Z0.300 F420
G1 E14.8394 F1800
G1 X-67.52 Y56.48 E15.0514 F600
G1 E11.0115 F2400
G1 Z0.500 F420
G1 X-67.52 Y56.98 F6000
G1 Z0.300 F420
G1 E15.1118 F1800
G1 X-67.77 Y56.74 E15.1334 F600
G1 X-68.16 Y56.49 E15.1623
G1 X-68.54 Y56.42 E15.1864
G1 X-68.92 Y56.51 E15.2107
G1 X-69.22 Y56.77 E15.2355
G1 X-69.43 Y57.18 E15.2642
G1 X-69.50 Y57.71 E15.2976
G1 X-69.44 Y58.22 E15.3296
G1 X-69.26 Y58.61 E15.3564
G1 X-68.97 Y58.86 E15.3803
G1 X-68.57 Y58.95 E15.4058
G1 X-68.38 Y58.93 E15.4178
G1 X-68.18 Y58.85 E15.4312
G1 X-67.97 Y58.72 E15.4466
G1 X-67.77 Y58.50 E15.4651
G1 X-67.52 Y58.03 E15.4983
G1 E11.4282 F2400
G1 Z0.500 F420
G1 X-66.46 Y58.89 F6000
G1 Z0.300 F420
G1 E15.4860 F1800
G1 X-65.29 Y56.44 E15.6553 F600
G1 E11.6284 F2400
G1 Z0.500 F420
G1 X-66.29 Y55.57 F6000
G1 Z0.300 F420
G1 E15.7185 F1800
G1 X-66.19 Y55.56 E15.7247 F600
G1 X-66.10 Y55.56 E15.7303
G1 X-65.84 Y55.62 E15.7470
G1 X-65.63 Y55.78 E15.7634
G1 X-65.45 Y56.06 E15.7842
G1 X-65.29 Y56.44 E15.8099
G1 X-64.41 Y58.89 E15.9722
G1 E11.9145 F2400
G1 Z0.500 F420
G1 X-63.35 Y58.76 F6000
G1 Z0.300 F420
G1 E15.9602 F1800
G1 X-63.35 Y56.48 E16.1023 F600
G1 E12.0874 F2400
G1 Z0.500 F420
G1 X-63.35 Y57.89 F6000
G1 Z0.300 F420
G1 E16.1737 F1800
G1 X-63.11 Y58.34 E16.2055 F600
G1 X-62.92 Y58.67 E16.2292
G1 X-62.70 Y58.86 E16.2473
G1 X-62.49 Y58.93 E16.2611
G1 X-62.28 Y58.95 E16.2743
G1 X-61.95 Y58.88 E16.2953
G1 X-61.77 Y58.73 E16.3099
G1 X-61.67 Y58.40 E16.3315
G1 X-61.61 Y58.08 E16.3518
G1 X-61.61 Y56.48 E16.4515
G1 E12.3968 F2400
G1 Z0.500 F420
G1 X-60.55 Y56.48 F6000
G1 Z0.300 F420
G1 E16.4466 F1800
G1 X-60.55 Y58.89 E16.5969 F600
G1 E12.5778 F2400
G1 Z0.500 F420
G1 X-60.55 Y58.20 F6000
G1 Z0.300 F420
G1 E16.6191 F1800
G1 X-60.30 Y58.55 E16.6459 F600
G1 X-60.09 Y58.76 E16.6644
G1 X-59.89 Y58.88 E16.6790
G1 X-59.70 Y58.94 E16.6914
G1 X-59.54 Y58.95 E16.7014
G1 X-59.49 Y58.95 E16.7045
G1 X-59.44 Y58.94 E16.7077
G1 E12.6984 F2400
G1 Z0.500 F420
G1 X-58.38 Y57.69 F6000
G1 Z0.300 F420
G1 E16.8055 F1800
G1 X-56.24 Y57.69 E16.9390 F600
G1 X-56.32 Y58.22 E16.9724
G1 X-56.53 Y58.61 E17.0000
G1 X-56.87 Y58.86 E17.0264
G1 X-57.31 Y58.95 E17.0544
G1 X-57.74 Y58.86 E17.0818
G1 X-58.08 Y58.61 E17.1081
G1 X-58.30 Y58.22 E17.1360
G1 X-58.38 Y57.69 E17.1694
G1 X-58.30 Y57.15 E17.2035
G1 X-58.07 Y56.75 E17.2323
G1 X-57.72 Y56.51 E17.2587
G1 X-57.26 Y56.42 E17.2879
G1 X-56.92 Y56.47 E17.3094
G1 X-56.63 Y56.61 E17.3295
G1 X-56.42 Y56.83 E17.3484
G1 X-56.30 Y57.13 E17.3686
G1 E13.2935 F2400
G1 Z0.500 F420
G1 X-53.99 Y56.46 F6000
G1 Z0.300 F420
G1 E17.3750 F1800
G1 X-54.14 Y56.45 E17.3844 F600
G1 X-54.32 Y56.50 E17.3961
G1 X-54.48 Y56.62 E17.4085
G1 X-54.60 Y56.81 E17.4225
G1 X-54.68 Y57.19 E17.4468
G1 X-54.68 Y59.52 E17.5921
G1 E13.5426 F2400
G1 Z0.500 F420
G1 X-55.18 Y58.76 F6000
G1 Z0.300 F420
G1 E17.5129 F1800
G1 X-54.10 Y58.76 E17.5803 F600
G1 E13.6394 F2400
G1 Z0.500 F420
G1 X-52.92 Y58.26 F6000
G1 Z0.300 F420
G1 E17.6597 F1800
G1 X-51.23 Y58.26 E17.7650 F600
G1 E13.7747 F2400
G1 Z0.500 F420
G1 X-51.23 Y57.55 F6000
G1 Z0.300 F420
G1 E17.7951 F1800
G1 X-52.92 Y57.55 E17.9005 F600
G1 E13.9101 F2400
G1 Z0.500 F420
G1 X-48.95 Y59.94 F6000
G1 Z0.300 F420
G1 E18.0184 F1800
G1 X-48.44 Y59.80 E18.0514 F600
G1 X-48.05 Y59.42 E18.0853
G1 X-47.81 Y58.86 E18.1233
G1 X-47.73 Y58.18 E18.1660
G1 X-47.81 Y57.51 E18.2081
G1 X-48.05 Y56.95 E18.2461
G1 X-48.44 Y56.56 E18.2805
G1 X-48.95 Y56.42 E18.3135
G1 X-49.47 Y56.56 E18.3471
G1 X-49.85 Y56.95 E18.3810
G1 X-50.09 Y57.51 E18.4190
G1 X-50.17 Y58.18 E18.4611
G1 X-50.09 Y58.85 E18.5032
G1 X-49.85 Y59.42 E18.5417
G1 X-49.47 Y59.80 E18.5753
G1 X-48.95 Y59.94 E18.6088
G1 E14.5326 F2400
G1 Z0.500 F420
;structure:shell-outer
G1 X70.00 Y0.00 F6000
G1 Z0.300 F420
G1 E18.6509 F1800
G1 X69.73 Y6.10 E19.0317 F600
G1 X68.94 Y12.16 E19.4126
G1 X67.61 Y18.12 E19.7934
G1 X65.78 Y23.94 E20.1742
G1 X63.44 Y29.58 E20.5551
G1 X60.62 Y35.00 E20.9359
G1 X57.34 Y40.15 E21.3167
G1 X53.62 Y45.00 E21.6976
G1 X49.50 Y49.50 E22.0784
G1 X45.00 Y53.62 E22.4592
G1 X40.15 Y57.34 E22.8401
G1 X35.00 Y60.62 E23.2209
G1 X29.58 Y63.44 E23.6017
G1 X23.94 Y65.78 E23.9826
G1 X18.12 Y67.61 E24.3634
G1 X12.16 Y68.94 E24.7442
G1 X6.10 Y69.73 E25.1250
G1 X0.00 Y70.00 E25.5059
G1 X-6.10 Y69.73 E25.8867
G1 X-12.16 Y68.94 E26.2675
G1 X-18.12 Y67.61 E26.6484
G1 X-23.94 Y65.78 E27.0292
G1 X-29.58 Y63.44 E27.4100
G1 X-35.00 Y60.62 E27.7909
G1 X-40.15 Y57.34 E28.1717
G1 X-45.00 Y53.62 E28.5525
G1 X-49.50 Y49.50 E28.9334
G1 X-53.62 Y45.00 E29.3142
G1 X-57.34 Y40.15 E29.6950
G1 X-60.62 Y35.00 E30.0759
G1 X-63.44 Y29.58 E30.4567
G1 X-65.78 Y23.94 E30.8375
G1 X-67.61 Y18.12 E31.2184
G1 X-68.94 Y12.16 E31.5992
G1 X-69.73 Y6.10 E31.9800
G1 X-70.00 Y0.00 E32.3609
G1 X-69.73 Y-6.10 E32.7417
G1 X-68.94 Y-12.16 E33.1225
G1 X-67.61 Y-18.12 E33.5033
G1 X-65.78 Y-23.94 E33.8842
G1 X-63.44 Y-29.58 E34.2650
G1 X-60.62 Y-35.00 E34.6458
G1 X-57.34 Y-40.15 E35.0267
G1 X-53.62 Y-45.00 E35.4075
G1 X-49.50 Y-49.50 E35.7883
G1 X-45.00 Y-53.62 E36.1692
G1 X-40.15 Y-57.34 E36.5500
G1 X-35.00 Y-60.62 E36.9308
G1 X-29.58 Y-63.44 E37.3117
G1 X-23.94 Y-65.78 E37.6925
G1 X-18.12 Y-67.61 E38.0733
G1 X-12.16 Y-68.94 E38.4542
G1 X-6.10 Y-69.73 E38.8350
G1 X0.00 Y-70.00 E39.2158
G1 X6.10 Y-69.73 E39.5967
G1 X12.16 Y-68.94 E39.9775
G1 X18.12 Y-67.61 E40.3583
G1 X23.94 Y-65.78 E40.7392
G1 X29.58 Y-63.44 E41.1200
G1 X35.00 Y-60.62 E41.5008
G1 X40.15 Y-57.34 E41.8816
G1 X45.00 Y-53.62 E42.2625
G1 X49.50 Y-49.50 E42.6433
G1 X53.62 Y-45.00 E43.0241
G1 X57.34 Y-40.15 E43.4050
G1 X60.62 Y-35.00 E43.7858
G1 X63.44 Y-29.58 E44.1666
G1 X65.78 Y-23.94 E44.5475
G1 X67.61 Y-18.12 E44.9283
G1 X68.94 Y-12.16 E45.3091
G1 X69.73 Y-6.10 E45.6900
G1 X70.00 Y0.00 E46.0708
G1 E41.9785 F2400
G1 Z0.500 F420
G1 Z0.300
G1 E46.0425 F1800
G1 X73.00 Y0.00 E46.2296 F600
G1 E42.1694 F2400
G1 Z0.500 F420
G1 X69.73 Y6.10 F6000
G1 Z0.300 F420
G1 E46.1783 F1800
G1 X71.23 Y6.23 E46.2718 F600
G1 E42.2930 F2400
G1 Z0.500 F420
G1 X68.94 Y12.16 F6000
G1 Z0.300 F420
G1 E46.3016 F1800
G1 X70.41 Y12.42 E46.3952 F600
G1 E42.4164 F2400
G1 Z0.500 F420
G1 X67.61 Y18.12 F6000
G1 Z0.300 F420
G1 E46.4250 F1800
G1 X69.06 Y18.51 E46.5185 F600
G1 E42.5397 F2400
G1 Z0.500 F420
G1 X65.78 Y23.94 F6000
G1 Z0.300 F420
G1 E46.5483 F1800
G1 X67.19 Y24.45 E46.6418 F600
G1 E42.6631 F2400
G1 Z0.500 F420
G1 X63.44 Y29.58 F6000
G1 Z0.300 F420
G1 E46.6717 F1800
G1 X64.80 Y30.22 E46.7652 F600
G1 E42.7864 F2400
G1 Z0.500 F420
G1 X60.62 Y35.00 F6000
G1 Z0.300 F420
G1 E46.8500 F1800
G1 X63.22 Y36.50 E47.0371 F600
G1 E43.0042 F2400
G1 Z0.500 F420
G1 X57.34 Y40.15 F6000
G1 Z0.300 F420
G1 E47.0130 F1800
G1 X58.57 Y41.01 E47.1065 F600
G1 E43.1277 F2400
G1 Z0.500 F420
G1 X53.62 Y45.00 F6000
G1 Z0.300 F420
G1 E47.1363 F1800
G1 X54.77 Y45.96 E47.2299 F600
G1 E43.2511 F2400
G1 Z0.500 F420
G1 X49.50 Y49.50 F6000
G1 Z0.300 F420
G1 E47.2597 F1800
G1 X50.56 Y50.56 E47.3532 F600
G1 E43.3744 F2400
G1 Z0.500 F420
G1 X45.00 Y53.62 F6000
G1 Z0.300 F420
G1 E47.3830 F1800
G1 X45.96 Y54.77 E47.4766 F600
G1 E43.4978 F2400
G1 Z0.500 F420
G1 X40.15 Y57.34 F6000
G1 Z0.300 F420
G1 E47.5064 F1800
G1 X41.01 Y58.57 E47.5999 F600
G1 E43.6211 F2400
G1 Z0.500 F420
G1 X35.00 Y60.62 F6000
G1 Z0.300 F420
G1 E47.6847 F1800
G1 X36.50 Y63.22 E47.8718 F600
G1 E43.8389 F2400
G1 Z0.500 F420
G1 X29.58 Y63.44 F6000
G1 Z0.300 F420
G1 E47.8477 F1800
G1 X30.22 Y64.80 E47.9412 F600
G1 E43.9625 F2400
G1 Z0.500 F420
G1 X23.94 Y65.78 F6000
G1 Z0.300 F420
G1 E47.9710 F1800
G1 X24.45 Y67.19 E48.0646 F600
G1 E44.0858 F2400
G1 Z0.500 F420
G1 X18.12 Y67.61 F6000
G1 Z0.300 F420
G1 E48.0944 F1800
G1 X18.51 Y69.06 E48.1879 F600
G1 E44.2092 F2400
G1 Z0.500 F420
G1 X12.16 Y68.94 F6000
G1 Z0.300 F420
G1 E48.2177 F1800
G1 X12.42 Y70.41 E48.3113 F600
G1 E44.3325 F2400
G1 Z0.500 F420
G1 X6.10 Y69.73 F6000
G1 Z0.300 F420
G1 E48.3411 F1800
G1 X6.23 Y71.23 E48.4346 F600
G1 E44.4558 F2400
G1 Z0.500 F420
G1 X0.00 Y70.00 F6000
G1 Z0.300 F420
G1 E48.5195 F1800
G1 X0.00 Y73.00 E48.7065 F600
G1 E44.6736 F2400
G1 Z0.500 F420
G1 X-6.10 Y69.73 F6000
G1 Z0.300 F420
G1 E48.6824 F1800
G1 X-6.23 Y71.23 E48.7760 F600
G1 E44.7972 F2400
G1 Z0.500 F420
G1 X-12.16 Y68.94 F6000
G1 Z0.300 F420
G1 E48.8058 F1800
G1 X-12.42 Y70.41 E48.8993 F600
G1 E44.9205 F2400
G1 Z0.500 F420
G1 X-18.12 Y67.61 F6000
G1 Z0.300 F420
G1 E48.9291 F1800
G1 X-18.51 Y69.06 E49.0226 F600
G1 E45.0439 F2400
G1 Z0.500 F420
G1 X-23.94 Y65.78 F6000
G1 Z0.300 F420
G1 E49.0524 F1800
G1 X-24.45 Y67.19 E49.1460 F600
G1 E45.1672 F2400
G1 Z0.500 F420
G1 X-29.58 Y63.44 F6000
G1 Z0.300 F420
G1 E49.1758 F1800
G1 X-30.22 Y64.80 E49.2693 F600
G1 E45.2906 F2400
G1 Z0.500 F420
G1 X-35.00 Y60.62 F6000
G1 Z0.300 F420
G1 E49.3542 F1800
G1 X-36.50 Y63.22 E49.5413 F600
G1 E45.5083 F2400
G1 Z0.500 F420
G1 X-40.15 Y57.34 F6000
G1 Z0.300 F420
G1 E49.5171 F1800
G1 X-41.01 Y58.57 E49.6107 F600
G1 E45.6319 F2400
G1 Z0.500 F420
G1 X-45.00 Y53.62 F6000
G1 Z0.300 F420
G1 E49.6405 F1800
G1 X-45.96 Y54.77 E49.7340 F600
G1 E45.7552 F2400
G1 Z0.500 F420
G1 X-49.50 Y49.50 F6000
G1 Z0.300 F420
G1 E49.7638 F1800
G1 X-50.56 Y50.56 E49.8574 F600
G1 E45.8786 F2400
G1 Z0.500 F420
G1 X-53.62 Y45.00 F6000
G1 Z0.300 F420
G1 E49.8872 F1800
G1 X-54.77 Y45.96 E49.9807 F600
G1 E46.0019 F2400
G1 Z0.500 F420
G1 X-57.34 Y40.15 F6000
G1 Z0.300 F420
G1 E50.0105 F1800
G1 X-58.57 Y41.01 E50.1041 F600
G1 E46.1253 F2400
G1 Z0.500 F420
G1 X-60.62 Y35.00 F6000
G1 Z0.300 F420
G1 E50.1889 F1800
G1 X-63.22 Y36.50 E50.3760 F600
G1 E46.3431 F2400
G1 Z0.500 F420
G1 X-63.44 Y29.58 F6000
G1 Z0.300 F420
G1 E50.3518 F1800
G1 X-64.80 Y30.22 E50.4454 F600
G1 E46.4666 F2400
G1 Z0.500 F420
G1 X-65.78 Y23.94 F6000
G1 Z0.300 F420
G1 E50.4752 F1800
G1 X-67.19 Y24.45 E50.5687 F600
G1 E46.5900 F2400
G1 Z0.500 F420
G1 X-67.61 Y18.12 F6000
G1 Z0.300 F420
G1 E50.5985 F1800
G1 X-69.06 Y18.51 E50.6921 F600
G1 E46.7133 F2400
G1 Z0.500 F420
G1 X-68.94 Y12.16 F6000
G1 Z0.300 F420
G1 E50.7219 F1800
G1 X-70.41 Y12.42 E50.8154 F600
G1 E46.8366 F2400
G1 Z0.500 F420
G1 X-69.73 Y6.10 F6000
G1 Z0.300 F420
G1 E50.8452 F1800
G1 X-71.23 Y6.23 E50.9388 F600
G1 E46.9600 F2400
G1 Z0.500 F420
G1 X-70.00 Y0.00 F6000
G1 Z0.300 F420
G1 E51.0236 F1800
G1 X-73.00 Y0.00 E51.2107 F600
G1 E47.1778 F2400
G1 Z0.500 F420
G1 X-69.73 Y-6.10 F6000
G1 Z0.300 F420
G1 E51.1866 F1800
G1 X-71.23 Y-6.23 E51.2801 F600
G1 E47.3013 F2400
G1 Z0.500 F420
G1 X-68.94 Y-12.16 F6000
G1 Z0.300 F420
G1 E51.3099 F1800
G1 X-70.41 Y-12.42 E51.4034 F600
G1 E47.4247 F2400
G1 Z0.500 F420
G1 X-67.61 Y-18.12 F6000
G1 Z0.300 F420
G1 E51.4332 F1800
G1 X-69.06 Y-18.51 E51.5268 F600
G1 E47.5480 F2400
G1 Z0.500 F420
G1 X-65.78 Y-23.94 F6000
G1 Z0.300 F420
G1 E51.5566 F1800
G1 X-67.19 Y-24.45 E51.6501 F600
G1 E47.6714 F2400
G1 Z0.500 F420
G1 X-63.44 Y-29.58 F6000
G1 Z0.300 F420
G1 E51.6799 F1800
G1 X-64.80 Y-30.22 E51.7735 F600
G1 E47.7947 F2400
G1 Z0.500 F420
G1 X-60.62 Y-35.00 F6000
G1 Z0.300 F420
G1 E51.8583 F1800
G1 X-63.22 Y-36.50 E52.0454 F600
G1 E48.0125 F2400
G1 Z0.500 F420
G1 X-57.34 Y-40.15 F6000
G1 Z0.300 F420
G1 E52.0213 F1800
G1 X-58.57 Y-41.01 E52.1148 F600
G1 E48.1360 F2400
G1 Z0.500 F420
G1 X-53.62 Y-45.00 F6000
G1 Z0.300 F420
G1 E52.1446 F1800
G1 X-54.77 Y-45.96 E52.2382 F600
G1 E48.2594 F2400
G1 Z0.500 F420
G1 X-49.50 Y-49.50 F6000
G1 Z0.300 F420
G1 E52.2680 F1800
G1 X-50.56 Y-50.56 E52.3615 F600
G1 E48.3827 F2400
G1 Z0.500 F420
G1 X-45.00 Y-53.62 F6000
G1 Z0.300 F420
G1 E52.3913 F1800
G1 X-45.96 Y-54.77 E52.4849 F600
G1 E48.5061 F2400
G1 Z0.500 F420
G1 X-40.15 Y-57.34 F6000
G1 Z0.300 F420
G1 E52.5147 F1800
G1 X-41.01 Y-58.57 E52.6082 F600
G1 E48.6294 F2400
G1 Z0.500 F420
G1 X-35.00 Y-60.62 F6000
G1 Z0.300 F420
G1 E52.6930 F1800
G1 X-36.50 Y-63.22 E52.8801 F600
G1 E48.8472 F2400
G1 Z0.500 F420
G1 X-29.58 Y-63.44 F6000
G1 Z0.300 F420
G1 E52.8560 F1800
G1 X-30.22 Y-64.80 E52.9495 F600
G1 E48.9707 F2400
G1 Z0.500 F420
G1 X-23.94 Y-65.78 F6000
G1 Z0.300 F420
G1 E52.9793 F1800
G1 X-24.45 Y-67.19 E53.0729 F600
G1 E49.0941 F2400
G1 Z0.500 F420
G1 X-18.12 Y-67.61 F6000
G1 Z0.300 F420
G1 E53.1027 F1800
G1 X-18.51 Y-69.06 E53.1962 F600
G1 E49.2174 F2400
G1 Z0.500 F420
G1 X-12.16 Y-68.94 F6000
G1 Z0.300 F420
G1 E53.2260 F1800
G1 X-12.42 Y-70.41 E53.3196 F600
G1 E49.3408 F2400
G1 Z0.500 F420
G1 X-6.10 Y-69.73 F6000
G1 Z0.300 F420
G1 E53.3494 F1800
G1 X-6.23 Y-71.23 E53.4429 F600
G1 E49.4641 F2400
G1 Z0.500 F420
G1 X0.00 Y-70.00 F6000
G1 Z0.300 F420
G1 E53.5277 F1800
G1 X0.00 Y-73.00 E53.7148 F600
G1 E49.6819 F2400
G1 Z0.500 F420
G1 X6.10 Y-69.73 F6000
G1 Z0.300 F420
G1 E53.6907 F1800
G1 X6.23 Y-71.23 E53.7842 F600
G1 E49.8055 F2400
G1 Z0.500 F420
G1 X12.16 Y-68.94 F6000
G1 Z0.300 F420
G1 E53.8140 F1800
G1 X12.42 Y-70.41 E53.9076 F600
G1 E49.9288 F2400
G1 Z0.500 F420
G1 X18.12 Y-67.61 F6000
G1 Z0.300 F420
G1 E53.9374 F1800
G1 X18.51 Y-69.06 E54.0309 F600
G1 E50.0522 F2400
G1 Z0.500 F420
G1 X23.94 Y-65.78 F6000
G1 Z0.300 F420
G1 E54.0607 F1800
G1 X24.45 Y-67.19 E54.1543 F600
G1 E50.1755 F2400
G1 Z0.500 F420
G1 X29.58 Y-63.44 F6000
G1 Z0.300 F420
G1 E54.1841 F1800
G1 X30.22 Y-64.80 E54.2776 F600
G1 E50.2988 F2400
G1 Z0.500 F420
G1 X35.00 Y-60.62 F6000
G1 Z0.300 F420
G1 E54.3625 F1800
G1 X36.50 Y-63.22 E54.5495 F600
G1 E50.5166 F2400
G1 Z0.500 F420
G1 X40.15 Y-57.34 F6000
G1 Z0.300 F420
G1 E54.5254 F1800
G1 X41.01 Y-58.57 E54.6190 F600
G1 E50.6402 F2400
G1 Z0.500 F420
G1 X45.00 Y-53.62 F6000
G1 Z0.300 F420
G1 E54.6488 F1800
G1 X45.96 Y-54.77 E54.7423 F600
G1 E50.7635 F2400
G1 Z0.500 F420
G1 X49.50 Y-49.50 F6000
G1 Z0.300 F420
G1 E54.7721 F1800
G1 X50.56 Y-50.56 E54.8657 F600
G1 E50.8869 F2400
G1 Z0.500 F420
G1 X53.62 Y-45.00 F6000
G1 Z0.300 F420
G1 E54.8955 F1800
G1 X54.77 Y-45.96 E54.9890 F600
G1 E51.0102 F2400
G1 Z0.500 F420
G1 X57.34 Y-40.15 F6000
G1 Z0.300 F420
G1 E55.0188 F1800
G1 X58.57 Y-41.01 E55.1123 F600
G1 E51.1336 F2400
G1 Z0.500 F420
G1 X60.62 Y-35.00 F6000
G1 Z0.300 F420
G1 E55.1972 F1800
G1 X63.22 Y-36.50 E55.3843 F600
G1 E51.3514 F2400
G1 Z0.500 F420
G1 X63.44 Y-29.58 F6000
G1 Z0.300 F420
G1 E55.3601 F1800
G1 X64.80 Y-30.22 E55.4537 F600
G1 E51.4749 F2400
G1 Z0.500 F420
G1 X65.78 Y-23.94 F6000
G1 Z0.300 F420
G1 E55.4835 F1800
G1 X67.19 Y-24.45 E55.5770 F600
G1 E51.5982 F2400
G1 Z0.500 F420
G1 X67.61 Y-18.12 F6000
G1 Z0.300 F420
G1 E55.6068 F1800
G1 X69.06 Y-18.51 E55.7004 F600
G1 E51.7216 F2400
G1 Z0.500 F420
G1 X68.94 Y-12.16 F6000
G1 Z0.300 F420
G1 E55.7302 F1800
G1 X70.41 Y-12.42 E55.8237 F600
G1 E51.8449 F2400
G1 Z0.500 F420
G1 X69.73 Y-6.10 F6000
G1 Z0.300 F420
G1 E55.8535 F1800
G1 X71.23 Y-6.23 E55.9471 F600
G1 E51.9683 F2400
G1 Z0.500 F420
G1 X42.00 Y0.00 F6000
G1 Z0.300 F420
G1 E56.0854 F1800
G1 X41.84 Y3.66 E56.3139 F600
G1 X41.36 Y7.29 E56.5424
G1 X40.57 Y10.87 E56.7709
G1 X39.47 Y14.36 E56.9994
G1 X38.06 Y17.75 E57.2279
G1 X36.37 Y21.00 E57.4564
G1 X34.40 Y24.09 E57.6849
G1 X32.17 Y27.00 E57.9134
G1 X29.70 Y29.70 E58.1419
G1 X27.00 Y32.17 E58.3704
G1 X24.09 Y34.40 E58.5989
G1 X21.00 Y36.37 E58.8274
G1 X17.75 Y38.06 E59.0559
G1 X14.36 Y39.47 E59.2844
G1 X10.87 Y40.57 E59.5129
G1 X7.29 Y41.36 E59.7414
G1 X3.66 Y41.84 E59.9699
G1 X0.00 Y42.00 E60.1984
G1 X-3.66 Y41.84 E60.4269
G1 X-7.29 Y41.36 E60.6554
G1 X-10.87 Y40.57 E60.8839
G1 X-14.36 Y39.47 E61.1124
G1 X-17.75 Y38.06 E61.3409
G1 X-21.00 Y36.37 E61.5694
G1 X-24.09 Y34.40 E61.7979
G1 X-27.00 Y32.17 E62.0264
G1 X-29.70 Y29.70 E62.2549
G1 X-32.17 Y27.00 E62.4834
G1 X-34.40 Y24.09 E62.7119
G1 X-36.37 Y21.00 E62.9404
G1 X-38.06 Y17.75 E63.1689
G1 X-39.47 Y14.36 E63.3974
G1 X-40.57 Y10.87 E63.6259
G1 X-41.36 Y7.29 E63.8544
G1 X-41.84 Y3.66 E64.0829
G1 X-42.00 Y0.00 E64.3114
G1 X-41.84 Y-3.66 E64.5399
G1 X-41.36 Y-7.29 E64.7684
G1 X-40.57 Y-10.87 E64.9969
G1 X-39.47 Y-14.36 E65.2254
G1 X-38.06 Y-17.75 E65.4539
G1 X-36.37 Y-21.00 E65.6824
G1 X-34.40 Y-24.09 E65.9109
G1 X-32.17 Y-27.00 E66.1394
G1 X-29.70 Y-29.70 E66.3679
G1 X-27.00 Y-32.17 E66.5964
G1 X-24.09 Y-34.40 E66.8249
G1 X-21.00 Y-36.37 E67.0534
G1 X-17.75 Y-38.06 E67.2819
G1 X-14.36 Y-39.47 E67.5104
G1 X-10.87 Y-40.57 E67.7389
G1 X-7.29 Y-41.36 E67.9674
G1 X-3.66 Y-41.84 E68.1959
G1 X0.00 Y-42.00 E68.4244
G1 X3.66 Y-41.84 E68.6529
G1 X7.29 Y-41.36 E68.8814
G1 X10.87 Y-40.57 E69.1099
G1 X14.36 Y-39.47 E69.3384
G1 X17.75 Y-38.06 E69.5669
G1 X21.00 Y-36.37 E69.7954
G1 X24.09 Y-34.40 E70.0239
G1 X27.00 Y-32.17 E70.2524
G1 X29.70 Y-29.70 E70.4809
G1 X32.17 Y-27.00 E70.7093
G1 X34.40 Y-24.09 E70.9378
G1 X36.37 Y-21.00 E71.1663
G1 X38.06 Y-17.75 E71.3948
G1 X39.47 Y-14.36 E71.6233
G1 X40.57 Y-10.87 E71.8518
G1 X41.36 Y-7.29 E72.0803
G1 X41.84 Y-3.66 E72.3088
G1 X42.00 Y0.00 E72.5373
G1 E68.4451 F2400
G1 Z0.500 F420
G1 Z0.300
G1 E72.5091 F1800
G1 X39.00 Y0.00 E72.6962 F600
G1 E68.6360 F2400
G1 Z0.500 F420
G1 X41.84 Y3.66 F6000
G1 Z0.300 F420
G1 E72.6448 F1800
G1 X40.35 Y3.53 E72.7384 F600
G1 E68.7596 F2400
G1 Z0.500 F420
G1 X41.36 Y7.29 F6000
G1 Z0.300 F420
G1 E72.7682 F1800
G1 X39.88 Y7.03 E72.8617 F600
G1 E68.8829 F2400
G1 Z0.500 F420
G1 X40.57 Y10.87 F6000
G1 Z0.300 F420
G1 E72.8915 F1800
G1 X39.12 Y10.48 E72.9851 F600
G1 E69.0063 F2400
G1 Z0.500 F420
G1 X39.47 Y14.36 F6000
G1 Z0.300 F420
G1 E73.0149 F1800
G1 X38.06 Y13.85 E73.1084 F600
G1 E69.1296 F2400
G1 Z0.500 F420
G1 X38.06 Y17.75 F6000
G1 Z0.300 F420
G1 E73.1382 F1800
G1 X36.71 Y17.12 E73.2318 F600
G1 E69.2530 F2400
G1 Z0.500 F420
G1 X36.37 Y21.00 F6000
G1 Z0.300 F420
G1 E73.3166 F1800
G1 X33.77 Y19.50 E73.5037 F600
G1 E69.4708 F2400
G1 Z0.500 F420
G1 X34.40 Y24.09 F6000
G1 Z0.300 F420
G1 E73.4796 F1800
G1 X33.18 Y23.23 E73.5731 F600
G1 E69.5943 F2400
G1 Z0.500 F420
G1 X32.17 Y27.00 F6000
G1 Z0.300 F420
G1 E73.6029 F1800
G1 X31.02 Y26.03 E73.6964 F600
G1 E69.7177 F2400
G1 Z0.500 F420
G1 X29.70 Y29.70 F6000
G1 Z0.300 F420
G1 E73.7262 F1800
G1 X28.64 Y28.64 E73.8198 F600
G1 E69.8410 F2400
G1 Z0.500 F420
G1 X27.00 Y32.17 F6000
G1 Z0.300 F420
G1 E73.8496 F1800
G1 X26.03 Y31.02 E73.9431 F600
G1 E69.9643 F2400
G1 Z0.500 F420
G1 X24.09 Y34.40 F6000
G1 Z0.300 F420
G1 E73.9729 F1800
G1 X23.23 Y33.18 E74.0665 F600
G1 E70.0877 F2400
G1 Z0.500 F420
G1 X21.00 Y36.37 F6000
G1 Z0.300 F420
G1 E74.1513 F1800
G1 X19.50 Y33.77 E74.3384 F600
G1 E70.3055 F2400
G1 Z0.500 F420
G1 X17.75 Y38.06 F6000
G1 Z0.300 F420
G1 E74.3143 F1800
G1 X17.12 Y36.71 E74.4078 F600
G1 E70.4290 F2400
G1 Z0.500 F420
G1 X14.36 Y39.47 F6000
G1 Z0.300 F420
G1 E74.4376 F1800
G1 X13.85 Y38.06 E74.5312 F600
G1 E70.5524 F2400
G1 Z0.500 F420
G1 X10.87 Y40.57 F6000
G1 Z0.300 F420
G1 E74.5610 F1800
G1 X10.48 Y39.12 E74.6545 F600
G1 E70.6757 F2400
G1 Z0.500 F420
G1 X7.29 Y41.36 F6000
G1 Z0.300 F420
G1 E74.6843 F1800
G1 X7.03 Y39.88 E74.7778 F600
G1 E70.7991 F2400
G1 Z0.500 F420
G1 X3.66 Y41.84 F6000
G1 Z0.300 F420
G1 E74.8076 F1800
G1 X3.53 Y40.35 E74.9012 F600
G1 E70.9224 F2400
G1 Z0.500 F420
G1 X0.00 Y42.00 F6000
G1 Z0.300 F420
G1 E74.9860 F1800
G1 X0.00 Y39.00 E75.1731 F600
G1 E71.1402 F2400
G1 Z0.500 F420
G1 X-3.66 Y41.84 F6000
G1 Z0.300 F420
G1 E75.1490 F1800
G1 X-3.53 Y40.35 E75.2425 F600
G1 E71.2637 F2400
G1 Z0.500 F420
G1 X-7.29 Y41.36 F6000
G1 Z0.300 F420
G1 E75.2723 F1800
G1 X-7.03 Y39.88 E75.3659 F600
G1 E71.3871 F2400
G1 Z0.500 F420
G1 X-10.87 Y40.57 F6000
G1 Z0.300 F420
G1 E75.3957 F1800
G1 X-10.48 Y39.12 E75.4892 F600
G1 E71.5104 F2400
G1 Z0.500 F420
G1 X-14.36 Y39.47 F6000
G1 Z0.300 F420
G1 E75.5190 F1800
G1 X-13.85 Y38.06 E75.6126 F600
G1 E71.6338 F2400
G1 Z0.500 F420
G1 X-17.75 Y38.06 F6000
G1 Z0.300 F420
G1 E75.6424 F1800
G1 X-17.12 Y36.71 E75.7359 F600
G1 E71.7571 F2400
G1 Z0.500 F420
G1 X-21.00 Y36.37 F6000
G1 Z0.300 F420
G1 E75.8207 F1800
G1 X-19.50 Y33.77 E76.0078 F600
G1 E71.9749 F2400
G1 Z0.500 F420
G1 X-24.09 Y34.40 F6000
G1 Z0.300 F420
G1 E75.9837 F1800
G1 X-23.23 Y33.18 E76.0772 F600
G1 E72.0985 F2400
G1 Z0.500 F420
G1 X-27.00 Y32.17 F6000
G1 Z0.300 F420
G1 E76.1070 F1800
G1 X-26.03 Y31.02 E76.2006 F600
G1 E72.2218 F2400
G1 Z0.500 F420
G1 X-29.70 Y29.70 F6000
G1 Z0.300 F420
G1 E76.2304 F1800
G1 X-28.64 Y28.64 E76.3239 F600
G1 E72.3451 F2400
G1 Z0.500 F420
G1 X-32.17 Y27.00 F6000
G1 Z0.300 F420
G1 E76.3537 F1800
G1 X-31.02 Y26.03 E76.4473 F600
G1 E72.4685 F2400
G1 Z0.500 F420
G1 X-34.40 Y24.09 F6000
G1 Z0.300 F420
G1 E76.4771 F1800
G1 X-33.18 Y23.23 E76.5706 F600
G1 E72.5918 F2400
G1 Z0.500 F420
G1 X-36.37 Y21.00 F6000
G1 Z0.300 F420
G1 E76.6554 F1800
G1 X-33.77 Y19.50 E76.8425 F600
G1 E72.8096 F2400
G1 Z0.500 F420
G1 X-38.06 Y17.75 F6000
G1 Z0.300 F420
G1 E76.8184 F1800
G1 X-36.71 Y17.12 E76.9120 F600
G1 E72.9332 F2400
G1 Z0.500 F420
G1 X-39.47 Y14.36 F6000
G1 Z0.300 F420
G1 E76.9418 F1800
G1 X-38.06 Y13.85 E77.0353 F600
G1 E73.0565 F2400
G1 Z0.500 F420
G1 X-40.57 Y10.87 F6000
G1 Z0.300 F420
G1 E77.0651 F1800
G1 X-39.12 Y10.48 E77.1586 F600
G1 E73.1799 F2400
G1 Z0.500 F420
G1 X-41.36 Y7.29 F6000
G1 Z0.300 F420
G1 E77.1884 F1800
G1 X-39.88 Y7.03 E77.2820 F600
G1 E73.3032 F2400
G1 Z0.500 F420
G1 X-41.84 Y3.66 F6000
G1 Z0.300 F420
G1 E77.3118 F1800
G1 X-40.35 Y3.53 E77.4053 F600
G1 E73.4266 F2400
G1 Z0.500 F420
G1 X-42.00 Y0.00 F6000
G1 Z0.300 F420
G1 E77.4902 F1800
G1 X-39.00 Y0.00 E77.6773 F600
G1 E73.6443 F2400
G1 Z0.500 F420
G1 X-41.84 Y-3.66 F6000
G1 Z0.300 F420
G1 E77.6531 F1800
G1 X-40.35 Y-3.53 E77.7467 F600
G1 E73.7679 F2400
G1 Z0.500 F420
G1 X-41.36 Y-7.29 F6000
G1 Z0.300 F420
G1 E77.7765 F1800
G1 X-39.88 Y-7.03 E77.8700 F600
G1 E73.8912 F2400
G1 Z0.500 F420
G1 X-40.57 Y-10.87 F6000
G1 Z0.300 F420
G1 E77.8998 F1800
G1 X-39.12 Y-10.48 E77.9934 F600
G1 E74.0146 F2400
G1 Z0.500 F420
G1 X-39.47 Y-14.36 F6000
G1 Z0.300 F420
G1 E78.0232 F1800
G1 X-38.06 Y-13.85 E78.1167 F600
G1 E74.1379 F2400
G1 Z0.500 F420
G1 X-38.06 Y-17.75 F6000
G1 Z0.300 F420
G1 E78.1465 F1800
G1 X-36.71 Y-17.12 E78.2400 F600
G1 E74.2613 F2400
G1 Z0.500 F420
G1 X-36.37 Y-21.00 F6000
G1 Z0.300 F420
G1 E78.3249 F1800
G1 X-33.77 Y-19.50 E78.5120 F600
G1 E74.4791 F2400
G1 Z0.500 F420
G1 X-34.40 Y-24.09 F6000
G1 Z0.300 F420
G1 E78.4878 F1800
G1 X-33.18 Y-23.23 E78.5814 F600
G1 E74.6026 F2400
G1 Z0.500 F420
G1 X-32.17 Y-27.00 F6000
G1 Z0.300 F420
G1 E78.6112 F1800
G1 X-31.02 Y-26.03 E78.7047 F600
G1 E74.7259 F2400
G1 Z0.500 F420
G1 X-29.70 Y-29.70 F6000
G1 Z0.300 F420
G1 E78.7345 F1800
G1 X-28.64 Y-28.64 E78.8281 F600
G1 E74.8493 F2400
G1 Z0.500 F420
G1 X-27.00 Y-32.17 F6000
G1 Z0.300 F420
G1 E78.8579 F1800
G1 X-26.03 Y-31.02 E78.9514 F600
G1 E74.9726 F2400
G1 Z0.500 F420
G1 X-24.09 Y-34.40 F6000
G1 Z0.300 F420
G1 E78.9812 F1800
G1 X-23.23 Y-33.18 E79.0748 F600
G1 E75.0960 F2400
G1 Z0.500 F420
G1 X-21.00 Y-36.37 F6000
G1 Z0.300 F420
G1 E79.1596 F1800
G1 X-19.50 Y-33.77 E79.3467 F600
G1 E75.3138 F2400
G1 Z0.500 F420
G1 X-17.75 Y-38.06 F6000
G1 Z0.300 F420
G1 E79.3226 F1800
G1 X-17.12 Y-36.71 E79.4161 F600
G1 E75.4373 F2400
G1 Z0.500 F420
G1 X-14.36 Y-39.47 F6000
G1 Z0.300 F420
G1 E79.4459 F1800
G1 X-13.85 Y-38.06 E79.5394 F600
G1 E75.5607 F2400
G1 Z0.500 F420
G1 X-10.87 Y-40.57 F6000
G1 Z0.300 F420
G1 E79.5692 F1800
G1 X-10.48 Y-39.12 E79.6628 F600
G1 E75.6840 F2400
G1 Z0.500 F420
G1 X-7.29 Y-41.36 F6000
G1 Z0.300 F420
G1 E79.6926 F1800
G1 X-7.03 Y-39.88 E79.7861 F600
G1 E75.8074 F2400
G1 Z0.500 F420
G1 X-3.66 Y-41.84 F6000
G1 Z0.300 F420
G1 E79.8159 F1800
G1 X-3.53 Y-40.35 E79.9095 F600
G1 E75.9307 F2400
G1 Z0.500 F420
G1 X0.00 Y-42.00 F6000
G1 Z0.300 F420
G1 E79.9943 F1800
G1 X0.00 Y-39.00 E80.1814 F600
G1 E76.1485 F2400
G1 Z0.500 F420
G1 X3.66 Y-41.84 F6000
G1 Z0.300 F420
G1 E80.1573 F1800
G1 X3.53 Y-40.35 E80.2508 F600
G1 E76.2720 F2400
G1 Z0.500 F420
G1 X7.29 Y-41.36 F6000
G1 Z0.300 F420
G1 E80.2806 F1800
G1 X7.03 Y-39.88 E80.3742 F600
G1 E76.3954 F2400
G1 Z0.500 F420
G1 X10.87 Y-40.57 F6000
G1 Z0.300 F420
G1 E80.4040 F1800
G1 X10.48 Y-39.12 E80.4975 F600
G1 E76.5187 F2400
G1 Z0.500 F420
G1 X14.36 Y-39.47 F6000
G1 Z0.300 F420
G1 E80.5273 F1800
G1 X13.85 Y-38.06 E80.6208 F600
G1 E76.6421 F2400
G1 Z0.500 F420
G1 X17.75 Y-38.06 F6000
G1 Z0.300 F420
G1 E80.6506 F1800
G1 X17.12 Y-36.71 E80.7442 F600
G1 E76.7654 F2400
G1 Z0.500 F420
G1 X21.00 Y-36.37 F6000
G1 Z0.300 F420
G1 E80.8290 F1800
G1 X19.50 Y-33.77 E81.0161 F600
G1 E76.9832 F2400
G1 Z0.500 F420
G1 X24.09 Y-34.40 F6000
G1 Z0.300 F420
G1 E80.9920 F1800
G1 X23.23 Y-33.18 E81.0855 F600
G1 E77.1067 F2400
G1 Z0.500 F420
G1 X27.00 Y-32.17 F6000
G1 Z0.300 F420
G1 E81.1153 F1800
G1 X26.03 Y-31.02 E81.2089 F600
G1 E77.2301 F2400
G1 Z0.500 F420
G1 X29.70 Y-29.70 F6000
G1 Z0.300 F420
G1 E81.2387 F1800
G1 X28.64 Y-28.64 E81.3322 F600
G1 E77.3534 F2400
G1 Z0.500 F420
G1 X32.17 Y-27.00 F6000
G1 Z0.300 F420
G1 E81.3620 F1800
G1 X31.02 Y-26.03 E81.4556 F600
G1 E77.4768 F2400
G1 Z0.500 F420
G1 X34.40 Y-24.09 F6000
G1 Z0.300 F420
G1 E81.4854 F1800
G1 X33.18 Y-23.23 E81.5789 F600
G1 E77.6001 F2400
G1 Z0.500 F420
G1 X36.37 Y-21.00 F6000
G1 Z0.300 F420
G1 E81.6637 F1800
G1 X33.77 Y-19.50 E81.8508 F600
G1 E77.8179 F2400
G1 Z0.500 F420
G1 X38.06 Y-17.75 F6000
G1 Z0.300 F420
G1 E81.8267 F1800
G1 X36.71 Y-17.12 E81.9202 F600
G1 E77.9415 F2400
G1 Z0.500 F420
G1 X39.47 Y-14.36 F6000
G1 Z0.300 F420
G1 E81.9500 F1800
G1 X38.06 Y-13.85 E82.0436 F600
G1 E78.0648 F2400
G1 Z0.500 F420
G1 X40.57 Y-10.87 F6000
G1 Z0.300 F420
G1 E82.0734 F1800
G1 X39.12 Y-10.48 E82.1669 F600
G1 E78.1882 F2400
G1 Z0.500 F420
G1 X41.36 Y-7.29 F6000
G1 Z0.300 F420
G1 E82.1967 F1800
G1 X39.88 Y-7.03 E82.2903 F600
G1 E78.3115 F2400
G1 Z0.500 F420
G1 X41.84 Y-3.66 F6000
G1 Z0.300 F420
G1 E82.3201 F1800
G1 X40.35 Y-3.53 E82.4136 F600
G1 E78.4348 F2400
G1 Z0.500 F420
;structure:shell-outer
G1 X70.00 Y0.00 F6000
G1 Z0.300 F420
G1 E82.5537 F1800
G1 X42.00 Y0.00 E84.2999 F600
G1 E80.2126 F2400
G1 Z0.500 F420
;structure:shell-outer
G1 X0.50 Y21.48 F6000
G1 Z0.300 F420
G1 E84.3145 F1800
G1 X0.50 Y24.88 E84.5266 F600
G1 X1.73 Y24.88 E84.6033
G1 X2.12 Y24.78 E84.6284
G1 X2.43 Y24.58 E84.6514
G1 X2.53 Y24.45 E84.6616
G1 X2.66 Y24.04 E84.6884
G1 X2.61 Y23.80 E84.7037
G1 X2.50 Y23.56 E84.7202
G1 X2.28 Y23.36 E84.7387
G1 X1.51 Y23.18 E84.7880
G1 E80.7180 F2400
G1 Z0.500 F420
G1 X0.50 Y23.18 F6000
G1 Z0.300 F420
G1 E84.7882 F1800
G1 X1.51 Y23.18 E84.8512 F600
G1 X2.02 Y23.00 E84.8849
G1 X2.41 Y22.38 E84.9306
G1 X2.66 Y21.48 E84.9888
G1 E80.9500 F2400
G1 Z0.500 F420
G1 X3.72 Y22.69 F6000
G1 Z0.300 F420
G1 E85.0573 F1800
G1 X5.86 Y22.69 E85.1907 F600
G1 X5.78 Y23.22 E85.2241
G1 X5.57 Y23.61 E85.2518
G1 X5.23 Y23.86 E85.2781
G1 X4.79 Y23.95 E85.3061
G1 X4.36 Y23.86 E85.3335
G1 X4.02 Y23.61 E85.3598
G1 X3.80 Y23.22 E85.3877
G1 X3.72 Y22.69 E85.4212
G1 X3.80 Y22.15 E85.4552
G1 X4.03 Y21.75 E85.4840
G1 X4.38 Y21.51 E85.5105
G1 X4.84 Y21.42 E85.5397
G1 X5.18 Y21.47 E85.5611
G1 X5.47 Y21.61 E85.5812
G1 X5.68 Y21.83 E85.6002
G1 X5.80 Y22.13 E85.6203
G1 E81.5452 F2400
G1 Z0.500 F420
G1 X6.92 Y23.26 F6000
G1 Z0.300 F420
G1 E85.5659 F1800
G1 X8.61 Y23.26 E85.6713 F600
G1 E81.6809 F2400
G1 Z0.500 F420
G1 X8.61 Y22.55 F6000
G1 Z0.300 F420
G1 E85.7013 F1800
G1 X6.92 Y22.55 E85.8067 F600
G1 E81.8163 F2400
G1 Z0.500 F420
G1 X9.67 Y24.44 F6000
G1 Z0.300 F420
G1 E85.9188 F1800
G1 X9.86 Y24.65 E85.9364 F600
G1 X10.09 Y24.81 E85.9539
G1 X10.35 Y24.90 E85.9711
G1 X10.63 Y24.94 E85.9887
G1 X11.00 Y24.88 E86.0121
G1 X11.30 Y24.68 E86.0346
G1 X11.49 Y24.39 E86.0562
G1 X11.56 Y24.02 E86.0797
G1 X11.46 Y23.63 E86.1048
G1 X11.18 Y23.27 E86.1332
G1 X10.40 Y22.64 E86.1958
G1 X10.10 Y22.23 E86.2275
G1 X9.71 Y21.48 E86.2802
G1 X11.53 Y21.48 E86.3937
G1 E82.3232 F2400
G1 Z0.500 F420
G1 X12.62 Y21.71 F6000
G1 Z0.300 F420
G1 E85.7095 F1800
G1 X12.62 Y21.65 E85.7132 F600
G1 E82.3491 F2400
G1 Z0.500 F420
G1 X13.69 Y24.88 F6000
G1 Z0.300 F420
G1 E86.4385 F1800
G1 X15.83 Y24.88 E86.5719 F600
G1 X14.30 Y21.48 E86.8044
G1 E82.7439 F2400
G1 Z0.500 F420
G1 X16.89 Y22.90 F6000
G1 Z0.300 F420
G1 E86.7740 F1800
G1 X18.76 Y22.90 E86.8906 F600
G1 E82.8910 F2400
G1 Z0.500 F420
G1 X19.87 Y24.13 F6000
G1 Z0.300 F420
G1 E86.9932 F1800
G1 X19.98 Y24.47 E87.0155 F600
G1 X20.19 Y24.73 E87.0363
G1 X20.48 Y24.89 E87.0570
G1 X20.82 Y24.94 E87.0784
G1 X21.21 Y24.87 E87.1031
G1 X21.50 Y24.68 E87.1247
G1 X21.68 Y24.41 E87.1450
G1 X21.75 Y24.06 E87.1672
G1 X21.68 Y23.85 E87.1810
G1 X21.54 Y23.68 E87.1948
G1 X21.17 Y23.45 E87.2219
G1 X20.73 Y23.30 E87.2509
G1 X21.17 Y23.18 E87.2794
G1 X21.53 Y23.02 E87.3040
G1 X21.82 Y22.74 E87.3291
G1 X21.92 Y22.45 E87.3482
G1 X21.85 Y22.03 E87.3748
G1 X21.62 Y21.70 E87.3999
G1 X21.28 Y21.50 E87.4245
G1 X20.86 Y21.42 E87.4511
G1 X20.46 Y21.48 E87.4764
G1 X20.14 Y21.65 E87.4990
G1 X19.92 Y21.92 E87.5207
G1 X19.82 Y22.28 E87.5440
G1 E83.4740 F2400
G1 Z0.500 F420
G1 X22.99 Y21.71 F6000
G1 Z0.300 F420
G1 E86.8603 F1800
G1 X22.99 Y21.65 E86.8640 F600
G1 E83.4999 F2400
G1 Z0.500 F420
G1 X24.05 Y24.88 F6000
G1 Z0.300 F420
G1 E87.5892 F1800
G1 X26.19 Y24.88 E87.7227 F600
G1 X24.66 Y21.48 E87.9552
G1 E83.8947 F2400
G1 Z0.500 F420
G1 X0.50 Y19.88 F6000
G1 Z0.300 F420
G1 E87.9826 F1800
G1 X1.47 Y19.88 E88.0431 F600
G1 X1.86 Y19.78 E88.0682
G1 X2.17 Y19.58 E88.0912
G1 X2.27 Y19.45 E88.1015
G1 X2.40 Y19.04 E88.1283
G1 X2.35 Y18.80 E88.1436
G1 X2.28 Y18.56 E88.1592
G1 X2.02 Y18.36 E88.1796
G1 X1.51 Y18.18 E88.2134
G1 X0.50 Y18.18 E88.2763
G1 E84.2201 F2400
G1 Z0.500 F420
G1 X1.51 Y18.18 F6000
G1 Z0.300 F420
G1 E88.3221 F1800
G1 X2.28 Y18.01 E88.3712 F600
G1 X2.50 Y17.81 E88.3898
G1 X2.61 Y17.56 E88.4068
G1 X2.66 Y17.32 E88.4221
G1 X2.53 Y16.91 E88.4489
G1 X2.43 Y16.78 E88.4592
G1 X2.12 Y16.59 E88.4818
G1 X1.73 Y16.48 E88.5071
G1 X0.50 Y16.48 E88.5838
G1 X0.50 Y19.88 E88.7959
G1 E84.7257 F2400
G1 Z0.500 F420
G1 X3.72 Y17.69 F6000
G1 Z0.300 F420
G1 E88.8331 F1800
G1 X5.86 Y17.69 E88.9666 F600
G1 X5.78 Y18.22 E89.0000
G1 X5.57 Y18.61 E89.0277
G1 X5.23 Y18.86 E89.0540
G1 X4.79 Y18.95 E89.0820
G1 X4.36 Y18.86 E89.1094
G1 X4.02 Y18.61 E89.1357
G1 X3.80 Y18.22 E89.1636
G1 X3.72 Y17.69 E89.1971
G1 X3.80 Y17.15 E89.2311
G1 X4.03 Y16.75 E89.2599
G1 X4.38 Y16.51 E89.2864
G1 X4.84 Y16.42 E89.3156
G1 X5.18 Y16.47 E89.3370
G1 X5.47 Y16.61 E89.3571
G1 X5.68 Y16.83 E89.3761
G1 X5.80 Y17.13 E89.3962
G1 E85.3210 F2400
G1 Z0.500 F420
G1 X6.92 Y18.26 F6000
G1 Z0.300 F420
G1 E89.3419 F1800
G1 X8.61 Y18.26 E89.4473 F600
G1 E85.4568 F2400
G1 Z0.500 F420
G1 X8.61 Y17.55 F6000
G1 Z0.300 F420
G1 E89.4773 F1800
G1 X6.92 Y17.55 E89.5827 F600
G1 E85.5922 F2400
G1 Z0.500 F420
G1 X9.67 Y19.00 F6000
G1 Z0.300 F420
G1 E89.6705 F1800
G1 X10.14 Y19.24 E89.7034 F600
G1 X10.51 Y19.55 E89.7335
G1 X10.76 Y19.88 E89.7594
G1 X10.76 Y16.48 E89.9714
G1 E85.9242 F2400
G1 Z0.500 F420
G1 X11.82 Y16.71 F6000
G1 Z0.300 F420
G1 E89.3104 F1800
G1 X11.82 Y16.65 E89.3141 F600
G1 E85.9500 F2400
G1 Z0.500 F420
G1 X12.88 Y19.00 F6000
G1 Z0.300 F420
G1 E90.0261 F1800
G1 X13.35 Y19.24 E90.0590 F600
G1 X13.72 Y19.55 E90.0891
G1 X13.97 Y19.88 E90.1149
G1 X13.97 Y16.48 E90.3269
G1 E86.2797 F2400
G1 Z0.500 F420
G1 X0.50 Y13.89 F6000
G1 Z0.300 F420
G1 E90.3717 F1800
G1 X1.36 Y11.48 E90.5312 F600
G1 X2.10 Y13.89 E90.6885
G1 X2.87 Y11.48 E90.8463
G1 X3.71 Y13.89 E91.0054
G1 E86.9448 F2400
G1 Z0.500 F420
G1 X4.77 Y13.26 F6000
G1 Z0.300 F420
G1 E90.9658 F1800
G1 X6.46 Y13.26 E91.0712 F600
G1 E87.0805 F2400
G1 Z0.500 F420
G1 X6.46 Y12.55 F6000
G1 Z0.300 F420
G1 E91.1012 F1800
G1 X4.77 Y12.55 E91.2066 F600
G1 E87.2160 F2400
G1 Z0.500 F420
G1 X8.74 Y14.94 F6000
G1 Z0.300 F420
G1 E91.3245 F1800
G1 X9.25 Y14.80 E91.3575 F600
G1 X9.64 Y14.42 E91.3915
G1 X9.88 Y13.86 E91.4295
G1 X9.96 Y13.18 E91.4722
G1 X9.88 Y12.51 E91.5142
G1 X9.64 Y11.95 E91.5522
G1 X9.25 Y11.56 E91.5866
G1 X8.74 Y11.42 E91.6196
G1 X8.22 Y11.56 E91.6532
G1 X7.84 Y11.95 E91.6872
G1 X7.60 Y12.51 E91.7252
G1 X7.52 Y13.18 E91.7673
G1 X7.60 Y13.85 E91.8093
G1 X7.84 Y14.42 E91.8479
G1 X8.22 Y14.80 E91.8814
G1 X8.74 Y14.94 E91.9150
G1 E87.8386 F2400
G1 Z0.500 F420
G1 X11.02 Y11.71 F6000
G1 Z0.300 F420
G1 E91.2248 F1800
G1 X11.02 Y11.65 E91.2286 F600
G1 E87.8645 F2400
G1 Z0.500 F420
G1 X13.80 Y11.48 F6000
G1 Z0.300 F420
G1 E91.9567 F1800
G1 X13.80 Y14.88 E92.1687 F600
G1 X12.09 Y12.65 E92.3440
G1 X14.40 Y12.65 E92.4880
G1 E88.4247 F2400
G1 Z0.500 F420
;structure:shell-inner
G1 X68.00 Y0.00 F6000
G1 Z0.300 F420
G1 E90.9247 F1800
G1 X67.71 Y5.92 E91.2946 F60
G1 X66.91 Y11.80
G1 X65.60 Y17.58
G1 X63.79 Y23.22
G1 E93.9946 F1800
G1 X61.50 Y28.68 E94.2900 F1203
G1 X58.75 Y33.92 E94.5853
G1 X55.54 Y38.89 E94.8805
G1 X51.92 Y43.57 E95.1756
G1 X47.91 Y47.91 E95.4705
G1 X43.53 Y51.88 E95.7653
G1 X38.83 Y55.45 E96.0600
G1 X33.83 Y58.60 E96.3546
G1 X28.59 Y61.30 E96.6490
G1 X23.12 Y63.53 E96.9434
G1 X17.49 Y65.28 E97.2376
G1 X11.73 Y66.53 E97.5317
G1 X5.89 Y67.27 E97.8256
G1 X2.53 Y67.46 E97.9934
G1 E94.1934 F2400
G1 X-3.36 Y67.40 F300
G1 X-9.22 Y66.82
G1 X-15.00 Y65.74
G1 X-17.27 Y65.17
G1 E96.1605 F1800
G1 X-22.87 Y63.39 E96.5272 F60
G1 X-28.30 Y61.13 E96.8938
G1 X-33.50 Y58.41 E97.2602
G1 E94.4356 F2400
G1 Z0.500 F420
G1 X66.00 Y0.00 F6000
G1 Z0.300 F420
G1 E96.9356 F1800
G1 X65.72 Y5.75 E97.2946 F60
G1 X64.94 Y11.45
G1 X63.67 Y17.06
G1 X61.92 Y22.54
G1 E100.1946 F1800
G1 X59.69 Y27.83 E100.4813 F1203
G1 X57.01 Y32.92 E100.7679
G1 X53.90 Y37.74 E101.0544
G1 X50.39 Y42.28 E101.3407
G1 X46.49 Y46.49 E101.6270
G1 X42.25 Y50.35 E101.9131
G1 X37.68 Y53.81 E102.1991
G1 X32.83 Y56.87 E102.4849
G1 X27.74 Y59.49 E102.7707
G1 X22.44 Y61.65 E103.0563
G1 X16.97 Y63.35 E103.3418
G1 X11.38 Y64.56 E103.6272
G1 X5.71 Y65.28 E103.9125
G1 X0.08 Y65.50 E104.1934
G1 E100.1934 F2400
G1 X-5.62 Y65.23 F300
G1 X-11.28 Y64.47
G1 X-16.85 Y63.21
G1 X-19.59 Y62.40
G1 E102.3111 F1800
G1 X-24.95 Y60.43 E102.6668 F60
G1 X-30.11 Y58.00 E103.0224
G1 X-35.03 Y55.13 E103.3779
G1 E100.5604 F2400
G1 Z0.500 F420
G1 X64.00 Y0.00 F6000
G1 Z0.300 F420
G1 E103.0604 F1800
G1 X63.73 Y5.58 E103.4086 F60
G1 X62.97 Y11.10
G1 X61.74 Y16.54
G1 X60.04 Y21.85
G1 E106.5086 F1800
G1 X57.88 Y26.99 E106.7866 F1203
G1 X55.28 Y31.92 E107.0645
G1 X52.27 Y36.60 E107.3422
G1 X48.86 Y41.00 E107.6199
G1 X45.08 Y45.08 E107.8974
G1 X40.96 Y48.81 E108.1748
G1 X36.53 Y52.18 E108.4521
G1 X31.83 Y55.14 E108.7293
G1 X26.89 Y57.68 E109.0063
G1 X21.76 Y59.77 E109.2832
G1 X16.46 Y61.42 E109.5600
G1 X11.04 Y62.59 E109.8367
G1 X5.54 Y63.29 E110.1133
G1 X0.00 Y63.50 E110.3897
G1 X-2.36 Y63.44 E110.5074
G1 E106.3074 F2400
G1 X-7.87 Y62.97 F300
G1 X-13.33 Y62.02
G1 X-18.67 Y60.59
G1 X-21.88 Y59.49
G1 E108.5914 F1800
G1 X-26.97 Y57.33 E108.9362 F60
G1 X-31.85 Y54.74 E109.2809
G1 X-36.48 Y51.73 E109.6253
G1 E106.8152 F2400
G1 Z0.500 F420
G1 X62.00 Y0.00 F6000
G1 Z0.300 F420
G1 E109.3152 F1800
G1 X61.74 Y5.40 E109.6525 F60
G1 X61.00 Y10.76
G1 X59.81 Y16.03
G1 X58.16 Y21.17
G1 E112.9525 F1800
G1 X56.07 Y26.14 E113.2218 F1203
G1 X53.55 Y30.92 E113.4910
G1 X50.63 Y35.45 E113.7600
G1 X47.32 Y39.71 E114.0290
G1 X43.66 Y43.66 E114.2978
G1 X39.67 Y47.28 E114.5665
G1 X35.39 Y50.54 E114.8351
G1 X30.83 Y53.40 E115.1035
G1 X26.05 Y55.86 E115.3719
G1 X21.07 Y57.90 E115.6401
G1 X15.94 Y59.48 E115.9082
G1 X10.69 Y60.62 E116.1762
G1 X5.36 Y61.29 E116.4440
G1 X0.00 Y61.50 E116.7118
G1 X-4.80 Y61.29 E116.9513
G1 E112.5513 F2400
G1 X-10.11 Y60.61 F300
G1 X-15.35 Y59.47
G1 X-20.47 Y57.88
G1 X-24.11 Y56.44
G1 E114.9859 F1800
G1 X-28.92 Y54.10 E115.3197 F60
G1 X-33.51 Y51.35 E115.6534
G1 X-37.84 Y48.21 E115.9869
G1 E113.1842 F2400
G1 Z0.500 F420
G1 X60.00 Y0.00 F6000
G1 Z0.300 F420
G1 E115.6842 F1800
G1 X59.74 Y5.23 E116.0106 F60
G1 X59.03 Y10.41
G1 X57.88 Y15.51
G1 X56.28 Y20.48
G1 E119.5106 F1800
G1 X54.25 Y25.30 E119.7712 F1203
G1 X51.82 Y29.92 E120.0317
G1 X48.99 Y34.30 E120.2920
G1 X45.79 Y38.42 E120.5523
G1 X42.25 Y42.25 E120.8124
G1 X38.39 Y45.75 E121.0724
G1 X34.24 Y48.90 E121.3323
G1 X29.83 Y51.67 E121.5920
G1 X25.20 Y54.05 E121.8517
G1 X20.39 Y56.02 E122.1112
G1 X15.42 Y57.55 E122.3706
G1 X10.34 Y58.65 E122.6298
G1 X5.19 Y59.30 E122.8890
G1 X-0.00 Y59.50 E123.1480
G1 X-5.18 Y59.25 E123.4069
G1 X-7.23 Y59.02 E123.5094
G1 E118.9094 F2400
G1 X-12.34 Y58.14 F300
G1 X-17.35 Y56.82
G1 X-22.22 Y55.06
G1 X-26.27 Y53.22
G1 E121.5113 F1800
G1 X-30.79 Y50.71 E121.8342 F60
G1 X-35.08 Y47.81 E122.1568
G1 X-39.09 Y44.55 E122.4794
G1 E119.6843 F2400
G1 Z0.500 F420
G1 X58.00 Y0.00 F6000
G1 Z0.300 F420
G1 E122.1843 F1800
G1 X57.75 Y5.05 E122.4998 F60
G1 X57.06 Y10.06
G1 X55.94 Y14.99
G1 X54.40 Y19.80
G1 E126.1998 F1800
G1 X52.44 Y24.45 E126.4517 F1203
G1 X50.09 Y28.92 E126.7035
G1 X47.35 Y33.16 E126.9552
G1 X44.26 Y37.14 E127.2067
G1 X40.84 Y40.84 E127.4581
G1 X37.10 Y44.22 E127.7094
G1 X33.09 Y47.26 E127.9606
G1 X28.83 Y49.94 E128.2116
G1 X24.36 Y52.24 E128.4625
G1 X19.70 Y54.14 E128.7133
G1 X14.90 Y55.62 E128.9640
G1 X9.99 Y56.68 E129.2146
G1 X5.01 Y57.31 E129.4651
G1 X0.00 Y57.50 E129.7154
G1 X-5.01 Y57.25 E129.9656
G1 X-9.64 Y56.63 E130.1986
G1 E125.3986 F2400
G1 X-14.53 Y55.55 F300
G1 X-19.31 Y54.05
G1 X-23.93 Y52.13
G1 X-28.34 Y49.84
G1 E128.1515 F1800
G1 X-32.56 Y47.16 E128.4634 F60
G1 X-36.53 Y44.12 E128.7751
G1 X-40.22 Y40.75 E129.0867
G1 E126.2994 F2400
G1 Z0.500 F420
;structure:shell-outer
G1 X-29.50 Y21.48 F6000
G1 Z0.300 F420
G1 E130.3016 F1800
G1 X-29.50 Y24.88 E130.5137 F600
G1 X-28.27 Y24.88 E130.5904
G1 X-27.88 Y24.78 E130.6155
G1 X-27.57 Y24.58 E130.6385
G1 X-27.47 Y24.45 E130.6487
G1 X-27.34 Y24.04 E130.6755
G1 X-27.39 Y23.80 E130.6908
G1 X-27.50 Y23.56 E130.7073
G1 X-27.72 Y23.36 E130.7258
G1 X-28.49 Y23.18 E130.7751
G1 E126.7051 F2400
G1 Z0.500 F420
G1 X-29.50 Y23.18 F6000
G1 Z0.300 F420
G1 E130.7753 F1800
G1 X-28.49 Y23.18 E130.8383 F600
G1 X-27.98 Y23.00 E130.8720
G1 X-27.59 Y22.38 E130.9177
G1 X-27.34 Y21.48 E130.9759
G1 E126.9371 F2400
G1 Z0.500 F420
G1 X-26.28 Y22.69 F6000
G1 Z0.300 F420
G1 E131.0444 F1800
G1 X-24.14 Y22.69 E131.1778 F600
G1 X-24.22 Y23.22 E131.2112
G1 X-24.43 Y23.61 E131.2389
G1 X-24.77 Y23.86 E131.2652
G1 X-25.21 Y23.95 E131.2932
G1 X-25.64 Y23.86 E131.3206
G1 X-25.98 Y23.61 E131.3469
G1 X-26.20 Y23.22 E131.3748
G1 X-26.28 Y22.69 E131.4083
G1 X-26.20 Y22.15 E131.4423
G1 X-25.97 Y21.75 E131.4711
G1 X-25.62 Y21.51 E131.4976
G1 X-25.16 Y21.42 E131.5268
G1 X-24.82 Y21.47 E131.5482
G1 X-24.53 Y21.61 E131.5683
G1 X-24.32 Y21.83 E131.5873
G1 X-24.20 Y22.13 E131.6074
G1 E127.5323 F2400
G1 Z0.500 F420
G1 X-23.08 Y23.26 F6000
G1 Z0.300 F420
G1 E131.5530 F1800
G1 X-21.39 Y23.26 E131.6584 F600
G1 E127.6680 F2400
G1 Z0.500 F420
G1 X-21.39 Y22.55 F6000
G1 Z0.300 F420
G1 E131.6885 F1800
G1 X-23.08 Y22.55 E131.7939 F600
G1 E127.8035 F2400
G1 Z0.500 F420
G1 X-20.28 Y24.13 F6000
G1 Z0.300 F420
G1 E131.9054 F1800
G1 X-20.17 Y24.47 E131.9277 F600
G1 X-19.96 Y24.73 E131.9485
G1 X-19.67 Y24.89 E131.9692
G1 X-19.33 Y24.94 E131.9906
G1 X-18.94 Y24.87 E132.0153
G1 X-18.65 Y24.68 E132.0369
G1 X-18.47 Y24.41 E132.0572
G1 X-18.40 Y24.06 E132.0794
G1 X-18.47 Y23.85 E132.0932
G1 X-18.61 Y23.68 E132.1070
G1 X-18.98 Y23.45 E132.1341
G1 X-19.42 Y23.30 E132.1631
G1 X-18.98 Y23.18 E132.1916
G1 X-18.62 Y23.02 E132.2161
G1 X-18.33 Y22.74 E132.2413
G1 X-18.23 Y22.45 E132.2604
G1 X-18.30 Y22.03 E132.2870
G1 X-18.53 Y21.70 E132.3120
G1 X-18.87 Y21.50 E132.3366
G1 X-19.29 Y21.42 E132.3633
G1 X-19.69 Y21.48 E132.3885
G1 X-20.01 Y21.65 E132.4111
G1 X-20.23 Y21.92 E132.4328
G1 X-20.33 Y22.28 E132.4561
G1 E128.3864 F2400
G1 Z0.500 F420
G1 X-17.16 Y21.71 F6000
G1 Z0.300 F420
G1 E131.7721 F1800
G1 X-17.16 Y21.65 E131.7759 F600
G1 E128.4123 F2400
G1 Z0.500 F420
G1 X-14.11 Y24.88 F6000
G1 Z0.300 F420
G1 E132.5120 F1800
G1 X-15.86 Y24.88 E132.6211 F600
G1 X-16.00 Y23.14 E132.7300
G1 X-15.72 Y23.45 E132.7560
G1 X-15.55 Y23.57 E132.7690
G1 X-15.36 Y23.64 E132.7816
G1 X-15.17 Y23.67 E132.7936
G1 X-14.97 Y23.68 E132.8061
G1 X-14.56 Y23.59 E132.8323
G1 X-14.24 Y23.37 E132.8565
G1 X-14.03 Y23.03 E132.8814
G1 X-13.95 Y22.61 E132.9081
G1 X-14.02 Y22.14 E132.9377
G1 X-14.23 Y21.77 E132.9642
G1 X-14.58 Y21.51 E132.9914
G1 X-15.08 Y21.42 E133.0231
G1 X-15.45 Y21.48 E133.0464
G1 X-15.76 Y21.64 E133.0682
G1 X-15.98 Y21.91 E133.0899
G1 X-16.10 Y22.27 E133.1136
G1 E129.0431 F2400
G1 Z0.500 F420
G1 X-12.89 Y22.90 F6000
G1 Z0.300 F420
G1 E133.0724 F1800
G1 X-11.02 Y22.90 E133.1890 F600
G1 E129.1902 F2400
G1 Z0.500 F420
G1 X-8.25 Y21.48 F6000
G1 Z0.300 F420
G1 E133.2840 F1800
G1 X-8.25 Y24.88 E133.4960 F600
G1 X-9.96 Y22.65 E133.6712
G1 X-7.65 Y22.65 E133.8152
G1 E129.7527 F2400
G1 Z0.500 F420
G1 X-6.58 Y21.71 F6000
G1 Z0.300 F420
G1 E133.1384 F1800
G1 X-6.58 Y21.65 E133.1421 F600
G1 E129.7785 F2400
G1 Z0.500 F420
G1 X-3.53 Y24.88 F6000
G1 Z0.300 F420
G1 E133.8783 F1800
G1 X-5.28 Y24.88 E133.9874 F600
G1 X-5.42 Y23.14 E134.0962
G1 X-5.14 Y23.45 E134.1223
G1 X-4.97 Y23.57 E134.1353
G1 X-4.78 Y23.64 E134.1479
G1 X-4.59 Y23.67 E134.1599
G1 X-4.39 Y23.68 E134.1724
G1 X-3.98 Y23.59 E134.1985
G1 X-3.66 Y23.37 E134.2228
G1 X-3.45 Y23.03 E134.2477
G1 X-3.37 Y22.61 E134.2743
G1 X-3.44 Y22.14 E134.3040
G1 X-3.65 Y21.77 E134.3305
G1 X-4.00 Y21.51 E134.3577
G1 X-4.50 Y21.42 E134.3893
G1 X-4.87 Y21.48 E134.4127
G1 X-5.18 Y21.64 E134.4345
G1 X-5.40 Y21.91 E134.4562
G1 X-5.52 Y22.27 E134.4798
G1 E130.4094 F2400
G1 Z0.500 F420
G1 X-29.50 Y19.88 F6000
G1 Z0.300 F420
G1 E134.4966 F1800
G1 X-28.53 Y19.88 E134.5571 F600
G1 X-28.14 Y19.78 E134.5822
G1 X-27.83 Y19.58 E134.6052
G1 X-27.73 Y19.45 E134.6154
G1 X-27.60 Y19.04 E134.6422
G1 X-27.65 Y18.80 E134.6575
G1 X-27.72 Y18.56 E134.6731
G1 X-27.98 Y18.36 E134.6936
G1 X-28.49 Y18.18 E134.7273
G1 X-29.50 Y18.18 E134.7903
G1 E130.7347 F2400
G1 Z0.500 F420
G1 X-28.49 Y18.18 F6000
G1 Z0.300 F420
G1 E134.8360 F1800
G1 X-27.72 Y18.01 E134.8851 F600
G1 X-27.50 Y17.81 E134.9037
G1 X-27.39 Y17.56 E134.9207
G1 X-27.34 Y17.32 E134.9360
G1 X-27.47 Y16.91 E134.9628
G1 X-27.57 Y16.78 E134.9730
G1 X-27.88 Y16.59 E134.9957
G1 X-28.27 Y16.48 E135.0210
G1 X-29.50 Y16.48 E135.0977
G1 X-29.50 Y19.88 E135.3096
G1 E131.2402 F2400
G1 Z0.500 F420
G1 X-26.28 Y17.69 F6000
G1 Z0.300 F420
G1 E135.3469 F1800
G1 X-24.14 Y17.69 E135.4803 F600
G1 X-24.22 Y18.22 E135.5137
G1 X-24.43 Y18.61 E135.5414
G1 X-24.77 Y18.86 E135.5677
G1 X-25.21 Y18.95 E135.5957
G1 X-25.64 Y18.86 E135.6231
G1 X-25.98 Y18.61 E135.6494
G1 X-26.20 Y18.22 E135.6773
G1 X-26.28 Y17.69 E135.7107
G1 X-26.20 Y17.15 E135.7448
G1 X-25.97 Y16.75 E135.7735
G1 X-25.62 Y16.51 E135.8000
G1 X-25.16 Y16.42 E135.8292
G1 X-24.82 Y16.47 E135.8506
G1 X-24.53 Y16.61 E135.8707
G1 X-24.32 Y16.83 E135.8897
G1 X-24.20 Y17.13 E135.9098
G1 E131.8353 F2400
G1 Z0.500 F420
G1 X-23.08 Y18.26 F6000
G1 Z0.300 F420
G1 E135.8556 F1800
G1 X-21.39 Y18.26 E135.9609 F600
G1 E131.9710 F2400
G1 Z0.500 F420
G1 X-21.39 Y17.55 F6000
G1 Z0.300 F420
G1 E135.9910 F1800
G1 X-23.08 Y17.55 E136.0963 F600
G1 E132.1064 F2400
G1 Z0.500 F420
G1 X-19.11 Y19.94 F6000
G1 Z0.300 F420
G1 E136.2142 F1800
G1 X-18.60 Y19.80 E136.2472 F600
G1 X-18.21 Y19.42 E136.2811
G1 X-17.97 Y18.86 E136.3191
G1 X-17.89 Y18.18 E136.3618
G1 X-17.97 Y17.51 E136.4039
G1 X-18.21 Y16.95 E136.4419
G1 X-18.60 Y16.56 E136.4762
G1 X-19.11 Y16.42 E136.5092
G1 X-19.63 Y16.56 E136.5428
G1 X-20.01 Y16.95 E136.5768
G1 X-20.25 Y17.51 E136.6147
G1 X-20.33 Y18.18 E136.6568
G1 X-20.25 Y18.85 E136.6989
G1 X-20.01 Y19.42 E136.7374
G1 X-19.63 Y19.80 E136.7710
G1 X-19.11 Y19.94 E136.8045
G1 E132.7288 F2400
G1 Z0.500 F420
G1 X-16.82 Y16.71 F6000
G1 Z0.300 F420
G1 E136.1146 F1800
G1 X-16.82 Y16.65 E136.1183 F600
G1 E132.7547 F2400
G1 Z0.500 F420
G1 X-14.05 Y16.48 F6000
G1 Z0.300 F420
G1 E136.8462 F1800
G1 X-14.05 Y19.88 E137.0582 F600
G1 X-15.76 Y17.65 E137.2334
G1 X-13.45 Y17.65 E137.3774
G1 E133.3148 F2400
G1 Z0.500 F420
G1 X-29.50 Y13.89 F6000
G1 Z0.300 F420
G1 E137.4060 F1800
G1 X-28.64 Y11.48 E137.5655 F600
G1 X-27.90 Y13.89 E137.7227
G1 X-27.13 Y11.48 E137.8805
G1 X-26.29 Y13.89 E138.0396
G1 E133.9798 F2400
G1 Z0.500 F420
G1 X-25.23 Y13.26 F6000
G1 Z0.300 F420
G1 E137.9999 F1800
G1 X-23.54 Y13.26 E138.1053 F600
G1 E134.1154 F2400
G1 Z0.500 F420
G1 X-23.54 Y12.55 F6000
G1 Z0.300 F420
G1 E138.1353 F1800
G1 X-25.23 Y12.55 E138.2407 F600
G1 E134.2508 F2400
G1 Z0.500 F420
G1 X-21.26 Y14.94 F6000
G1 Z0.300 F420
G1 E138.3586 F1800
G1 X-20.75 Y14.80 E138.3916 F600
G1 X-20.36 Y14.42 E138.4255
G1 X-20.12 Y13.86 E138.4635
G1 X-20.04 Y13.18 E138.5062
G1 X-20.12 Y12.51 E138.5483
G1 X-20.36 Y11.95 E138.5862
G1 X-20.75 Y11.56 E138.6206
G1 X-21.26 Y11.42 E138.6536
G1 X-21.78 Y11.56 E138.6872
G1 X-22.16 Y11.95 E138.7211
G1 X-22.40 Y12.51 E138.7591
G1 X-22.48 Y13.18 E138.8012
G1 X-22.40 Y13.85 E138.8433
G1 X-22.16 Y14.42 E138.8818
G1 X-21.78 Y14.80 E138.9153
G1 X-21.26 Y14.94 E138.9489
G1 E134.8732 F2400
G1 Z0.500 F420
G1 X-18.98 Y11.71 F6000
G1 Z0.300 F420
G1 E138.2590 F1800
G1 X-18.98 Y11.65 E138.2627 F600
G1 E134.8991 F2400
G1 Z0.500 F420
G1 X-15.88 Y14.17 F6000
G1 Z0.300 F420
G1 E139.0138 F1800
G1 X-16.18 Y14.74 E139.0539 F600
G1 X-16.77 Y14.94 E139.0928
G1 X-17.29 Y14.82 E139.1260
G1 X-17.63 Y14.47 E139.1565
G1 X-17.84 Y13.87 E139.1961
G1 X-17.91 Y13.05 E139.2474
G1 X-17.84 Y12.36 E139.2906
G1 X-17.62 Y11.84 E139.3258
G1 X-17.29 Y11.53 E139.3541
G1 X-16.81 Y11.42 E139.3848
G1 X-16.36 Y11.51 E139.4134
G1 X-16.04 Y11.76 E139.4387
G1 X-15.86 Y12.13 E139.4644
G1 X-15.79 Y12.56 E139.4915
G1 X-15.86 Y12.96 E139.5169
G1 X-16.05 Y13.31 E139.5417
G1 X-16.36 Y13.54 E139.5658
G1 X-16.76 Y13.62 E139.5912
G1 X-17.22 Y13.53 E139.6204
G1 X-17.64 Y13.28 E139.6509
G1 X-17.91 Y13.05 E139.6730
G1 E135.5898 F2400
G1 Z0.500 F420
;structure:shell-inner
G1 X56.00 Y0.00 F6000
G1 Z0.300 F420
G1 E138.0899 F1800
G1 X55.76 Y4.88 E138.3945 F60
G1 X55.09 Y9.71
G1 X54.01 Y14.47
G1 X52.52 Y19.12
G1 E141.8945 F1800
G1 X50.63 Y23.61 E142.2592 F802
G1 X48.35 Y27.92 E142.6239
G1 X45.71 Y32.01 E142.9883
G1 X42.73 Y35.85 E143.3525
G1 X39.42 Y39.42 E143.7166
G1 X35.82 Y42.69 E144.0805
G1 X31.95 Y45.62 E144.4442
G1 X27.83 Y48.21 E144.8077
G1 X23.51 Y50.43 E145.1710
G1 X19.02 Y52.26 E145.5342
G1 X14.44 Y53.68 E145.8933
G1 E141.9933 F2400
G1 X9.70 Y54.70 F300
G1 X4.89 Y55.31
G1 X0.05 Y55.50
G1 X-4.78 Y55.27
G1 X-5.40 Y55.21
G1 E143.2740 F1800
G1 X-10.18 Y54.50 E143.5757 F60
G1 X-14.89 Y53.38 E143.8772
G1 X-19.47 Y51.85 E144.1786
G1 E141.3987 F2400
G1 Z0.500 F420
G1 X54.00 Y0.00 F6000
G1 Z0.300 F420
G1 E143.8987 F1800
G1 X53.77 Y4.70 E144.1924 F60
G1 X53.12 Y9.37
G1 X52.08 Y13.95
G1 X50.64 Y18.43
G1 E147.8924 F1800
G1 X48.81 Y22.76 E148.2441 F802
G1 X46.62 Y26.92 E148.5957
G1 X44.07 Y30.86 E148.9470
G1 X41.20 Y34.57 E149.2982
G1 X38.01 Y38.01 E149.6492
G1 X34.53 Y41.15 E150.0001
G1 X30.80 Y43.98 E150.3507
G1 X26.83 Y46.48 E150.7012
G1 X22.67 Y48.61 E151.0514
G1 X18.34 Y50.38 E151.4015
G1 X13.87 Y51.76 E151.7515
G1 X12.05 Y52.20 E151.8912
G1 E147.7912 F2400
G1 X7.45 Y53.02 F300
G1 X2.80 Y53.44
G1 X-1.86 Y53.46
G1 X-6.51 Y53.06
G1 X-7.82 Y52.88
G1 E149.2193 F1800
G1 X-12.39 Y51.97 E149.5100 F60
G1 X-16.86 Y50.66 E149.8006
G1 X-21.21 Y48.98 E150.0910
G1 E147.3191 F2400
G1 Z0.500 F420
G1 X52.00 Y0.00 F6000
G1 Z0.300 F420
G1 E149.8191 F1800
G1 X51.77 Y4.53 E150.1019 F60
G1 X51.16 Y9.02
G1 X50.15 Y13.44
G1 X48.76 Y17.75
G1 E154.0019 F1800
G1 X47.00 Y21.92 E154.3406 F802
G1 X44.89 Y25.92 E154.6791
G1 X42.44 Y29.71 E155.0174
G1 X39.66 Y33.28 E155.3555
G1 X36.59 Y36.59 E155.6935
G1 X33.25 Y39.62 E156.0312
G1 X29.65 Y42.35 E156.3688
G1 X25.83 Y44.74 E156.7062
G1 X21.82 Y46.80 E157.0435
G1 X17.65 Y48.50 E157.3805
G1 X13.35 Y49.83 E157.7174
G1 X9.65 Y50.65 E158.0008
G1 E153.7008 F2400
G1 X5.20 Y51.27 F300
G1 X0.71 Y51.50
G1 X-3.78 Y51.34
G1 X-8.23 Y50.79
G1 X-10.22 Y50.41
G1 E155.2689 F1800
G1 X-14.57 Y49.30 E155.5486 F60
G1 X-18.80 Y47.82 E155.8282
G1 X-22.88 Y45.97 E156.1077
G1 E153.3439 F2400
G1 Z0.500 F420
G1 X50.00 Y0.00 F6000
G1 Z0.300 F420
G1 E155.8440 F1800
G1 X49.78 Y4.36 E156.1159 F60
G1 X49.19 Y8.67
G1 X48.22 Y12.92
G1 X46.88 Y17.06
G1 E160.2159 F1800
G1 X45.19 Y21.07 E160.5415 F802
G1 X43.16 Y24.92 E160.8670
G1 X40.80 Y28.57 E161.1922
G1 X38.13 Y32.00 E161.5173
G1 X35.18 Y35.18 E161.8422
G1 X31.96 Y38.09 E162.1669
G1 X28.50 Y40.71 E162.4914
G1 X24.83 Y43.01 E162.8158
G1 X20.98 Y44.99 E163.1399
G1 X16.97 Y46.62 E163.4639
G1 X12.83 Y47.89 E163.7877
G1 X8.61 Y48.80 E164.1114
G1 X7.24 Y49.01 E164.2148
G1 E159.7148 F2400
G1 X2.94 Y49.43 F300
G1 X-1.38 Y49.47
G1 X-5.68 Y49.14
G1 X-9.94 Y48.43
G1 X-12.59 Y47.79
G1 E161.4385 F1800
G1 X-16.69 Y46.48 E161.7073 F60
G1 X-20.67 Y44.83 E161.9760
G1 X-24.48 Y42.83 E162.2444
G1 E159.4891 F2400
G1 Z0.500 F420
G1 X48.00 Y0.00 F6000
G1 Z0.300 F420
G1 E161.9891 F1800
G1 X47.79 Y4.18 E162.2501 F60
G1 X47.22 Y8.33
G1 X46.28 Y12.40
G1 X45.00 Y16.38
G1 E166.5501 F1800
G1 X43.38 Y20.23 E166.8627 F802
G1 X41.42 Y23.92 E167.1751
G1 X39.16 Y27.42 E167.4873
G1 X36.60 Y30.71 E167.7993
G1 X33.76 Y33.76 E168.1111
G1 X30.68 Y36.56 E168.4228
G1 X27.36 Y39.07 E168.7343
G1 X23.83 Y41.28 E169.0456
G1 X20.13 Y43.18 E169.3567
G1 X16.28 Y44.74 E169.6676
G1 X12.32 Y45.96 E169.9783
G1 X8.26 Y46.83 E170.2889
G1 X4.81 Y47.29 E170.5490
G1 E165.8490 F2400
G1 X0.67 Y47.50 F300
G1 X-3.47 Y47.35
G1 X-7.58 Y46.84
G1 X-11.62 Y45.97
G1 X-14.91 Y44.99
G1 E167.7252 F1800
G1 X-18.76 Y43.50 E167.9830 F60
G1 X-22.47 Y41.67 E168.2406
G1 X-26.00 Y39.53 E168.4981
G1 E165.7513 F2400
G1 Z0.500 F420
G1 X46.00 Y0.00 F6000
G1 Z0.300 F420
G1 E168.2513 F1800
G1 X45.80 Y4.01 E168.5015 F60
G1 X45.25 Y7.98
G1 X44.35 Y11.88
G1 X43.12 Y15.69
G1 E173.0015 F1800
G1 X41.56 Y19.38 E173.3010 F802
G1 X39.69 Y22.92 E173.6003
G1 X37.52 Y26.27 E173.8994
G1 X35.07 Y29.43 E174.1984
G1 X32.35 Y32.35 E174.4972
G1 X29.39 Y35.03 E174.7958
G1 X26.21 Y37.43 E175.0942
G1 X22.83 Y39.55 E175.3924
G1 X19.29 Y41.36 E175.6905
G1 X15.60 Y42.86 E175.9883
G1 X11.80 Y44.03 E176.2860
G1 X7.91 Y44.86 E176.5835
G1 X3.97 Y45.35 E176.8809
G1 X2.37 Y45.45 E177.0003
G1 E172.1003 F2400
G1 X-1.59 Y45.46 F300
G1 X-5.55 Y45.12
G1 X-9.45 Y44.44
G1 X-13.28 Y43.42
G1 X-17.01 Y42.07
G1 X-17.16 Y42.01
G1 E174.1466 F1800
G1 X-20.75 Y40.33 E174.3934 F60
G1 X-24.17 Y38.34 E174.6400
G1 X-27.40 Y36.07 E174.8865
G1 E172.1484 F2400
G1 Z0.500 F420
;structure:shell-outer
G1 X-70.00 Y0.00 F6000
G1 Z0.300 F420
G1 E176.1782 F1800
G1 X-42.00 Y0.00 E177.9243 F600
G1 E173.8370 F2400
G1 Z0.500 F420
;structure:shell-outer
G1 X-29.50 Y-3.52 F6000
G1 Z0.300 F420
G1 E177.9389 F1800
G1 X-29.50 Y-0.12 E178.1510 F600
G1 X-28.27 Y-0.12 E178.2277
G1 X-27.88 Y-0.22 E178.2528
G1 X-27.57 Y-0.42 E178.2758
G1 X-27.47 Y-0.55 E178.2860
G1 X-27.34 Y-0.96 E178.3128
G1 X-27.39 Y-1.20 E178.3281
G1 X-27.50 Y-1.44 E178.3446
G1 X-27.72 Y-1.64 E178.3631
G1 X-28.49 Y-1.82 E178.4125
G1 E174.3424 F2400
G1 Z0.500 F420
G1 X-29.50 Y-1.82 F6000
G1 Z0.300 F420
G1 E178.4126 F1800
G1 X-28.49 Y-1.82 E178.4756 F600
G1 X-27.98 Y-2.00 E178.5093
G1 X-27.59 Y-2.62 E178.5550
G1 X-27.34 Y-3.52 E178.6133
G1 E174.5744 F2400
G1 Z0.500 F420
G1 X-26.28 Y-2.31 F6000
G1 Z0.300 F420
G1 E178.6817 F1800
G1 X-24.14 Y-2.31 E178.8151 F600
G1 X-24.22 Y-1.78 E178.8486
G1 X-24.43 Y-1.39 E178.8762
G1 X-24.77 Y-1.14 E178.9025
G1 X-25.21 Y-1.05 E178.9305
G1 X-25.64 Y-1.14 E178.9579
G1 X-25.98 Y-1.39 E178.9842
G1 X-26.20 Y-1.78 E179.0121
G1 X-26.28 Y-2.31 E179.0456
G1 X-26.20 Y-2.85 E179.0796
G1 X-25.97 Y-3.25 E179.1084
G1 X-25.62 Y-3.49 E179.1349
G1 X-25.16 Y-3.58 E179.1641
G1 X-24.82 Y-3.53 E179.1855
G1 X-24.53 Y-3.39 E179.2056
G1 X-24.32 Y-3.17 E179.2246
G1 X-24.20 Y-2.87 E179.2447
G1 E175.1696 F2400
G1 Z0.500 F420
G1 X-23.08 Y-1.74 F6000
G1 Z0.300 F420
G1 E179.1903 F1800
G1 X-21.39 Y-1.74 E179.2957 F600
G1 E175.3053 F2400
G1 Z0.500 F420
G1 X-21.39 Y-2.45 F6000
G1 Z0.300 F420
G1 E179.3258 F1800
G1 X-23.08 Y-2.45 E179.4312 F600
G1 E175.4408 F2400
G1 Z0.500 F420
G1 X-18.62 Y-3.52 F6000
G1 Z0.300 F420
G1 E179.5352 F1800
G1 X-18.62 Y-0.12 E179.7472 F600
G1 X-20.33 Y-2.35 E179.9225
G1 X-18.02 Y-2.35 E180.0665
G1 E176.0034 F2400
G1 Z0.500 F420
G1 X-16.95 Y-3.29 F6000
G1 Z0.300 F420
G1 E179.3896 F1800
G1 X-16.95 Y-3.35 E179.3933 F600
G1 E176.0292 F2400
G1 Z0.500 F420
G1 X-14.67 Y-0.06 F6000
G1 Z0.300 F420
G1 E180.1353 F1800
G1 X-14.16 Y-0.20 E180.1683 F600
G1 X-13.77 Y-0.58 E180.2022
G1 X-13.53 Y-1.14 E180.2402
G1 X-13.45 Y-1.82 E180.2829
G1 X-13.53 Y-2.49 E180.3250
G1 X-13.77 Y-3.05 E180.3630
G1 X-14.16 Y-3.44 E180.3974
G1 X-14.67 Y-3.58 E180.4304
G1 X-15.19 Y-3.44 E180.4640
G1 X-15.57 Y-3.05 E180.4979
G1 X-15.81 Y-2.49 E180.5359
G1 X-15.89 Y-1.82 E180.5780
G1 X-15.81 Y-1.15 E180.6201
G1 X-15.57 Y-0.58 E180.6587
G1 X-15.19 Y-0.20 E180.6922
G1 X-14.67 Y-0.06 E180.7258
G1 E176.6494 F2400
G1 Z0.500 F420
G1 X-12.39 Y-2.10 F6000
G1 Z0.300 F420
G1 E180.6795 F1800
G1 X-10.52 Y-2.10 E180.7961 F600
G1 E176.7965 F2400
G1 Z0.500 F420
G1 X-7.47 Y-0.12 F6000
G1 Z0.300 F420
G1 E180.8995 F1800
G1 X-9.22 Y-0.12 E181.0087 F600
G1 X-9.36 Y-1.86 E181.1175
G1 X-9.08 Y-1.55 E181.1436
G1 X-8.91 Y-1.43 E181.1566
G1 X-8.72 Y-1.36 E181.1692
G1 X-8.53 Y-1.33 E181.1812
G1 X-8.33 Y-1.32 E181.1937
G1 X-7.92 Y-1.41 E181.2199
G1 X-7.60 Y-1.63 E181.2441
G1 X-7.39 Y-1.97 E181.2690
G1 X-7.31 Y-2.39 E181.2957
G1 X-7.38 Y-2.86 E181.3253
G1 X-7.59 Y-3.23 E181.3518
G1 X-7.94 Y-3.49 E181.3790
G1 X-8.44 Y-3.58 E181.4107
G1 X-8.81 Y-3.52 E181.4341
G1 X-9.12 Y-3.36 E181.4558
G1 X-9.34 Y-3.09 E181.4776
G1 X-9.46 Y-2.73 E181.5012
G1 E177.4300 F2400
G1 Z0.500 F420
G1 X-6.25 Y-3.29 F6000
G1 Z0.300 F420
G1 E180.8163 F1800
G1 X-6.25 Y-3.35 E180.8200 F600
G1 E177.4559 F2400
G1 Z0.500 F420
G1 X-3.96 Y-0.06 F6000
G1 Z0.300 F420
G1 E181.5620 F1800
G1 X-3.45 Y-0.20 E181.5949 F600
G1 X-3.06 Y-0.58 E181.6289
G1 X-2.82 Y-1.14 E181.6669
G1 X-2.74 Y-1.82 E181.7096
G1 X-2.82 Y-2.49 E181.7517
G1 X-3.06 Y-3.05 E181.7897
G1 X-3.45 Y-3.44 E181.8241
G1 X-3.96 Y-3.58 E181.8571
G1 X-4.48 Y-3.44 E181.8907
G1 X-4.86 Y-3.05 E181.9246
G1 X-5.10 Y-2.49 E181.9626
G1 X-5.18 Y-1.82 E182.0047
G1 X-5.10 Y-1.15 E182.0468
G1 X-4.86 Y-0.58 E182.0854
G1 X-4.48 Y-0.20 E182.1189
G1 X-3.96 Y-0.06 E182.1525
G1 E178.0761 F2400
G1 Z0.500 F420
G1 X-29.50 Y-5.12 F6000
G1 Z0.300 F420
G1 E182.1641 F1800
G1 X-28.53 Y-5.12 E182.2245 F600
G1 X-28.14 Y-5.22 E182.2497
G1 X-27.83 Y-5.42 E182.2727
G1 X-27.73 Y-5.55 E182.2829
G1 X-27.60 Y-5.96 E182.3097
G1 X-27.65 Y-6.20 E182.3250
G1 X-27.72 Y-6.44 E182.3406
G1 X-27.98 Y-6.64 E182.3611
G1 X-28.49 Y-6.82 E182.3948
G1 X-29.50 Y-6.82 E182.4578
G1 E178.4015 F2400
G1 Z0.500 F420
G1 X-28.49 Y-6.82 F6000
G1 Z0.300 F420
G1 E182.5035 F1800
G1 X-27.72 Y-6.99 E182.5527 F600
G1 X-27.50 Y-7.19 E182.5712
G1 X-27.39 Y-7.44 E182.5882
G1 X-27.34 Y-7.68 E182.6035
G1 X-27.47 Y-8.09 E182.6303
G1 X-27.57 Y-8.22 E182.6406
G1 X-27.88 Y-8.41 E182.6632
G1 X-28.27 Y-8.52 E182.6885
G1 X-29.50 Y-8.52 E182.7652
G1 X-29.50 Y-5.12 E182.9773
G1 E178.9071 F2400
G1 Z0.500 F420
G1 X-26.28 Y-7.31 F6000
G1 Z0.300 F420
G1 E183.0146 F1800
G1 X-24.14 Y-7.31 E183.1480 F600
G1 X-24.22 Y-6.78 E183.1815
G1 X-24.43 Y-6.39 E183.2091
G1 X-24.77 Y-6.14 E183.2354
G1 X-25.21 Y-6.05 E183.2634
G1 X-25.64 Y-6.14 E183.2908
G1 X-25.98 Y-6.39 E183.3171
G1 X-26.20 Y-6.78 E183.3451
G1 X-26.28 Y-7.31 E183.3785
G1 X-26.20 Y-7.85 E183.4125
G1 X-25.97 Y-8.25 E183.4413
G1 X-25.62 Y-8.49 E183.4678
G1 X-25.16 Y-8.58 E183.4970
G1 X-24.82 Y-8.53 E183.5184
G1 X-24.53 Y-8.39 E183.5385
G1 X-24.32 Y-8.17 E183.5575
G1 X-24.20 Y-7.87 E183.5776
G1 E179.5024 F2400
G1 Z0.500 F420
G1 X-23.08 Y-6.74 F6000
G1 Z0.300 F420
G1 E183.5233 F1800
G1 X-21.39 Y-6.74 E183.6287 F600
G1 E179.6382 F2400
G1 Z0.500 F420
G1 X-21.39 Y-7.45 F6000
G1 Z0.300 F420
G1 E183.6587 F1800
G1 X-23.08 Y-7.45 E183.7641 F600
G1 E179.7736 F2400
G1 Z0.500 F420
G1 X-19.11 Y-5.06 F6000
G1 Z0.300 F420
G1 E183.8820 F1800
G1 X-18.60 Y-5.20 E183.9150 F600
G1 X-18.21 Y-5.58 E183.9489
G1 X-17.97 Y-6.14 E183.9869
G1 X-17.89 Y-6.82 E184.0296
G1 X-17.97 Y-7.49 E184.0717
G1 X-18.21 Y-8.05 E184.1097
G1 X-18.60 Y-8.44 E184.1441
G1 X-19.11 Y-8.58 E184.1771
G1 X-19.63 Y-8.44 E184.2107
G1 X-20.01 Y-8.05 E184.2446
G1 X-20.25 Y-7.49 E184.2826
G1 X-20.33 Y-6.82 E184.3247
G1 X-20.25 Y-6.15 E184.3668
G1 X-20.01 Y-5.58 E184.4054
G1 X-19.63 Y-5.20 E184.4389
G1 X-19.11 Y-5.06 E184.4725
G1 E180.3961 F2400
G1 Z0.500 F420
G1 X-16.82 Y-8.29 F6000
G1 Z0.300 F420
G1 E183.7824 F1800
G1 X-16.82 Y-8.35 E183.7862 F600
G1 E180.4221 F2400
G1 Z0.500 F420
G1 X-14.54 Y-5.06 F6000
G1 Z0.300 F420
G1 E184.5281 F1800
G1 X-14.03 Y-5.20 E184.5611 F600
G1 X-13.64 Y-5.58 E184.5950
G1 X-13.40 Y-6.14 E184.6330
G1 X-13.32 Y-6.82 E184.6757
G1 X-13.40 Y-7.49 E184.7178
G1 X-13.64 Y-8.05 E184.7558
G1 X-14.03 Y-8.44 E184.7902
G1 X-14.54 Y-8.58 E184.8232
G1 X-15.06 Y-8.44 E184.8568
G1 X-15.44 Y-8.05 E184.8908
G1 X-15.68 Y-7.49 E184.9288
G1 X-15.76 Y-6.82 E184.9708
G1 X-15.68 Y-6.15 E185.0129
G1 X-15.44 Y-5.58 E185.0515
G1 X-15.06 Y-5.20 E185.0850
G1 X-14.54 Y-5.06 E185.1186
G1 E181.0422 F2400
G1 Z0.500 F420
G1 X-29.50 Y-11.11 F6000
G1 Z0.300 F420
G1 E185.1342 F1800
G1 X-28.64 Y-13.52 E185.2938 F600
G1 X-27.90 Y-11.11 E185.4510
G1 X-27.13 Y-13.52 E185.6088
G1 X-26.29 Y-11.11 E185.7680
G1 E181.7074 F2400
G1 Z0.500 F420
G1 X-25.23 Y-11.74 F6000
G1 Z0.300 F420
G1 E185.7283 F1800
G1 X-23.54 Y-11.74 E185.8337 F600
G1 E181.8431 F2400
G1 Z0.500 F420
G1 X-23.54 Y-12.45 F6000
G1 Z0.300 F420
G1 E185.8638 F1800
G1 X-25.23 Y-12.45 E185.9692 F600
G1 E181.9786 F2400
G1 Z0.500 F420
G1 X-21.26 Y-10.06 F6000
G1 Z0.300 F420
G1 E186.0870 F1800
G1 X-20.75 Y-10.20 E186.1200 F600
G1 X-20.36 Y-10.58 E186.1540
G1 X-20.12 Y-11.14 E186.1920
G1 X-20.04 Y-11.82 E186.2347
G1 X-20.12 Y-12.49 E186.2768
G1 X-20.36 Y-13.05 E186.3148
G1 X-20.75 Y-13.44 E186.3492
G1 X-21.26 Y-13.58 E186.3821
G1 X-21.78 Y-13.44 E186.4157
G1 X-22.16 Y-13.05 E186.4497
G1 X-22.40 Y-12.49 E186.4877
G1 X-22.48 Y-11.82 E186.5298
G1 X-22.40 Y-11.15 E186.5719
G1 X-22.16 Y-10.58 E186.6104
G1 X-21.78 Y-10.20 E186.6439
G1 X-21.26 Y-10.06 E186.6775
G1 E182.6011 F2400
G1 Z0.500 F420
G1 X-18.98 Y-13.29 F6000
G1 Z0.300 F420
G1 E185.9874 F1800
G1 X-18.98 Y-13.35 E185.9912 F600
G1 E182.6270 F2400
G1 Z0.500 F420
G1 X-16.89 Y-10.08 F6000
G1 Z0.300 F420
G1 E186.7432 F1800
G1 X-16.54 Y-10.14 E186.7653 F600
G1 X-16.25 Y-10.29 E186.7857
G1 X-16.06 Y-10.54 E186.8053
G1 X-15.99 Y-10.89 E186.8275
G1 X-16.13 Y-11.34 E186.8569
G1 X-16.42 Y-11.60 E186.8812
G1 X-17.35 Y-11.88 E186.9418
G1 X-17.74 Y-12.16 E186.9717
G1 X-17.91 Y-12.65 E187.0041
G1 X-17.83 Y-13.05 E187.0295
G1 X-17.62 Y-13.34 E187.0518
G1 X-17.29 Y-13.52 E187.0753
G1 X-16.89 Y-13.58 E187.1005
G1 X-16.48 Y-13.52 E187.1264
G1 X-16.15 Y-13.34 E187.1498
G1 X-15.94 Y-13.05 E187.1721
G1 X-15.86 Y-12.65 E187.1976
G1 X-16.04 Y-12.16 E187.2301
G1 X-16.42 Y-11.88 E187.2596
G1 X-17.35 Y-11.60 E187.3201
G1 X-17.64 Y-11.34 E187.3444
G1 X-17.78 Y-10.89 E187.3738
G1 X-17.71 Y-10.54 E187.3961
G1 X-17.52 Y-10.29 E187.4157
G1 X-17.24 Y-10.14 E187.4355
G1 X-16.89 Y-10.08 E187.4576
G1 E183.3730 F2400
G1 Z0.500 F420
;structure:shell-inner
G1 X-68.00 Y0.00 F6000
G1 Z0.300 F420
G1 E185.8731 F1800
G1 X-67.71 Y-5.92 E186.2429 F60
G1 X-66.91 Y-11.80
G1 X-65.60 Y-17.58
G1 X-63.79 Y-23.22
G1 E190.2429 F1800
G1 X-61.50 Y-28.68 E190.8338 F601
G1 X-58.75 Y-33.92 E191.4244
G1 X-55.54 Y-38.89 E192.0147
G1 X-51.92 Y-43.57 E192.6048
G1 X-47.91 Y-47.91 E193.1947
G1 X-43.53 Y-51.88 E193.7843
G1 X-39.91 Y-54.69 E194.2418
G1 E190.2418 F2400
G1 X-34.98 Y-57.93 F300
G1 X-29.78 Y-60.74
G1 X-24.36 Y-63.08
G1 X-22.21 Y-63.85
G1 E191.1756 F1800
G1 X-16.56 Y-65.52 E191.5434 F60
G1 X-10.78 Y-66.69 E191.9109
G1 X-4.92 Y-67.34 E192.2784
G1 E189.4531 F2400
G1 Z0.500 F420
G1 X-66.00 Y0.00 F6000
G1 Z0.300 F420
G1 E191.9531 F1800
G1 X-65.72 Y-5.75 E192.3121 F60
G1 X-64.94 Y-11.45
G1 X-63.67 Y-17.06
G1 X-61.92 Y-22.54
G1 E196.5121 F1800
G1 X-59.69 Y-27.83 E197.0855 F601
G1 X-57.01 Y-32.92 E197.6587
G1 X-53.90 Y-37.74 E198.2317
G1 X-50.39 Y-42.28 E198.8044
G1 X-46.49 Y-46.49 E199.3768
G1 X-42.25 Y-50.35 E199.9491
G1 X-37.76 Y-53.76 E200.5109
G1 E196.3109 F2400
G1 X-32.92 Y-56.82 F300
G1 X-27.83 Y-59.45
G1 X-22.54 Y-61.62
G1 X-19.87 Y-62.52
G1 E197.3790 F1800
G1 X-14.34 Y-63.98 E197.7358 F60
G1 X-8.71 Y-64.96 E198.0924
G1 X-3.01 Y-65.45 E198.4490
G1 E195.6308 F2400
G1 Z0.500 F420
G1 X-64.00 Y0.00 F6000
G1 Z0.300 F420
G1 E198.1308 F1800
G1 X-63.73 Y-5.58 E198.4790 F60
G1 X-62.97 Y-11.10
G1 X-61.74 Y-16.54
G1 X-60.04 Y-21.85
G1 E202.8790 F1800
G1 X-57.88 Y-26.99 E203.4350 F601
G1 X-55.28 Y-31.92 E203.9908
G1 X-52.27 Y-36.60 E204.5463
G1 X-48.86 Y-41.00 E205.1016
G1 X-45.08 Y-45.08 E205.6566
G1 X-40.96 Y-48.81 E206.2115
G1 X-36.53 Y-52.18 E206.7660
G1 X-35.61 Y-52.81 E206.8778
G1 E202.4778 F2400
G1 X-30.86 Y-55.68 F300
G1 X-25.87 Y-58.14
G1 X-20.70 Y-60.14
G1 X-17.51 Y-61.13
G1 E203.7475 F1800
G1 X-12.11 Y-62.40 E204.0934 F60
G1 X-6.63 Y-63.19 E204.4392
G1 X-1.09 Y-63.50 E204.7847
G1 E201.9739 F2400
G1 Z0.500 F420
G1 X-62.00 Y0.00 F6000
G1 Z0.300 F420
G1 E204.4739 F1800
G1 X-61.74 Y-5.40 E204.8111 F60
G1 X-61.00 Y-10.76
G1 X-59.81 Y-16.03
G1 X-58.16 Y-21.17
G1 E209.4111 F1800
G1 X-56.07 Y-26.14 E209.9497 F601
G1 X-53.55 Y-30.92 E210.4881
G1 X-50.63 Y-35.45 E211.0262
G1 X-47.32 Y-39.71 E211.5641
G1 X-43.66 Y-43.66 E212.1018
G1 X-39.67 Y-47.28 E212.6392
G1 X-35.39 Y-50.54 E213.1763
G1 X-33.44 Y-51.83 E213.4100
G1 E208.8100 F2400
G1 X-28.78 Y-54.53 F300
G1 X-23.91 Y-56.80
G1 X-18.86 Y-58.64
G1 X-15.14 Y-59.69
G1 E210.2622 F1800
G1 X-9.87 Y-60.75 E210.5972 F60
G1 X-4.54 Y-61.36 E210.9320
G1 X0.82 Y-61.49 E211.2666
G1 E208.4632 F2400
G1 Z0.500 F420
G1 X-60.00 Y0.00 F6000
G1 Z0.300 F420
G1 E210.9632 F1800
G1 X-59.74 Y-5.23 E211.2896 F60
G1 X-59.03 Y-10.41
G1 X-57.88 Y-15.51
G1 X-56.28 Y-20.48
G1 E216.0896 F1800
G1 X-54.25 Y-25.30 E216.6108 F601
G1 X-51.82 Y-29.92 E217.1317
G1 X-48.99 Y-34.30 E217.6525
G1 X-45.79 Y-38.42 E218.1729
G1 X-42.25 Y-42.25 E218.6932
G1 X-38.39 Y-45.75 E219.2132
G1 X-34.24 Y-48.90 E219.7329
G1 X-31.25 Y-50.84 E220.0884
G1 E215.2884 F2400
G1 X-26.69 Y-53.34 F300
G1 X-21.93 Y-55.44
G1 X-17.00 Y-57.11
G1 X-12.75 Y-58.19
G1 E216.9234 F1800
G1 X-7.63 Y-59.05 E217.2474 F60
G1 X-2.45 Y-59.46 E217.5713
G1 X2.74 Y-59.42 E217.8950
G1 E215.0991 F2400
G1 Z0.500 F420
G1 X-58.00 Y0.00 F6000
G1 Z0.300 F420
G1 E217.5991 F1800
G1 X-57.75 Y-5.05 E217.9146 F60
G1 X-57.06 Y-10.06
G1 X-55.94 Y-14.99
G1 X-54.40 Y-19.80
G1 E222.9146 F1800
G1 X-52.44 Y-24.45 E223.4184 F601
G1 X-50.09 Y-28.92 E223.9220
G1 X-47.35 Y-33.16 E224.4253
G1 X-44.26 Y-37.14 E224.9283
G1 X-40.84 Y-40.84 E225.4312
G1 X-37.10 Y-44.22 E225.9337
G1 X-33.09 Y-47.26 E226.4361
G1 X-29.05 Y-49.82 E226.9134
G1 E221.9134 F2400
G1 X-24.58 Y-52.13 F300
G1 X-19.94 Y-54.05
G1 X-15.14 Y-55.56
G1 X-10.35 Y-56.62
G1 E223.7314 F1800
G1 X-5.37 Y-57.28 E224.0445 F60
G1 X-0.36 Y-57.50 E224.3574
G1 X4.65 Y-57.29 E224.6701
G1 E221.8820 F2400
G1 Z0.500 F420
;structure:shell-outer
G1 X0.50 Y-3.52 F6000
G1 Z0.300 F420
G1 E225.9478 F1800
G1 X0.50 Y-0.12 E226.1599 F600
G1 X1.73 Y-0.12 E226.2366
G1 X2.12 Y-0.22 E226.2617
G1 X2.43 Y-0.42 E226.2847
G1 X2.53 Y-0.55 E226.2949
G1 X2.66 Y-0.96 E226.3218
G1 X2.61 Y-1.20 E226.3370
G1 X2.50 Y-1.44 E226.3535
G1 X2.28 Y-1.64 E226.3720
G1 X1.51 Y-1.82 E226.4214
G1 E222.3513 F2400
G1 Z0.500 F420
G1 X0.50 Y-1.82 F6000
G1 Z0.300 F420
G1 E226.4215 F1800
G1 X1.51 Y-1.82 E226.4845 F600
G1 X2.02 Y-2.00 E226.5182
G1 X2.41 Y-2.62 E226.5639
G1 X2.66 Y-3.52 E226.6222
G1 E222.5833 F2400
G1 Z0.500 F420
G1 X3.72 Y-2.31 F6000
G1 Z0.300 F420
G1 E226.6906 F1800
G1 X5.86 Y-2.31 E226.8240 F600
G1 X5.78 Y-1.78 E226.8575
G1 X5.57 Y-1.39 E226.8851
G1 X5.23 Y-1.14 E226.9114
G1 X4.79 Y-1.05 E226.9394
G1 X4.36 Y-1.14 E226.9668
G1 X4.02 Y-1.39 E226.9931
G1 X3.80 Y-1.78 E227.0211
G1 X3.72 Y-2.31 E227.0545
G1 X3.80 Y-2.85 E227.0885
G1 X4.03 Y-3.25 E227.1173
G1 X4.38 Y-3.49 E227.1438
G1 X4.84 Y-3.58 E227.1730
G1 X5.18 Y-3.53 E227.1944
G1 X5.47 Y-3.39 E227.2145
G1 X5.68 Y-3.17 E227.2335
G1 X5.80 Y-2.87 E227.2536
G1 E223.1785 F2400
G1 Z0.500 F420
G1 X6.92 Y-1.74 F6000
G1 Z0.300 F420
G1 E227.1992 F1800
G1 X8.61 Y-1.74 E227.3046 F600
G1 E223.3142 F2400
G1 Z0.500 F420
G1 X8.61 Y-2.45 F6000
G1 Z0.300 F420
G1 E227.3347 F1800
G1 X6.92 Y-2.45 E227.4401 F600
G1 E223.4497 F2400
G1 Z0.500 F420
G1 X11.38 Y-3.52 F6000
G1 Z0.300 F420
G1 E227.5441 F1800
G1 X11.38 Y-0.12 E227.7561 F600
G1 X9.67 Y-2.35 E227.9314
G1 X11.98 Y-2.35 E228.0754
G1 E224.0123 F2400
G1 Z0.500 F420
G1 X13.05 Y-3.29 F6000
G1 Z0.300 F420
G1 E227.3985 F1800
G1 X13.05 Y-3.35 E227.4022 F600
G1 E224.0381 F2400
G1 Z0.500 F420
G1 X16.10 Y-0.12 F6000
G1 Z0.300 F420
G1 E228.1387 F1800
G1 X14.35 Y-0.12 E228.2478 F600
G1 X14.21 Y-1.86 E228.3567
G1 X14.49 Y-1.55 E228.3828
G1 X14.66 Y-1.43 E228.3957
G1 X14.85 Y-1.36 E228.4084
G1 X15.04 Y-1.33 E228.4204
G1 X15.24 Y-1.32 E228.4329
G1 X15.65 Y-1.41 E228.4590
G1 X15.97 Y-1.63 E228.4833
G1 X16.18 Y-1.97 E228.5082
G1 X16.26 Y-2.39 E228.5348
G1 X16.19 Y-2.86 E228.5645
G1 X15.98 Y-3.23 E228.5910
G1 X15.63 Y-3.49 E228.6182
G1 X15.13 Y-3.58 E228.6499
G1 X14.76 Y-3.52 E228.6733
G1 X14.45 Y-3.36 E228.6950
G1 X14.23 Y-3.09 E228.7167
G1 X14.11 Y-2.73 E228.7404
G1 E224.6692 F2400
G1 Z0.500 F420
G1 X17.32 Y-2.10 F6000
G1 Z0.300 F420
G1 E228.6992 F1800
G1 X19.19 Y-2.10 E228.8158 F600
G1 E224.8163 F2400
G1 Z0.500 F420
G1 X22.24 Y-0.12 F6000
G1 Z0.300 F420
G1 E228.9192 F1800
G1 X20.49 Y-0.12 E229.0283 F600
G1 X20.35 Y-1.86 E229.1372
G1 X20.63 Y-1.55 E229.1632
G1 X20.80 Y-1.43 E229.1762
G1 X20.99 Y-1.36 E229.1888
G1 X21.18 Y-1.33 E229.2008
G1 X21.38 Y-1.32 E229.2133
G1 X21.79 Y-1.41 E229.2395
G1 X22.11 Y-1.63 E229.2637
G1 X22.32 Y-1.97 E229.2886
G1 X22.40 Y-2.39 E229.3153
G1 X22.33 Y-2.86 E229.3449
G1 X22.12 Y-3.23 E229.3715
G1 X21.77 Y-3.49 E229.3986
G1 X21.27 Y-3.58 E229.4303
G1 X20.90 Y-3.52 E229.4537
G1 X20.59 Y-3.36 E229.4755
G1 X20.37 Y-3.09 E229.4972
G1 X20.25 Y-2.73 E229.5208
G1 E225.4498 F2400
G1 Z0.500 F420
G1 X23.46 Y-3.29 F6000
G1 Z0.300 F420
G1 E228.8361 F1800
G1 X23.46 Y-3.35 E228.8398 F600
G1 E225.4757 F2400
G1 Z0.500 F420
G1 X26.51 Y-0.12 F6000
G1 Z0.300 F420
G1 E229.5763 F1800
G1 X24.76 Y-0.12 E229.6854 F600
G1 X24.62 Y-1.86 E229.7943
G1 X24.90 Y-1.55 E229.8203
G1 X25.07 Y-1.43 E229.8333
G1 X25.26 Y-1.36 E229.8459
G1 X25.45 Y-1.33 E229.8579
G1 X25.65 Y-1.32 E229.8704
G1 X26.06 Y-1.41 E229.8966
G1 X26.38 Y-1.63 E229.9208
G1 X26.59 Y-1.97 E229.9458
G1 X26.67 Y-2.39 E229.9724
G1 X26.60 Y-2.86 E230.0021
G1 X26.39 Y-3.23 E230.0286
G1 X26.04 Y-3.49 E230.0558
G1 X25.54 Y-3.58 E230.0875
G1 X25.17 Y-3.52 E230.1108
G1 X24.86 Y-3.36 E230.1326
G1 X24.64 Y-3.09 E230.1543
G1 X24.52 Y-2.73 E230.1780
G1 E226.1068 F2400
G1 Z0.500 F420
G1 X0.50 Y-5.12 F6000
G1 Z0.300 F420
G1 E230.1946 F1800
G1 X1.47 Y-5.12 E230.2551 F600
G1 X1.86 Y-5.22 E230.2802
G1 X2.17 Y-5.42 E230.3032
G1 X2.27 Y-5.55 E230.3134
G1 X2.40 Y-5.96 E230.3403
G1 X2.35 Y-6.20 E230.3556
G1 X2.28 Y-6.44 E230.3711
G1 X2.02 Y-6.64 E230.3916
G1 X1.51 Y-6.82 E230.4253
G1 X0.50 Y-6.82 E230.4883
G1 E226.4322 F2400
G1 Z0.500 F420
G1 X1.51 Y-6.82 F6000
G1 Z0.300 F420
G1 E230.5340 F1800
G1 X2.28 Y-6.99 E230.5831 F600
G1 X2.50 Y-7.19 E230.6017
G1 X2.61 Y-7.44 E230.6187
G1 X2.66 Y-7.68 E230.6340
G1 X2.53 Y-8.09 E230.6608
G1 X2.43 Y-8.22 E230.6711
G1 X2.12 Y-8.41 E230.6937
G1 X1.73 Y-8.52 E230.7190
G1 X0.50 Y-8.52 E230.7957
G1 X0.50 Y-5.12 E231.0077
G1 E226.9377 F2400
G1 Z0.500 F420
G1 X3.72 Y-7.31 F6000
G1 Z0.300 F420
G1 E231.0450 F1800
G1 X5.86 Y-7.31 E231.1784 F600
G1 X5.78 Y-6.78 E231.2118
G1 X5.57 Y-6.39 E231.2395
G1 X5.23 Y-6.14 E231.2658
G1 X4.79 Y-6.05 E231.2938
G1 X4.36 Y-6.14 E231.3212
G1 X4.02 Y-6.39 E231.3475
G1 X3.80 Y-6.78 E231.3754
G1 X3.72 Y-7.31 E231.4088
G1 X3.80 Y-7.85 E231.4429
G1 X4.03 Y-8.25 E231.4717
G1 X4.38 Y-8.49 E231.4981
G1 X4.84 Y-8.58 E231.5274
G1 X5.18 Y-8.53 E231.5488
G1 X5.47 Y-8.39 E231.5689
G1 X5.68 Y-8.17 E231.5878
G1 X5.80 Y-7.87 E231.6080
G1 E227.5330 F2400
G1 Z0.500 F420
G1 X6.92 Y-6.74 F6000
G1 Z0.300 F420
G1 E231.5538 F1800
G1 X8.61 Y-6.74 E231.6591 F600
G1 E227.6687 F2400
G1 Z0.500 F420
G1 X8.61 Y-7.45 F6000
G1 Z0.300 F420
G1 E231.6892 F1800
G1 X6.92 Y-7.45 E231.7946 F600
G1 E227.8042 F2400
G1 Z0.500 F420
G1 X9.67 Y-7.10 F6000
G1 Z0.300 F420
G1 E231.8338 F1800
G1 X11.54 Y-7.10 E231.9504 F600
G1 E227.9510 F2400
G1 Z0.500 F420
G1 X13.82 Y-5.06 F6000
G1 Z0.300 F420
G1 E232.0593 F1800
G1 X14.33 Y-5.20 E232.0923 F600
G1 X14.72 Y-5.58 E232.1262
G1 X14.96 Y-6.14 E232.1642
G1 X15.04 Y-6.82 E232.2069
G1 X14.96 Y-7.49 E232.2490
G1 X14.72 Y-8.05 E232.2870
G1 X14.33 Y-8.44 E232.3214
G1 X13.82 Y-8.58 E232.3544
G1 X13.30 Y-8.44 E232.3880
G1 X12.92 Y-8.05 E232.4219
G1 X12.68 Y-7.49 E232.4599
G1 X12.60 Y-6.82 E232.5020
G1 X12.68 Y-6.15 E232.5441
G1 X12.92 Y-5.58 E232.5827
G1 X13.30 Y-5.20 E232.6162
G1 X13.82 Y-5.06 E232.6497
G1 E228.5735 F2400
G1 Z0.500 F420
G1 X16.11 Y-8.29 F6000
G1 Z0.300 F420
G1 E231.9598 F1800
G1 X16.11 Y-8.35 E231.9635 F600
G1 E228.5994 F2400
G1 Z0.500 F420
G1 X17.17 Y-5.56 F6000
G1 Z0.300 F420
G1 E232.6995 F1800
G1 X17.36 Y-5.35 E232.7171 F600
G1 X17.59 Y-5.19 E232.7346
G1 X17.85 Y-5.10 E232.7518
G1 X18.13 Y-5.06 E232.7694
G1 X18.50 Y-5.12 E232.7928
G1 X18.80 Y-5.32 E232.8153
G1 X18.99 Y-5.61 E232.8369
G1 X19.06 Y-5.98 E232.8604
G1 X18.96 Y-6.37 E232.8855
G1 X18.68 Y-6.73 E232.9139
G1 X17.90 Y-7.36 E232.9765
G1 X17.60 Y-7.77 E233.0082
G1 X17.21 Y-8.52 E233.0609
G1 X19.03 Y-8.52 E233.1744
G1 E229.1039 F2400
G1 Z0.500 F420
G1 X0.50 Y-11.11 F6000
G1 Z0.300 F420
G1 E233.1960 F1800
G1 X1.36 Y-13.52 E233.3556 F600
G1 X2.10 Y-11.11 E233.5129
G1 X2.87 Y-13.52 E233.6707
G1 X3.71 Y-11.11 E233.8299
G1 E229.7692 F2400
G1 Z0.500 F420
G1 X4.77 Y-11.74 F6000
G1 Z0.300 F420
G1 E233.7902 F1800
G1 X6.46 Y-11.74 E233.8956 F600
G1 E229.9049 F2400
G1 Z0.500 F420
G1 X6.46 Y-12.45 F6000
G1 Z0.300 F420
G1 E233.9256 F1800
G1 X4.77 Y-12.45 E234.0310 F600
G1 E230.0403 F2400
G1 Z0.500 F420
G1 X7.52 Y-11.00 F6000
G1 Z0.300 F420
G1 E234.1188 F1800
G1 X7.99 Y-10.76 E234.1517 F600
G1 X8.36 Y-10.45 E234.1818
G1 X8.61 Y-10.12 E234.2076
G1 X8.61 Y-13.52 E234.4197
G1 E230.3724 F2400
G1 Z0.500 F420
G1 X9.67 Y-13.29 F6000
G1 Z0.300 F420
G1 E233.7586 F1800
G1 X9.67 Y-13.35 E233.7623 F600
G1 E230.3982 F2400
G1 Z0.500 F420
G1 X12.77 Y-10.83 F6000
G1 Z0.300 F420
G1 E234.5135 F1800
G1 X12.46 Y-10.26 E234.5540 F600
G1 X11.87 Y-10.06 E234.5929
G1 X11.36 Y-10.18 E234.6255
G1 X11.01 Y-10.53 E234.6564
G1 X10.80 Y-11.13 E234.6960
G1 X10.73 Y-11.95 E234.7474
G1 X10.80 Y-12.64 E234.7906
G1 X11.02 Y-13.16 E234.8258
G1 X11.36 Y-13.47 E234.8545
G1 X11.83 Y-13.58 E234.8846
G1 X12.28 Y-13.49 E234.9133
G1 X12.60 Y-13.24 E234.9386
G1 X12.78 Y-12.87 E234.9643
G1 X12.85 Y-12.44 E234.9914
G1 X12.78 Y-12.04 E235.0167
G1 X12.59 Y-11.69 E235.0416
G1 X12.28 Y-11.46 E235.0657
G1 X11.88 Y-11.38 E235.0911
G1 X11.42 Y-11.47 E235.1203
G1 X11.00 Y-11.72 E235.1508
G1 X10.73 Y-11.95 E235.1729
G1 E231.0891 F2400
G1 Z0.500 F420
;structure:shell-inner
G1 X-56.00 Y0.00 F6000
G1 Z0.300 F420
G1 E233.5891 F1800
G1 X-55.76 Y-4.88 E233.8937 F60
G1 X-55.09 Y-9.71
G1 X-54.01 Y-14.47
G1 X-52.52 Y-19.12
G1 E238.3937 F1800
G1 X-50.63 Y-23.61 E239.3665 F301
G1 X-48.35 Y-27.92 E240.3388
G1 X-45.71 Y-32.01 E241.3106
G1 X-42.73 Y-35.85 E242.2819
G1 X-42.37 Y-36.27 E242.3926
G1 E238.0926 F2400
G1 X-39.03 Y-39.81 F300
G1 X-35.39 Y-43.04
G1 X-31.49 Y-45.93
G1 X-27.35 Y-48.48
G1 X-26.87 Y-48.75
G1 E239.2061 F1800
G1 X-22.51 Y-50.88 E239.5089 F60
G1 X-17.98 Y-52.62 E239.8115
G1 X-13.32 Y-53.96 E240.1139
G1 E237.3332 F2400
G1 Z0.500 F420
G1 X-54.00 Y0.00 F6000
G1 Z0.300 F420
G1 E239.8332 F1800
G1 X-53.77 Y-4.70 E240.1269 F60
G1 X-53.12 Y-9.37
G1 X-52.08 Y-13.95
G1 X-50.64 Y-18.43
G1 E244.8269 F1800
G1 X-48.81 Y-22.76 E245.7649 F301
G1 X-46.62 Y-26.92 E246.7023
G1 X-44.07 Y-30.86 E247.6393
G1 X-41.20 Y-34.57 E248.5758
G1 X-40.37 Y-35.51 E248.8258
G1 E244.3258 F2400
G1 X-37.11 Y-38.88 F300
G1 X-33.56 Y-41.94
G1 X-29.76 Y-44.68
G1 X-25.74 Y-47.08
G1 X-24.63 Y-47.66
G1 E245.6227 F1800
G1 X-20.37 Y-49.60 E245.9145 F60
G1 X-15.97 Y-51.16 E246.2062
G1 X-11.44 Y-52.33 E246.4977
G1 E243.7249 F2400
G1 Z0.500 F420
G1 X-52.00 Y0.00 F6000
G1 Z0.300 F420
G1 E246.2250 F1800
G1 X-51.77 Y-4.53 E246.5078 F60
G1 X-51.16 Y-9.02
G1 X-50.15 Y-13.44
G1 X-48.76 Y-17.75
G1 E251.4078 F1800
G1 X-47.00 Y-21.92 E252.3109 F301
G1 X-44.89 Y-25.92 E253.2136
G1 X-42.44 Y-29.71 E254.1157
G1 X-39.66 Y-33.28 E255.0174
G1 X-38.37 Y-34.74 E255.4067
G1 E250.7067 F2400
G1 X-35.18 Y-37.94 F300
G1 X-31.72 Y-40.84
G1 X-28.03 Y-43.42
G1 X-24.12 Y-45.68
G1 X-22.38 Y-46.54
G1 E252.1871 F1800
G1 X-18.23 Y-48.29 E252.4680 F60
G1 X-13.94 Y-49.67 E252.7487
G1 X-9.55 Y-50.67 E253.0293
G1 E250.2647 F2400
G1 Z0.500 F420
G1 X-50.00 Y0.00 F6000
G1 Z0.300 F420
G1 E252.7647 F1800
G1 X-49.78 Y-4.36 E253.0367 F60
G1 X-49.19 Y-8.67
G1 X-48.22 Y-12.92
G1 X-46.88 Y-17.06
G1 E258.1367 F1800
G1 X-45.19 Y-21.07 E259.0050 F301
G1 X-43.16 Y-24.92 E259.8728
G1 X-40.80 Y-28.57 E260.7402
G1 X-38.13 Y-32.00 E261.6070
G1 X-36.36 Y-33.97 E262.1356
G1 E257.2356 F2400
G1 X-33.25 Y-36.99 F300
G1 X-29.88 Y-39.72
G1 X-26.29 Y-42.15
G1 X-22.50 Y-44.26
G1 X-20.10 Y-45.38
G1 E258.8996 F1800
G1 X-16.06 Y-46.93 E259.1696 F60
G1 X-11.90 Y-48.13 E259.4394
G1 X-7.66 Y-48.95 E259.7090
G1 E256.9528 F2400
G1 Z0.500 F420
G1 X-48.00 Y0.00 F6000
G1 Z0.300 F420
G1 E259.4528 F1800
G1 X-47.79 Y-4.18 E259.7138 F60
G1 X-47.22 Y-8.33
G1 X-46.28 Y-12.40
G1 X-45.00 Y-16.38
G1 E265.0138 F1800
G1 X-43.38 Y-20.23 E265.8473 F301
G1 X-41.42 Y-23.92 E266.6804
G1 X-39.16 Y-27.42 E267.5129
G1 X-36.60 Y-30.71 E268.3449
G1 X-34.34 Y-33.18 E269.0127
G1 E263.9127 F2400
G1 X-31.30 Y-36.03 F300
G1 X-28.03 Y-38.60
G1 X-24.54 Y-40.87
G1 X-20.87 Y-42.83
G1 X-17.81 Y-44.17
G1 E265.7605 F1800
G1 X-13.88 Y-45.53 E266.0195 F60
G1 X-9.85 Y-46.53 E266.2784
G1 X-5.76 Y-47.19 E266.5371
G1 E263.7893 F2400
G1 Z0.500 F420
G1 X-46.00 Y0.00 F6000
G1 Z0.300 F420
G1 E266.2893 F1800
G1 X-45.80 Y-4.01 E266.5395 F60
G1 X-45.25 Y-7.98
G1 X-44.35 Y-11.88
G1 X-43.12 Y-15.69
G1 E272.0395 F1800
G1 X-41.56 Y-19.38 E272.8382 F301
G1 X-39.69 Y-22.92 E273.6364
G1 X-37.52 Y-26.27 E274.4341
G1 X-35.07 Y-29.43 E275.2313
G1 X-32.35 Y-32.35 E276.0281
G1 X-32.31 Y-32.39 E276.0383
G1 E270.7383 F2400
G1 X-29.35 Y-35.06 F300
G1 X-26.17 Y-37.46
G1 X-22.79 Y-39.57
G1 X-19.24 Y-41.38
G1 X-15.55 Y-42.88
G1 X-15.49 Y-42.90
G1 E272.7818 F1800
G1 X-11.68 Y-44.06 E273.0298 F60
G1 X-7.79 Y-44.88 E273.2778
G1 X-3.85 Y-45.36 E273.5255
G1 E270.7864 F2400
G1 Z0.500 F420
;structure:shell-outer
G1 X0.00 Y-70.00 F6000
G1 Z0.300 F420
G1 E274.8833 F1800
G1 X0.00 Y-42.00 E276.6294 F600
G1 E272.5421 F2400
G1 Z0.500 F420
G1 E272.5462 F2400
;end gcode
M107
M104 S0 T0
M140 S0 T0
G162 Z F1800
G28 X Y
M132 X Y A B
M652
G91
M18
