;gcode_flavor: flashforge
;machine_type: Adventurer 3 Series
;filament_diameter0: 1.75
;right_extruder_temperature: 210
;platform_temperature: 50
;extruder_fan: 100%
;case_fan: 100%
;base_print_speed: 60
;travel_speed: 100
;vertical_speed: 7
;retract_speed: 40
;restore_speed: 30
;layer_height: 0.30
;line_width: 0.50
;extrusion_ratio: 1.00
;command_line: ./gcodetest.py -Te=210 -Tp=50 -Fe=1.0 -Fc=1.0 -Kf=1.0 -Kb=2.0 -Re=2.0 -R -v
;start gcode
M118 X75.00 Y75.00 Z150.00 T0
M140 S50 T0
M104 S210 T0
M104 S0 T1
M107
M900 K0.000 T0
G90
G28
M132 X Y Z A B
G1 Z50.000 F420
G161 X Y F3300
M7 T0
M6 T0
M652 S255
M108 T0
M106
;preExtrude:0.20
;00:00:00.000: layer=0 h=0.20 w=0.50 r=1.00
G1 X69.29 Y28.70 F6000                  ; move dl=75.0@100(0<100>0) de=0.000@0.0(0.0<0.0>0.0) l=0.00x0.50x0.00 r=0.00
;00:00:00.950: pe=0.0000 eb=0.0000 ve=0.0000 vn=0.0000 vl=0.000 db=0.00
G1 Z0.200 F420                          ; hopup dz=0.20@7 h=0.2 r=0.00
;00:00:00.979: pe=0.0000 eb=0.0000 ve=0.0000 vn=0.0000 vl=0.000 db=0.00
G1 E3.0876 F1800                        ; restore de=3.0876@30.0 r=1.95
;00:00:01.081: pe=3.0253 eb=0.0622 ve=30.0000 vn=1.4253 vl=0.000 db=0.98
;00:00:01.081: spiral RC0=(75.0,0.062) dRC=(0.0,0.125) dl=58.9@10 de=7.837@1.3 l=0.20x0.40x4.00
G1 X66.53 Y34.63 E3.9580 F600           ; draw dl=6.5@10(0<10>10) de=0.870@1.31(0.0<1.33>1.33) l=0.20x0.40x4.00 r=4.24
;00:00:01.746: pe=2.9724 eb=0.1731 ve=1.3304 vn=1.3724 vl=10.000 db=1.63
G1 X63.25 Y40.30 E4.8285                ; draw dl=6.5@10(10<10>10) de=0.870@1.33(1.33<1.33>1.33) l=0.20x0.40x4.00 r=4.09
;00:00:02.400: pe=2.9522 eb=0.1740 ve=1.3304 vn=1.3522 vl=10.000 db=1.63
G1 X59.50 Y45.66 E5.6990                ; draw dl=6.5@10(10<10>10) de=0.870@1.33(1.33<1.33>1.33) l=0.20x0.40x4.00 r=4.05
;00:00:03.054: pe=2.9418 eb=0.1710 ve=1.3304 vn=1.3418 vl=10.000 db=1.62
G1 X55.30 Y50.67 E6.5695                ; draw dl=6.5@10(10<10>10) de=0.870@1.33(1.33<1.33>1.33) l=0.20x0.40x4.00 r=4.03
;00:00:03.709: pe=2.9363 eb=0.1692 ve=1.3304 vn=1.3363 vl=10.000 db=1.61
G1 X50.67 Y55.30 E7.4399                ; draw dl=6.5@10(10<10>10) de=0.870@1.33(1.33<1.33>1.33) l=0.20x0.40x4.00 r=4.01
;00:00:04.363: pe=2.9335 eb=0.1682 ve=1.3304 vn=1.3335 vl=10.000 db=1.60
G1 X45.66 Y59.50 E8.3104                ; draw dl=6.5@10(10<10>10) de=0.870@1.33(1.33<1.33>1.33) l=0.20x0.40x4.00 r=4.01
;00:00:05.017: pe=2.9320 eb=0.1677 ve=1.3304 vn=1.3320 vl=10.000 db=1.60
G1 X40.30 Y63.25 E9.1809                ; draw dl=6.5@10(10<10>10) de=0.870@1.33(1.33<1.33>1.33) l=0.20x0.40x4.00 r=4.00
;00:00:05.672: pe=2.9312 eb=0.1675 ve=1.3304 vn=1.3312 vl=10.000 db=1.60
G1 X34.63 Y66.53 E10.0514               ; draw dl=6.5@10(10<10>10) de=0.870@1.33(1.33<1.33>1.33) l=0.20x0.40x4.00 r=4.00
;00:00:06.326: pe=2.9308 eb=0.1673 ve=1.3304 vn=1.3308 vl=10.000 db=1.60
G1 X28.70 Y69.29 E10.9218               ; draw dl=6.5@10(10<10>0) de=0.870@1.31(1.33<1.33>0.0) l=0.20x0.40x4.00 r=4.06
;00:00:06.990: pe=2.9175 eb=0.1803 ve=0.0042 vn=1.3175 vl=0.032 db=1.66
G1 X28.70 Y69.29                        ; move dl=0.0@10(0<0>0) de=0.000@0.0(0.0<0.0>0.0) l=0.20x0.40x0.00 r=2505.13
;00:00:06.990: pe=2.9174 eb=0.1804 ve=0.0000 vn=1.3174 vl=0.000 db=1.66
G1 E6.0044 F2400                        ; retract de=-4.9174@-40.0 r=4.39
;00:00:07.113: pe=-2.0206 eb=0.2010 ve=-40.0000 vn=0.0000 vl=0.000 db=1.75
G1 Z0.400 F420                          ; hopup dz=0.20@7 h=0.4 r=3.10
;00:00:07.142: pe=-2.0206 eb=0.2010 ve=0.0000 vn=0.0000 vl=0.000 db=1.24
;layer:0.30
;00:00:07.142: layer=1 h=0.30 w=0.50 r=1.00
;structure:shell-outer
;00:00:07.142: text [(-70, 70), (None, None)] fsize=5 angle=0 've=1.0\nh=0.3\ndynret=0'
G1 X-69.50 Y68.89 F6000                 ; move dl=98.2@100(0<100>0) de=0.000@0.0(0.0<0.0>0.0) l=0.40x0.50x0.00 r=0.00
;00:00:08.324: pe=-2.0206 eb=0.0000 ve=0.0000 vn=0.0000 vl=0.000 db=0.00
G1 Z0.300 F420                          ; hopdn dz=-0.10@7 h=0.3 r=0.00
;00:00:08.338: pe=-2.0206 eb=0.0000 ve=0.0000 vn=0.0000 vl=0.000 db=0.00
G1 E9.6460 F1800                        ; restore de=3.6416@30.0 r=0.90
;00:00:08.459: pe=1.6011 eb=0.0199 ve=30.0000 vn=0.6994 vl=0.000 db=0.45
G1 X-68.48 Y66.48 E9.8092 F600          ; draw dl=2.6@10(0<10>6) de=0.163@0.6(0.0<0.62>0.35) l=0.30x0.50x1.00 r=1.02
;00:00:08.733: pe=1.5978 eb=0.0248 ve=0.3524 vn=0.5911 vl=5.651 db=0.50
G1 X-67.46 Y68.89 E9.9724               ; draw dl=2.6@10(6<10>0) de=0.163@0.6(0.35<0.62>0.0) l=0.30x0.50x1.00 r=1.02
;00:00:09.006: pe=1.5951 eb=0.0291 ve=0.0000 vn=0.5048 vl=0.000 db=0.55
G1 E6.3773 F2400                        ; retract de=-3.5951@-40.0 r=1.14
;00:00:09.096: pe=-2.0026 eb=0.0317 ve=-40.0000 vn=0.0000 vl=0.000 db=0.57
G1 Z0.500 F420                          ; hopup dz=0.20@7 h=0.5 r=0.88
;00:00:09.125: pe=-2.0026 eb=0.0317 ve=0.0000 vn=0.0000 vl=0.000 db=0.44
G1 X-66.40 Y67.69 F6000                 ; move dl=1.6@100(0<20>0) de=0.000@0.0(0.0<0.0>0.0) l=0.50x0.50x0.00 r=0.00
;00:00:09.245: pe=-2.0026 eb=0.0000 ve=0.0000 vn=0.0000 vl=0.000 db=0.00
G1 Z0.300 F420                          ; hopdn dz=-0.20@7 h=0.3 r=0.00
;00:00:09.274: pe=-2.0026 eb=0.0000 ve=0.0000 vn=0.0000 vl=0.000 db=0.00
G1 E10.0162 F1800                       ; restore de=3.6388@30.0 r=0.91
;00:00:09.395: pe=1.6160 eb=0.0203 ve=30.0000 vn=0.7060 vl=0.000 db=0.46
G1 X-64.26 Y67.69 E10.1496 F600         ; draw dl=2.1@10(0<10>10) de=0.133@0.6(0.0<0.62>0.6) l=0.30x0.50x1.00 r=1.03
;00:00:09.619: pe=1.6122 eb=0.0241 ve=0.6039 vn=0.6191 vl=9.683 db=0.50
G1 X-64.34 Y68.22 E10.1830              ; draw dl=0.5@10(10<10>10) de=0.033@0.62(0.6<0.62>0.62) l=0.30x0.50x1.00 r=0.99
;00:00:09.672: pe=1.6124 eb=0.0242 ve=0.6236 vn=0.6193 vl=10.000 db=0.50
G1 X-64.55 Y68.61 E10.2107              ; draw dl=0.4@10(10<10>10) de=0.028@0.62(0.62<0.62>0.62) l=0.30x0.50x1.00 r=0.99
;00:00:09.717: pe=1.6126 eb=0.0242 ve=0.6236 vn=0.6194 vl=10.000 db=0.50
G1 X-64.89 Y68.86 E10.2370              ; draw dl=0.4@10(10<10>10) de=0.026@0.62(0.62<0.62>0.62) l=0.30x0.50x1.00 r=0.99
;00:00:09.759: pe=1.6128 eb=0.0242 ve=0.6236 vn=0.6195 vl=10.000 db=0.50
G1 X-65.33 Y68.95 E10.2650              ; draw dl=0.4@10(10<10>10) de=0.028@0.62(0.62<0.62>0.62) l=0.30x0.50x1.00 r=0.99
;00:00:09.804: pe=1.6129 eb=0.0242 ve=0.6237 vn=0.6196 vl=10.000 db=0.50
G1 X-65.76 Y68.86 E10.2924              ; draw dl=0.4@10(10<10>10) de=0.027@0.62(0.62<0.62>0.62) l=0.30x0.50x1.00 r=0.99
;00:00:09.848: pe=1.6131 eb=0.0242 ve=0.6236 vn=0.6197 vl=10.000 db=0.50
G1 X-66.10 Y68.61 E10.3187              ; draw dl=0.4@10(10<10>10) de=0.026@0.62(0.62<0.62>0.62) l=0.30x0.50x1.00 r=0.99
;00:00:09.890: pe=1.6133 eb=0.0242 ve=0.6236 vn=0.6197 vl=10.000 db=0.50
G1 X-66.32 Y68.22 E10.3466              ; draw dl=0.4@10(10<10>10) de=0.028@0.62(0.62<0.62>0.62) l=0.30x0.50x1.00 r=0.99
;00:00:09.935: pe=1.6135 eb=0.0242 ve=0.6236 vn=0.6198 vl=10.000 db=0.50
G1 X-66.40 Y67.69 E10.3801              ; draw dl=0.5@10(10<10>10) de=0.033@0.62(0.62<0.62>0.62) l=0.30x0.50x1.00 r=0.99
;00:00:09.988: pe=1.6137 eb=0.0242 ve=0.6237 vn=0.6199 vl=10.000 db=0.50
G1 X-66.32 Y67.15 E10.4141              ; draw dl=0.5@10(10<10>10) de=0.034@0.62(0.62<0.62>0.62) l=0.30x0.50x1.00 r=0.99
;00:00:10.043: pe=1.6139 eb=0.0242 ve=0.6237 vn=0.6199 vl=10.000 db=0.50
G1 X-66.09 Y66.75 E10.4429              ; draw dl=0.5@10(10<10>10) de=0.029@0.62(0.62<0.62>0.62) l=0.30x0.50x1.00 r=0.99
;00:00:10.089: pe=1.6140 eb=0.0242 ve=0.6237 vn=0.6200 vl=10.000 db=0.50
G1 X-65.74 Y66.51 E10.4693              ; draw dl=0.4@10(10<10>10) de=0.026@0.62(0.62<0.62>0.62) l=0.30x0.50x1.00 r=0.99
;00:00:10.132: pe=1.6142 eb=0.0242 ve=0.6237 vn=0.6201 vl=10.000 db=0.50
G1 X-65.28 Y66.42 E10.4986              ; draw dl=0.5@10(10<10>10) de=0.029@0.62(0.62<0.62>0.62) l=0.30x0.50x1.00 r=0.99
;00:00:10.178: pe=1.6144 eb=0.0242 ve=0.6237 vn=0.6201 vl=10.000 db=0.50
G1 X-64.94 Y66.47 E10.5200              ; draw dl=0.3@10(10<10>10) de=0.021@0.62(0.62<0.62>0.62) l=0.30x0.50x1.00 r=0.99
;00:00:10.213: pe=1.6145 eb=0.0242 ve=0.6236 vn=0.6202 vl=10.000 db=0.50
G1 X-64.65 Y66.61 E10.5401              ; draw dl=0.3@10(10<10>10) de=0.020@0.62(0.62<0.62>0.62) l=0.30x0.50x1.00 r=0.99
;00:00:10.245: pe=1.6146 eb=0.0242 ve=0.6236 vn=0.6202 vl=10.000 db=0.50
G1 X-64.44 Y66.83 E10.5591              ; draw dl=0.3@10(10<10>10) de=0.019@0.62(0.62<0.62>0.62) l=0.30x0.50x1.00 r=0.99
;00:00:10.275: pe=1.6147 eb=0.0242 ve=0.6236 vn=0.6203 vl=10.000 db=0.50
G1 X-64.32 Y67.13 E10.5792              ; draw dl=0.3@10(10<10>0) de=0.020@0.48(0.62<0.62>0.0) l=0.30x0.50x1.00 r=1.27
;00:00:10.318: pe=1.6093 eb=0.0296 ve=0.0000 vn=0.5100 vl=0.000 db=0.55
G1 E6.9699 F2400                        ; retract de=-3.6093@-40.0 r=1.15
;00:00:10.408: pe=-2.0026 eb=0.0322 ve=-40.0000 vn=0.0000 vl=0.000 db=0.57
G1 Z0.500 F420                          ; hopup dz=0.20@7 h=0.5 r=0.89
;00:00:10.437: pe=-2.0026 eb=0.0322 ve=0.0000 vn=0.0000 vl=0.000 db=0.44
G1 X-63.20 Y68.26 F6000                 ; move dl=1.6@100(0<20>0) de=0.000@0.0(0.0<0.0>0.0) l=0.50x0.50x0.00 r=0.00
;00:00:10.556: pe=-2.0026 eb=0.0000 ve=0.0000 vn=0.0000 vl=0.000 db=0.00
G1 Z0.300 F420                          ; hopdn dz=-0.20@7 h=0.3 r=0.00
;00:00:10.585: pe=-2.0026 eb=0.0000 ve=0.0000 vn=0.0000 vl=0.000 db=0.00
G1 E10.5546 F1800                       ; restore de=3.5847@30.0 r=0.88
;00:00:10.704: pe=1.5631 eb=0.0190 ve=30.0000 vn=0.6827 vl=0.000 db=0.44
G1 X-61.51 Y68.26 E10.6600 F600         ; draw dl=1.7@10(0<10>0) de=0.105@0.56(0.0<0.62>0.0) l=0.30x0.50x1.00 r=1.06
;00:00:10.893: pe=1.5573 eb=0.0279 ve=0.0000 vn=0.4909 vl=0.000 db=0.53
G1 E7.1027 F2400                        ; retract de=-3.5573@-40.0 r=1.11
;00:00:10.982: pe=-2.0024 eb=0.0303 ve=-40.0000 vn=0.0000 vl=0.000 db=0.56
G1 Z0.500 F420                          ; hopup dz=0.20@7 h=0.5 r=0.86
;00:00:11.011: pe=-2.0024 eb=0.0303 ve=0.0000 vn=0.0000 vl=0.000 db=0.43
G1 X-61.51 Y67.55 F6000                 ; move dl=0.7@100(0<13>0) de=0.000@0.0(0.0<0.0>0.0) l=0.50x0.50x0.00 r=0.00
;00:00:11.091: pe=-2.0024 eb=0.0000 ve=0.0000 vn=0.0000 vl=0.000 db=0.00
G1 Z0.300 F420                          ; hopdn dz=-0.20@7 h=0.3 r=0.00
;00:00:11.119: pe=-2.0024 eb=0.0000 ve=0.0000 vn=0.0000 vl=0.000 db=0.00
G1 E10.6873 F1800                       ; restore de=3.5845@30.0 r=0.88
;00:00:11.239: pe=1.5631 eb=0.0190 ve=30.0000 vn=0.6827 vl=0.000 db=0.44
G1 X-63.20 Y67.55 E10.7926 F600         ; draw dl=1.7@10(0<10>0) de=0.105@0.56(0.0<0.62>0.0) l=0.30x0.50x1.00 r=1.06
;00:00:11.428: pe=1.5573 eb=0.0279 ve=0.0000 vn=0.4909 vl=0.000 db=0.53
G1 E7.2353 F2400                        ; retract de=-3.5573@-40.0 r=1.11
;00:00:11.517: pe=-2.0024 eb=0.0303 ve=-40.0000 vn=0.0000 vl=0.000 db=0.56
G1 Z0.500 F420                          ; hopup dz=0.20@7 h=0.5 r=0.86
;00:00:11.545: pe=-2.0024 eb=0.0303 ve=0.0000 vn=0.0000 vl=0.000 db=0.43
G1 X-60.45 Y69.00 F6000                 ; move dl=3.1@100(0<28>0) de=0.000@0.0(0.0<0.0>0.0) l=0.50x0.50x0.00 r=0.00
;00:00:11.713: pe=-2.0024 eb=0.0000 ve=0.0000 vn=0.0000 vl=0.000 db=0.00
G1 Z0.300 F420                          ; hopdn dz=-0.20@7 h=0.3 r=0.00
;00:00:11.741: pe=-2.0024 eb=0.0000 ve=0.0000 vn=0.0000 vl=0.000 db=0.00
G1 E10.8560 F1800                       ; restore de=3.6207@30.0 r=0.90
;00:00:11.862: pe=1.5984 eb=0.0198 ve=30.0000 vn=0.6982 vl=0.000 db=0.45
G1 X-59.98 Y69.24 E10.8889 F600         ; draw dl=0.5@10(0<10>10) de=0.033@0.52(0.0<0.62>0.62) l=0.30x0.50x1.00 r=1.13
;00:00:11.925: pe=1.5940 eb=0.0241 ve=0.6236 vn=0.6024 vl=10.000 db=0.50
G1 X-59.61 Y69.55 E10.9190              ; draw dl=0.5@10(10<10>10) de=0.030@0.62(0.62<0.62>0.62) l=0.30x0.50x1.00 r=0.97
;00:00:11.973: pe=1.5948 eb=0.0237 ve=0.6236 vn=0.6109 vl=10.000 db=0.49
G1 X-59.36 Y69.88 E10.9448              ; draw dl=0.4@10(10<10>5) de=0.026@0.59(0.62<0.62>0.3) l=0.30x0.50x1.00 r=1.04
;00:00:12.017: pe=1.5937 eb=0.0252 ve=0.3015 vn=0.5803 vl=4.834 db=0.51
G1 X-59.36 Y66.48 E11.1569              ; draw dl=3.4@10(5<10>0) de=0.212@0.6(0.3<0.62>0.0) l=0.30x0.50x1.00 r=1.01
;00:00:12.370: pe=1.5923 eb=0.0290 ve=0.0000 vn=0.5038 vl=0.000 db=0.54
G1 E7.5646 F2400                        ; retract de=-3.5923@-40.0 r=1.14
;00:00:12.459: pe=-2.0026 eb=0.0316 ve=-40.0000 vn=0.0000 vl=0.000 db=0.57
G1 Z0.500 F420                          ; hopup dz=0.20@7 h=0.5 r=0.88
;00:00:12.488: pe=-2.0026 eb=0.0316 ve=0.0000 vn=0.0000 vl=0.000 db=0.44
G1 X-58.30 Y66.71 F6000                 ; move dl=1.1@100(0<16>0) de=0.000@0.0(0.0<0.0>0.0) l=0.50x0.50x0.00 r=0.00
;00:00:12.587: pe=-2.0026 eb=0.0000 ve=0.0000 vn=0.0000 vl=0.000 db=0.00
G1 Z0.300 F420                          ; hopdn dz=-0.20@7 h=0.3 r=0.00
;00:00:12.615: pe=-2.0026 eb=0.0000 ve=0.0000 vn=0.0000 vl=0.000 db=0.00
G1 E10.7527 F1800                       ; restore de=3.1881@30.0 r=0.66
;00:00:12.722: pe=1.1748 eb=0.0108 ve=30.0000 vn=0.5108 vl=0.000 db=0.33
G1 X-58.30 Y66.65 E10.7565 F600         ; draw dl=0.1@10(0<4>0) de=0.004@0.16(0.0<0.24>0.0) l=0.30x0.50x1.00 r=2.54
;00:00:12.745: pe=1.1690 eb=0.0174 ve=0.0000 vn=0.3257 vl=0.000 db=0.42
G1 E7.5874 F2400                        ; retract de=-3.1690@-40.0 r=0.87
;00:00:12.824: pe=-2.0010 eb=0.0185 ve=-40.0000 vn=0.0000 vl=0.000 db=0.43
G1 Z0.500 F420                          ; hopup dz=0.20@7 h=0.5 r=0.67
;00:00:12.853: pe=-2.0010 eb=0.0185 ve=0.0000 vn=0.0000 vl=0.000 db=0.34
G1 X-56.01 Y69.94 F6000                 ; move dl=4.0@100(0<32>0) de=0.000@0.0(0.0<0.0>0.0) l=0.50x0.50x0.00 r=0.00
;00:00:13.043: pe=-2.0010 eb=0.0000 ve=0.0000 vn=0.0000 vl=0.000 db=0.00
G1 Z0.300 F420                          ; hopdn dz=-0.20@7 h=0.3 r=0.00
;00:00:13.071: pe=-2.0010 eb=0.0000 ve=0.0000 vn=0.0000 vl=0.000 db=0.00
G1 E11.2256 F1800                       ; restore de=3.6382@30.0 r=0.91
;00:00:13.192: pe=1.6168 eb=0.0203 ve=30.0000 vn=0.7063 vl=0.000 db=0.46
G1 X-55.50 Y69.80 E11.2586 F600         ; draw dl=0.5@10(0<10>10) de=0.033@0.52(0.0<0.62>0.62) l=0.30x0.50x1.00 r=1.15
;00:00:13.255: pe=1.6120 eb=0.0246 ve=0.6237 vn=0.6092 vl=10.000 db=0.50
G1 X-55.11 Y69.42 E11.2926              ; draw dl=0.5@10(10<10>10) de=0.034@0.62(0.62<0.62>0.62) l=0.30x0.50x1.00 r=0.99
;00:00:13.310: pe=1.6125 eb=0.0242 ve=0.6237 vn=0.6179 vl=10.000 db=0.50
G1 X-54.88 Y68.86 E11.3303              ; draw dl=0.6@10(10<10>10) de=0.038@0.62(0.62<0.62>0.62) l=0.30x0.50x1.00 r=0.99
;00:00:13.370: pe=1.6128 eb=0.0242 ve=0.6237 vn=0.6193 vl=10.000 db=0.50
G1 X-54.79 Y68.18 E11.3731              ; draw dl=0.7@10(10<10>10) de=0.043@0.62(0.62<0.62>0.62) l=0.30x0.50x1.00 r=0.99
;00:00:13.439: pe=1.6130 eb=0.0242 ve=0.6237 vn=0.6196 vl=10.000 db=0.50
G1 X-54.88 Y67.51 E11.4153              ; draw dl=0.7@10(10<10>10) de=0.042@0.62(0.62<0.62>0.62) l=0.30x0.50x1.00 r=0.99
;00:00:13.506: pe=1.6133 eb=0.0242 ve=0.6237 vn=0.6197 vl=10.000 db=0.50
G1 X-55.11 Y66.95 E11.4530              ; draw dl=0.6@10(10<10>10) de=0.038@0.62(0.62<0.62>0.62) l=0.30x0.50x1.00 r=0.99
;00:00:13.567: pe=1.6135 eb=0.0242 ve=0.6237 vn=0.6198 vl=10.000 db=0.50
G1 X-55.50 Y66.56 E11.4874              ; draw dl=0.6@10(10<10>10) de=0.034@0.62(0.62<0.62>0.62) l=0.30x0.50x1.00 r=0.99
;00:00:13.622: pe=1.6138 eb=0.0242 ve=0.6237 vn=0.6199 vl=10.000 db=0.50
G1 X-56.01 Y66.42 E11.5204              ; draw dl=0.5@10(10<10>10) de=0.033@0.62(0.62<0.62>0.62) l=0.30x0.50x1.00 r=0.99
;00:00:13.675: pe=1.6140 eb=0.0242 ve=0.6237 vn=0.6200 vl=10.000 db=0.50
G1 X-56.54 Y66.56 E11.5546              ; draw dl=0.5@10(10<10>10) de=0.034@0.62(0.62<0.62>0.62) l=0.30x0.50x1.00 r=0.99
;00:00:13.730: pe=1.6142 eb=0.0242 ve=0.6237 vn=0.6201 vl=10.000 db=0.50
G1 X-56.91 Y66.95 E11.5881              ; draw dl=0.5@10(10<10>10) de=0.034@0.62(0.62<0.62>0.62) l=0.30x0.50x1.00 r=0.99
;00:00:13.784: pe=1.6144 eb=0.0242 ve=0.6237 vn=0.6201 vl=10.000 db=0.50
G1 X-57.15 Y67.51 E11.6261              ; draw dl=0.6@10(10<10>10) de=0.038@0.62(0.62<0.62>0.62) l=0.30x0.50x1.00 r=0.99
;00:00:13.845: pe=1.6146 eb=0.0242 ve=0.6237 vn=0.6202 vl=10.000 db=0.50
G1 X-57.23 Y68.18 E11.6682              ; draw dl=0.7@10(10<10>10) de=0.042@0.62(0.62<0.62>0.62) l=0.30x0.50x1.00 r=0.99
;00:00:13.912: pe=1.6148 eb=0.0242 ve=0.6237 vn=0.6203 vl=10.000 db=0.50
G1 X-57.15 Y68.85 E11.7103              ; draw dl=0.7@10(10<10>10) de=0.042@0.62(0.62<0.62>0.62) l=0.30x0.50x1.00 r=0.99
;00:00:13.980: pe=1.6150 eb=0.0242 ve=0.6237 vn=0.6204 vl=10.000 db=0.50
G1 X-56.91 Y69.42 E11.7489              ; draw dl=0.6@10(10<10>10) de=0.039@0.62(0.62<0.62>0.62) l=0.30x0.50x1.00 r=0.99
;00:00:14.041: pe=1.6152 eb=0.0242 ve=0.6237 vn=0.6205 vl=10.000 db=0.50
G1 X-56.54 Y69.80 E11.7819              ; draw dl=0.5@10(10<10>10) de=0.033@0.62(0.62<0.62>0.62) l=0.30x0.50x1.00 r=0.99
;00:00:14.094: pe=1.6154 eb=0.0242 ve=0.6237 vn=0.6205 vl=10.000 db=0.50
G1 X-56.01 Y69.94 E11.8161              ; draw dl=0.5@10(10<10>0) de=0.034@0.53(0.62<0.62>0.0) l=0.30x0.50x1.00 r=1.16
;00:00:14.159: pe=1.6101 eb=0.0296 ve=0.0000 vn=0.5103 vl=0.000 db=0.55
G1 E8.2061 F2400                        ; retract de=-3.6101@-40.0 r=1.15
;00:00:14.249: pe=-2.0026 eb=0.0322 ve=-40.0000 vn=0.0000 vl=0.000 db=0.57
G1 Z0.500 F420                          ; hopup dz=0.20@7 h=0.5 r=0.89
;00:00:14.278: pe=-2.0026 eb=0.0322 ve=0.0000 vn=0.0000 vl=0.000 db=0.44
G1 X-69.50 Y64.88 F6000                 ; move dl=14.4@100(0<60>0) de=0.000@0.0(0.0<0.0>0.0) l=0.50x0.50x0.00 r=0.00
;00:00:14.638: pe=-2.0026 eb=0.0000 ve=0.0000 vn=0.0000 vl=0.000 db=0.00
G1 Z0.300 F420                          ; hopdn dz=-0.20@7 h=0.3 r=0.00
;00:00:14.667: pe=-2.0026 eb=0.0000 ve=0.0000 vn=0.0000 vl=0.000 db=0.00
G1 E11.8223 F1800                       ; restore de=3.6162@30.0 r=0.90
;00:00:14.787: pe=1.5938 eb=0.0197 ve=30.0000 vn=0.6962 vl=0.000 db=0.45
G1 X-69.50 Y61.48 E12.0343 F600         ; draw dl=3.4@10(0<10>0) de=0.212@0.59(0.0<0.62>0.0) l=0.30x0.50x1.00 r=1.03
;00:00:15.147: pe=1.5879 eb=0.0289 ve=0.0000 vn=0.5022 vl=0.000 db=0.54
G1 E8.4464 F2400                        ; retract de=-3.5879@-40.0 r=1.13
;00:00:15.237: pe=-2.0025 eb=0.0314 ve=-40.0000 vn=0.0000 vl=0.000 db=0.57
G1 Z0.500 F420                          ; hopup dz=0.20@7 h=0.5 r=0.88
;00:00:15.266: pe=-2.0025 eb=0.0314 ve=0.0000 vn=0.0000 vl=0.000 db=0.44
G1 X-69.50 Y63.23 F6000                 ; move dl=1.8@100(0<21>0) de=0.000@0.0(0.0<0.0>0.0) l=0.50x0.50x0.00 r=0.00
;00:00:15.391: pe=-2.0025 eb=0.0000 ve=0.0000 vn=0.0000 vl=0.000 db=0.00
G1 Z0.300 F420                          ; hopdn dz=-0.20@7 h=0.3 r=0.00
;00:00:15.420: pe=-2.0025 eb=0.0000 ve=0.0000 vn=0.0000 vl=0.000 db=0.00
G1 E12.0715 F1800                       ; restore de=3.6252@30.0 r=0.90
;00:00:15.540: pe=1.6027 eb=0.0200 ve=30.0000 vn=0.7001 vl=0.000 db=0.45
G1 X-69.25 Y63.53 E12.0959 F600         ; draw dl=0.4@10(0<10>10) de=0.024@0.5(0.0<0.62>0.62) l=0.30x0.50x1.00 r=1.20
;00:00:15.589: pe=1.5978 eb=0.0245 ve=0.6237 vn=0.5977 vl=10.000 db=0.50
G1 X-69.02 Y63.75 E12.1158              ; draw dl=0.3@10(10<10>10) de=0.020@0.62(0.62<0.62>0.62) l=0.30x0.50x1.00 r=0.97
;00:00:15.621: pe=1.5985 eb=0.0240 ve=0.6237 vn=0.6087 vl=10.000 db=0.49
G1 X-68.80 Y63.88 E12.1317              ; draw dl=0.3@10(10<10>10) de=0.016@0.62(0.62<0.62>0.62) l=0.30x0.50x1.00 r=0.98
;00:00:15.647: pe=1.5988 eb=0.0238 ve=0.6237 vn=0.6120 vl=10.000 db=0.49
G1 X-68.60 Y63.93 E12.1445              ; draw dl=0.2@10(10<10>10) de=0.013@0.62(0.62<0.62>0.62) l=0.30x0.50x1.00 r=0.98
;00:00:15.667: pe=1.5990 eb=0.0238 ve=0.6237 vn=0.6133 vl=10.000 db=0.49
G1 X-68.41 Y63.95 E12.1565              ; draw dl=0.2@10(10<10>10) de=0.012@0.62(0.62<0.62>0.62) l=0.30x0.50x1.00 r=0.98
;00:00:15.687: pe=1.5992 eb=0.0238 ve=0.6237 vn=0.6139 vl=10.000 db=0.49
G1 X-68.09 Y63.88 E12.1769              ; draw dl=0.3@10(10<10>10) de=0.020@0.62(0.62<0.62>0.62) l=0.30x0.50x1.00 r=0.98
;00:00:15.719: pe=1.5995 eb=0.0238 ve=0.6237 vn=0.6144 vl=10.000 db=0.49
G1 X-67.86 Y63.71 E12.1947              ; draw dl=0.3@10(10<10>10) de=0.018@0.62(0.62<0.62>0.62) l=0.30x0.50x1.00 r=0.99
;00:00:15.748: pe=1.5998 eb=0.0238 ve=0.6237 vn=0.6146 vl=10.000 db=0.49
G1 X-67.76 Y63.51 E12.2087              ; draw dl=0.2@10(10<10>10) de=0.014@0.62(0.62<0.62>0.62) l=0.30x0.50x1.00 r=0.99
;00:00:15.770: pe=1.6000 eb=0.0238 ve=0.6236 vn=0.6147 vl=10.000 db=0.49
G1 X-67.67 Y63.08 E12.2361              ; draw dl=0.4@10(10<10>10) de=0.027@0.62(0.62<0.62>0.62) l=0.30x0.50x1.00 r=0.99
;00:00:15.814: pe=1.6004 eb=0.0238 ve=0.6236 vn=0.6149 vl=10.000 db=0.49
G1 X-67.67 Y61.48 E12.3359              ; draw dl=1.6@10(10<10>0) de=0.100@0.59(0.62<0.62>0.0) l=0.30x0.50x1.00 r=1.04
;00:00:15.984: pe=1.5963 eb=0.0292 ve=0.0000 vn=0.5053 vl=0.000 db=0.55
G1 E8.7395 F2400                        ; retract de=-3.5963@-40.0 r=1.14
;00:00:16.074: pe=-2.0026 eb=0.0317 ve=-40.0000 vn=0.0000 vl=0.000 db=0.57
G1 Z0.500 F420                          ; hopup dz=0.20@7 h=0.5 r=0.88
;00:00:16.103: pe=-2.0026 eb=0.0317 ve=0.0000 vn=0.0000 vl=0.000 db=0.44
G1 X-66.61 Y63.26 F6000                 ; move dl=2.1@100(0<23>0) de=0.000@0.0(0.0<0.0>0.0) l=0.50x0.50x0.00 r=0.00
;00:00:16.239: pe=-2.0026 eb=0.0000 ve=0.0000 vn=0.0000 vl=0.000 db=0.00
G1 Z0.300 F420                          ; hopdn dz=-0.20@7 h=0.3 r=0.00
;00:00:16.268: pe=-2.0026 eb=0.0000 ve=0.0000 vn=0.0000 vl=0.000 db=0.00
G1 E12.3243 F1800                       ; restore de=3.5848@30.0 r=0.88
;00:00:16.387: pe=1.5632 eb=0.0190 ve=30.0000 vn=0.6827 vl=0.000 db=0.44
G1 X-64.92 Y63.26 E12.4297 F600         ; draw dl=1.7@10(0<10>0) de=0.105@0.56(0.0<0.62>0.0) l=0.30x0.50x1.00 r=1.06
;00:00:16.576: pe=1.5574 eb=0.0279 ve=0.0000 vn=0.4909 vl=0.000 db=0.53
G1 E8.8723 F2400                        ; retract de=-3.5574@-40.0 r=1.11
;00:00:16.665: pe=-2.0024 eb=0.0303 ve=-40.0000 vn=0.0000 vl=0.000 db=0.56
G1 Z0.500 F420                          ; hopup dz=0.20@7 h=0.5 r=0.86
;00:00:16.694: pe=-2.0024 eb=0.0303 ve=0.0000 vn=0.0000 vl=0.000 db=0.43
G1 X-64.92 Y62.55 F6000                 ; move dl=0.7@100(0<13>0) de=0.000@0.0(0.0<0.0>0.0) l=0.50x0.50x0.00 r=0.00
;00:00:16.774: pe=-2.0024 eb=0.0000 ve=0.0000 vn=0.0000 vl=0.000 db=0.00
G1 Z0.300 F420                          ; hopdn dz=-0.20@7 h=0.3 r=0.00
;00:00:16.802: pe=-2.0024 eb=0.0000 ve=0.0000 vn=0.0000 vl=0.000 db=0.00
G1 E12.4569 F1800                       ; restore de=3.5846@30.0 r=0.88
;00:00:16.922: pe=1.5632 eb=0.0190 ve=30.0000 vn=0.6827 vl=0.000 db=0.44
G1 X-66.61 Y62.55 E12.5623 F600         ; draw dl=1.7@10(0<10>0) de=0.105@0.56(0.0<0.62>0.0) l=0.30x0.50x1.00 r=1.06
;00:00:17.111: pe=1.5574 eb=0.0279 ve=0.0000 vn=0.4909 vl=0.000 db=0.53
G1 E9.0049 F2400                        ; retract de=-3.5574@-40.0 r=1.11
;00:00:17.200: pe=-2.0024 eb=0.0303 ve=-40.0000 vn=0.0000 vl=0.000 db=0.56
G1 Z0.500 F420                          ; hopup dz=0.20@7 h=0.5 r=0.86
;00:00:17.228: pe=-2.0024 eb=0.0303 ve=0.0000 vn=0.0000 vl=0.000 db=0.43
G1 X-62.64 Y64.94 F6000                 ; move dl=4.6@100(0<34>0) de=0.000@0.0(0.0<0.0>0.0) l=0.50x0.50x0.00 r=0.00
;00:00:17.433: pe=-2.0024 eb=0.0000 ve=0.0000 vn=0.0000 vl=0.000 db=0.00
G1 Z0.300 F420                          ; hopdn dz=-0.20@7 h=0.3 r=0.00
;00:00:17.461: pe=-2.0024 eb=0.0000 ve=0.0000 vn=0.0000 vl=0.000 db=0.00
G1 E12.6444 F1800                       ; restore de=3.6395@30.0 r=0.91
;00:00:17.582: pe=1.6168 eb=0.0203 ve=30.0000 vn=0.7063 vl=0.000 db=0.46
G1 X-62.13 Y64.80 E12.6774 F600         ; draw dl=0.5@10(0<10>10) de=0.033@0.52(0.0<0.62>0.62) l=0.30x0.50x1.00 r=1.15
;00:00:17.645: pe=1.6119 eb=0.0246 ve=0.6237 vn=0.6091 vl=10.000 db=0.50
G1 X-61.74 Y64.42 E12.7114              ; draw dl=0.5@10(10<10>10) de=0.034@0.62(0.62<0.62>0.62) l=0.30x0.50x1.00 r=0.99
;00:00:17.700: pe=1.6124 eb=0.0242 ve=0.6237 vn=0.6179 vl=10.000 db=0.50
G1 X-61.50 Y63.86 E12.7494              ; draw dl=0.6@10(10<10>10) de=0.038@0.62(0.62<0.62>0.62) l=0.30x0.50x1.00 r=0.99
;00:00:17.761: pe=1.6127 eb=0.0242 ve=0.6237 vn=0.6193 vl=10.000 db=0.50
G1 X-61.42 Y63.18 E12.7921              ; draw dl=0.7@10(10<10>10) de=0.043@0.62(0.62<0.62>0.62) l=0.30x0.50x1.00 r=0.99
;00:00:17.829: pe=1.6130 eb=0.0242 ve=0.6237 vn=0.6196 vl=10.000 db=0.50
G1 X-61.50 Y62.51 E12.8341              ; draw dl=0.7@10(10<10>10) de=0.042@0.62(0.62<0.62>0.62) l=0.30x0.50x1.00 r=0.99
;00:00:17.897: pe=1.6133 eb=0.0242 ve=0.6237 vn=0.6197 vl=10.000 db=0.50
G1 X-61.74 Y61.95 E12.8721              ; draw dl=0.6@10(10<10>10) de=0.038@0.62(0.62<0.62>0.62) l=0.30x0.50x1.00 r=0.99
;00:00:17.958: pe=1.6135 eb=0.0242 ve=0.6237 vn=0.6198 vl=10.000 db=0.50
G1 X-62.13 Y61.56 E12.9065              ; draw dl=0.6@10(10<10>10) de=0.034@0.62(0.62<0.62>0.62) l=0.30x0.50x1.00 r=0.99
;00:00:18.013: pe=1.6137 eb=0.0242 ve=0.6237 vn=0.6199 vl=10.000 db=0.50
G1 X-62.64 Y61.42 E12.9395              ; draw dl=0.5@10(10<10>10) de=0.033@0.62(0.62<0.62>0.62) l=0.30x0.50x1.00 r=0.99
;00:00:18.066: pe=1.6139 eb=0.0242 ve=0.6237 vn=0.6200 vl=10.000 db=0.50
G1 X-63.16 Y61.56 E12.9731              ; draw dl=0.5@10(10<10>10) de=0.034@0.62(0.62<0.62>0.62) l=0.30x0.50x1.00 r=0.99
;00:00:18.119: pe=1.6141 eb=0.0242 ve=0.6237 vn=0.6200 vl=10.000 db=0.50
G1 X-63.54 Y61.95 E13.0071              ; draw dl=0.5@10(10<10>10) de=0.034@0.62(0.62<0.62>0.62) l=0.30x0.50x1.00 r=0.99
;00:00:18.174: pe=1.6143 eb=0.0242 ve=0.6237 vn=0.6201 vl=10.000 db=0.50
G1 X-63.78 Y62.51 E13.0451              ; draw dl=0.6@10(10<10>10) de=0.038@0.62(0.62<0.62>0.62) l=0.30x0.50x1.00 r=0.99
;00:00:18.235: pe=1.6145 eb=0.0242 ve=0.6237 vn=0.6202 vl=10.000 db=0.50
G1 X-63.86 Y63.18 E13.0871              ; draw dl=0.7@10(10<10>10) de=0.042@0.62(0.62<0.62>0.62) l=0.30x0.50x1.00 r=0.99
;00:00:18.302: pe=1.6148 eb=0.0242 ve=0.6237 vn=0.6203 vl=10.000 db=0.50
G1 X-63.78 Y63.85 E13.1292              ; draw dl=0.7@10(10<10>10) de=0.042@0.62(0.62<0.62>0.62) l=0.30x0.50x1.00 r=0.99
;00:00:18.370: pe=1.6150 eb=0.0242 ve=0.6237 vn=0.6204 vl=10.000 db=0.50
G1 X-63.54 Y64.42 E13.1678              ; draw dl=0.6@10(10<10>10) de=0.039@0.62(0.62<0.62>0.62) l=0.30x0.50x1.00 r=0.99
;00:00:18.432: pe=1.6152 eb=0.0242 ve=0.6237 vn=0.6204 vl=10.000 db=0.50
G1 X-63.16 Y64.80 E13.2013              ; draw dl=0.5@10(10<10>10) de=0.034@0.62(0.62<0.62>0.62) l=0.30x0.50x1.00 r=0.99
;00:00:18.485: pe=1.6153 eb=0.0242 ve=0.6236 vn=0.6205 vl=10.000 db=0.50
G1 X-62.64 Y64.94 E13.2349              ; draw dl=0.5@10(10<10>0) de=0.034@0.53(0.62<0.62>0.0) l=0.30x0.50x1.00 r=1.16
;00:00:18.549: pe=1.6100 eb=0.0296 ve=0.0000 vn=0.5103 vl=0.000 db=0.55
G1 E9.6249 F2400                        ; retract de=-3.6100@-40.0 r=1.15
;00:00:18.639: pe=-2.0026 eb=0.0322 ve=-40.0000 vn=0.0000 vl=0.000 db=0.57
G1 Z0.500 F420                          ; hopup dz=0.20@7 h=0.5 r=0.89
;00:00:18.668: pe=-2.0026 eb=0.0322 ve=0.0000 vn=0.0000 vl=0.000 db=0.44
G1 X-60.36 Y61.71 F6000                 ; move dl=4.0@100(0<31>0) de=0.000@0.0(0.0<0.0>0.0) l=0.50x0.50x0.00 r=0.00
;00:00:18.857: pe=-2.0026 eb=0.0000 ve=0.0000 vn=0.0000 vl=0.000 db=0.00
G1 Z0.300 F420                          ; hopdn dz=-0.20@7 h=0.3 r=0.00
;00:00:18.885: pe=-2.0026 eb=0.0000 ve=0.0000 vn=0.0000 vl=0.000 db=0.00
G1 E12.8131 F1800                       ; restore de=3.1882@30.0 r=0.66
;00:00:18.992: pe=1.1748 eb=0.0108 ve=30.0000 vn=0.5108 vl=0.000 db=0.33
G1 X-60.36 Y61.65 E12.8168 F600         ; draw dl=0.1@10(0<4>0) de=0.004@0.16(0.0<0.24>0.0) l=0.30x0.50x1.00 r=2.54
;00:00:19.015: pe=1.1690 eb=0.0174 ve=0.0000 vn=0.3257 vl=0.000 db=0.42
G1 E9.6478 F2400                        ; retract de=-3.1690@-40.0 r=0.87
;00:00:19.094: pe=-2.0010 eb=0.0185 ve=-40.0000 vn=0.0000 vl=0.000 db=0.43
G1 Z0.500 F420                          ; hopup dz=0.20@7 h=0.5 r=0.67
;00:00:19.123: pe=-2.0010 eb=0.0185 ve=0.0000 vn=0.0000 vl=0.000 db=0.34
G1 X-59.24 Y64.13 F6000                 ; move dl=2.7@100(0<26>0) de=0.000@0.0(0.0<0.0>0.0) l=0.50x0.50x0.00 r=0.00
;00:00:19.279: pe=-2.0010 eb=0.0000 ve=0.0000 vn=0.0000 vl=0.000 db=0.00
G1 Z0.300 F420                          ; hopdn dz=-0.20@7 h=0.3 r=0.00
;00:00:19.308: pe=-2.0010 eb=0.0000 ve=0.0000 vn=0.0000 vl=0.000 db=0.00
G1 E13.2820 F1800                       ; restore de=3.6342@30.0 r=0.91
;00:00:19.429: pe=1.6130 eb=0.0202 ve=30.0000 vn=0.7046 vl=0.000 db=0.45
G1 X-59.13 Y64.47 E13.3043 F600         ; draw dl=0.4@10(0<10>10) de=0.022@0.49(0.0<0.62>0.62) l=0.30x0.50x1.00 r=1.23
;00:00:19.475: pe=1.6079 eb=0.0249 ve=0.6237 vn=0.5996 vl=10.000 db=0.50
G1 X-58.92 Y64.73 E13.3252              ; draw dl=0.3@10(10<10>10) de=0.021@0.62(0.62<0.62>0.62) l=0.30x0.50x1.00 r=0.97
;00:00:19.508: pe=1.6084 eb=0.0243 ve=0.6237 vn=0.6121 vl=10.000 db=0.50
G1 X-58.63 Y64.89 E13.3458              ; draw dl=0.3@10(10<10>10) de=0.021@0.62(0.62<0.62>0.62) l=0.30x0.50x1.00 r=0.99
;00:00:19.541: pe=1.6088 eb=0.0241 ve=0.6237 vn=0.6162 vl=10.000 db=0.50
G1 X-58.29 Y64.94 E13.3672              ; draw dl=0.3@10(10<10>10) de=0.021@0.62(0.62<0.62>0.62) l=0.30x0.50x1.00 r=0.99
;00:00:19.575: pe=1.6090 eb=0.0241 ve=0.6237 vn=0.6175 vl=10.000 db=0.50
G1 X-57.90 Y64.87 E13.3920              ; draw dl=0.4@10(10<10>10) de=0.025@0.62(0.62<0.62>0.62) l=0.30x0.50x1.00 r=0.99
;00:00:19.615: pe=1.6092 eb=0.0241 ve=0.6237 vn=0.6180 vl=10.000 db=0.50
G1 X-57.61 Y64.68 E13.4136              ; draw dl=0.3@10(10<10>10) de=0.022@0.62(0.62<0.62>0.62) l=0.30x0.50x1.00 r=0.99
;00:00:19.650: pe=1.6094 eb=0.0241 ve=0.6237 vn=0.6182 vl=10.000 db=0.50
G1 X-57.43 Y64.41 E13.4338              ; draw dl=0.3@10(10<10>10) de=0.020@0.62(0.62<0.62>0.62) l=0.30x0.50x1.00 r=0.99
;00:00:19.682: pe=1.6096 eb=0.0241 ve=0.6237 vn=0.6183 vl=10.000 db=0.50
G1 X-57.36 Y64.06 E13.4561              ; draw dl=0.4@10(10<10>10) de=0.022@0.62(0.62<0.62>0.62) l=0.30x0.50x1.00 r=0.99
;00:00:19.718: pe=1.6098 eb=0.0241 ve=0.6237 vn=0.6184 vl=10.000 db=0.50
G1 X-57.43 Y63.85 E13.4699              ; draw dl=0.2@10(10<10>10) de=0.014@0.62(0.62<0.62>0.62) l=0.30x0.50x1.00 r=0.99
;00:00:19.740: pe=1.6099 eb=0.0241 ve=0.6237 vn=0.6184 vl=10.000 db=0.50
G1 X-57.57 Y63.68 E13.4836              ; draw dl=0.2@10(10<10>10) de=0.014@0.62(0.62<0.62>0.62) l=0.30x0.50x1.00 r=0.99
;00:00:19.762: pe=1.6100 eb=0.0241 ve=0.6237 vn=0.6185 vl=10.000 db=0.50
G1 X-57.94 Y63.45 E13.5108              ; draw dl=0.4@10(10<10>10) de=0.027@0.62(0.62<0.62>0.62) l=0.30x0.50x1.00 r=0.99
;00:00:19.806: pe=1.6102 eb=0.0241 ve=0.6237 vn=0.6186 vl=10.000 db=0.50
G1 X-58.38 Y63.30 E13.5398              ; draw dl=0.5@10(10<10>5) de=0.029@0.59(0.62<0.62>0.28) l=0.30x0.50x1.00 r=1.05
;00:00:19.855: pe=1.6087 eb=0.0258 ve=0.2839 vn=0.5830 vl=4.552 db=0.51
G1 X-57.94 Y63.18 E13.5682              ; draw dl=0.5@10(5<10>10) de=0.028@0.59(0.28<0.62>0.62) l=0.30x0.50x1.00 r=0.99
;00:00:19.904: pe=1.6089 eb=0.0248 ve=0.6237 vn=0.6024 vl=10.000 db=0.50
G1 X-57.58 Y63.02 E13.5928              ; draw dl=0.4@10(10<10>10) de=0.025@0.62(0.62<0.62>0.62) l=0.30x0.50x1.00 r=0.98
;00:00:19.943: pe=1.6095 eb=0.0243 ve=0.6237 vn=0.6142 vl=10.000 db=0.50
G1 X-57.29 Y62.74 E13.6179              ; draw dl=0.4@10(10<10>10) de=0.025@0.62(0.62<0.62>0.62) l=0.30x0.50x1.00 r=0.99
;00:00:19.983: pe=1.6098 eb=0.0241 ve=0.6236 vn=0.6174 vl=10.000 db=0.50
G1 X-57.19 Y62.45 E13.6371              ; draw dl=0.3@10(10<10>10) de=0.019@0.62(0.62<0.62>0.62) l=0.30x0.50x1.00 r=0.99
;00:00:20.014: pe=1.6100 eb=0.0241 ve=0.6237 vn=0.6181 vl=10.000 db=0.50
G1 X-57.26 Y62.03 E13.6636              ; draw dl=0.4@10(10<10>10) de=0.027@0.62(0.62<0.62>0.62) l=0.30x0.50x1.00 r=0.99
;00:00:20.057: pe=1.6102 eb=0.0241 ve=0.6237 vn=0.6185 vl=10.000 db=0.50
G1 X-57.49 Y61.70 E13.6887              ; draw dl=0.4@10(10<10>10) de=0.025@0.62(0.62<0.62>0.62) l=0.30x0.50x1.00 r=0.99
;00:00:20.097: pe=1.6104 eb=0.0241 ve=0.6237 vn=0.6186 vl=10.000 db=0.50
G1 X-57.83 Y61.50 E13.7133              ; draw dl=0.4@10(10<10>10) de=0.025@0.62(0.62<0.62>0.62) l=0.30x0.50x1.00 r=0.99
;00:00:20.136: pe=1.6106 eb=0.0241 ve=0.6237 vn=0.6187 vl=10.000 db=0.50
G1 X-58.25 Y61.42 E13.7400              ; draw dl=0.4@10(10<10>10) de=0.027@0.62(0.62<0.62>0.62) l=0.30x0.50x1.00 r=0.99
;00:00:20.179: pe=1.6108 eb=0.0241 ve=0.6237 vn=0.6188 vl=10.000 db=0.50
G1 X-58.65 Y61.48 E13.7652              ; draw dl=0.4@10(10<10>10) de=0.025@0.62(0.62<0.62>0.62) l=0.30x0.50x1.00 r=0.99
;00:00:20.219: pe=1.6110 eb=0.0241 ve=0.6237 vn=0.6189 vl=10.000 db=0.50
G1 X-58.97 Y61.65 E13.7878              ; draw dl=0.4@10(10<10>10) de=0.023@0.62(0.62<0.62>0.62) l=0.30x0.50x1.00 r=0.99
;00:00:20.256: pe=1.6112 eb=0.0241 ve=0.6237 vn=0.6189 vl=10.000 db=0.50
G1 X-59.19 Y61.92 E13.8095              ; draw dl=0.3@10(10<10>10) de=0.022@0.62(0.62<0.62>0.62) l=0.30x0.50x1.00 r=0.99
;00:00:20.291: pe=1.6114 eb=0.0241 ve=0.6237 vn=0.6190 vl=10.000 db=0.50
G1 X-59.29 Y62.28 E13.8328              ; draw dl=0.4@10(10<10>0) de=0.023@0.49(0.62<0.62>0.0) l=0.30x0.50x1.00 r=1.23
;00:00:20.338: pe=1.6061 eb=0.0295 ve=0.0000 vn=0.5088 vl=0.000 db=0.55
G1 E10.2268 F2400                       ; retract de=-3.6061@-40.0 r=1.14
;00:00:20.428: pe=-2.0026 eb=0.0321 ve=-40.0000 vn=0.0000 vl=0.000 db=0.57
G1 Z0.500 F420                          ; hopup dz=0.20@7 h=0.5 r=0.89
;00:00:20.457: pe=-2.0026 eb=0.0321 ve=0.0000 vn=0.0000 vl=0.000 db=0.44
G1 X-67.52 Y59.88 F6000                 ; move dl=8.6@100(0<46>0) de=0.000@0.0(0.0<0.0>0.0) l=0.50x0.50x0.00 r=0.00
;00:00:20.734: pe=-2.0026 eb=0.0000 ve=0.0000 vn=0.0000 vl=0.000 db=0.00
G1 Z0.300 F420                          ; hopdn dz=-0.20@7 h=0.3 r=0.00
;00:00:20.763: pe=-2.0026 eb=0.0000 ve=0.0000 vn=0.0000 vl=0.000 db=0.00
G1 E13.8429 F1800                       ; restore de=3.6162@30.0 r=0.90
;00:00:20.883: pe=1.5938 eb=0.0197 ve=30.0000 vn=0.6962 vl=0.000 db=0.45
G1 X-67.52 Y56.48 E14.0550 F600         ; draw dl=3.4@10(0<10>0) de=0.212@0.59(0.0<0.62>0.0) l=0.30x0.50x1.00 r=1.03
;00:00:21.243: pe=1.5879 eb=0.0289 ve=0.0000 vn=0.5022 vl=0.000 db=0.54
G1 E10.4671 F2400                       ; retract de=-3.5879@-40.0 r=1.13
;00:00:21.333: pe=-2.0025 eb=0.0314 ve=-40.0000 vn=0.0000 vl=0.000 db=0.57
G1 Z0.500 F420                          ; hopup dz=0.20@7 h=0.5 r=0.88
;00:00:21.362: pe=-2.0025 eb=0.0314 ve=0.0000 vn=0.0000 vl=0.000 db=0.44
G1 X-67.52 Y56.98 F6000                 ; move dl=0.5@100(0<11>0) de=0.000@0.0(0.0<0.0>0.0) l=0.50x0.50x0.00 r=0.00
;00:00:21.429: pe=-2.0025 eb=0.0022 ve=0.0000 vn=0.0000 vl=0.000 db=0.12
G1 Z0.300 F420                          ; hopdn dz=-0.20@7 h=0.3 r=0.30
;00:00:21.457: pe=-2.0025 eb=0.0022 ve=0.0000 vn=0.0000 vl=0.000 db=0.15
G1 E14.1015 F1800                       ; restore de=3.6345@30.0 r=0.91
;00:00:21.579: pe=1.6137 eb=0.0204 ve=30.0000 vn=0.7005 vl=0.000 db=0.46
G1 X-67.77 Y56.74 E14.1231 F600         ; draw dl=0.3@10(0<10>10) de=0.022@0.48(0.0<0.62>0.62) l=0.30x0.50x1.00 r=1.23
;00:00:21.623: pe=1.6087 eb=0.0250 ve=0.6237 vn=0.5982 vl=10.000 db=0.51
G1 X-68.16 Y56.49 E14.1520              ; draw dl=0.5@10(10<10>10) de=0.029@0.62(0.62<0.62>0.62) l=0.30x0.50x1.00 r=0.98
;00:00:21.670: pe=1.6094 eb=0.0243 ve=0.6237 vn=0.6142 vl=10.000 db=0.50
G1 X-68.54 Y56.42 E14.1761              ; draw dl=0.4@10(10<10>10) de=0.024@0.62(0.62<0.62>0.62) l=0.30x0.50x1.00 r=0.99
;00:00:21.708: pe=1.6097 eb=0.0241 ve=0.6237 vn=0.6173 vl=10.000 db=0.50
G1 X-68.92 Y56.51 E14.2005              ; draw dl=0.4@10(10<10>10) de=0.024@0.62(0.62<0.62>0.62) l=0.30x0.50x1.00 r=0.99
;00:00:21.747: pe=1.6099 eb=0.0241 ve=0.6237 vn=0.6182 vl=10.000 db=0.50
G1 X-69.22 Y56.77 E14.2252              ; draw dl=0.4@10(10<10>10) de=0.025@0.62(0.62<0.62>0.62) l=0.30x0.50x1.00 r=0.99
;00:00:21.787: pe=1.6101 eb=0.0241 ve=0.6237 vn=0.6185 vl=10.000 db=0.50
G1 X-69.43 Y57.18 E14.2540              ; draw dl=0.5@10(10<10>10) de=0.029@0.62(0.62<0.62>0.62) l=0.30x0.50x1.00 r=0.99
;00:00:21.833: pe=1.6104 eb=0.0241 ve=0.6237 vn=0.6186 vl=10.000 db=0.50
G1 X-69.50 Y57.71 E14.2873              ; draw dl=0.5@10(10<10>10) de=0.033@0.62(0.62<0.62>0.62) l=0.30x0.50x1.00 r=0.99
;00:00:21.886: pe=1.6106 eb=0.0241 ve=0.6237 vn=0.6187 vl=10.000 db=0.50
G1 X-69.44 Y58.22 E14.3193              ; draw dl=0.5@10(10<10>10) de=0.032@0.62(0.62<0.62>0.62) l=0.30x0.50x1.00 r=0.99
;00:00:21.938: pe=1.6109 eb=0.0241 ve=0.6237 vn=0.6188 vl=10.000 db=0.50
G1 X-69.26 Y58.61 E14.3461              ; draw dl=0.4@10(10<10>10) de=0.027@0.62(0.62<0.62>0.62) l=0.30x0.50x1.00 r=0.99
;00:00:21.981: pe=1.6111 eb=0.0241 ve=0.6237 vn=0.6189 vl=10.000 db=0.50
G1 X-68.97 Y58.86 E14.3700              ; draw dl=0.4@10(10<10>10) de=0.024@0.62(0.62<0.62>0.62) l=0.30x0.50x1.00 r=0.99
;00:00:22.019: pe=1.6113 eb=0.0241 ve=0.6237 vn=0.6190 vl=10.000 db=0.50
G1 X-68.57 Y58.95 E14.3956              ; draw dl=0.4@10(10<10>10) de=0.026@0.62(0.62<0.62>0.62) l=0.30x0.50x1.00 r=0.99
;00:00:22.060: pe=1.6115 eb=0.0241 ve=0.6237 vn=0.6190 vl=10.000 db=0.50
G1 X-68.38 Y58.93 E14.4075              ; draw dl=0.2@10(10<10>10) de=0.012@0.62(0.62<0.62>0.62) l=0.30x0.50x1.00 r=0.99
;00:00:22.079: pe=1.6115 eb=0.0241 ve=0.6237 vn=0.6191 vl=10.000 db=0.50
G1 X-68.18 Y58.85 E14.4209              ; draw dl=0.2@10(10<10>10) de=0.013@0.62(0.62<0.62>0.62) l=0.30x0.50x1.00 r=0.99
;00:00:22.101: pe=1.6116 eb=0.0241 ve=0.6237 vn=0.6191 vl=10.000 db=0.50
G1 X-67.97 Y58.72 E14.4363              ; draw dl=0.2@10(10<10>10) de=0.015@0.62(0.62<0.62>0.62) l=0.30x0.50x1.00 r=0.99
;00:00:22.125: pe=1.6117 eb=0.0241 ve=0.6236 vn=0.6191 vl=10.000 db=0.50
G1 X-67.77 Y58.50 E14.4549              ; draw dl=0.3@10(10<10>10) de=0.019@0.62(0.62<0.62>0.62) l=0.30x0.50x1.00 r=0.99
;00:00:22.155: pe=1.6119 eb=0.0241 ve=0.6236 vn=0.6192 vl=10.000 db=0.50
G1 X-67.52 Y58.03 E14.4881              ; draw dl=0.5@10(10<10>0) de=0.033@0.53(0.62<0.62>0.0) l=0.30x0.50x1.00 r=1.16
;00:00:22.218: pe=1.6066 eb=0.0295 ve=0.0000 vn=0.5090 vl=0.000 db=0.55
G1 E10.8814 F2400                       ; retract de=-3.6066@-40.0 r=1.15
;00:00:22.309: pe=-2.0026 eb=0.0321 ve=-40.0000 vn=0.0000 vl=0.000 db=0.57
G1 Z0.500 F420                          ; hopup dz=0.20@7 h=0.5 r=0.89
;00:00:22.337: pe=-2.0026 eb=0.0321 ve=0.0000 vn=0.0000 vl=0.000 db=0.44
G1 X-66.46 Y58.89 F6000                 ; move dl=1.4@100(0<18>0) de=0.000@0.0(0.0<0.0>0.0) l=0.50x0.50x0.00 r=0.00
;00:00:22.448: pe=-2.0026 eb=0.0000 ve=0.0000 vn=0.0000 vl=0.000 db=0.00
G1 Z0.300 F420                          ; hopdn dz=-0.20@7 h=0.3 r=0.00
;00:00:22.476: pe=-2.0026 eb=0.0000 ve=0.0000 vn=0.0000 vl=0.000 db=0.00
G1 E14.4894 F1800                       ; restore de=3.6079@30.0 r=0.89
;00:00:22.597: pe=1.5858 eb=0.0195 ve=30.0000 vn=0.6926 vl=0.000 db=0.45
G1 X-65.29 Y56.44 E14.6587 F600         ; draw dl=2.7@10(0<10>0) de=0.169@0.58(0.0<0.62>0.0) l=0.30x0.50x1.00 r=1.03
;00:00:22.888: pe=1.5799 eb=0.0286 ve=0.0000 vn=0.4993 vl=0.000 db=0.54
G1 E11.0788 F2400                       ; retract de=-3.5799@-40.0 r=1.13
;00:00:22.978: pe=-2.0025 eb=0.0311 ve=-40.0000 vn=0.0000 vl=0.000 db=0.56
G1 Z0.500 F420                          ; hopup dz=0.20@7 h=0.5 r=0.87
;00:00:23.006: pe=-2.0025 eb=0.0311 ve=0.0000 vn=0.0000 vl=0.000 db=0.44
G1 X-66.29 Y55.57 F6000                 ; move dl=1.3@100(0<18>0) de=0.000@0.0(0.0<0.0>0.0) l=0.50x0.50x0.00 r=0.00
;00:00:23.116: pe=-2.0025 eb=0.0000 ve=0.0000 vn=0.0000 vl=0.000 db=0.00
G1 Z0.300 F420                          ; hopdn dz=-0.20@7 h=0.3 r=0.00
;00:00:23.144: pe=-2.0025 eb=0.0000 ve=0.0000 vn=0.0000 vl=0.000 db=0.00
G1 E14.7068 F1800                       ; restore de=3.6281@30.0 r=0.90
;00:00:23.265: pe=1.6055 eb=0.0200 ve=30.0000 vn=0.7013 vl=0.000 db=0.45
G1 X-66.19 Y55.56 E14.7131 F600         ; draw dl=0.1@10(0<10>10) de=0.006@0.31(0.0<0.62>0.62) l=0.30x0.50x1.00 r=1.95
;00:00:23.285: pe=1.5996 eb=0.0259 ve=0.6236 vn=0.5713 vl=10.000 db=0.51
G1 X-66.10 Y55.56 E14.7187              ; draw dl=0.1@10(10<10>10) de=0.006@0.62(0.62<0.62>0.62) l=0.30x0.50x1.00 r=0.92
;00:00:23.294: pe=1.6000 eb=0.0253 ve=0.6236 vn=0.5827 vl=10.000 db=0.51
G1 X-65.84 Y55.62 E14.7353              ; draw dl=0.3@10(10<10>10) de=0.017@0.62(0.62<0.62>0.62) l=0.30x0.50x1.00 r=0.95
;00:00:23.321: pe=1.6008 eb=0.0244 ve=0.6236 vn=0.6022 vl=10.000 db=0.50
G1 X-65.63 Y55.78 E14.7518              ; draw dl=0.3@10(10<10>10) de=0.016@0.62(0.62<0.62>0.62) l=0.30x0.50x1.00 r=0.97
;00:00:23.347: pe=1.6013 eb=0.0241 ve=0.6236 vn=0.6100 vl=10.000 db=0.50
G1 X-65.45 Y56.06 E14.7726              ; draw dl=0.3@10(10<10>10) de=0.021@0.62(0.62<0.62>0.62) l=0.30x0.50x1.00 r=0.98
;00:00:23.380: pe=1.6016 eb=0.0239 ve=0.6236 vn=0.6137 vl=10.000 db=0.49
G1 X-65.29 Y56.44 E14.7983              ; draw dl=0.4@10(10<10>10) de=0.026@0.62(0.62<0.62>0.62) l=0.30x0.50x1.00 r=0.99
;00:00:23.422: pe=1.6020 eb=0.0239 ve=0.6236 vn=0.6151 vl=10.000 db=0.49
G1 X-64.41 Y58.89 E14.9606              ; draw dl=2.6@10(10<10>0) de=0.162@0.6(0.62<0.62>0.0) l=0.30x0.50x1.00 r=1.02
;00:00:23.692: pe=1.5986 eb=0.0292 ve=0.0000 vn=0.5061 vl=0.000 db=0.55
G1 E11.3620 F2400                       ; retract de=-3.5986@-40.0 r=1.14
;00:00:23.782: pe=-2.0026 eb=0.0318 ve=-40.0000 vn=0.0000 vl=0.000 db=0.57
G1 Z0.500 F420                          ; hopup dz=0.20@7 h=0.5 r=0.88
;00:00:23.811: pe=-2.0026 eb=0.0318 ve=0.0000 vn=0.0000 vl=0.000 db=0.44
G1 X-63.35 Y58.76 F6000                 ; move dl=1.1@100(0<16>0) de=0.000@0.0(0.0<0.0>0.0) l=0.50x0.50x0.00 r=0.00
;00:00:23.909: pe=-2.0026 eb=0.0000 ve=0.0000 vn=0.0000 vl=0.000 db=0.00
G1 Z0.300 F420                          ; hopdn dz=-0.20@7 h=0.3 r=0.00
;00:00:23.937: pe=-2.0026 eb=0.0000 ve=0.0000 vn=0.0000 vl=0.000 db=0.00
G1 E14.9623 F1800                       ; restore de=3.6003@30.0 r=0.89
;00:00:24.057: pe=1.5784 eb=0.0194 ve=30.0000 vn=0.6892 vl=0.000 db=0.44
G1 X-63.35 Y56.48 E15.1045 F600         ; draw dl=2.3@10(0<10>0) de=0.142@0.57(0.0<0.62>0.0) l=0.30x0.50x1.00 r=1.04
;00:00:24.305: pe=1.5725 eb=0.0284 ve=0.0000 vn=0.4965 vl=0.000 db=0.54
G1 E11.5320 F2400                       ; retract de=-3.5725@-40.0 r=1.12
;00:00:24.394: pe=-2.0025 eb=0.0308 ve=-40.0000 vn=0.0000 vl=0.000 db=0.56
G1 Z0.500 F420                          ; hopup dz=0.20@7 h=0.5 r=0.87
;00:00:24.423: pe=-2.0025 eb=0.0308 ve=0.0000 vn=0.0000 vl=0.000 db=0.43
G1 X-63.35 Y57.89 F6000                 ; move dl=1.4@100(0<19>0) de=0.000@0.0(0.0<0.0>0.0) l=0.50x0.50x0.00 r=0.00
;00:00:24.536: pe=-2.0025 eb=0.0000 ve=0.0000 vn=0.0000 vl=0.000 db=0.00
G1 Z0.300 F420                          ; hopdn dz=-0.20@7 h=0.3 r=0.00
;00:00:24.564: pe=-2.0025 eb=0.0000 ve=0.0000 vn=0.0000 vl=0.000 db=0.00
G1 E15.1577 F1800                       ; restore de=3.6257@30.0 r=0.90
;00:00:24.685: pe=1.6032 eb=0.0200 ve=30.0000 vn=0.7003 vl=0.000 db=0.45
G1 X-63.11 Y58.34 E15.1895 F600         ; draw dl=0.5@10(0<10>10) de=0.032@0.52(0.0<0.62>0.62) l=0.30x0.50x1.00 r=1.14
;00:00:24.746: pe=1.5987 eb=0.0243 ve=0.6236 vn=0.6035 vl=10.000 db=0.50
G1 X-62.92 Y58.67 E15.2132              ; draw dl=0.4@10(10<10>10) de=0.024@0.62(0.62<0.62>0.62) l=0.30x0.50x1.00 r=0.98
;00:00:24.784: pe=1.5993 eb=0.0239 ve=0.6236 vn=0.6116 vl=10.000 db=0.49
G1 X-62.70 Y58.86 E15.2313              ; draw dl=0.3@10(10<10>10) de=0.018@0.62(0.62<0.62>0.62) l=0.30x0.50x1.00 r=0.98
;00:00:24.813: pe=1.5996 eb=0.0238 ve=0.6236 vn=0.6135 vl=10.000 db=0.49
G1 X-62.49 Y58.93 E15.2451              ; draw dl=0.2@10(10<10>10) de=0.014@0.62(0.62<0.62>0.62) l=0.30x0.50x1.00 r=0.98
;00:00:24.835: pe=1.5998 eb=0.0238 ve=0.6236 vn=0.6142 vl=10.000 db=0.49
G1 X-62.28 Y58.95 E15.2583              ; draw dl=0.2@10(10<10>10) de=0.013@0.62(0.62<0.62>0.62) l=0.30x0.50x1.00 r=0.99
;00:00:24.857: pe=1.6000 eb=0.0238 ve=0.6236 vn=0.6145 vl=10.000 db=0.49
G1 X-61.95 Y58.88 E15.2793              ; draw dl=0.3@10(10<10>10) de=0.021@0.62(0.62<0.62>0.62) l=0.30x0.50x1.00 r=0.99
;00:00:24.890: pe=1.6003 eb=0.0238 ve=0.6236 vn=0.6148 vl=10.000 db=0.49
G1 X-61.77 Y58.73 E15.2940              ; draw dl=0.2@10(10<10>10) de=0.015@0.62(0.62<0.62>0.62) l=0.30x0.50x1.00 r=0.99
;00:00:24.914: pe=1.6005 eb=0.0238 ve=0.6236 vn=0.6149 vl=10.000 db=0.49
G1 X-61.67 Y58.40 E15.3155              ; draw dl=0.3@10(10<10>10) de=0.022@0.62(0.62<0.62>0.62) l=0.30x0.50x1.00 r=0.99
;00:00:24.948: pe=1.6008 eb=0.0238 ve=0.6236 vn=0.6150 vl=10.000 db=0.49
G1 X-61.61 Y58.08 E15.3358              ; draw dl=0.3@10(10<10>10) de=0.020@0.62(0.62<0.62>0.62) l=0.30x0.50x1.00 r=0.99
;00:00:24.981: pe=1.6011 eb=0.0238 ve=0.6236 vn=0.6151 vl=10.000 db=0.49
G1 X-61.61 Y56.48 E15.4355              ; draw dl=1.6@10(10<10>0) de=0.100@0.59(0.62<0.62>0.0) l=0.30x0.50x1.00 r=1.04
;00:00:25.151: pe=1.5970 eb=0.0292 ve=0.0000 vn=0.5055 vl=0.000 db=0.55
G1 E11.8386 F2400                       ; retract de=-3.5970@-40.0 r=1.14
;00:00:25.241: pe=-2.0026 eb=0.0317 ve=-40.0000 vn=0.0000 vl=0.000 db=0.57
G1 Z0.500 F420                          ; hopup dz=0.20@7 h=0.5 r=0.88
;00:00:25.269: pe=-2.0026 eb=0.0317 ve=0.0000 vn=0.0000 vl=0.000 db=0.44
G1 X-60.55 Y56.48 F6000                 ; move dl=1.1@100(0<16>0) de=0.000@0.0(0.0<0.0>0.0) l=0.50x0.50x0.00 r=0.00
;00:00:25.367: pe=-2.0026 eb=0.0000 ve=0.0000 vn=0.0000 vl=0.000 db=0.00
G1 Z0.300 F420                          ; hopdn dz=-0.20@7 h=0.3 r=0.00
;00:00:25.395: pe=-2.0026 eb=0.0000 ve=0.0000 vn=0.0000 vl=0.000 db=0.00
G1 E15.4415 F1800                       ; restore de=3.6029@30.0 r=0.89
;00:00:25.516: pe=1.5809 eb=0.0194 ve=30.0000 vn=0.6904 vl=0.000 db=0.45
G1 X-60.55 Y58.89 E15.5918 F600         ; draw dl=2.4@10(0<10>0) de=0.150@0.58(0.0<0.62>0.0) l=0.30x0.50x1.00 r=1.04
;00:00:25.777: pe=1.5751 eb=0.0284 ve=0.0000 vn=0.4975 vl=0.000 db=0.54
G1 E12.0167 F2400                       ; retract de=-3.5751@-40.0 r=1.12
;00:00:25.866: pe=-2.0025 eb=0.0309 ve=-40.0000 vn=0.0000 vl=0.000 db=0.56
G1 Z0.500 F420                          ; hopup dz=0.20@7 h=0.5 r=0.87
;00:00:25.895: pe=-2.0025 eb=0.0309 ve=0.0000 vn=0.0000 vl=0.000 db=0.44
G1 X-60.55 Y58.20 F6000                 ; move dl=0.7@100(0<13>0) de=0.000@0.0(0.0<0.0>0.0) l=0.50x0.50x0.00 r=0.00
;00:00:25.973: pe=-2.0025 eb=0.0000 ve=0.0000 vn=0.0000 vl=0.000 db=0.00
G1 Z0.300 F420                          ; hopdn dz=-0.20@7 h=0.3 r=0.00
;00:00:26.002: pe=-2.0025 eb=0.0000 ve=0.0000 vn=0.0000 vl=0.000 db=0.00
G1 E15.6143 F1800                       ; restore de=3.5975@30.0 r=0.89
;00:00:26.122: pe=1.5758 eb=0.0193 ve=30.0000 vn=0.6881 vl=0.000 db=0.44
G1 X-60.30 Y58.55 E15.6411 F600         ; draw dl=0.4@10(0<10>10) de=0.027@0.51(0.0<0.62>0.62) l=0.30x0.50x1.00 r=1.16
;00:00:26.175: pe=1.5716 eb=0.0236 ve=0.6236 vn=0.5899 vl=10.000 db=0.49
G1 X-60.09 Y58.76 E15.6596              ; draw dl=0.3@10(10<10>10) de=0.019@0.62(0.62<0.62>0.62) l=0.30x0.50x1.00 r=0.95
;00:00:26.205: pe=1.5724 eb=0.0232 ve=0.6236 vn=0.5993 vl=10.000 db=0.49
G1 X-59.89 Y58.88 E15.6742              ; draw dl=0.2@10(10<10>10) de=0.015@0.62(0.62<0.62>0.62) l=0.30x0.50x1.00 r=0.96
;00:00:26.228: pe=1.5730 eb=0.0231 ve=0.6237 vn=0.6023 vl=10.000 db=0.49
G1 X-59.70 Y58.94 E15.6866              ; draw dl=0.2@10(10<10>10) de=0.012@0.62(0.62<0.62>0.62) l=0.30x0.50x1.00 r=0.97
;00:00:26.248: pe=1.5734 eb=0.0230 ve=0.6236 vn=0.6036 vl=10.000 db=0.48
G1 X-59.54 Y58.95 E15.6966              ; draw dl=0.2@10(10<10>10) de=0.010@0.62(0.62<0.62>0.62) l=0.30x0.50x1.00 r=0.97
;00:00:26.264: pe=1.5737 eb=0.0230 ve=0.6237 vn=0.6042 vl=10.000 db=0.48
G1 X-59.49 Y58.95 E15.6997              ; draw dl=0.1@10(10<10>7) de=0.003@0.54(0.62<0.62>0.45) l=0.30x0.50x1.00 r=1.12
;00:00:26.270: pe=1.5733 eb=0.0235 ve=0.4453 vn=0.5940 vl=7.141 db=0.49
G1 X-59.44 Y58.94 E15.7029              ; draw dl=0.1@10(7<7>0) de=0.003@0.22(0.45<0.45>0.0) l=0.30x0.50x1.00 r=2.49
;00:00:26.284: pe=1.5686 eb=0.0282 ve=0.0000 vn=0.4948 vl=0.000 db=0.54
G1 E12.1343 F2400                       ; retract de=-3.5686@-40.0 r=1.12
;00:00:26.373: pe=-2.0025 eb=0.0307 ve=-40.0000 vn=0.0000 vl=0.000 db=0.56
G1 Z0.500 F420                          ; hopup dz=0.20@7 h=0.5 r=0.87
;00:00:26.402: pe=-2.0025 eb=0.0307 ve=0.0000 vn=0.0000 vl=0.000 db=0.43
G1 X-58.38 Y57.69 F6000                 ; move dl=1.6@100(0<20>0) de=0.000@0.0(0.0<0.0>0.0) l=0.50x0.50x0.00 r=0.00
;00:00:26.523: pe=-2.0025 eb=0.0000 ve=0.0000 vn=0.0000 vl=0.000 db=0.00
G1 Z0.300 F420                          ; hopdn dz=-0.20@7 h=0.3 r=0.00
;00:00:26.552: pe=-2.0025 eb=0.0000 ve=0.0000 vn=0.0000 vl=0.000 db=0.00
G1 E15.7731 F1800                       ; restore de=3.6387@30.0 r=0.91
;00:00:26.673: pe=1.6160 eb=0.0203 ve=30.0000 vn=0.7060 vl=0.000 db=0.46
G1 X-56.24 Y57.69 E15.9065 F600         ; draw dl=2.1@10(0<10>10) de=0.133@0.6(0.0<0.62>0.6) l=0.30x0.50x1.00 r=1.03
;00:00:26.897: pe=1.6122 eb=0.0242 ve=0.6039 vn=0.6191 vl=9.683 db=0.50
G1 X-56.32 Y58.22 E15.9399              ; draw dl=0.5@10(10<10>10) de=0.033@0.62(0.6<0.62>0.62) l=0.30x0.50x1.00 r=0.99
;00:00:26.951: pe=1.6124 eb=0.0242 ve=0.6237 vn=0.6193 vl=10.000 db=0.50
G1 X-56.53 Y58.61 E15.9676              ; draw dl=0.4@10(10<10>10) de=0.028@0.62(0.62<0.62>0.62) l=0.30x0.50x1.00 r=0.99
;00:00:26.995: pe=1.6126 eb=0.0242 ve=0.6236 vn=0.6195 vl=10.000 db=0.50
G1 X-56.87 Y58.86 E15.9939              ; draw dl=0.4@10(10<10>10) de=0.026@0.62(0.62<0.62>0.62) l=0.30x0.50x1.00 r=0.99
;00:00:27.037: pe=1.6128 eb=0.0242 ve=0.6236 vn=0.6195 vl=10.000 db=0.50
G1 X-57.31 Y58.95 E16.0219              ; draw dl=0.4@10(10<10>10) de=0.028@0.62(0.62<0.62>0.62) l=0.30x0.50x1.00 r=0.99
;00:00:27.082: pe=1.6130 eb=0.0242 ve=0.6237 vn=0.6196 vl=10.000 db=0.50
G1 X-57.74 Y58.86 E16.0493              ; draw dl=0.4@10(10<10>10) de=0.027@0.62(0.62<0.62>0.62) l=0.30x0.50x1.00 r=0.99
;00:00:27.126: pe=1.6131 eb=0.0242 ve=0.6236 vn=0.6197 vl=10.000 db=0.50
G1 X-58.08 Y58.61 E16.0756              ; draw dl=0.4@10(10<10>10) de=0.026@0.62(0.62<0.62>0.62) l=0.30x0.50x1.00 r=0.99
;00:00:27.168: pe=1.6133 eb=0.0242 ve=0.6236 vn=0.6197 vl=10.000 db=0.50
G1 X-58.30 Y58.22 E16.1035              ; draw dl=0.4@10(10<10>10) de=0.028@0.62(0.62<0.62>0.62) l=0.30x0.50x1.00 r=0.99
;00:00:27.213: pe=1.6135 eb=0.0242 ve=0.6236 vn=0.6198 vl=10.000 db=0.50
G1 X-58.38 Y57.69 E16.1370              ; draw dl=0.5@10(10<10>10) de=0.033@0.62(0.62<0.62>0.62) l=0.30x0.50x1.00 r=0.99
;00:00:27.267: pe=1.6137 eb=0.0242 ve=0.6237 vn=0.6199 vl=10.000 db=0.50
G1 X-58.30 Y57.15 E16.1710              ; draw dl=0.5@10(10<10>10) de=0.034@0.62(0.62<0.62>0.62) l=0.30x0.50x1.00 r=0.99
;00:00:27.321: pe=1.6139 eb=0.0242 ve=0.6237 vn=0.6200 vl=10.000 db=0.50
G1 X-58.07 Y56.75 E16.1998              ; draw dl=0.5@10(10<10>10) de=0.029@0.62(0.62<0.62>0.62) l=0.30x0.50x1.00 r=0.99
;00:00:27.367: pe=1.6140 eb=0.0242 ve=0.6237 vn=0.6200 vl=10.000 db=0.50
G1 X-57.72 Y56.51 E16.2263              ; draw dl=0.4@10(10<10>10) de=0.026@0.62(0.62<0.62>0.62) l=0.30x0.50x1.00 r=0.99
;00:00:27.410: pe=1.6142 eb=0.0242 ve=0.6237 vn=0.6201 vl=10.000 db=0.50
G1 X-57.26 Y56.42 E16.2555              ; draw dl=0.5@10(10<10>10) de=0.029@0.62(0.62<0.62>0.62) l=0.30x0.50x1.00 r=0.99
;00:00:27.457: pe=1.6144 eb=0.0242 ve=0.6237 vn=0.6201 vl=10.000 db=0.50
G1 X-56.92 Y56.47 E16.2769              ; draw dl=0.3@10(10<10>10) de=0.021@0.62(0.62<0.62>0.62) l=0.30x0.50x1.00 r=0.99
;00:00:27.491: pe=1.6145 eb=0.0242 ve=0.6236 vn=0.6202 vl=10.000 db=0.50
G1 X-56.63 Y56.61 E16.2970              ; draw dl=0.3@10(10<10>10) de=0.020@0.62(0.62<0.62>0.62) l=0.30x0.50x1.00 r=0.99
;00:00:27.523: pe=1.6146 eb=0.0242 ve=0.6236 vn=0.6202 vl=10.000 db=0.50
G1 X-56.42 Y56.83 E16.3160              ; draw dl=0.3@10(10<10>10) de=0.019@0.62(0.62<0.62>0.62) l=0.30x0.50x1.00 r=0.99
;00:00:27.554: pe=1.6147 eb=0.0242 ve=0.6236 vn=0.6203 vl=10.000 db=0.50
G1 X-56.30 Y57.13 E16.3361              ; draw dl=0.3@10(10<10>0) de=0.020@0.48(0.62<0.62>0.0) l=0.30x0.50x1.00 r=1.27
;00:00:27.596: pe=1.6093 eb=0.0296 ve=0.0000 vn=0.5100 vl=0.000 db=0.55
G1 E12.7268 F2400                       ; retract de=-3.6093@-40.0 r=1.15
;00:00:27.686: pe=-2.0026 eb=0.0322 ve=-40.0000 vn=0.0000 vl=0.000 db=0.57
G1 Z0.500 F420                          ; hopup dz=0.20@7 h=0.5 r=0.89
;00:00:27.715: pe=-2.0026 eb=0.0322 ve=0.0000 vn=0.0000 vl=0.000 db=0.44
G1 X-53.99 Y56.46 F6000                 ; move dl=2.4@100(0<25>0) de=0.000@0.0(0.0<0.0>0.0) l=0.50x0.50x0.00 r=0.00
;00:00:27.862: pe=-2.0026 eb=0.0000 ve=0.0000 vn=0.0000 vl=0.000 db=0.00
G1 Z0.300 F420                          ; hopdn dz=-0.20@7 h=0.3 r=0.00
;00:00:27.890: pe=-2.0026 eb=0.0000 ve=0.0000 vn=0.0000 vl=0.000 db=0.00
G1 E16.3496 F1800                       ; restore de=3.6228@30.0 r=0.90
;00:00:28.011: pe=1.6003 eb=0.0199 ve=30.0000 vn=0.6990 vl=0.000 db=0.45
G1 X-54.14 Y56.45 E16.3589 F600         ; draw dl=0.2@10(0<10>10) de=0.009@0.37(0.0<0.62>0.62) l=0.30x0.50x1.00 r=1.60
;00:00:28.036: pe=1.5946 eb=0.0254 ve=0.6236 vn=0.5760 vl=10.000 db=0.51
G1 X-54.32 Y56.50 E16.3706              ; draw dl=0.2@10(10<10>10) de=0.012@0.62(0.62<0.62>0.62) l=0.30x0.50x1.00 r=0.94
;00:00:28.055: pe=1.5953 eb=0.0246 ve=0.6236 vn=0.5935 vl=10.000 db=0.50
G1 X-54.48 Y56.62 E16.3830              ; draw dl=0.2@10(10<10>10) de=0.012@0.62(0.62<0.62>0.62) l=0.30x0.50x1.00 r=0.96
;00:00:28.075: pe=1.5958 eb=0.0241 ve=0.6236 vn=0.6034 vl=10.000 db=0.50
G1 X-54.60 Y56.81 E16.3971              ; draw dl=0.2@10(10<10>10) de=0.014@0.62(0.62<0.62>0.62) l=0.30x0.50x1.00 r=0.97
;00:00:28.097: pe=1.5962 eb=0.0239 ve=0.6236 vn=0.6088 vl=10.000 db=0.49
G1 X-54.68 Y57.19 E16.4213              ; draw dl=0.4@10(10<10>10) de=0.024@0.62(0.62<0.62>0.62) l=0.30x0.50x1.00 r=0.98
;00:00:28.136: pe=1.5967 eb=0.0237 ve=0.6236 vn=0.6123 vl=10.000 db=0.49
G1 X-54.68 Y59.52 E16.5666              ; draw dl=2.3@10(10<10>0) de=0.145@0.6(0.62<0.62>0.0) l=0.30x0.50x1.00 r=1.02
;00:00:28.379: pe=1.5936 eb=0.0291 ve=0.0000 vn=0.5043 vl=0.000 db=0.54
G1 E12.9730 F2400                       ; retract de=-3.5936@-40.0 r=1.14
;00:00:28.469: pe=-2.0026 eb=0.0316 ve=-40.0000 vn=0.0000 vl=0.000 db=0.57
G1 Z0.500 F420                          ; hopup dz=0.20@7 h=0.5 r=0.88
;00:00:28.498: pe=-2.0026 eb=0.0316 ve=0.0000 vn=0.0000 vl=0.000 db=0.44
G1 X-55.18 Y58.76 F6000                 ; move dl=0.9@100(0<15>0) de=0.000@0.0(0.0<0.0>0.0) l=0.50x0.50x0.00 r=0.00
;00:00:28.588: pe=-2.0026 eb=0.0000 ve=0.0000 vn=0.0000 vl=0.000 db=0.00
G1 Z0.300 F420                          ; hopdn dz=-0.20@7 h=0.3 r=0.00
;00:00:28.617: pe=-2.0026 eb=0.0000 ve=0.0000 vn=0.0000 vl=0.000 db=0.00
G1 E16.5262 F1800                       ; restore de=3.5532@30.0 r=0.86
;00:00:28.735: pe=1.5324 eb=0.0183 ve=30.0000 vn=0.6691 vl=0.000 db=0.43
G1 X-54.10 Y58.76 E16.5936 F600         ; draw dl=1.1@10(0<10>0) de=0.067@0.53(0.0<0.62>0.0) l=0.30x0.50x1.00 r=1.09
;00:00:28.863: pe=1.5266 eb=0.0269 ve=0.0000 vn=0.4788 vl=0.000 db=0.52
G1 E13.0669 F2400                       ; retract de=-3.5266@-40.0 r=1.09
;00:00:28.951: pe=-2.0023 eb=0.0292 ve=-40.0000 vn=0.0000 vl=0.000 db=0.55
G1 Z0.500 F420                          ; hopup dz=0.20@7 h=0.5 r=0.85
;00:00:28.980: pe=-2.0023 eb=0.0292 ve=0.0000 vn=0.0000 vl=0.000 db=0.42
G1 X-52.92 Y58.26 F6000                 ; move dl=1.3@100(0<18>0) de=0.000@0.0(0.0<0.0>0.0) l=0.50x0.50x0.00 r=0.00
;00:00:29.087: pe=-2.0023 eb=0.0000 ve=0.0000 vn=0.0000 vl=0.000 db=0.00
G1 Z0.300 F420                          ; hopdn dz=-0.20@7 h=0.3 r=0.00
;00:00:29.116: pe=-2.0023 eb=0.0000 ve=0.0000 vn=0.0000 vl=0.000 db=0.00
G1 E16.6514 F1800                       ; restore de=3.5844@30.0 r=0.88
;00:00:29.235: pe=1.5631 eb=0.0190 ve=30.0000 vn=0.6826 vl=0.000 db=0.44
G1 X-51.23 Y58.26 E16.7568 F600         ; draw dl=1.7@10(0<10>0) de=0.105@0.56(0.0<0.62>0.0) l=0.30x0.50x1.00 r=1.06
;00:00:29.424: pe=1.5573 eb=0.0279 ve=0.0000 vn=0.4909 vl=0.000 db=0.53
G1 E13.1994 F2400                       ; retract de=-3.5573@-40.0 r=1.11
;00:00:29.513: pe=-2.0024 eb=0.0303 ve=-40.0000 vn=0.0000 vl=0.000 db=0.56
G1 Z0.500 F420                          ; hopup dz=0.20@7 h=0.5 r=0.86
;00:00:29.542: pe=-2.0024 eb=0.0303 ve=0.0000 vn=0.0000 vl=0.000 db=0.43
G1 X-51.23 Y57.55 F6000                 ; move dl=0.7@100(0<13>0) de=0.000@0.0(0.0<0.0>0.0) l=0.50x0.50x0.00 r=0.00
;00:00:29.622: pe=-2.0024 eb=0.0000 ve=0.0000 vn=0.0000 vl=0.000 db=0.00
G1 Z0.300 F420                          ; hopdn dz=-0.20@7 h=0.3 r=0.00
;00:00:29.650: pe=-2.0024 eb=0.0000 ve=0.0000 vn=0.0000 vl=0.000 db=0.00
G1 E16.7840 F1800                       ; restore de=3.5845@30.0 r=0.88
;00:00:29.770: pe=1.5631 eb=0.0190 ve=30.0000 vn=0.6826 vl=0.000 db=0.44
G1 X-52.92 Y57.55 E16.8894 F600         ; draw dl=1.7@10(0<10>0) de=0.105@0.56(0.0<0.62>0.0) l=0.30x0.50x1.00 r=1.06
;00:00:29.959: pe=1.5573 eb=0.0279 ve=0.0000 vn=0.4909 vl=0.000 db=0.53
G1 E13.3320 F2400                       ; retract de=-3.5573@-40.0 r=1.11
;00:00:30.048: pe=-2.0024 eb=0.0303 ve=-40.0000 vn=0.0000 vl=0.000 db=0.56
G1 Z0.500 F420                          ; hopup dz=0.20@7 h=0.5 r=0.86
;00:00:30.076: pe=-2.0024 eb=0.0303 ve=0.0000 vn=0.0000 vl=0.000 db=0.43
G1 X-48.95 Y59.94 F6000                 ; move dl=4.6@100(0<34>0) de=0.000@0.0(0.0<0.0>0.0) l=0.50x0.50x0.00 r=0.00
;00:00:30.280: pe=-2.0024 eb=0.0000 ve=0.0000 vn=0.0000 vl=0.000 db=0.00
G1 Z0.300 F420                          ; hopdn dz=-0.20@7 h=0.3 r=0.00
;00:00:30.309: pe=-2.0024 eb=0.0000 ve=0.0000 vn=0.0000 vl=0.000 db=0.00
G1 E16.9715 F1800                       ; restore de=3.6395@30.0 r=0.91
;00:00:30.430: pe=1.6167 eb=0.0203 ve=30.0000 vn=0.7063 vl=0.000 db=0.46
G1 X-48.44 Y59.80 E17.0045 F600         ; draw dl=0.5@10(0<10>10) de=0.033@0.52(0.0<0.62>0.62) l=0.30x0.50x1.00 r=1.15
;00:00:30.493: pe=1.6119 eb=0.0246 ve=0.6236 vn=0.6091 vl=10.000 db=0.50
G1 X-48.05 Y59.42 E17.0384              ; draw dl=0.5@10(10<10>10) de=0.034@0.62(0.62<0.62>0.62) l=0.30x0.50x1.00 r=0.99
;00:00:30.548: pe=1.6124 eb=0.0242 ve=0.6236 vn=0.6178 vl=10.000 db=0.50
G1 X-47.81 Y58.86 E17.0764              ; draw dl=0.6@10(10<10>10) de=0.038@0.62(0.62<0.62>0.62) l=0.30x0.50x1.00 r=0.99
;00:00:30.609: pe=1.6127 eb=0.0242 ve=0.6236 vn=0.6193 vl=10.000 db=0.50
G1 X-47.73 Y58.18 E17.1191              ; draw dl=0.7@10(10<10>10) de=0.043@0.62(0.62<0.62>0.62) l=0.30x0.50x1.00 r=0.99
;00:00:30.677: pe=1.6129 eb=0.0242 ve=0.6236 vn=0.6196 vl=10.000 db=0.50
G1 X-47.81 Y57.51 E17.1612              ; draw dl=0.7@10(10<10>10) de=0.042@0.62(0.62<0.62>0.62) l=0.30x0.50x1.00 r=0.99
;00:00:30.745: pe=1.6132 eb=0.0242 ve=0.6236 vn=0.6197 vl=10.000 db=0.50
G1 X-48.05 Y56.95 E17.1992              ; draw dl=0.6@10(10<10>10) de=0.038@0.62(0.62<0.62>0.62) l=0.30x0.50x1.00 r=0.99
;00:00:30.805: pe=1.6134 eb=0.0242 ve=0.6236 vn=0.6198 vl=10.000 db=0.50
G1 X-48.44 Y56.56 E17.2336              ; draw dl=0.6@10(10<10>10) de=0.034@0.62(0.62<0.62>0.62) l=0.30x0.50x1.00 r=0.99
;00:00:30.861: pe=1.6137 eb=0.0242 ve=0.6236 vn=0.6199 vl=10.000 db=0.50
G1 X-48.95 Y56.42 E17.2666              ; draw dl=0.5@10(10<10>10) de=0.033@0.62(0.62<0.62>0.62) l=0.30x0.50x1.00 r=0.99
;00:00:30.914: pe=1.6139 eb=0.0242 ve=0.6236 vn=0.6199 vl=10.000 db=0.50
G1 X-49.47 Y56.56 E17.3002              ; draw dl=0.5@10(10<10>10) de=0.034@0.62(0.62<0.62>0.62) l=0.30x0.50x1.00 r=0.99
;00:00:30.967: pe=1.6140 eb=0.0242 ve=0.6236 vn=0.6200 vl=10.000 db=0.50
G1 X-49.85 Y56.95 E17.3341              ; draw dl=0.5@10(10<10>10) de=0.034@0.62(0.62<0.62>0.62) l=0.30x0.50x1.00 r=0.99
;00:00:31.022: pe=1.6142 eb=0.0242 ve=0.6236 vn=0.6201 vl=10.000 db=0.50
G1 X-50.09 Y57.51 E17.3721              ; draw dl=0.6@10(10<10>10) de=0.038@0.62(0.62<0.62>0.62) l=0.30x0.50x1.00 r=0.99
;00:00:31.083: pe=1.6145 eb=0.0242 ve=0.6236 vn=0.6202 vl=10.000 db=0.50
G1 X-50.17 Y58.18 E17.4142              ; draw dl=0.7@10(10<10>10) de=0.042@0.62(0.62<0.62>0.62) l=0.30x0.50x1.00 r=0.99
;00:00:31.150: pe=1.6147 eb=0.0242 ve=0.6236 vn=0.6203 vl=10.000 db=0.50
G1 X-50.09 Y58.85 E17.4563              ; draw dl=0.7@10(10<10>10) de=0.042@0.62(0.62<0.62>0.62) l=0.30x0.50x1.00 r=0.99
;00:00:31.218: pe=1.6149 eb=0.0242 ve=0.6236 vn=0.6203 vl=10.000 db=0.50
G1 X-49.85 Y59.42 E17.4949              ; draw dl=0.6@10(10<10>10) de=0.039@0.62(0.62<0.62>0.62) l=0.30x0.50x1.00 r=0.99
;00:00:31.280: pe=1.6151 eb=0.0242 ve=0.6236 vn=0.6204 vl=10.000 db=0.50
G1 X-49.47 Y59.80 E17.5284              ; draw dl=0.5@10(10<10>10) de=0.034@0.62(0.62<0.62>0.62) l=0.30x0.50x1.00 r=0.99
;00:00:31.333: pe=1.6153 eb=0.0242 ve=0.6236 vn=0.6205 vl=10.000 db=0.50
G1 X-48.95 Y59.94 E17.5619              ; draw dl=0.5@10(10<10>0) de=0.034@0.53(0.62<0.62>0.0) l=0.30x0.50x1.00 r=1.16
;00:00:31.397: pe=1.6100 eb=0.0296 ve=0.0000 vn=0.5103 vl=0.000 db=0.55
G1 E13.9520 F2400                       ; retract de=-3.6100@-40.0 r=1.15
;00:00:31.487: pe=-2.0026 eb=0.0322 ve=-40.0000 vn=0.0000 vl=0.000 db=0.57
G1 Z0.500 F420                          ; hopup dz=0.20@7 h=0.5 r=0.89
;00:00:31.516: pe=-2.0026 eb=0.0322 ve=0.0000 vn=0.0000 vl=0.000 db=0.44
;structure:shell-outer
G1 X70.00 Y0.00 F6000                   ; move dl=133.2@100(0<100>0) de=0.000@0.0(0.0<0.0>0.0) l=0.50x0.50x0.00 r=0.00
;00:00:33.048: pe=-2.0026 eb=0.0000 ve=0.0000 vn=0.0000 vl=0.000 db=0.00
G1 Z0.300 F420                          ; hopdn dz=-0.20@7 h=0.3 r=0.00
;00:00:33.077: pe=-2.0026 eb=0.0000 ve=0.0000 vn=0.0000 vl=0.000 db=0.00
G1 E17.5977 F1800                       ; restore de=3.6457@30.0 r=0.91
;00:00:33.198: pe=1.6226 eb=0.0204 ve=30.0000 vn=0.7089 vl=0.000 db=0.46
;00:00:33.198: spiral RC0=(70.0,0.000) dRC=(0.0,1.000) dl=439.8@10 de=27.429@0.6 l=0.30x0.50x1.00
G1 X69.73 Y6.10 E17.9785 F600           ; draw dl=6.1@10(0<10>10) de=0.381@0.61(0.0<0.62>0.62) l=0.30x0.50x1.00 r=1.01
;00:00:33.819: pe=1.6190 eb=0.0243 ve=0.6236 vn=0.6219 vl=10.000 db=0.50
G1 X68.94 Y12.16 E18.3594               ; draw dl=6.1@10(10<10>10) de=0.381@0.62(0.62<0.62>0.62) l=0.30x0.50x1.00 r=1.00
;00:00:34.429: pe=1.6200 eb=0.0244 ve=0.6236 vn=0.6222 vl=10.000 db=0.50
G1 X67.61 Y18.12 E18.7402               ; draw dl=6.1@10(10<10>10) de=0.381@0.62(0.62<0.62>0.62) l=0.30x0.50x1.00 r=1.00
;00:00:35.040: pe=1.6207 eb=0.0244 ve=0.6236 vn=0.6225 vl=10.000 db=0.50
G1 X65.78 Y23.94 E19.1210               ; draw dl=6.1@10(10<10>10) de=0.381@0.62(0.62<0.62>0.62) l=0.30x0.50x1.00 r=1.00
;00:00:35.651: pe=1.6213 eb=0.0244 ve=0.6236 vn=0.6228 vl=10.000 db=0.50
G1 X63.44 Y29.58 E19.5019               ; draw dl=6.1@10(10<10>10) de=0.381@0.62(0.62<0.62>0.62) l=0.30x0.50x1.00 r=1.00
;00:00:36.261: pe=1.6218 eb=0.0244 ve=0.6236 vn=0.6229 vl=10.000 db=0.50
G1 X60.62 Y35.00 E19.8827               ; draw dl=6.1@10(10<10>10) de=0.381@0.62(0.62<0.62>0.62) l=0.30x0.50x1.00 r=1.00
;00:00:36.872: pe=1.6222 eb=0.0244 ve=0.6236 vn=0.6231 vl=10.000 db=0.50
G1 X57.34 Y40.15 E20.2635               ; draw dl=6.1@10(10<10>10) de=0.381@0.62(0.62<0.62>0.62) l=0.30x0.50x1.00 r=1.00
;00:00:37.483: pe=1.6225 eb=0.0245 ve=0.6236 vn=0.6232 vl=10.000 db=0.50
G1 X53.62 Y45.00 E20.6443               ; draw dl=6.1@10(10<10>10) de=0.381@0.62(0.62<0.62>0.62) l=0.30x0.50x1.00 r=1.00
;00:00:38.093: pe=1.6227 eb=0.0245 ve=0.6236 vn=0.6233 vl=10.000 db=0.50
G1 X49.50 Y49.50 E21.0252               ; draw dl=6.1@10(10<10>10) de=0.381@0.62(0.62<0.62>0.62) l=0.30x0.50x1.00 r=1.00
;00:00:38.704: pe=1.6229 eb=0.0245 ve=0.6236 vn=0.6234 vl=10.000 db=0.50
G1 X45.00 Y53.62 E21.4060               ; draw dl=6.1@10(10<10>10) de=0.381@0.62(0.62<0.62>0.62) l=0.30x0.50x1.00 r=1.00
;00:00:39.315: pe=1.6230 eb=0.0245 ve=0.6236 vn=0.6234 vl=10.000 db=0.50
G1 X40.15 Y57.34 E21.7868               ; draw dl=6.1@10(10<10>10) de=0.381@0.62(0.62<0.62>0.62) l=0.30x0.50x1.00 r=1.00
;00:00:39.925: pe=1.6232 eb=0.0245 ve=0.6236 vn=0.6235 vl=10.000 db=0.50
G1 X35.00 Y60.62 E22.1677               ; draw dl=6.1@10(10<10>10) de=0.381@0.62(0.62<0.62>0.62) l=0.30x0.50x1.00 r=1.00
;00:00:40.536: pe=1.6233 eb=0.0245 ve=0.6236 vn=0.6235 vl=10.000 db=0.50
G1 X29.58 Y63.44 E22.5485               ; draw dl=6.1@10(10<10>10) de=0.381@0.62(0.62<0.62>0.62) l=0.30x0.50x1.00 r=1.00
;00:00:41.147: pe=1.6233 eb=0.0245 ve=0.6236 vn=0.6235 vl=10.000 db=0.50
G1 X23.94 Y65.78 E22.9293               ; draw dl=6.1@10(10<10>10) de=0.381@0.62(0.62<0.62>0.62) l=0.30x0.50x1.00 r=1.00
;00:00:41.757: pe=1.6234 eb=0.0245 ve=0.6236 vn=0.6235 vl=10.000 db=0.50
G1 X18.12 Y67.61 E23.3102               ; draw dl=6.1@10(10<10>10) de=0.381@0.62(0.62<0.62>0.62) l=0.30x0.50x1.00 r=1.00
;00:00:42.368: pe=1.6234 eb=0.0245 ve=0.6236 vn=0.6236 vl=10.000 db=0.50
G1 X12.16 Y68.94 E23.6910               ; draw dl=6.1@10(10<10>10) de=0.381@0.62(0.62<0.62>0.62) l=0.30x0.50x1.00 r=1.00
;00:00:42.979: pe=1.6235 eb=0.0245 ve=0.6236 vn=0.6236 vl=10.000 db=0.50
G1 X6.10 Y69.73 E24.0718                ; draw dl=6.1@10(10<10>10) de=0.381@0.62(0.62<0.62>0.62) l=0.30x0.50x1.00 r=1.00
;00:00:43.589: pe=1.6235 eb=0.0245 ve=0.6236 vn=0.6236 vl=10.000 db=0.50
G1 X0.00 Y70.00 E24.4527                ; draw dl=6.1@10(10<10>10) de=0.381@0.62(0.62<0.62>0.62) l=0.30x0.50x1.00 r=1.00
;00:00:44.200: pe=1.6235 eb=0.0245 ve=0.6236 vn=0.6236 vl=10.000 db=0.50
G1 X-6.10 Y69.73 E24.8335               ; draw dl=6.1@10(10<10>10) de=0.381@0.62(0.62<0.62>0.62) l=0.30x0.50x1.00 r=1.00
;00:00:44.811: pe=1.6236 eb=0.0245 ve=0.6236 vn=0.6236 vl=10.000 db=0.50
G1 X-12.16 Y68.94 E25.2143              ; draw dl=6.1@10(10<10>10) de=0.381@0.62(0.62<0.62>0.62) l=0.30x0.50x1.00 r=1.00
;00:00:45.421: pe=1.6236 eb=0.0245 ve=0.6236 vn=0.6236 vl=10.000 db=0.50
G1 X-18.12 Y67.61 E25.5952              ; draw dl=6.1@10(10<10>10) de=0.381@0.62(0.62<0.62>0.62) l=0.30x0.50x1.00 r=1.00
;00:00:46.032: pe=1.6236 eb=0.0245 ve=0.6236 vn=0.6236 vl=10.000 db=0.50
G1 X-23.94 Y65.78 E25.9760              ; draw dl=6.1@10(10<10>10) de=0.381@0.62(0.62<0.62>0.62) l=0.30x0.50x1.00 r=1.00
;00:00:46.643: pe=1.6236 eb=0.0245 ve=0.6236 vn=0.6236 vl=10.000 db=0.50
G1 X-29.58 Y63.44 E26.3568              ; draw dl=6.1@10(10<10>10) de=0.381@0.62(0.62<0.62>0.62) l=0.30x0.50x1.00 r=1.00
;00:00:47.253: pe=1.6236 eb=0.0245 ve=0.6236 vn=0.6236 vl=10.000 db=0.50
G1 X-35.00 Y60.62 E26.7377              ; draw dl=6.1@10(10<10>10) de=0.381@0.62(0.62<0.62>0.62) l=0.30x0.50x1.00 r=1.00
;00:00:47.864: pe=1.6236 eb=0.0245 ve=0.6236 vn=0.6236 vl=10.000 db=0.50
G1 X-40.15 Y57.34 E27.1185              ; draw dl=6.1@10(10<10>10) de=0.381@0.62(0.62<0.62>0.62) l=0.30x0.50x1.00 r=1.00
;00:00:48.475: pe=1.6236 eb=0.0245 ve=0.6236 vn=0.6236 vl=10.000 db=0.50
G1 X-45.00 Y53.62 E27.4993              ; draw dl=6.1@10(10<10>10) de=0.381@0.62(0.62<0.62>0.62) l=0.30x0.50x1.00 r=1.00
;00:00:49.086: pe=1.6236 eb=0.0245 ve=0.6236 vn=0.6236 vl=10.000 db=0.50
G1 X-49.50 Y49.50 E27.8802              ; draw dl=6.1@10(10<10>10) de=0.381@0.62(0.62<0.62>0.62) l=0.30x0.50x1.00 r=1.00
;00:00:49.696: pe=1.6236 eb=0.0245 ve=0.6236 vn=0.6236 vl=10.000 db=0.50
G1 X-53.62 Y45.00 E28.2610              ; draw dl=6.1@10(10<10>10) de=0.381@0.62(0.62<0.62>0.62) l=0.30x0.50x1.00 r=1.00
;00:00:50.307: pe=1.6236 eb=0.0245 ve=0.6236 vn=0.6236 vl=10.000 db=0.50
G1 X-57.34 Y40.15 E28.6418              ; draw dl=6.1@10(10<10>10) de=0.381@0.62(0.62<0.62>0.62) l=0.30x0.50x1.00 r=1.00
;00:00:50.918: pe=1.6236 eb=0.0245 ve=0.6236 vn=0.6236 vl=10.000 db=0.50
G1 X-60.62 Y35.00 E29.0226              ; draw dl=6.1@10(10<10>10) de=0.381@0.62(0.62<0.62>0.62) l=0.30x0.50x1.00 r=1.00
;00:00:51.528: pe=1.6236 eb=0.0245 ve=0.6236 vn=0.6236 vl=10.000 db=0.50
G1 X-63.44 Y29.58 E29.4035              ; draw dl=6.1@10(10<10>10) de=0.381@0.62(0.62<0.62>0.62) l=0.30x0.50x1.00 r=1.00
;00:00:52.139: pe=1.6236 eb=0.0245 ve=0.6236 vn=0.6236 vl=10.000 db=0.50
G1 X-65.78 Y23.94 E29.7843              ; draw dl=6.1@10(10<10>10) de=0.381@0.62(0.62<0.62>0.62) l=0.30x0.50x1.00 r=1.00
;00:00:52.750: pe=1.6236 eb=0.0245 ve=0.6236 vn=0.6236 vl=10.000 db=0.50
G1 X-67.61 Y18.12 E30.1651              ; draw dl=6.1@10(10<10>10) de=0.381@0.62(0.62<0.62>0.62) l=0.30x0.50x1.00 r=1.00
;00:00:53.360: pe=1.6236 eb=0.0245 ve=0.6236 vn=0.6236 vl=10.000 db=0.50
G1 X-68.94 Y12.16 E30.5460              ; draw dl=6.1@10(10<10>10) de=0.381@0.62(0.62<0.62>0.62) l=0.30x0.50x1.00 r=1.00
;00:00:53.971: pe=1.6236 eb=0.0245 ve=0.6236 vn=0.6236 vl=10.000 db=0.50
G1 X-69.73 Y6.10 E30.9268               ; draw dl=6.1@10(10<10>10) de=0.381@0.62(0.62<0.62>0.62) l=0.30x0.50x1.00 r=1.00
;00:00:54.582: pe=1.6236 eb=0.0245 ve=0.6236 vn=0.6236 vl=10.000 db=0.50
G1 X-70.00 Y0.00 E31.3076               ; draw dl=6.1@10(10<10>10) de=0.381@0.62(0.62<0.62>0.62) l=0.30x0.50x1.00 r=1.00
;00:00:55.192: pe=1.6236 eb=0.0245 ve=0.6236 vn=0.6236 vl=10.000 db=0.50
G1 X-69.73 Y-6.10 E31.6885              ; draw dl=6.1@10(10<10>10) de=0.381@0.62(0.62<0.62>0.62) l=0.30x0.50x1.00 r=1.00
;00:00:55.803: pe=1.6236 eb=0.0245 ve=0.6236 vn=0.6236 vl=10.000 db=0.50
G1 X-68.94 Y-12.16 E32.0693             ; draw dl=6.1@10(10<10>10) de=0.381@0.62(0.62<0.62>0.62) l=0.30x0.50x1.00 r=1.00
;00:00:56.414: pe=1.6236 eb=0.0245 ve=0.6236 vn=0.6236 vl=10.000 db=0.50
G1 X-67.61 Y-18.12 E32.4501             ; draw dl=6.1@10(10<10>10) de=0.381@0.62(0.62<0.62>0.62) l=0.30x0.50x1.00 r=1.00
;00:00:57.024: pe=1.6236 eb=0.0245 ve=0.6236 vn=0.6236 vl=10.000 db=0.50
G1 X-65.78 Y-23.94 E32.8310             ; draw dl=6.1@10(10<10>10) de=0.381@0.62(0.62<0.62>0.62) l=0.30x0.50x1.00 r=1.00
;00:00:57.635: pe=1.6236 eb=0.0245 ve=0.6236 vn=0.6236 vl=10.000 db=0.50
G1 X-63.44 Y-29.58 E33.2118             ; draw dl=6.1@10(10<10>10) de=0.381@0.62(0.62<0.62>0.62) l=0.30x0.50x1.00 r=1.00
;00:00:58.246: pe=1.6236 eb=0.0245 ve=0.6236 vn=0.6236 vl=10.000 db=0.50
G1 X-60.62 Y-35.00 E33.5926             ; draw dl=6.1@10(10<10>10) de=0.381@0.62(0.62<0.62>0.62) l=0.30x0.50x1.00 r=1.00
;00:00:58.856: pe=1.6236 eb=0.0245 ve=0.6236 vn=0.6236 vl=10.000 db=0.50
G1 X-57.34 Y-40.15 E33.9735             ; draw dl=6.1@10(10<10>10) de=0.381@0.62(0.62<0.62>0.62) l=0.30x0.50x1.00 r=1.00
;00:00:59.467: pe=1.6236 eb=0.0245 ve=0.6236 vn=0.6236 vl=10.000 db=0.50
G1 X-53.62 Y-45.00 E34.3543             ; draw dl=6.1@10(10<10>10) de=0.381@0.62(0.62<0.62>0.62) l=0.30x0.50x1.00 r=1.00
;00:01:00.078: pe=1.6236 eb=0.0245 ve=0.6236 vn=0.6236 vl=10.000 db=0.50
G1 X-49.50 Y-49.50 E34.7351             ; draw dl=6.1@10(10<10>10) de=0.381@0.62(0.62<0.62>0.62) l=0.30x0.50x1.00 r=1.00
;00:01:00.688: pe=1.6236 eb=0.0245 ve=0.6236 vn=0.6236 vl=10.000 db=0.50
G1 X-45.00 Y-53.62 E35.1160             ; draw dl=6.1@10(10<10>10) de=0.381@0.62(0.62<0.62>0.62) l=0.30x0.50x1.00 r=1.00
;00:01:01.299: pe=1.6236 eb=0.0245 ve=0.6236 vn=0.6236 vl=10.000 db=0.50
G1 X-40.15 Y-57.34 E35.4968             ; draw dl=6.1@10(10<10>10) de=0.381@0.62(0.62<0.62>0.62) l=0.30x0.50x1.00 r=1.00
;00:01:01.910: pe=1.6236 eb=0.0245 ve=0.6236 vn=0.6236 vl=10.000 db=0.50
G1 X-35.00 Y-60.62 E35.8776             ; draw dl=6.1@10(10<10>10) de=0.381@0.62(0.62<0.62>0.62) l=0.30x0.50x1.00 r=1.00
;00:01:02.520: pe=1.6236 eb=0.0245 ve=0.6236 vn=0.6236 vl=10.000 db=0.50
G1 X-29.58 Y-63.44 E36.2585             ; draw dl=6.1@10(10<10>10) de=0.381@0.62(0.62<0.62>0.62) l=0.30x0.50x1.00 r=1.00
;00:01:03.131: pe=1.6236 eb=0.0245 ve=0.6236 vn=0.6236 vl=10.000 db=0.50
G1 X-23.94 Y-65.78 E36.6393             ; draw dl=6.1@10(10<10>10) de=0.381@0.62(0.62<0.62>0.62) l=0.30x0.50x1.00 r=1.00
;00:01:03.742: pe=1.6236 eb=0.0245 ve=0.6236 vn=0.6236 vl=10.000 db=0.50
G1 X-18.12 Y-67.61 E37.0201             ; draw dl=6.1@10(10<10>10) de=0.381@0.62(0.62<0.62>0.62) l=0.30x0.50x1.00 r=1.00
;00:01:04.352: pe=1.6236 eb=0.0245 ve=0.6236 vn=0.6236 vl=10.000 db=0.50
G1 X-12.16 Y-68.94 E37.4009             ; draw dl=6.1@10(10<10>10) de=0.381@0.62(0.62<0.62>0.62) l=0.30x0.50x1.00 r=1.00
;00:01:04.963: pe=1.6236 eb=0.0245 ve=0.6236 vn=0.6236 vl=10.000 db=0.50
G1 X-6.10 Y-69.73 E37.7818              ; draw dl=6.1@10(10<10>10) de=0.381@0.62(0.62<0.62>0.62) l=0.30x0.50x1.00 r=1.00
;00:01:05.574: pe=1.6236 eb=0.0245 ve=0.6236 vn=0.6236 vl=10.000 db=0.50
G1 X0.00 Y-70.00 E38.1626               ; draw dl=6.1@10(10<10>10) de=0.381@0.62(0.62<0.62>0.62) l=0.30x0.50x1.00 r=1.00
;00:01:06.184: pe=1.6236 eb=0.0245 ve=0.6236 vn=0.6236 vl=10.000 db=0.50
G1 X6.10 Y-69.73 E38.5434               ; draw dl=6.1@10(10<10>10) de=0.381@0.62(0.62<0.62>0.62) l=0.30x0.50x1.00 r=1.00
;00:01:06.795: pe=1.6236 eb=0.0245 ve=0.6236 vn=0.6236 vl=10.000 db=0.50
G1 X12.16 Y-68.94 E38.9243              ; draw dl=6.1@10(10<10>10) de=0.381@0.62(0.62<0.62>0.62) l=0.30x0.50x1.00 r=1.00
;00:01:07.406: pe=1.6236 eb=0.0245 ve=0.6236 vn=0.6236 vl=10.000 db=0.50
G1 X18.12 Y-67.61 E39.3051              ; draw dl=6.1@10(10<10>10) de=0.381@0.62(0.62<0.62>0.62) l=0.30x0.50x1.00 r=1.00
;00:01:08.016: pe=1.6236 eb=0.0245 ve=0.6236 vn=0.6236 vl=10.000 db=0.50
G1 X23.94 Y-65.78 E39.6859              ; draw dl=6.1@10(10<10>10) de=0.381@0.62(0.62<0.62>0.62) l=0.30x0.50x1.00 r=1.00
;00:01:08.627: pe=1.6236 eb=0.0245 ve=0.6236 vn=0.6236 vl=10.000 db=0.50
G1 X29.58 Y-63.44 E40.0668              ; draw dl=6.1@10(10<10>10) de=0.381@0.62(0.62<0.62>0.62) l=0.30x0.50x1.00 r=1.00
;00:01:09.238: pe=1.6236 eb=0.0245 ve=0.6236 vn=0.6236 vl=10.000 db=0.50
G1 X35.00 Y-60.62 E40.4476              ; draw dl=6.1@10(10<10>10) de=0.381@0.62(0.62<0.62>0.62) l=0.30x0.50x1.00 r=1.00
;00:01:09.848: pe=1.6236 eb=0.0245 ve=0.6236 vn=0.6236 vl=10.000 db=0.50
G1 X40.15 Y-57.34 E40.8284              ; draw dl=6.1@10(10<10>10) de=0.381@0.62(0.62<0.62>0.62) l=0.30x0.50x1.00 r=1.00
;00:01:10.459: pe=1.6236 eb=0.0245 ve=0.6236 vn=0.6236 vl=10.000 db=0.50
G1 X45.00 Y-53.62 E41.2093              ; draw dl=6.1@10(10<10>10) de=0.381@0.62(0.62<0.62>0.62) l=0.30x0.50x1.00 r=1.00
;00:01:11.070: pe=1.6236 eb=0.0245 ve=0.6236 vn=0.6236 vl=10.000 db=0.50
G1 X49.50 Y-49.50 E41.5901              ; draw dl=6.1@10(10<10>10) de=0.381@0.62(0.62<0.62>0.62) l=0.30x0.50x1.00 r=1.00
;00:01:11.680: pe=1.6236 eb=0.0245 ve=0.6236 vn=0.6236 vl=10.000 db=0.50
G1 X53.62 Y-45.00 E41.9709              ; draw dl=6.1@10(10<10>10) de=0.381@0.62(0.62<0.62>0.62) l=0.30x0.50x1.00 r=1.00
;00:01:12.291: pe=1.6236 eb=0.0245 ve=0.6236 vn=0.6236 vl=10.000 db=0.50
G1 X57.34 Y-40.15 E42.3518              ; draw dl=6.1@10(10<10>10) de=0.381@0.62(0.62<0.62>0.62) l=0.30x0.50x1.00 r=1.00
;00:01:12.902: pe=1.6236 eb=0.0245 ve=0.6236 vn=0.6236 vl=10.000 db=0.50
G1 X60.62 Y-35.00 E42.7326              ; draw dl=6.1@10(10<10>10) de=0.381@0.62(0.62<0.62>0.62) l=0.30x0.50x1.00 r=1.00
;00:01:13.512: pe=1.6236 eb=0.0245 ve=0.6236 vn=0.6236 vl=10.000 db=0.50
G1 X63.44 Y-29.58 E43.1134              ; draw dl=6.1@10(10<10>10) de=0.381@0.62(0.62<0.62>0.62) l=0.30x0.50x1.00 r=1.00
;00:01:14.123: pe=1.6236 eb=0.0245 ve=0.6236 vn=0.6236 vl=10.000 db=0.50
G1 X65.78 Y-23.94 E43.4943              ; draw dl=6.1@10(10<10>10) de=0.381@0.62(0.62<0.62>0.62) l=0.30x0.50x1.00 r=1.00
;00:01:14.734: pe=1.6236 eb=0.0245 ve=0.6236 vn=0.6236 vl=10.000 db=0.50
G1 X67.61 Y-18.12 E43.8751              ; draw dl=6.1@10(10<10>10) de=0.381@0.62(0.62<0.62>0.62) l=0.30x0.50x1.00 r=1.00
;00:01:15.344: pe=1.6236 eb=0.0245 ve=0.6236 vn=0.6236 vl=10.000 db=0.50
G1 X68.94 Y-12.16 E44.2559              ; draw dl=6.1@10(10<10>10) de=0.381@0.62(0.62<0.62>0.62) l=0.30x0.50x1.00 r=1.00
;00:01:15.955: pe=1.6236 eb=0.0245 ve=0.6236 vn=0.6236 vl=10.000 db=0.50
G1 X69.73 Y-6.10 E44.6368               ; draw dl=6.1@10(10<10>10) de=0.381@0.62(0.62<0.62>0.62) l=0.30x0.50x1.00 r=1.00
;00:01:16.566: pe=1.6236 eb=0.0245 ve=0.6236 vn=0.6236 vl=10.000 db=0.50
G1 X70.00 Y0.00 E45.0176                ; draw dl=6.1@10(10<10>0) de=0.381@0.61(0.62<0.62>0.0) l=0.30x0.50x1.00 r=1.01
;00:01:17.186: pe=1.6181 eb=0.0299 ve=0.0000 vn=0.5132 vl=0.000 db=0.55
;00:01:17.186: skipping empty move move dl=0.0@10(0<0>0) de=0.000@0.0(0.0<0.0>0.0) l=0.30x0.50x0.00
G1 E41.3995 F2400                       ; retract de=-3.6181@-40.0 r=1.15
;00:01:17.277: pe=-2.0027 eb=0.0326 ve=-40.0000 vn=0.0000 vl=0.000 db=0.58
G1 Z0.500 F420                          ; hopup dz=0.20@7 h=0.5 r=0.89
;00:01:17.305: pe=-2.0027 eb=0.0326 ve=0.0000 vn=0.0000 vl=0.000 db=0.45
;00:01:17.305: skipping empty move move dl=0.0@7(0<0>0) de=0.000@0.0(0.0<0.0>0.0) l=0.50x0.50x0.00
G1 Z0.300                               ; hopdn dz=-0.20@7 h=0.3 r=1.15
;00:01:17.334: pe=-2.0027 eb=0.0326 ve=0.0000 vn=0.0000 vl=0.000 db=0.58
G1 E45.0113 F1800                       ; restore de=3.6118@30.0 r=1.21
;00:01:17.454: pe=1.6058 eb=0.0359 ve=30.0000 vn=0.3944 vl=0.000 db=0.61
G1 X73.00 Y0.00 E45.1983 F600           ; draw dl=3.0@10(0<10>0) de=0.187@0.58(0.0<0.62>0.0) l=0.30x0.50x1.00 r=0.99
;00:01:17.774: pe=1.6075 eb=0.0295 ve=0.0000 vn=0.5093 vl=0.000 db=0.55
G1 E41.5908 F2400                       ; retract de=-3.6075@-40.0 r=1.15
;00:01:17.865: pe=-2.0026 eb=0.0321 ve=-40.0000 vn=0.0000 vl=0.000 db=0.57
G1 Z0.500 F420                          ; hopup dz=0.20@7 h=0.5 r=0.89
;00:01:17.893: pe=-2.0026 eb=0.0321 ve=0.0000 vn=0.0000 vl=0.000 db=0.44
G1 X69.73 Y6.10 F6000                   ; move dl=6.9@100(0<42>0) de=0.000@0.0(0.0<0.0>0.0) l=0.50x0.50x0.00 r=0.00
;00:01:18.143: pe=-2.0026 eb=0.0000 ve=0.0000 vn=0.0000 vl=0.000 db=0.00
G1 Z0.300 F420                          ; hopdn dz=-0.20@7 h=0.3 r=0.00
;00:01:18.171: pe=-2.0026 eb=0.0000 ve=0.0000 vn=0.0000 vl=0.000 db=0.00
G1 E45.1682 F1800                       ; restore de=3.5774@30.0 r=0.88
;00:01:18.291: pe=1.5559 eb=0.0188 ve=30.0000 vn=0.6794 vl=0.000 db=0.44
G1 X71.23 Y6.23 E45.2617 F600           ; draw dl=1.5@10(0<10>0) de=0.094@0.55(0.0<0.62>0.0) l=0.30x0.50x1.00 r=1.06
;00:01:18.461: pe=1.5501 eb=0.0276 ve=0.0000 vn=0.4882 vl=0.000 db=0.53
G1 E41.7116 F2400                       ; retract de=-3.5501@-40.0 r=1.11
;00:01:18.549: pe=-2.0024 eb=0.0300 ve=-40.0000 vn=0.0000 vl=0.000 db=0.55
G1 Z0.500 F420                          ; hopup dz=0.20@7 h=0.5 r=0.86
;00:01:18.578: pe=-2.0024 eb=0.0300 ve=0.0000 vn=0.0000 vl=0.000 db=0.43
G1 X68.94 Y12.16 F6000                  ; move dl=6.4@100(0<40>0) de=0.000@0.0(0.0<0.0>0.0) l=0.50x0.50x0.00 r=0.00
;00:01:18.817: pe=-2.0024 eb=0.0000 ve=0.0000 vn=0.0000 vl=0.000 db=0.00
G1 Z0.300 F420                          ; hopdn dz=-0.20@7 h=0.3 r=0.00
;00:01:18.846: pe=-2.0024 eb=0.0000 ve=0.0000 vn=0.0000 vl=0.000 db=0.00
G1 E45.2887 F1800                       ; restore de=3.5771@30.0 r=0.88
;00:01:18.965: pe=1.5559 eb=0.0188 ve=30.0000 vn=0.6794 vl=0.000 db=0.44
G1 X70.41 Y12.42 E45.3823 F600          ; draw dl=1.5@10(0<10>0) de=0.094@0.55(0.0<0.62>0.0) l=0.30x0.50x1.00 r=1.06
;00:01:19.135: pe=1.5501 eb=0.0276 ve=0.0000 vn=0.4882 vl=0.000 db=0.53
G1 E41.8322 F2400                       ; retract de=-3.5501@-40.0 r=1.11
;00:01:19.223: pe=-2.0024 eb=0.0300 ve=-40.0000 vn=0.0000 vl=0.000 db=0.55
G1 Z0.500 F420                          ; hopup dz=0.20@7 h=0.5 r=0.86
;00:01:19.252: pe=-2.0024 eb=0.0300 ve=0.0000 vn=0.0000 vl=0.000 db=0.43
G1 X67.61 Y18.12 F6000                  ; move dl=6.4@100(0<40>0) de=0.000@0.0(0.0<0.0>0.0) l=0.50x0.50x0.00 r=0.00
;00:01:19.491: pe=-2.0024 eb=0.0000 ve=0.0000 vn=0.0000 vl=0.000 db=0.00
G1 Z0.300 F420                          ; hopdn dz=-0.20@7 h=0.3 r=0.00
;00:01:19.520: pe=-2.0024 eb=0.0000 ve=0.0000 vn=0.0000 vl=0.000 db=0.00
G1 E45.4093 F1800                       ; restore de=3.5771@30.0 r=0.88
;00:01:19.639: pe=1.5559 eb=0.0188 ve=30.0000 vn=0.6794 vl=0.000 db=0.44
G1 X69.06 Y18.51 E45.5028 F600          ; draw dl=1.5@10(0<10>0) de=0.094@0.55(0.0<0.62>0.0) l=0.30x0.50x1.00 r=1.06
;00:01:19.809: pe=1.5501 eb=0.0276 ve=0.0000 vn=0.4882 vl=0.000 db=0.53
G1 E41.9527 F2400                       ; retract de=-3.5501@-40.0 r=1.11
;00:01:19.898: pe=-2.0024 eb=0.0300 ve=-40.0000 vn=0.0000 vl=0.000 db=0.55
G1 Z0.500 F420                          ; hopup dz=0.20@7 h=0.5 r=0.86
;00:01:19.926: pe=-2.0024 eb=0.0300 ve=0.0000 vn=0.0000 vl=0.000 db=0.43
G1 X65.78 Y23.94 F6000                  ; move dl=6.4@100(0<40>0) de=0.000@0.0(0.0<0.0>0.0) l=0.50x0.50x0.00 r=0.00
;00:01:20.165: pe=-2.0024 eb=0.0000 ve=0.0000 vn=0.0000 vl=0.000 db=0.00
G1 Z0.300 F420                          ; hopdn dz=-0.20@7 h=0.3 r=0.00
;00:01:20.194: pe=-2.0024 eb=0.0000 ve=0.0000 vn=0.0000 vl=0.000 db=0.00
G1 E45.5298 F1800                       ; restore de=3.5771@30.0 r=0.88
;00:01:20.313: pe=1.5559 eb=0.0188 ve=30.0000 vn=0.6794 vl=0.000 db=0.44
G1 X67.19 Y24.45 E45.6234 F600          ; draw dl=1.5@10(0<10>0) de=0.094@0.55(0.0<0.62>0.0) l=0.30x0.50x1.00 r=1.06
;00:01:20.483: pe=1.5501 eb=0.0276 ve=0.0000 vn=0.4882 vl=0.000 db=0.53
G1 E42.0732 F2400                       ; retract de=-3.5501@-40.0 r=1.11
;00:01:20.572: pe=-2.0024 eb=0.0300 ve=-40.0000 vn=0.0000 vl=0.000 db=0.55
G1 Z0.500 F420                          ; hopup dz=0.20@7 h=0.5 r=0.86
;00:01:20.601: pe=-2.0024 eb=0.0300 ve=0.0000 vn=0.0000 vl=0.000 db=0.43
G1 X63.44 Y29.58 F6000                  ; move dl=6.4@100(0<40>0) de=0.000@0.0(0.0<0.0>0.0) l=0.50x0.50x0.00 r=0.00
;00:01:20.840: pe=-2.0024 eb=0.0000 ve=0.0000 vn=0.0000 vl=0.000 db=0.00
G1 Z0.300 F420                          ; hopdn dz=-0.20@7 h=0.3 r=0.00
;00:01:20.868: pe=-2.0024 eb=0.0000 ve=0.0000 vn=0.0000 vl=0.000 db=0.00
G1 E45.6504 F1800                       ; restore de=3.5771@30.0 r=0.88
;00:01:20.987: pe=1.5559 eb=0.0188 ve=30.0000 vn=0.6794 vl=0.000 db=0.44
G1 X64.80 Y30.22 E45.7439 F600          ; draw dl=1.5@10(0<10>0) de=0.094@0.55(0.0<0.62>0.0) l=0.30x0.50x1.00 r=1.06
;00:01:21.157: pe=1.5501 eb=0.0276 ve=0.0000 vn=0.4882 vl=0.000 db=0.53
G1 E42.1938 F2400                       ; retract de=-3.5501@-40.0 r=1.11
;00:01:21.246: pe=-2.0024 eb=0.0300 ve=-40.0000 vn=0.0000 vl=0.000 db=0.55
G1 Z0.500 F420                          ; hopup dz=0.20@7 h=0.5 r=0.86
;00:01:21.275: pe=-2.0024 eb=0.0300 ve=0.0000 vn=0.0000 vl=0.000 db=0.43
G1 X60.62 Y35.00 F6000                  ; move dl=6.4@100(0<40>0) de=0.000@0.0(0.0<0.0>0.0) l=0.50x0.50x0.00 r=0.00
;00:01:21.514: pe=-2.0024 eb=0.0000 ve=0.0000 vn=0.0000 vl=0.000 db=0.00
G1 Z0.300 F420                          ; hopdn dz=-0.20@7 h=0.3 r=0.00
;00:01:21.542: pe=-2.0024 eb=0.0000 ve=0.0000 vn=0.0000 vl=0.000 db=0.00
G1 E45.8053 F1800                       ; restore de=3.6115@30.0 r=0.90
;00:01:21.663: pe=1.5895 eb=0.0196 ve=30.0000 vn=0.6943 vl=0.000 db=0.45
G1 X63.22 Y36.50 E45.9924 F600          ; draw dl=3.0@10(0<10>0) de=0.187@0.58(0.0<0.62>0.0) l=0.30x0.50x1.00 r=1.03
;00:01:21.983: pe=1.5836 eb=0.0287 ve=0.0000 vn=0.5006 vl=0.000 db=0.54
G1 E42.4088 F2400                       ; retract de=-3.5836@-40.0 r=1.13
;00:01:22.072: pe=-2.0025 eb=0.0312 ve=-40.0000 vn=0.0000 vl=0.000 db=0.56
G1 Z0.500 F420                          ; hopup dz=0.20@7 h=0.5 r=0.87
;00:01:22.101: pe=-2.0025 eb=0.0312 ve=0.0000 vn=0.0000 vl=0.000 db=0.44
G1 X57.34 Y40.15 F6000                  ; move dl=6.9@100(0<42>0) de=0.000@0.0(0.0<0.0>0.0) l=0.50x0.50x0.00 r=0.00
;00:01:22.351: pe=-2.0025 eb=0.0000 ve=0.0000 vn=0.0000 vl=0.000 db=0.00
G1 Z0.300 F420                          ; hopdn dz=-0.20@7 h=0.3 r=0.00
;00:01:22.379: pe=-2.0025 eb=0.0000 ve=0.0000 vn=0.0000 vl=0.000 db=0.00
G1 E45.9861 F1800                       ; restore de=3.5773@30.0 r=0.88
;00:01:22.498: pe=1.5559 eb=0.0188 ve=30.0000 vn=0.6794 vl=0.000 db=0.44
G1 X58.57 Y41.01 E46.0796 F600          ; draw dl=1.5@10(0<10>0) de=0.094@0.55(0.0<0.62>0.0) l=0.30x0.50x1.00 r=1.06
;00:01:22.668: pe=1.5501 eb=0.0276 ve=0.0000 vn=0.4882 vl=0.000 db=0.53
G1 E42.5295 F2400                       ; retract de=-3.5501@-40.0 r=1.11
;00:01:22.757: pe=-2.0024 eb=0.0300 ve=-40.0000 vn=0.0000 vl=0.000 db=0.55
G1 Z0.500 F420                          ; hopup dz=0.20@7 h=0.5 r=0.86
;00:01:22.786: pe=-2.0024 eb=0.0300 ve=0.0000 vn=0.0000 vl=0.000 db=0.43
G1 X53.62 Y45.00 F6000                  ; move dl=6.4@100(0<40>0) de=0.000@0.0(0.0<0.0>0.0) l=0.50x0.50x0.00 r=0.00
;00:01:23.025: pe=-2.0024 eb=0.0000 ve=0.0000 vn=0.0000 vl=0.000 db=0.00
G1 Z0.300 F420                          ; hopdn dz=-0.20@7 h=0.3 r=0.00
;00:01:23.053: pe=-2.0024 eb=0.0000 ve=0.0000 vn=0.0000 vl=0.000 db=0.00
G1 E46.1066 F1800                       ; restore de=3.5771@30.0 r=0.88
;00:01:23.173: pe=1.5559 eb=0.0188 ve=30.0000 vn=0.6794 vl=0.000 db=0.44
G1 X54.77 Y45.96 E46.2001 F600          ; draw dl=1.5@10(0<10>0) de=0.094@0.55(0.0<0.62>0.0) l=0.30x0.50x1.00 r=1.06
;00:01:23.343: pe=1.5501 eb=0.0276 ve=0.0000 vn=0.4882 vl=0.000 db=0.53
G1 E42.6500 F2400                       ; retract de=-3.5501@-40.0 r=1.11
;00:01:23.431: pe=-2.0024 eb=0.0300 ve=-40.0000 vn=0.0000 vl=0.000 db=0.55
G1 Z0.500 F420                          ; hopup dz=0.20@7 h=0.5 r=0.86
;00:01:23.460: pe=-2.0024 eb=0.0300 ve=0.0000 vn=0.0000 vl=0.000 db=0.43
G1 X49.50 Y49.50 F6000                  ; move dl=6.4@100(0<40>0) de=0.000@0.0(0.0<0.0>0.0) l=0.50x0.50x0.00 r=0.00
;00:01:23.699: pe=-2.0024 eb=0.0000 ve=0.0000 vn=0.0000 vl=0.000 db=0.00
G1 Z0.300 F420                          ; hopdn dz=-0.20@7 h=0.3 r=0.00
;00:01:23.728: pe=-2.0024 eb=0.0000 ve=0.0000 vn=0.0000 vl=0.000 db=0.00
G1 E46.2271 F1800                       ; restore de=3.5771@30.0 r=0.88
;00:01:23.847: pe=1.5559 eb=0.0188 ve=30.0000 vn=0.6794 vl=0.000 db=0.44
G1 X50.56 Y50.56 E46.3207 F600          ; draw dl=1.5@10(0<10>0) de=0.094@0.55(0.0<0.62>0.0) l=0.30x0.50x1.00 r=1.06
;00:01:24.017: pe=1.5501 eb=0.0276 ve=0.0000 vn=0.4882 vl=0.000 db=0.53
G1 E42.7705 F2400                       ; retract de=-3.5501@-40.0 r=1.11
;00:01:24.106: pe=-2.0024 eb=0.0300 ve=-40.0000 vn=0.0000 vl=0.000 db=0.55
G1 Z0.500 F420                          ; hopup dz=0.20@7 h=0.5 r=0.86
;00:01:24.134: pe=-2.0024 eb=0.0300 ve=0.0000 vn=0.0000 vl=0.000 db=0.43
G1 X45.00 Y53.62 F6000                  ; move dl=6.4@100(0<40>0) de=0.000@0.0(0.0<0.0>0.0) l=0.50x0.50x0.00 r=0.00
;00:01:24.373: pe=-2.0024 eb=0.0000 ve=0.0000 vn=0.0000 vl=0.000 db=0.00
G1 Z0.300 F420                          ; hopdn dz=-0.20@7 h=0.3 r=0.00
;00:01:24.402: pe=-2.0024 eb=0.0000 ve=0.0000 vn=0.0000 vl=0.000 db=0.00
G1 E46.3477 F1800                       ; restore de=3.5771@30.0 r=0.88
;00:01:24.521: pe=1.5559 eb=0.0188 ve=30.0000 vn=0.6794 vl=0.000 db=0.44
G1 X45.96 Y54.77 E46.4412 F600          ; draw dl=1.5@10(0<10>0) de=0.094@0.55(0.0<0.62>0.0) l=0.30x0.50x1.00 r=1.06
;00:01:24.691: pe=1.5501 eb=0.0276 ve=0.0000 vn=0.4882 vl=0.000 db=0.53
G1 E42.8911 F2400                       ; retract de=-3.5501@-40.0 r=1.11
;00:01:24.780: pe=-2.0024 eb=0.0300 ve=-40.0000 vn=0.0000 vl=0.000 db=0.55
G1 Z0.500 F420                          ; hopup dz=0.20@7 h=0.5 r=0.86
;00:01:24.808: pe=-2.0024 eb=0.0300 ve=0.0000 vn=0.0000 vl=0.000 db=0.43
G1 X40.15 Y57.34 F6000                  ; move dl=6.4@100(0<40>0) de=0.000@0.0(0.0<0.0>0.0) l=0.50x0.50x0.00 r=0.00
;00:01:25.047: pe=-2.0024 eb=0.0000 ve=0.0000 vn=0.0000 vl=0.000 db=0.00
G1 Z0.300 F420                          ; hopdn dz=-0.20@7 h=0.3 r=0.00
;00:01:25.076: pe=-2.0024 eb=0.0000 ve=0.0000 vn=0.0000 vl=0.000 db=0.00
G1 E46.4682 F1800                       ; restore de=3.5771@30.0 r=0.88
;00:01:25.195: pe=1.5559 eb=0.0188 ve=30.0000 vn=0.6794 vl=0.000 db=0.44
G1 X41.01 Y58.57 E46.5618 F600          ; draw dl=1.5@10(0<10>0) de=0.094@0.55(0.0<0.62>0.0) l=0.30x0.50x1.00 r=1.06
;00:01:25.365: pe=1.5501 eb=0.0276 ve=0.0000 vn=0.4882 vl=0.000 db=0.53
G1 E43.0116 F2400                       ; retract de=-3.5501@-40.0 r=1.11
;00:01:25.454: pe=-2.0024 eb=0.0300 ve=-40.0000 vn=0.0000 vl=0.000 db=0.55
G1 Z0.500 F420                          ; hopup dz=0.20@7 h=0.5 r=0.86
;00:01:25.483: pe=-2.0024 eb=0.0300 ve=0.0000 vn=0.0000 vl=0.000 db=0.43
G1 X35.00 Y60.62 F6000                  ; move dl=6.4@100(0<40>0) de=0.000@0.0(0.0<0.0>0.0) l=0.50x0.50x0.00 r=0.00
;00:01:25.722: pe=-2.0024 eb=0.0000 ve=0.0000 vn=0.0000 vl=0.000 db=0.00
G1 Z0.300 F420                          ; hopdn dz=-0.20@7 h=0.3 r=0.00
;00:01:25.750: pe=-2.0024 eb=0.0000 ve=0.0000 vn=0.0000 vl=0.000 db=0.00
G1 E46.6232 F1800                       ; restore de=3.6115@30.0 r=0.90
;00:01:25.871: pe=1.5895 eb=0.0196 ve=30.0000 vn=0.6943 vl=0.000 db=0.45
G1 X36.50 Y63.22 E46.8103 F600          ; draw dl=3.0@10(0<10>0) de=0.187@0.58(0.0<0.62>0.0) l=0.30x0.50x1.00 r=1.03
;00:01:26.191: pe=1.5836 eb=0.0287 ve=0.0000 vn=0.5006 vl=0.000 db=0.54
G1 E43.2266 F2400                       ; retract de=-3.5836@-40.0 r=1.13
;00:01:26.280: pe=-2.0025 eb=0.0312 ve=-40.0000 vn=0.0000 vl=0.000 db=0.56
G1 Z0.500 F420                          ; hopup dz=0.20@7 h=0.5 r=0.87
;00:01:26.309: pe=-2.0025 eb=0.0312 ve=0.0000 vn=0.0000 vl=0.000 db=0.44
G1 X29.58 Y63.44 F6000                  ; move dl=6.9@100(0<42>0) de=0.000@0.0(0.0<0.0>0.0) l=0.50x0.50x0.00 r=0.00
;00:01:26.558: pe=-2.0025 eb=0.0000 ve=0.0000 vn=0.0000 vl=0.000 db=0.00
G1 Z0.300 F420                          ; hopdn dz=-0.20@7 h=0.3 r=0.00
;00:01:26.587: pe=-2.0025 eb=0.0000 ve=0.0000 vn=0.0000 vl=0.000 db=0.00
G1 E46.8039 F1800                       ; restore de=3.5773@30.0 r=0.88
;00:01:26.706: pe=1.5559 eb=0.0188 ve=30.0000 vn=0.6794 vl=0.000 db=0.44
G1 X30.22 Y64.80 E46.8975 F600          ; draw dl=1.5@10(0<10>0) de=0.094@0.55(0.0<0.62>0.0) l=0.30x0.50x1.00 r=1.06
;00:01:26.876: pe=1.5501 eb=0.0276 ve=0.0000 vn=0.4882 vl=0.000 db=0.53
G1 E43.3473 F2400                       ; retract de=-3.5501@-40.0 r=1.11
;00:01:26.965: pe=-2.0024 eb=0.0300 ve=-40.0000 vn=0.0000 vl=0.000 db=0.55
G1 Z0.500 F420                          ; hopup dz=0.20@7 h=0.5 r=0.86
;00:01:26.993: pe=-2.0024 eb=0.0300 ve=0.0000 vn=0.0000 vl=0.000 db=0.43
G1 X23.94 Y65.78 F6000                  ; move dl=6.4@100(0<40>0) de=0.000@0.0(0.0<0.0>0.0) l=0.50x0.50x0.00 r=0.00
;00:01:27.233: pe=-2.0024 eb=0.0000 ve=0.0000 vn=0.0000 vl=0.000 db=0.00
G1 Z0.300 F420                          ; hopdn dz=-0.20@7 h=0.3 r=0.00
;00:01:27.261: pe=-2.0024 eb=0.0000 ve=0.0000 vn=0.0000 vl=0.000 db=0.00
G1 E46.9245 F1800                       ; restore de=3.5771@30.0 r=0.88
;00:01:27.380: pe=1.5559 eb=0.0188 ve=30.0000 vn=0.6794 vl=0.000 db=0.44
G1 X24.45 Y67.19 E47.0180 F600          ; draw dl=1.5@10(0<10>0) de=0.094@0.55(0.0<0.62>0.0) l=0.30x0.50x1.00 r=1.06
;00:01:27.550: pe=1.5501 eb=0.0276 ve=0.0000 vn=0.4882 vl=0.000 db=0.53
G1 E43.4679 F2400                       ; retract de=-3.5501@-40.0 r=1.11
;00:01:27.639: pe=-2.0024 eb=0.0300 ve=-40.0000 vn=0.0000 vl=0.000 db=0.55
G1 Z0.500 F420                          ; hopup dz=0.20@7 h=0.5 r=0.86
;00:01:27.668: pe=-2.0024 eb=0.0300 ve=0.0000 vn=0.0000 vl=0.000 db=0.43
G1 X18.12 Y67.61 F6000                  ; move dl=6.4@100(0<40>0) de=0.000@0.0(0.0<0.0>0.0) l=0.50x0.50x0.00 r=0.00
;00:01:27.907: pe=-2.0024 eb=0.0000 ve=0.0000 vn=0.0000 vl=0.000 db=0.00
G1 Z0.300 F420                          ; hopdn dz=-0.20@7 h=0.3 r=0.00
;00:01:27.935: pe=-2.0024 eb=0.0000 ve=0.0000 vn=0.0000 vl=0.000 db=0.00
G1 E47.0450 F1800                       ; restore de=3.5771@30.0 r=0.88
;00:01:28.055: pe=1.5559 eb=0.0188 ve=30.0000 vn=0.6794 vl=0.000 db=0.44
G1 X18.51 Y69.06 E47.1385 F600          ; draw dl=1.5@10(0<10>0) de=0.094@0.55(0.0<0.62>0.0) l=0.30x0.50x1.00 r=1.06
;00:01:28.225: pe=1.5501 eb=0.0276 ve=0.0000 vn=0.4882 vl=0.000 db=0.53
G1 E43.5884 F2400                       ; retract de=-3.5501@-40.0 r=1.11
;00:01:28.313: pe=-2.0024 eb=0.0300 ve=-40.0000 vn=0.0000 vl=0.000 db=0.55
G1 Z0.500 F420                          ; hopup dz=0.20@7 h=0.5 r=0.86
;00:01:28.342: pe=-2.0024 eb=0.0300 ve=0.0000 vn=0.0000 vl=0.000 db=0.43
G1 X12.16 Y68.94 F6000                  ; move dl=6.4@100(0<40>0) de=0.000@0.0(0.0<0.0>0.0) l=0.50x0.50x0.00 r=0.00
;00:01:28.581: pe=-2.0024 eb=0.0000 ve=0.0000 vn=0.0000 vl=0.000 db=0.00
G1 Z0.300 F420                          ; hopdn dz=-0.20@7 h=0.3 r=0.00
;00:01:28.610: pe=-2.0024 eb=0.0000 ve=0.0000 vn=0.0000 vl=0.000 db=0.00
G1 E47.1655 F1800                       ; restore de=3.5771@30.0 r=0.88
;00:01:28.729: pe=1.5559 eb=0.0188 ve=30.0000 vn=0.6794 vl=0.000 db=0.44
G1 X12.42 Y70.41 E47.2591 F600          ; draw dl=1.5@10(0<10>0) de=0.094@0.55(0.0<0.62>0.0) l=0.30x0.50x1.00 r=1.06
;00:01:28.899: pe=1.5501 eb=0.0276 ve=0.0000 vn=0.4882 vl=0.000 db=0.53
G1 E43.7089 F2400                       ; retract de=-3.5501@-40.0 r=1.11
;00:01:28.988: pe=-2.0024 eb=0.0300 ve=-40.0000 vn=0.0000 vl=0.000 db=0.55
G1 Z0.500 F420                          ; hopup dz=0.20@7 h=0.5 r=0.86
;00:01:29.016: pe=-2.0024 eb=0.0300 ve=0.0000 vn=0.0000 vl=0.000 db=0.43
G1 X6.10 Y69.73 F6000                   ; move dl=6.4@100(0<40>0) de=0.000@0.0(0.0<0.0>0.0) l=0.50x0.50x0.00 r=0.00
;00:01:29.255: pe=-2.0024 eb=0.0000 ve=0.0000 vn=0.0000 vl=0.000 db=0.00
G1 Z0.300 F420                          ; hopdn dz=-0.20@7 h=0.3 r=0.00
;00:01:29.284: pe=-2.0024 eb=0.0000 ve=0.0000 vn=0.0000 vl=0.000 db=0.00
G1 E47.2861 F1800                       ; restore de=3.5771@30.0 r=0.88
;00:01:29.403: pe=1.5559 eb=0.0188 ve=30.0000 vn=0.6794 vl=0.000 db=0.44
G1 X6.23 Y71.23 E47.3796 F600           ; draw dl=1.5@10(0<10>0) de=0.094@0.55(0.0<0.62>0.0) l=0.30x0.50x1.00 r=1.06
;00:01:29.573: pe=1.5501 eb=0.0276 ve=0.0000 vn=0.4882 vl=0.000 db=0.53
G1 E43.8295 F2400                       ; retract de=-3.5501@-40.0 r=1.11
;00:01:29.662: pe=-2.0024 eb=0.0300 ve=-40.0000 vn=0.0000 vl=0.000 db=0.55
G1 Z0.500 F420                          ; hopup dz=0.20@7 h=0.5 r=0.86
;00:01:29.690: pe=-2.0024 eb=0.0300 ve=0.0000 vn=0.0000 vl=0.000 db=0.43
G1 X0.00 Y70.00 F6000                   ; move dl=6.4@100(0<40>0) de=0.000@0.0(0.0<0.0>0.0) l=0.50x0.50x0.00 r=0.00
;00:01:29.929: pe=-2.0024 eb=0.0000 ve=0.0000 vn=0.0000 vl=0.000 db=0.00
G1 Z0.300 F420                          ; hopdn dz=-0.20@7 h=0.3 r=0.00
;00:01:29.958: pe=-2.0024 eb=0.0000 ve=0.0000 vn=0.0000 vl=0.000 db=0.00
G1 E47.4410 F1800                       ; restore de=3.6115@30.0 r=0.90
;00:01:30.078: pe=1.5895 eb=0.0196 ve=30.0000 vn=0.6943 vl=0.000 db=0.45
G1 X0.00 Y73.00 E47.6281 F600           ; draw dl=3.0@10(0<10>0) de=0.187@0.58(0.0<0.62>0.0) l=0.30x0.50x1.00 r=1.03
;00:01:30.398: pe=1.5836 eb=0.0287 ve=0.0000 vn=0.5006 vl=0.000 db=0.54
G1 E44.0445 F2400                       ; retract de=-3.5836@-40.0 r=1.13
;00:01:30.488: pe=-2.0025 eb=0.0312 ve=-40.0000 vn=0.0000 vl=0.000 db=0.56
G1 Z0.500 F420                          ; hopup dz=0.20@7 h=0.5 r=0.87
;00:01:30.517: pe=-2.0025 eb=0.0312 ve=0.0000 vn=0.0000 vl=0.000 db=0.44
G1 X-6.10 Y69.73 F6000                  ; move dl=6.9@100(0<42>0) de=0.000@0.0(0.0<0.0>0.0) l=0.50x0.50x0.00 r=0.00
;00:01:30.766: pe=-2.0025 eb=0.0000 ve=0.0000 vn=0.0000 vl=0.000 db=0.00
G1 Z0.300 F420                          ; hopdn dz=-0.20@7 h=0.3 r=0.00
;00:01:30.795: pe=-2.0025 eb=0.0000 ve=0.0000 vn=0.0000 vl=0.000 db=0.00
G1 E47.6218 F1800                       ; restore de=3.5773@30.0 r=0.88
;00:01:30.914: pe=1.5559 eb=0.0188 ve=30.0000 vn=0.6794 vl=0.000 db=0.44
G1 X-6.23 Y71.23 E47.7153 F600          ; draw dl=1.5@10(0<10>0) de=0.094@0.55(0.0<0.62>0.0) l=0.30x0.50x1.00 r=1.06
;00:01:31.084: pe=1.5501 eb=0.0276 ve=0.0000 vn=0.4882 vl=0.000 db=0.53
G1 E44.1652 F2400                       ; retract de=-3.5501@-40.0 r=1.11
;00:01:31.173: pe=-2.0024 eb=0.0300 ve=-40.0000 vn=0.0000 vl=0.000 db=0.55
G1 Z0.500 F420                          ; hopup dz=0.20@7 h=0.5 r=0.86
;00:01:31.201: pe=-2.0024 eb=0.0300 ve=0.0000 vn=0.0000 vl=0.000 db=0.43
G1 X-12.16 Y68.94 F6000                 ; move dl=6.4@100(0<40>0) de=0.000@0.0(0.0<0.0>0.0) l=0.50x0.50x0.00 r=0.00
;00:01:31.440: pe=-2.0024 eb=0.0000 ve=0.0000 vn=0.0000 vl=0.000 db=0.00
G1 Z0.300 F420                          ; hopdn dz=-0.20@7 h=0.3 r=0.00
;00:01:31.469: pe=-2.0024 eb=0.0000 ve=0.0000 vn=0.0000 vl=0.000 db=0.00
G1 E47.7423 F1800                       ; restore de=3.5771@30.0 r=0.88
;00:01:31.588: pe=1.5559 eb=0.0188 ve=30.0000 vn=0.6794 vl=0.000 db=0.44
G1 X-12.42 Y70.41 E47.8358 F600         ; draw dl=1.5@10(0<10>0) de=0.094@0.55(0.0<0.62>0.0) l=0.30x0.50x1.00 r=1.06
;00:01:31.758: pe=1.5501 eb=0.0276 ve=0.0000 vn=0.4882 vl=0.000 db=0.53
G1 E44.2857 F2400                       ; retract de=-3.5501@-40.0 r=1.11
;00:01:31.847: pe=-2.0024 eb=0.0300 ve=-40.0000 vn=0.0000 vl=0.000 db=0.55
G1 Z0.500 F420                          ; hopup dz=0.20@7 h=0.5 r=0.86
;00:01:31.875: pe=-2.0024 eb=0.0300 ve=0.0000 vn=0.0000 vl=0.000 db=0.43
G1 X-18.12 Y67.61 F6000                 ; move dl=6.4@100(0<40>0) de=0.000@0.0(0.0<0.0>0.0) l=0.50x0.50x0.00 r=0.00
;00:01:32.115: pe=-2.0024 eb=0.0000 ve=0.0000 vn=0.0000 vl=0.000 db=0.00
G1 Z0.300 F420                          ; hopdn dz=-0.20@7 h=0.3 r=0.00
;00:01:32.143: pe=-2.0024 eb=0.0000 ve=0.0000 vn=0.0000 vl=0.000 db=0.00
G1 E47.8628 F1800                       ; restore de=3.5771@30.0 r=0.88
;00:01:32.262: pe=1.5559 eb=0.0188 ve=30.0000 vn=0.6794 vl=0.000 db=0.44
G1 X-18.51 Y69.06 E47.9564 F600         ; draw dl=1.5@10(0<10>0) de=0.094@0.55(0.0<0.62>0.0) l=0.30x0.50x1.00 r=1.06
;00:01:32.432: pe=1.5501 eb=0.0276 ve=0.0000 vn=0.4882 vl=0.000 db=0.53
G1 E44.4062 F2400                       ; retract de=-3.5501@-40.0 r=1.11
;00:01:32.521: pe=-2.0024 eb=0.0300 ve=-40.0000 vn=0.0000 vl=0.000 db=0.55
G1 Z0.500 F420                          ; hopup dz=0.20@7 h=0.5 r=0.86
;00:01:32.550: pe=-2.0024 eb=0.0300 ve=0.0000 vn=0.0000 vl=0.000 db=0.43
G1 X-23.94 Y65.78 F6000                 ; move dl=6.4@100(0<40>0) de=0.000@0.0(0.0<0.0>0.0) l=0.50x0.50x0.00 r=0.00
;00:01:32.789: pe=-2.0024 eb=0.0000 ve=0.0000 vn=0.0000 vl=0.000 db=0.00
G1 Z0.300 F420                          ; hopdn dz=-0.20@7 h=0.3 r=0.00
;00:01:32.817: pe=-2.0024 eb=0.0000 ve=0.0000 vn=0.0000 vl=0.000 db=0.00
G1 E47.9834 F1800                       ; restore de=3.5771@30.0 r=0.88
;00:01:32.937: pe=1.5559 eb=0.0188 ve=30.0000 vn=0.6794 vl=0.000 db=0.44
G1 X-24.45 Y67.19 E48.0769 F600         ; draw dl=1.5@10(0<10>0) de=0.094@0.55(0.0<0.62>0.0) l=0.30x0.50x1.00 r=1.06
;00:01:33.107: pe=1.5501 eb=0.0276 ve=0.0000 vn=0.4882 vl=0.000 db=0.53
G1 E44.5268 F2400                       ; retract de=-3.5501@-40.0 r=1.11
;00:01:33.195: pe=-2.0024 eb=0.0300 ve=-40.0000 vn=0.0000 vl=0.000 db=0.55
G1 Z0.500 F420                          ; hopup dz=0.20@7 h=0.5 r=0.86
;00:01:33.224: pe=-2.0024 eb=0.0300 ve=0.0000 vn=0.0000 vl=0.000 db=0.43
G1 X-29.58 Y63.44 F6000                 ; move dl=6.4@100(0<40>0) de=0.000@0.0(0.0<0.0>0.0) l=0.50x0.50x0.00 r=0.00
;00:01:33.463: pe=-2.0024 eb=0.0000 ve=0.0000 vn=0.0000 vl=0.000 db=0.00
G1 Z0.300 F420                          ; hopdn dz=-0.20@7 h=0.3 r=0.00
;00:01:33.492: pe=-2.0024 eb=0.0000 ve=0.0000 vn=0.0000 vl=0.000 db=0.00
G1 E48.1039 F1800                       ; restore de=3.5771@30.0 r=0.88
;00:01:33.611: pe=1.5559 eb=0.0188 ve=30.0000 vn=0.6794 vl=0.000 db=0.44
G1 X-30.22 Y64.80 E48.1975 F600         ; draw dl=1.5@10(0<10>0) de=0.094@0.55(0.0<0.62>0.0) l=0.30x0.50x1.00 r=1.06
;00:01:33.781: pe=1.5501 eb=0.0276 ve=0.0000 vn=0.4882 vl=0.000 db=0.53
G1 E44.6473 F2400                       ; retract de=-3.5501@-40.0 r=1.11
;00:01:33.870: pe=-2.0024 eb=0.0300 ve=-40.0000 vn=0.0000 vl=0.000 db=0.55
G1 Z0.500 F420                          ; hopup dz=0.20@7 h=0.5 r=0.86
;00:01:33.898: pe=-2.0024 eb=0.0300 ve=0.0000 vn=0.0000 vl=0.000 db=0.43
G1 X-35.00 Y60.62 F6000                 ; move dl=6.4@100(0<40>0) de=0.000@0.0(0.0<0.0>0.0) l=0.50x0.50x0.00 r=0.00
;00:01:34.137: pe=-2.0024 eb=0.0000 ve=0.0000 vn=0.0000 vl=0.000 db=0.00
G1 Z0.300 F420                          ; hopdn dz=-0.20@7 h=0.3 r=0.00
;00:01:34.166: pe=-2.0024 eb=0.0000 ve=0.0000 vn=0.0000 vl=0.000 db=0.00
G1 E48.2589 F1800                       ; restore de=3.6115@30.0 r=0.90
;00:01:34.286: pe=1.5895 eb=0.0196 ve=30.0000 vn=0.6943 vl=0.000 db=0.45
G1 X-36.50 Y63.22 E48.4460 F600         ; draw dl=3.0@10(0<10>0) de=0.187@0.58(0.0<0.62>0.0) l=0.30x0.50x1.00 r=1.03
;00:01:34.606: pe=1.5836 eb=0.0287 ve=0.0000 vn=0.5006 vl=0.000 db=0.54
G1 E44.8623 F2400                       ; retract de=-3.5836@-40.0 r=1.13
;00:01:34.696: pe=-2.0025 eb=0.0312 ve=-40.0000 vn=0.0000 vl=0.000 db=0.56
G1 Z0.500 F420                          ; hopup dz=0.20@7 h=0.5 r=0.87
;00:01:34.724: pe=-2.0025 eb=0.0312 ve=0.0000 vn=0.0000 vl=0.000 db=0.44
G1 X-40.15 Y57.34 F6000                 ; move dl=6.9@100(0<42>0) de=0.000@0.0(0.0<0.0>0.0) l=0.50x0.50x0.00 r=0.00
;00:01:34.974: pe=-2.0025 eb=0.0000 ve=0.0000 vn=0.0000 vl=0.000 db=0.00
G1 Z0.300 F420                          ; hopdn dz=-0.20@7 h=0.3 r=0.00
;00:01:35.002: pe=-2.0025 eb=0.0000 ve=0.0000 vn=0.0000 vl=0.000 db=0.00
G1 E48.4396 F1800                       ; restore de=3.5773@30.0 r=0.88
;00:01:35.122: pe=1.5559 eb=0.0188 ve=30.0000 vn=0.6794 vl=0.000 db=0.44
G1 X-41.01 Y58.57 E48.5332 F600         ; draw dl=1.5@10(0<10>0) de=0.094@0.55(0.0<0.62>0.0) l=0.30x0.50x1.00 r=1.06
;00:01:35.292: pe=1.5501 eb=0.0276 ve=0.0000 vn=0.4882 vl=0.000 db=0.53
