;gcode_flavor: flashforge
;machine_type: Adventurer 3 Series
;filament_diameter0: 1.75
;right_extruder_temperature: 210
;platform_temperature: 50
;extruder_fan: 100%
;case_fan: 100%
;base_print_speed: 60
;travel_speed: 100
;vertical_speed: 7
;retract_speed: 40
;restore_speed: 30
;layer_height: 0.30
;line_width: 0.50
;extrusion_ratio: 1.00
;command_line: ./gcodetest.py -Te=210 -Tp=50 -Fe=1.0 -Fc=1.0 -Kf=1.0 -Kb=1.0 -Re=1.0 -R -v
;start gcode
M118 X75.00 Y75.00 Z150.00 T0
M140 S50 T0
M104 S210 T0
M104 S0 T1
M107
M900 K0.000 T0
G90
G28
M132 X Y Z A B
G1 Z50.000 F420
G161 X Y F3300
M7 T0
M6 T0
M652 S255
M108 T0
M106
;preExtrude:0.20
;00:00:00.000: layer=0 h=0.20 w=0.50 r=1.00
G1 X69.29 Y28.70 F6000                  ; move dl=75.0@100(0<100>0) de=0.000@0.0(0.0<0.0>0.0) l=0.00x0.50x0.00 r=0.00
;00:00:00.950: pe=0.0000 eb=0.0000 ve=0.0000 vn=0.0000 vl=0.000 db=0.00
G1 Z0.200 F420                          ; hopup dz=0.20@7 h=0.2 r=0.00
;00:00:00.979: pe=0.0000 eb=0.0000 ve=0.0000 vn=0.0000 vl=0.000 db=0.00
G1 E2.5035 F1800                        ; restore de=2.5035@30.0 r=1.96
;00:00:01.062: pe=2.4406 eb=0.0629 ve=30.0000 vn=1.4589 vl=0.000 db=0.98
;00:00:01.062: spiral(dC=0.12500000088796365, dl=58.904862631393236, vl=10, ve=1.3304054018457212
G1 X66.53 Y34.63 E3.3740 F600           ; draw dl=6.5@10(0<10>10) de=0.870@1.31(0.0<1.33>1.33) l=0.20x0.40x4.00 r=3.56
;00:00:01.726: pe=2.5358 eb=0.1235 ve=1.3304 vn=1.1607 vl=10.000 db=1.38
G1 X63.25 Y40.30 E4.2444                ; draw dl=6.5@10(10<10>10) de=0.870@1.33(1.33<1.33>1.33) l=0.20x0.40x4.00 r=3.56
;00:00:02.381: pe=2.6325 eb=0.1335 ve=1.3304 vn=1.2025 vl=10.000 db=1.43
G1 X59.50 Y45.66 E5.1149                ; draw dl=6.5@10(10<10>10) de=0.870@1.33(1.33<1.33>1.33) l=0.20x0.40x4.00 r=3.67
;00:00:03.035: pe=2.7053 eb=0.1414 ve=1.3304 vn=1.2339 vl=10.000 db=1.47
G1 X55.30 Y50.67 E5.9854                ; draw dl=6.5@10(10<10>10) de=0.870@1.33(1.33<1.33>1.33) l=0.20x0.40x4.00 r=3.75
;00:00:03.689: pe=2.7603 eb=0.1475 ve=1.3304 vn=1.2576 vl=10.000 db=1.50
G1 X50.67 Y55.30 E6.8559                ; draw dl=6.5@10(10<10>10) de=0.870@1.33(1.33<1.33>1.33) l=0.20x0.40x4.00 r=3.81
;00:00:04.343: pe=2.8018 eb=0.1522 ve=1.3304 vn=1.2754 vl=10.000 db=1.53
G1 X45.66 Y59.50 E7.7263                ; draw dl=6.5@10(10<10>10) de=0.870@1.33(1.33<1.33>1.33) l=0.20x0.40x4.00 r=3.86
;00:00:04.998: pe=2.8332 eb=0.1557 ve=1.3304 vn=1.2889 vl=10.000 db=1.54
G1 X40.30 Y63.25 E8.5968                ; draw dl=6.5@10(10<10>10) de=0.870@1.33(1.33<1.33>1.33) l=0.20x0.40x4.00 r=3.89
;00:00:05.652: pe=2.8569 eb=0.1585 ve=1.3304 vn=1.2990 vl=10.000 db=1.56
G1 X34.63 Y66.53 E9.4673                ; draw dl=6.5@10(10<10>10) de=0.870@1.33(1.33<1.33>1.33) l=0.20x0.40x4.00 r=3.92
;00:00:06.306: pe=2.8748 eb=0.1606 ve=1.3304 vn=1.3067 vl=10.000 db=1.57
G1 X28.70 Y69.29 E10.3377               ; draw dl=6.5@10(10<10>0) de=0.870@1.31(1.33<1.33>0.0) l=0.20x0.40x4.00 r=4.00
;00:00:06.971: pe=2.8757 eb=0.1747 ve=0.0042 vn=1.2403 vl=0.032 db=1.64
G1 X28.70 Y69.29                        ; move dl=0.0@10(0<0>0) de=0.000@0.0(0.0<0.0>0.0) l=0.20x0.40x0.00 r=2358.27
;00:00:06.971: pe=2.8757 eb=0.1748 ve=0.0000 vn=1.2398 vl=0.000 db=1.64
G1 E6.4621 F2400                        ; retract de=-3.8757@-40.0 r=4.28
;00:00:07.068: pe=-1.0167 eb=0.1915 ve=-40.0000 vn=0.0000 vl=0.000 db=1.71
G1 Z0.400 F420                          ; hopup dz=0.20@7 h=0.4 r=3.03
;00:00:07.096: pe=-1.0167 eb=0.1915 ve=0.0000 vn=0.0000 vl=0.000 db=1.21
;layer:0.30
;00:00:07.096: layer=1 h=0.30 w=0.50 r=1.00
;structure:shell-outer
;00:00:07.096: text [(-70, 70), (None, None)] fsize=5 angle=0 've=1.0\nh=0.3\ndynret=0'
G1 X-69.50 Y68.89 F6000                 ; move dl=98.2@100(0<100>0) de=0.000@0.0(0.0<0.0>0.0) l=0.40x0.50x0.00 r=0.00
;00:00:08.278: pe=-1.0167 eb=0.0000 ve=0.0000 vn=0.0000 vl=0.000 db=0.00
G1 Z0.300 F420                          ; hopdn dz=-0.10@7 h=0.3 r=0.00
;00:00:08.292: pe=-1.0167 eb=0.0000 ve=0.0000 vn=0.0000 vl=0.000 db=0.00
G1 E8.3805 F1800                        ; restore de=1.9185@30.0 r=0.62
;00:00:08.356: pe=0.8924 eb=0.0093 ve=30.0000 vn=0.5840 vl=0.000 db=0.31
G1 X-68.48 Y66.48 E8.5437 F600          ; draw dl=2.6@10(0<10>6) de=0.163@0.6(0.0<0.62>0.35) l=0.30x0.50x1.00 r=0.85
;00:00:08.630: pe=0.9174 eb=0.0171 ve=0.3524 vn=0.4992 vl=5.651 db=0.42
G1 X-67.46 Y68.89 E8.7069               ; draw dl=2.6@10(6<10>0) de=0.163@0.6(0.35<0.62>0.0) l=0.30x0.50x1.00 r=0.86
;00:00:08.904: pe=0.9399 eb=0.0219 ve=0.0000 vn=0.4666 vl=0.000 db=0.47
G1 E6.7670 F2400                        ; retract de=-1.9399@-40.0 r=1.00
;00:00:08.952: pe=-1.0023 eb=0.0243 ve=-40.0000 vn=0.0000 vl=0.000 db=0.50
G1 Z0.500 F420                          ; hopup dz=0.20@7 h=0.5 r=0.77
;00:00:08.981: pe=-1.0023 eb=0.0243 ve=0.0000 vn=0.0000 vl=0.000 db=0.39
G1 X-66.40 Y67.69 F6000                 ; move dl=1.6@100(0<20>0) de=0.000@0.0(0.0<0.0>0.0) l=0.50x0.50x0.00 r=0.00
;00:00:09.101: pe=-1.0023 eb=0.0000 ve=0.0000 vn=0.0000 vl=0.000 db=0.00
G1 Z0.300 F420                          ; hopdn dz=-0.20@7 h=0.3 r=0.00
;00:00:09.129: pe=-1.0023 eb=0.0000 ve=0.0000 vn=0.0000 vl=0.000 db=0.00
G1 E8.6832 F1800                        ; restore de=1.9162@30.0 r=0.62
;00:00:09.193: pe=0.9043 eb=0.0096 ve=30.0000 vn=0.5919 vl=0.000 db=0.31
G1 X-64.26 Y67.69 E8.8167 F600          ; draw dl=2.1@10(0<10>10) de=0.133@0.6(0.0<0.62>0.6) l=0.30x0.50x1.00 r=0.86
;00:00:09.417: pe=0.9235 eb=0.0164 ve=0.6039 vn=0.5142 vl=9.683 db=0.41
G1 X-64.34 Y68.22 E8.8501               ; draw dl=0.5@10(10<10>10) de=0.033@0.62(0.6<0.62>0.62) l=0.30x0.50x1.00 r=0.83
;00:00:09.471: pe=0.9292 eb=0.0166 ve=0.6236 vn=0.5174 vl=10.000 db=0.41
G1 X-64.55 Y68.61 E8.8777               ; draw dl=0.4@10(10<10>10) de=0.028@0.62(0.62<0.62>0.62) l=0.30x0.50x1.00 r=0.83
;00:00:09.515: pe=0.9339 eb=0.0168 ve=0.6236 vn=0.5199 vl=10.000 db=0.41
G1 X-64.89 Y68.86 E8.9040               ; draw dl=0.4@10(10<10>10) de=0.026@0.62(0.62<0.62>0.62) l=0.30x0.50x1.00 r=0.84
;00:00:09.557: pe=0.9382 eb=0.0169 ve=0.6236 vn=0.5223 vl=10.000 db=0.42
G1 X-65.33 Y68.95 E8.9320               ; draw dl=0.4@10(10<10>10) de=0.028@0.62(0.62<0.62>0.62) l=0.30x0.50x1.00 r=0.84
;00:00:09.602: pe=0.9427 eb=0.0171 ve=0.6237 vn=0.5248 vl=10.000 db=0.42
G1 X-65.76 Y68.86 E8.9594               ; draw dl=0.4@10(10<10>10) de=0.027@0.62(0.62<0.62>0.62) l=0.30x0.50x1.00 r=0.84
;00:00:09.646: pe=0.9470 eb=0.0173 ve=0.6236 vn=0.5271 vl=10.000 db=0.42
G1 X-66.10 Y68.61 E8.9858               ; draw dl=0.4@10(10<10>10) de=0.026@0.62(0.62<0.62>0.62) l=0.30x0.50x1.00 r=0.85
;00:00:09.688: pe=0.9510 eb=0.0174 ve=0.6236 vn=0.5293 vl=10.000 db=0.42
G1 X-66.32 Y68.22 E9.0137               ; draw dl=0.4@10(10<10>10) de=0.028@0.62(0.62<0.62>0.62) l=0.30x0.50x1.00 r=0.85
;00:00:09.733: pe=0.9552 eb=0.0176 ve=0.6236 vn=0.5316 vl=10.000 db=0.42
G1 X-66.40 Y67.69 E9.0471               ; draw dl=0.5@10(10<10>10) de=0.033@0.62(0.62<0.62>0.62) l=0.30x0.50x1.00 r=0.85
;00:00:09.787: pe=0.9600 eb=0.0178 ve=0.6237 vn=0.5343 vl=10.000 db=0.43
G1 X-66.32 Y67.15 E9.0812               ; draw dl=0.5@10(10<10>10) de=0.034@0.62(0.62<0.62>0.62) l=0.30x0.50x1.00 r=0.86
;00:00:09.841: pe=0.9648 eb=0.0179 ve=0.6237 vn=0.5369 vl=10.000 db=0.43
G1 X-66.09 Y66.75 E9.1099               ; draw dl=0.5@10(10<10>10) de=0.029@0.62(0.62<0.62>0.62) l=0.30x0.50x1.00 r=0.86
;00:00:09.887: pe=0.9688 eb=0.0181 ve=0.6237 vn=0.5391 vl=10.000 db=0.43
G1 X-65.74 Y66.51 E9.1364               ; draw dl=0.4@10(10<10>10) de=0.026@0.62(0.62<0.62>0.62) l=0.30x0.50x1.00 r=0.87
;00:00:09.930: pe=0.9723 eb=0.0182 ve=0.6237 vn=0.5410 vl=10.000 db=0.43
G1 X-65.28 Y66.42 E9.1656               ; draw dl=0.5@10(10<10>10) de=0.029@0.62(0.62<0.62>0.62) l=0.30x0.50x1.00 r=0.87
;00:00:09.977: pe=0.9761 eb=0.0184 ve=0.6237 vn=0.5431 vl=10.000 db=0.43
G1 X-64.94 Y66.47 E9.1871               ; draw dl=0.3@10(10<10>10) de=0.021@0.62(0.62<0.62>0.62) l=0.30x0.50x1.00 r=0.87
;00:00:10.011: pe=0.9789 eb=0.0185 ve=0.6236 vn=0.5446 vl=10.000 db=0.43
G1 X-64.65 Y66.61 E9.2071               ; draw dl=0.3@10(10<10>10) de=0.020@0.62(0.62<0.62>0.62) l=0.30x0.50x1.00 r=0.87
;00:00:10.043: pe=0.9814 eb=0.0186 ve=0.6236 vn=0.5460 vl=10.000 db=0.44
G1 X-64.44 Y66.83 E9.2261               ; draw dl=0.3@10(10<10>10) de=0.019@0.62(0.62<0.62>0.62) l=0.30x0.50x1.00 r=0.88
;00:00:10.074: pe=0.9837 eb=0.0187 ve=0.6236 vn=0.5473 vl=10.000 db=0.44
G1 X-64.32 Y67.13 E9.2463               ; draw dl=0.3@10(10<10>0) de=0.020@0.48(0.62<0.62>0.0) l=0.30x0.50x1.00 r=1.13
;00:00:10.116: pe=0.9811 eb=0.0237 ve=0.0000 vn=0.4888 vl=0.000 db=0.49
G1 E7.2652 F2400                        ; retract de=-1.9811@-40.0 r=1.04
;00:00:10.165: pe=-1.0025 eb=0.0263 ve=-40.0000 vn=0.0000 vl=0.000 db=0.52
G1 Z0.500 F420                          ; hopup dz=0.20@7 h=0.5 r=0.80
;00:00:10.194: pe=-1.0025 eb=0.0263 ve=0.0000 vn=0.0000 vl=0.000 db=0.40
G1 X-63.20 Y68.26 F6000                 ; move dl=1.6@100(0<20>0) de=0.000@0.0(0.0<0.0>0.0) l=0.50x0.50x0.00 r=0.00
;00:00:10.314: pe=-1.0025 eb=0.0000 ve=0.0000 vn=0.0000 vl=0.000 db=0.00
G1 Z0.300 F420                          ; hopdn dz=-0.20@7 h=0.3 r=0.00
;00:00:10.342: pe=-1.0025 eb=0.0000 ve=0.0000 vn=0.0000 vl=0.000 db=0.00
G1 E9.1383 F1800                        ; restore de=1.8731@30.0 r=0.60
;00:00:10.405: pe=0.8619 eb=0.0087 ve=30.0000 vn=0.5640 vl=0.000 db=0.30
G1 X-61.51 Y68.26 E9.2437 F600          ; draw dl=1.7@10(0<10>0) de=0.105@0.56(0.0<0.62>0.0) l=0.30x0.50x1.00 r=0.87
;00:00:10.594: pe=0.8757 eb=0.0193 ve=0.0000 vn=0.4319 vl=0.000 db=0.44
G1 E7.3680 F2400                        ; retract de=-1.8757@-40.0 r=0.93
;00:00:10.641: pe=-1.0020 eb=0.0213 ve=-40.0000 vn=0.0000 vl=0.000 db=0.47
G1 Z0.500 F420                          ; hopup dz=0.20@7 h=0.5 r=0.72
;00:00:10.669: pe=-1.0020 eb=0.0213 ve=0.0000 vn=0.0000 vl=0.000 db=0.36
G1 X-61.51 Y67.55 F6000                 ; move dl=0.7@100(0<13>0) de=0.000@0.0(0.0<0.0>0.0) l=0.50x0.50x0.00 r=0.00
;00:00:10.749: pe=-1.0020 eb=0.0000 ve=0.0000 vn=0.0000 vl=0.000 db=0.00
G1 Z0.300 F420                          ; hopdn dz=-0.20@7 h=0.3 r=0.00
;00:00:10.778: pe=-1.0020 eb=0.0000 ve=0.0000 vn=0.0000 vl=0.000 db=0.00
G1 E9.2406 F1800                        ; restore de=1.8726@30.0 r=0.60
;00:00:10.840: pe=0.8619 eb=0.0087 ve=30.0000 vn=0.5640 vl=0.000 db=0.30
G1 X-63.20 Y67.55 E9.3460 F600          ; draw dl=1.7@10(0<10>0) de=0.105@0.56(0.0<0.62>0.0) l=0.30x0.50x1.00 r=0.87
;00:00:11.029: pe=0.8757 eb=0.0193 ve=0.0000 vn=0.4319 vl=0.000 db=0.44
G1 E7.4703 F2400                        ; retract de=-1.8757@-40.0 r=0.93
;00:00:11.076: pe=-1.0020 eb=0.0213 ve=-40.0000 vn=0.0000 vl=0.000 db=0.47
G1 Z0.500 F420                          ; hopup dz=0.20@7 h=0.5 r=0.72
;00:00:11.105: pe=-1.0020 eb=0.0213 ve=0.0000 vn=0.0000 vl=0.000 db=0.36
G1 X-60.45 Y69.00 F6000                 ; move dl=3.1@100(0<28>0) de=0.000@0.0(0.0<0.0>0.0) l=0.50x0.50x0.00 r=0.00
;00:00:11.272: pe=-1.0020 eb=0.0000 ve=0.0000 vn=0.0000 vl=0.000 db=0.00
G1 Z0.300 F420                          ; hopdn dz=-0.20@7 h=0.3 r=0.00
;00:00:11.300: pe=-1.0020 eb=0.0000 ve=0.0000 vn=0.0000 vl=0.000 db=0.00
G1 E9.3718 F1800                        ; restore de=1.9015@30.0 r=0.62
;00:00:11.364: pe=0.8902 eb=0.0093 ve=30.0000 vn=0.5827 vl=0.000 db=0.31
G1 X-59.98 Y69.24 E9.4047 F600          ; draw dl=0.5@10(0<10>10) de=0.033@0.52(0.0<0.62>0.62) l=0.30x0.50x1.00 r=0.96
;00:00:11.427: pe=0.8915 eb=0.0153 ve=0.6236 vn=0.4968 vl=10.000 db=0.39
G1 X-59.61 Y69.55 E9.4348               ; draw dl=0.5@10(10<10>10) de=0.030@0.62(0.62<0.62>0.62) l=0.30x0.50x1.00 r=0.80
;00:00:11.475: pe=0.8975 eb=0.0155 ve=0.6236 vn=0.5000 vl=10.000 db=0.40
G1 X-59.36 Y69.88 E9.4606               ; draw dl=0.4@10(10<10>5) de=0.026@0.59(0.62<0.62>0.3) l=0.30x0.50x1.00 r=0.85
;00:00:11.519: pe=0.9013 eb=0.0169 ve=0.3015 vn=0.4858 vl=4.834 db=0.42
G1 X-59.36 Y66.48 E9.6727               ; draw dl=3.4@10(5<10>0) de=0.212@0.6(0.3<0.62>0.0) l=0.30x0.50x1.00 r=0.85
;00:00:11.872: pe=0.9340 eb=0.0217 ve=0.0000 vn=0.4634 vl=0.000 db=0.47
G1 E7.7386 F2400                        ; retract de=-1.9340@-40.0 r=0.99
;00:00:11.920: pe=-1.0023 eb=0.0240 ve=-40.0000 vn=0.0000 vl=0.000 db=0.49
G1 Z0.500 F420                          ; hopup dz=0.20@7 h=0.5 r=0.77
;00:00:11.949: pe=-1.0023 eb=0.0240 ve=0.0000 vn=0.0000 vl=0.000 db=0.38
G1 X-58.30 Y66.71 F6000                 ; move dl=1.1@100(0<16>0) de=0.000@0.0(0.0<0.0>0.0) l=0.50x0.50x0.00 r=0.00
;00:00:12.047: pe=-1.0023 eb=0.0000 ve=0.0000 vn=0.0000 vl=0.000 db=0.00
G1 Z0.300 F420                          ; hopdn dz=-0.20@7 h=0.3 r=0.00
;00:00:12.076: pe=-1.0023 eb=0.0000 ve=0.0000 vn=0.0000 vl=0.000 db=0.00
G1 E9.2943 F1800                        ; restore de=1.5556@30.0 r=0.38
;00:00:12.128: pe=0.5497 eb=0.0036 ve=30.0000 vn=0.3576 vl=0.000 db=0.19
G1 X-58.30 Y66.65 E9.2980 F600          ; draw dl=0.1@10(0<4>0) de=0.004@0.16(0.0<0.24>0.0) l=0.30x0.50x1.00 r=1.85
;00:00:12.151: pe=0.5466 eb=0.0086 ve=0.0000 vn=0.2498 vl=0.000 db=0.30
G1 E7.7514 F2400                        ; retract de=-1.5466@-40.0 r=0.61
;00:00:12.190: pe=-1.0006 eb=0.0092 ve=-40.0000 vn=0.0000 vl=0.000 db=0.31
G1 Z0.500 F420                          ; hopup dz=0.20@7 h=0.5 r=0.48
;00:00:12.218: pe=-1.0006 eb=0.0092 ve=0.0000 vn=0.0000 vl=0.000 db=0.24
G1 X-56.01 Y69.94 F6000                 ; move dl=4.0@100(0<32>0) de=0.000@0.0(0.0<0.0>0.0) l=0.50x0.50x0.00 r=0.00
;00:00:12.408: pe=-1.0006 eb=0.0000 ve=0.0000 vn=0.0000 vl=0.000 db=0.00
G1 Z0.300 F420                          ; hopdn dz=-0.20@7 h=0.3 r=0.00
;00:00:12.437: pe=-1.0006 eb=0.0000 ve=0.0000 vn=0.0000 vl=0.000 db=0.00
G1 E9.6666 F1800                        ; restore de=1.9152@30.0 r=0.63
;00:00:12.501: pe=0.9050 eb=0.0096 ve=30.0000 vn=0.5924 vl=0.000 db=0.31
G1 X-55.50 Y69.80 E9.6996 F600          ; draw dl=0.5@10(0<10>10) de=0.033@0.52(0.0<0.62>0.62) l=0.30x0.50x1.00 r=0.98
;00:00:12.563: pe=0.9057 eb=0.0157 ve=0.6237 vn=0.5050 vl=10.000 db=0.40
G1 X-55.11 Y69.42 E9.7336               ; draw dl=0.5@10(10<10>10) de=0.034@0.62(0.62<0.62>0.62) l=0.30x0.50x1.00 r=0.81
;00:00:12.618: pe=0.9121 eb=0.0160 ve=0.6237 vn=0.5081 vl=10.000 db=0.40
G1 X-54.88 Y68.86 E9.7713               ; draw dl=0.6@10(10<10>10) de=0.038@0.62(0.62<0.62>0.62) l=0.30x0.50x1.00 r=0.82
;00:00:12.678: pe=0.9190 eb=0.0162 ve=0.6237 vn=0.5118 vl=10.000 db=0.41
G1 X-54.79 Y68.18 E9.8141               ; draw dl=0.7@10(10<10>10) de=0.043@0.62(0.62<0.62>0.62) l=0.30x0.50x1.00 r=0.82
;00:00:12.747: pe=0.9265 eb=0.0165 ve=0.6237 vn=0.5159 vl=10.000 db=0.41
G1 X-54.88 Y67.51 E9.8563               ; draw dl=0.7@10(10<10>10) de=0.042@0.62(0.62<0.62>0.62) l=0.30x0.50x1.00 r=0.83
;00:00:12.815: pe=0.9336 eb=0.0168 ve=0.6237 vn=0.5198 vl=10.000 db=0.41
G1 X-55.11 Y66.95 E9.8940               ; draw dl=0.6@10(10<10>10) de=0.038@0.62(0.62<0.62>0.62) l=0.30x0.50x1.00 r=0.84
;00:00:12.875: pe=0.9398 eb=0.0170 ve=0.6237 vn=0.5232 vl=10.000 db=0.42
G1 X-55.50 Y66.56 E9.9284               ; draw dl=0.6@10(10<10>10) de=0.034@0.62(0.62<0.62>0.62) l=0.30x0.50x1.00 r=0.84
;00:00:12.930: pe=0.9453 eb=0.0172 ve=0.6237 vn=0.5262 vl=10.000 db=0.42
G1 X-56.01 Y66.42 E9.9614               ; draw dl=0.5@10(10<10>10) de=0.033@0.62(0.62<0.62>0.62) l=0.30x0.50x1.00 r=0.85
;00:00:12.983: pe=0.9504 eb=0.0174 ve=0.6237 vn=0.5290 vl=10.000 db=0.42
G1 X-56.54 Y66.56 E9.9956               ; draw dl=0.5@10(10<10>10) de=0.034@0.62(0.62<0.62>0.62) l=0.30x0.50x1.00 r=0.85
;00:00:13.038: pe=0.9555 eb=0.0176 ve=0.6237 vn=0.5318 vl=10.000 db=0.42
G1 X-56.91 Y66.95 E10.0291              ; draw dl=0.5@10(10<10>10) de=0.034@0.62(0.62<0.62>0.62) l=0.30x0.50x1.00 r=0.85
;00:00:13.092: pe=0.9603 eb=0.0178 ve=0.6237 vn=0.5345 vl=10.000 db=0.43
G1 X-57.15 Y67.51 E10.0671              ; draw dl=0.6@10(10<10>10) de=0.038@0.62(0.62<0.62>0.62) l=0.30x0.50x1.00 r=0.86
;00:00:13.153: pe=0.9657 eb=0.0180 ve=0.6237 vn=0.5374 vl=10.000 db=0.43
G1 X-57.23 Y68.18 E10.1092              ; draw dl=0.7@10(10<10>10) de=0.042@0.62(0.62<0.62>0.62) l=0.30x0.50x1.00 r=0.86
;00:00:13.220: pe=0.9714 eb=0.0182 ve=0.6237 vn=0.5405 vl=10.000 db=0.43
G1 X-57.15 Y68.85 E10.1513              ; draw dl=0.7@10(10<10>10) de=0.042@0.62(0.62<0.62>0.62) l=0.30x0.50x1.00 r=0.87
;00:00:13.288: pe=0.9769 eb=0.0184 ve=0.6237 vn=0.5435 vl=10.000 db=0.43
G1 X-56.91 Y69.42 E10.1899              ; draw dl=0.6@10(10<10>10) de=0.039@0.62(0.62<0.62>0.62) l=0.30x0.50x1.00 r=0.87
;00:00:13.350: pe=0.9818 eb=0.0186 ve=0.6237 vn=0.5462 vl=10.000 db=0.44
G1 X-56.54 Y69.80 E10.2229              ; draw dl=0.5@10(10<10>10) de=0.033@0.62(0.62<0.62>0.62) l=0.30x0.50x1.00 r=0.88
;00:00:13.403: pe=0.9858 eb=0.0187 ve=0.6237 vn=0.5484 vl=10.000 db=0.44
G1 X-56.01 Y69.94 E10.2571              ; draw dl=0.5@10(10<10>0) de=0.034@0.53(0.62<0.62>0.0) l=0.30x0.50x1.00 r=1.03
;00:00:13.467: pe=0.9848 eb=0.0239 ve=0.0000 vn=0.4907 vl=0.000 db=0.49
G1 E8.2724 F2400                        ; retract de=-1.9848@-40.0 r=1.04
;00:00:13.517: pe=-1.0026 eb=0.0265 ve=-40.0000 vn=0.0000 vl=0.000 db=0.52
G1 Z0.500 F420                          ; hopup dz=0.20@7 h=0.5 r=0.81
;00:00:13.546: pe=-1.0026 eb=0.0265 ve=0.0000 vn=0.0000 vl=0.000 db=0.40
G1 X-69.50 Y64.88 F6000                 ; move dl=14.4@100(0<60>0) de=0.000@0.0(0.0<0.0>0.0) l=0.50x0.50x0.00 r=0.00
;00:00:13.906: pe=-1.0026 eb=0.0000 ve=0.0000 vn=0.0000 vl=0.000 db=0.00
G1 Z0.300 F420                          ; hopdn dz=-0.20@7 h=0.3 r=0.00
;00:00:13.934: pe=-1.0026 eb=0.0000 ve=0.0000 vn=0.0000 vl=0.000 db=0.00
G1 E10.1707 F1800                       ; restore de=1.8983@30.0 r=0.61
;00:00:13.998: pe=0.8865 eb=0.0092 ve=30.0000 vn=0.5802 vl=0.000 db=0.31
G1 X-69.50 Y61.48 E10.3827 F600         ; draw dl=3.4@10(0<10>0) de=0.212@0.59(0.0<0.62>0.0) l=0.30x0.50x1.00 r=0.85
;00:00:14.358: pe=0.9174 eb=0.0210 ve=0.0000 vn=0.4544 vl=0.000 db=0.46
G1 E8.4653 F2400                        ; retract de=-1.9174@-40.0 r=0.97
;00:00:14.405: pe=-1.0022 eb=0.0232 ve=-40.0000 vn=0.0000 vl=0.000 db=0.49
G1 Z0.500 F420                          ; hopup dz=0.20@7 h=0.5 r=0.75
;00:00:14.434: pe=-1.0022 eb=0.0232 ve=0.0000 vn=0.0000 vl=0.000 db=0.38
G1 X-69.50 Y63.23 F6000                 ; move dl=1.8@100(0<21>0) de=0.000@0.0(0.0<0.0>0.0) l=0.50x0.50x0.00 r=0.00
;00:00:14.560: pe=-1.0022 eb=0.0000 ve=0.0000 vn=0.0000 vl=0.000 db=0.00
G1 Z0.300 F420                          ; hopdn dz=-0.20@7 h=0.3 r=0.00
;00:00:14.588: pe=-1.0022 eb=0.0000 ve=0.0000 vn=0.0000 vl=0.000 db=0.00
G1 E10.3705 F1800                       ; restore de=1.9052@30.0 r=0.62
;00:00:14.652: pe=0.8936 eb=0.0093 ve=30.0000 vn=0.5849 vl=0.000 db=0.31
G1 X-69.25 Y63.53 E10.3948 F600         ; draw dl=0.4@10(0<10>10) de=0.024@0.5(0.0<0.62>0.62) l=0.30x0.50x1.00 r=1.02
;00:00:14.701: pe=0.8930 eb=0.0153 ve=0.6237 vn=0.4979 vl=10.000 db=0.40
G1 X-69.02 Y63.75 E10.4147              ; draw dl=0.3@10(10<10>10) de=0.020@0.62(0.62<0.62>0.62) l=0.30x0.50x1.00 r=0.80
;00:00:14.732: pe=0.8970 eb=0.0155 ve=0.6237 vn=0.4999 vl=10.000 db=0.40
G1 X-68.80 Y63.88 E10.4306              ; draw dl=0.3@10(10<10>10) de=0.016@0.62(0.62<0.62>0.62) l=0.30x0.50x1.00 r=0.80
;00:00:14.758: pe=0.9001 eb=0.0156 ve=0.6237 vn=0.5015 vl=10.000 db=0.40
G1 X-68.60 Y63.93 E10.4435              ; draw dl=0.2@10(10<10>10) de=0.013@0.62(0.62<0.62>0.62) l=0.30x0.50x1.00 r=0.81
;00:00:14.779: pe=0.9027 eb=0.0157 ve=0.6237 vn=0.5029 vl=10.000 db=0.40
G1 X-68.41 Y63.95 E10.4554              ; draw dl=0.2@10(10<10>10) de=0.012@0.62(0.62<0.62>0.62) l=0.30x0.50x1.00 r=0.81
;00:00:14.798: pe=0.9049 eb=0.0157 ve=0.6237 vn=0.5041 vl=10.000 db=0.40
G1 X-68.09 Y63.88 E10.4758              ; draw dl=0.3@10(10<10>10) de=0.020@0.62(0.62<0.62>0.62) l=0.30x0.50x1.00 r=0.81
;00:00:14.831: pe=0.9088 eb=0.0159 ve=0.6237 vn=0.5062 vl=10.000 db=0.40
G1 X-67.86 Y63.71 E10.4937              ; draw dl=0.3@10(10<10>10) de=0.018@0.62(0.62<0.62>0.62) l=0.30x0.50x1.00 r=0.81
;00:00:14.859: pe=0.9122 eb=0.0160 ve=0.6237 vn=0.5080 vl=10.000 db=0.40
G1 X-67.76 Y63.51 E10.5076              ; draw dl=0.2@10(10<10>10) de=0.014@0.62(0.62<0.62>0.62) l=0.30x0.50x1.00 r=0.82
;00:00:14.881: pe=0.9147 eb=0.0161 ve=0.6236 vn=0.5095 vl=10.000 db=0.41
G1 X-67.67 Y63.08 E10.5350              ; draw dl=0.4@10(10<10>10) de=0.027@0.62(0.62<0.62>0.62) l=0.30x0.50x1.00 r=0.82
;00:00:14.925: pe=0.9197 eb=0.0163 ve=0.6236 vn=0.5122 vl=10.000 db=0.41
G1 X-67.67 Y61.48 E10.6348              ; draw dl=1.6@10(10<10>0) de=0.100@0.59(0.62<0.62>0.0) l=0.30x0.50x1.00 r=0.88
;00:00:15.095: pe=0.9319 eb=0.0216 ve=0.0000 vn=0.4623 vl=0.000 db=0.47
G1 E8.7029 F2400                        ; retract de=-1.9319@-40.0 r=0.99
;00:00:15.144: pe=-1.0023 eb=0.0239 ve=-40.0000 vn=0.0000 vl=0.000 db=0.49
G1 Z0.500 F420                          ; hopup dz=0.20@7 h=0.5 r=0.76
;00:00:15.172: pe=-1.0023 eb=0.0239 ve=0.0000 vn=0.0000 vl=0.000 db=0.38
G1 X-66.61 Y63.26 F6000                 ; move dl=2.1@100(0<23>0) de=0.000@0.0(0.0<0.0>0.0) l=0.50x0.50x0.00 r=0.00
;00:00:15.309: pe=-1.0023 eb=0.0000 ve=0.0000 vn=0.0000 vl=0.000 db=0.00
G1 Z0.300 F420                          ; hopdn dz=-0.20@7 h=0.3 r=0.00
;00:00:15.337: pe=-1.0023 eb=0.0000 ve=0.0000 vn=0.0000 vl=0.000 db=0.00
G1 E10.5758 F1800                       ; restore de=1.8729@30.0 r=0.60
;00:00:15.400: pe=0.8619 eb=0.0087 ve=30.0000 vn=0.5640 vl=0.000 db=0.30
G1 X-64.92 Y63.26 E10.6812 F600         ; draw dl=1.7@10(0<10>0) de=0.105@0.56(0.0<0.62>0.0) l=0.30x0.50x1.00 r=0.87
;00:00:15.589: pe=0.8757 eb=0.0193 ve=0.0000 vn=0.4319 vl=0.000 db=0.44
G1 E8.8055 F2400                        ; retract de=-1.8757@-40.0 r=0.93
;00:00:15.636: pe=-1.0020 eb=0.0213 ve=-40.0000 vn=0.0000 vl=0.000 db=0.47
G1 Z0.500 F420                          ; hopup dz=0.20@7 h=0.5 r=0.72
;00:00:15.664: pe=-1.0020 eb=0.0213 ve=0.0000 vn=0.0000 vl=0.000 db=0.36
G1 X-64.92 Y62.55 F6000                 ; move dl=0.7@100(0<13>0) de=0.000@0.0(0.0<0.0>0.0) l=0.50x0.50x0.00 r=0.00
;00:00:15.744: pe=-1.0020 eb=0.0000 ve=0.0000 vn=0.0000 vl=0.000 db=0.00
G1 Z0.300 F420                          ; hopdn dz=-0.20@7 h=0.3 r=0.00
;00:00:15.773: pe=-1.0020 eb=0.0000 ve=0.0000 vn=0.0000 vl=0.000 db=0.00
G1 E10.6781 F1800                       ; restore de=1.8726@30.0 r=0.60
;00:00:15.835: pe=0.8619 eb=0.0087 ve=30.0000 vn=0.5640 vl=0.000 db=0.30
G1 X-66.61 Y62.55 E10.7835 F600         ; draw dl=1.7@10(0<10>0) de=0.105@0.56(0.0<0.62>0.0) l=0.30x0.50x1.00 r=0.87
;00:00:16.024: pe=0.8757 eb=0.0193 ve=0.0000 vn=0.4319 vl=0.000 db=0.44
G1 E8.9078 F2400                        ; retract de=-1.8757@-40.0 r=0.93
;00:00:16.071: pe=-1.0020 eb=0.0213 ve=-40.0000 vn=0.0000 vl=0.000 db=0.47
G1 Z0.500 F420                          ; hopup dz=0.20@7 h=0.5 r=0.72
;00:00:16.100: pe=-1.0020 eb=0.0213 ve=0.0000 vn=0.0000 vl=0.000 db=0.36
G1 X-62.64 Y64.94 F6000                 ; move dl=4.6@100(0<34>0) de=0.000@0.0(0.0<0.0>0.0) l=0.50x0.50x0.00 r=0.00
;00:00:16.304: pe=-1.0020 eb=0.0000 ve=0.0000 vn=0.0000 vl=0.000 db=0.00
G1 Z0.300 F420                          ; hopdn dz=-0.20@7 h=0.3 r=0.00
;00:00:16.332: pe=-1.0020 eb=0.0000 ve=0.0000 vn=0.0000 vl=0.000 db=0.00
G1 E10.8243 F1800                       ; restore de=1.9165@30.0 r=0.63
;00:00:16.396: pe=0.9050 eb=0.0096 ve=30.0000 vn=0.5924 vl=0.000 db=0.31
G1 X-62.13 Y64.80 E10.8573 F600         ; draw dl=0.5@10(0<10>10) de=0.033@0.52(0.0<0.62>0.62) l=0.30x0.50x1.00 r=0.98
;00:00:16.459: pe=0.9057 eb=0.0157 ve=0.6237 vn=0.5049 vl=10.000 db=0.40
G1 X-61.74 Y64.42 E10.8913              ; draw dl=0.5@10(10<10>10) de=0.034@0.62(0.62<0.62>0.62) l=0.30x0.50x1.00 r=0.81
;00:00:16.514: pe=0.9121 eb=0.0160 ve=0.6237 vn=0.5081 vl=10.000 db=0.40
G1 X-61.50 Y63.86 E10.9292              ; draw dl=0.6@10(10<10>10) de=0.038@0.62(0.62<0.62>0.62) l=0.30x0.50x1.00 r=0.82
;00:00:16.575: pe=0.9190 eb=0.0162 ve=0.6237 vn=0.5118 vl=10.000 db=0.41
G1 X-61.42 Y63.18 E10.9719              ; draw dl=0.7@10(10<10>10) de=0.043@0.62(0.62<0.62>0.62) l=0.30x0.50x1.00 r=0.82
;00:00:16.643: pe=0.9265 eb=0.0165 ve=0.6237 vn=0.5159 vl=10.000 db=0.41
G1 X-61.50 Y62.51 E11.0140              ; draw dl=0.7@10(10<10>10) de=0.042@0.62(0.62<0.62>0.62) l=0.30x0.50x1.00 r=0.83
;00:00:16.711: pe=0.9336 eb=0.0168 ve=0.6237 vn=0.5198 vl=10.000 db=0.41
G1 X-61.74 Y61.95 E11.0520              ; draw dl=0.6@10(10<10>10) de=0.038@0.62(0.62<0.62>0.62) l=0.30x0.50x1.00 r=0.84
;00:00:16.771: pe=0.9398 eb=0.0170 ve=0.6237 vn=0.5232 vl=10.000 db=0.42
G1 X-62.13 Y61.56 E11.0864              ; draw dl=0.6@10(10<10>10) de=0.034@0.62(0.62<0.62>0.62) l=0.30x0.50x1.00 r=0.84
;00:00:16.827: pe=0.9453 eb=0.0172 ve=0.6237 vn=0.5262 vl=10.000 db=0.42
G1 X-62.64 Y61.42 E11.1194              ; draw dl=0.5@10(10<10>10) de=0.033@0.62(0.62<0.62>0.62) l=0.30x0.50x1.00 r=0.85
;00:00:16.880: pe=0.9504 eb=0.0174 ve=0.6237 vn=0.5290 vl=10.000 db=0.42
G1 X-63.16 Y61.56 E11.1530              ; draw dl=0.5@10(10<10>10) de=0.034@0.62(0.62<0.62>0.62) l=0.30x0.50x1.00 r=0.85
;00:00:16.933: pe=0.9554 eb=0.0176 ve=0.6237 vn=0.5317 vl=10.000 db=0.42
G1 X-63.54 Y61.95 E11.1870              ; draw dl=0.5@10(10<10>10) de=0.034@0.62(0.62<0.62>0.62) l=0.30x0.50x1.00 r=0.85
;00:00:16.988: pe=0.9603 eb=0.0178 ve=0.6237 vn=0.5344 vl=10.000 db=0.43
G1 X-63.78 Y62.51 E11.2249              ; draw dl=0.6@10(10<10>10) de=0.038@0.62(0.62<0.62>0.62) l=0.30x0.50x1.00 r=0.86
;00:00:17.049: pe=0.9657 eb=0.0180 ve=0.6237 vn=0.5374 vl=10.000 db=0.43
G1 X-63.86 Y63.18 E11.2670              ; draw dl=0.7@10(10<10>10) de=0.042@0.62(0.62<0.62>0.62) l=0.30x0.50x1.00 r=0.86
;00:00:17.116: pe=0.9714 eb=0.0182 ve=0.6237 vn=0.5405 vl=10.000 db=0.43
G1 X-63.78 Y63.85 E11.3091              ; draw dl=0.7@10(10<10>10) de=0.042@0.62(0.62<0.62>0.62) l=0.30x0.50x1.00 r=0.87
;00:00:17.184: pe=0.9769 eb=0.0184 ve=0.6237 vn=0.5435 vl=10.000 db=0.43
G1 X-63.54 Y64.42 E11.3477              ; draw dl=0.6@10(10<10>10) de=0.039@0.62(0.62<0.62>0.62) l=0.30x0.50x1.00 r=0.87
;00:00:17.246: pe=0.9817 eb=0.0186 ve=0.6237 vn=0.5462 vl=10.000 db=0.44
G1 X-63.16 Y64.80 E11.3812              ; draw dl=0.5@10(10<10>10) de=0.034@0.62(0.62<0.62>0.62) l=0.30x0.50x1.00 r=0.88
;00:00:17.299: pe=0.9858 eb=0.0187 ve=0.6236 vn=0.5484 vl=10.000 db=0.44
G1 X-62.64 Y64.94 E11.4148              ; draw dl=0.5@10(10<10>0) de=0.034@0.53(0.62<0.62>0.0) l=0.30x0.50x1.00 r=1.03
;00:00:17.363: pe=0.9847 eb=0.0239 ve=0.0000 vn=0.4907 vl=0.000 db=0.49
G1 E9.4301 F2400                        ; retract de=-1.9847@-40.0 r=1.04
;00:00:17.413: pe=-1.0026 eb=0.0265 ve=-40.0000 vn=0.0000 vl=0.000 db=0.52
G1 Z0.500 F420                          ; hopup dz=0.20@7 h=0.5 r=0.81
;00:00:17.441: pe=-1.0026 eb=0.0265 ve=0.0000 vn=0.0000 vl=0.000 db=0.40
G1 X-60.36 Y61.71 F6000                 ; move dl=4.0@100(0<31>0) de=0.000@0.0(0.0<0.0>0.0) l=0.50x0.50x0.00 r=0.00
;00:00:17.630: pe=-1.0026 eb=0.0000 ve=0.0000 vn=0.0000 vl=0.000 db=0.00
G1 Z0.300 F420                          ; hopdn dz=-0.20@7 h=0.3 r=0.00
;00:00:17.659: pe=-1.0026 eb=0.0000 ve=0.0000 vn=0.0000 vl=0.000 db=0.00
G1 E10.9860 F1800                       ; restore de=1.5559@30.0 r=0.38
;00:00:17.710: pe=0.5497 eb=0.0036 ve=30.0000 vn=0.3576 vl=0.000 db=0.19
G1 X-60.36 Y61.65 E10.9897 F600         ; draw dl=0.1@10(0<4>0) de=0.004@0.16(0.0<0.24>0.0) l=0.30x0.50x1.00 r=1.85
;00:00:17.734: pe=0.5466 eb=0.0086 ve=0.0000 vn=0.2498 vl=0.000 db=0.30
G1 E9.4431 F2400                        ; retract de=-1.5466@-40.0 r=0.61
;00:00:17.772: pe=-1.0006 eb=0.0092 ve=-40.0000 vn=0.0000 vl=0.000 db=0.31
G1 Z0.500 F420                          ; hopup dz=0.20@7 h=0.5 r=0.48
;00:00:17.801: pe=-1.0006 eb=0.0092 ve=0.0000 vn=0.0000 vl=0.000 db=0.24
G1 X-59.24 Y64.13 F6000                 ; move dl=2.7@100(0<26>0) de=0.000@0.0(0.0<0.0>0.0) l=0.50x0.50x0.00 r=0.00
;00:00:17.957: pe=-1.0006 eb=0.0000 ve=0.0000 vn=0.0000 vl=0.000 db=0.00
G1 Z0.300 F420                          ; hopdn dz=-0.20@7 h=0.3 r=0.00
;00:00:17.986: pe=-1.0006 eb=0.0000 ve=0.0000 vn=0.0000 vl=0.000 db=0.00
G1 E11.3552 F1800                       ; restore de=1.9120@30.0 r=0.62
;00:00:18.050: pe=0.9019 eb=0.0095 ve=30.0000 vn=0.5904 vl=0.000 db=0.31
G1 X-59.13 Y64.47 E11.3775 F600         ; draw dl=0.4@10(0<10>10) de=0.022@0.49(0.0<0.62>0.62) l=0.30x0.50x1.00 r=1.06
;00:00:18.095: pe=0.9007 eb=0.0155 ve=0.6237 vn=0.5024 vl=10.000 db=0.40
G1 X-58.92 Y64.73 E11.3983              ; draw dl=0.3@10(10<10>10) de=0.021@0.62(0.62<0.62>0.62) l=0.30x0.50x1.00 r=0.81
;00:00:18.129: pe=0.9047 eb=0.0157 ve=0.6237 vn=0.5042 vl=10.000 db=0.40
G1 X-58.63 Y64.89 E11.4190              ; draw dl=0.3@10(10<10>10) de=0.021@0.62(0.62<0.62>0.62) l=0.30x0.50x1.00 r=0.81
;00:00:18.162: pe=0.9086 eb=0.0159 ve=0.6237 vn=0.5062 vl=10.000 db=0.40
G1 X-58.29 Y64.94 E11.4404              ; draw dl=0.3@10(10<10>10) de=0.021@0.62(0.62<0.62>0.62) l=0.30x0.50x1.00 r=0.81
;00:00:18.196: pe=0.9126 eb=0.0160 ve=0.6237 vn=0.5083 vl=10.000 db=0.40
G1 X-57.90 Y64.87 E11.4651              ; draw dl=0.4@10(10<10>10) de=0.025@0.62(0.62<0.62>0.62) l=0.30x0.50x1.00 r=0.82
;00:00:18.236: pe=0.9171 eb=0.0162 ve=0.6237 vn=0.5108 vl=10.000 db=0.41
G1 X-57.61 Y64.68 E11.4867              ; draw dl=0.3@10(10<10>10) de=0.022@0.62(0.62<0.62>0.62) l=0.30x0.50x1.00 r=0.82
;00:00:18.271: pe=0.9210 eb=0.0163 ve=0.6237 vn=0.5129 vl=10.000 db=0.41
G1 X-57.43 Y64.41 E11.5070              ; draw dl=0.3@10(10<10>10) de=0.020@0.62(0.62<0.62>0.62) l=0.30x0.50x1.00 r=0.82
;00:00:18.303: pe=0.9246 eb=0.0164 ve=0.6237 vn=0.5149 vl=10.000 db=0.41
G1 X-57.36 Y64.06 E11.5292              ; draw dl=0.4@10(10<10>10) de=0.022@0.62(0.62<0.62>0.62) l=0.30x0.50x1.00 r=0.83
;00:00:18.339: pe=0.9284 eb=0.0166 ve=0.6237 vn=0.5170 vl=10.000 db=0.41
G1 X-57.43 Y63.85 E11.5431              ; draw dl=0.2@10(10<10>10) de=0.014@0.62(0.62<0.62>0.62) l=0.30x0.50x1.00 r=0.83
;00:00:18.361: pe=0.9308 eb=0.0167 ve=0.6237 vn=0.5182 vl=10.000 db=0.41
G1 X-57.57 Y63.68 E11.5568              ; draw dl=0.2@10(10<10>10) de=0.014@0.62(0.62<0.62>0.62) l=0.30x0.50x1.00 r=0.83
;00:00:18.383: pe=0.9331 eb=0.0168 ve=0.6237 vn=0.5195 vl=10.000 db=0.41
G1 X-57.94 Y63.45 E11.5840              ; draw dl=0.4@10(10<10>10) de=0.027@0.62(0.62<0.62>0.62) l=0.30x0.50x1.00 r=0.84
;00:00:18.426: pe=0.9375 eb=0.0169 ve=0.6237 vn=0.5220 vl=10.000 db=0.42
G1 X-58.38 Y63.30 E11.6129              ; draw dl=0.5@10(10<10>5) de=0.029@0.59(0.62<0.62>0.28) l=0.30x0.50x1.00 r=0.89
;00:00:18.476: pe=0.9407 eb=0.0185 ve=0.2839 vn=0.5056 vl=4.552 db=0.44
G1 X-57.94 Y63.18 E11.6414              ; draw dl=0.5@10(5<10>10) de=0.028@0.59(0.28<0.62>0.62) l=0.30x0.50x1.00 r=0.86
;00:00:18.525: pe=0.9447 eb=0.0181 ve=0.6237 vn=0.5151 vl=10.000 db=0.43
G1 X-57.58 Y63.02 E11.6660              ; draw dl=0.4@10(10<10>10) de=0.025@0.62(0.62<0.62>0.62) l=0.30x0.50x1.00 r=0.83
;00:00:18.564: pe=0.9488 eb=0.0176 ve=0.6237 vn=0.5245 vl=10.000 db=0.42
G1 X-57.29 Y62.74 E11.6911              ; draw dl=0.4@10(10<10>10) de=0.025@0.62(0.62<0.62>0.62) l=0.30x0.50x1.00 r=0.85
;00:00:18.604: pe=0.9527 eb=0.0176 ve=0.6236 vn=0.5291 vl=10.000 db=0.42
G1 X-57.19 Y62.45 E11.7102              ; draw dl=0.3@10(10<10>10) de=0.019@0.62(0.62<0.62>0.62) l=0.30x0.50x1.00 r=0.85
;00:00:18.635: pe=0.9555 eb=0.0176 ve=0.6237 vn=0.5313 vl=10.000 db=0.42
G1 X-57.26 Y62.03 E11.7368              ; draw dl=0.4@10(10<10>10) de=0.027@0.62(0.62<0.62>0.62) l=0.30x0.50x1.00 r=0.85
;00:00:18.677: pe=0.9594 eb=0.0177 ve=0.6237 vn=0.5338 vl=10.000 db=0.43
G1 X-57.49 Y61.70 E11.7619              ; draw dl=0.4@10(10<10>10) de=0.025@0.62(0.62<0.62>0.62) l=0.30x0.50x1.00 r=0.86
;00:00:18.718: pe=0.9630 eb=0.0179 ve=0.6237 vn=0.5358 vl=10.000 db=0.43
G1 X-57.83 Y61.50 E11.7865              ; draw dl=0.4@10(10<10>10) de=0.025@0.62(0.62<0.62>0.62) l=0.30x0.50x1.00 r=0.86
;00:00:18.757: pe=0.9664 eb=0.0180 ve=0.6237 vn=0.5378 vl=10.000 db=0.43
G1 X-58.25 Y61.42 E11.8131              ; draw dl=0.4@10(10<10>10) de=0.027@0.62(0.62<0.62>0.62) l=0.30x0.50x1.00 r=0.86
;00:00:18.800: pe=0.9700 eb=0.0181 ve=0.6237 vn=0.5397 vl=10.000 db=0.43
G1 X-58.65 Y61.48 E11.8384              ; draw dl=0.4@10(10<10>10) de=0.025@0.62(0.62<0.62>0.62) l=0.30x0.50x1.00 r=0.87
;00:00:18.840: pe=0.9734 eb=0.0183 ve=0.6237 vn=0.5416 vl=10.000 db=0.43
G1 X-58.97 Y61.65 E11.8610              ; draw dl=0.4@10(10<10>10) de=0.023@0.62(0.62<0.62>0.62) l=0.30x0.50x1.00 r=0.87
;00:00:18.877: pe=0.9763 eb=0.0184 ve=0.6237 vn=0.5432 vl=10.000 db=0.43
G1 X-59.19 Y61.92 E11.8827              ; draw dl=0.3@10(10<10>10) de=0.022@0.62(0.62<0.62>0.62) l=0.30x0.50x1.00 r=0.87
;00:00:18.911: pe=0.9791 eb=0.0185 ve=0.6237 vn=0.5447 vl=10.000 db=0.43
G1 X-59.29 Y62.28 E11.9060              ; draw dl=0.4@10(10<10>0) de=0.023@0.49(0.62<0.62>0.0) l=0.30x0.50x1.00 r=1.09
;00:00:18.959: pe=0.9769 eb=0.0236 ve=0.0000 vn=0.4865 vl=0.000 db=0.49
G1 E9.9291 F2400                        ; retract de=-1.9769@-40.0 r=1.03
;00:00:19.008: pe=-1.0025 eb=0.0261 ve=-40.0000 vn=0.0000 vl=0.000 db=0.52
G1 Z0.500 F420                          ; hopup dz=0.20@7 h=0.5 r=0.80
;00:00:19.037: pe=-1.0025 eb=0.0261 ve=0.0000 vn=0.0000 vl=0.000 db=0.40
G1 X-67.52 Y59.88 F6000                 ; move dl=8.6@100(0<46>0) de=0.000@0.0(0.0<0.0>0.0) l=0.50x0.50x0.00 r=0.00
;00:00:19.315: pe=-1.0025 eb=0.0000 ve=0.0000 vn=0.0000 vl=0.000 db=0.00
G1 Z0.300 F420                          ; hopdn dz=-0.20@7 h=0.3 r=0.00
;00:00:19.343: pe=-1.0025 eb=0.0000 ve=0.0000 vn=0.0000 vl=0.000 db=0.00
G1 E11.8273 F1800                       ; restore de=1.8982@30.0 r=0.61
;00:00:19.406: pe=0.8865 eb=0.0092 ve=30.0000 vn=0.5802 vl=0.000 db=0.31
G1 X-67.52 Y56.48 E12.0394 F600         ; draw dl=3.4@10(0<10>0) de=0.212@0.59(0.0<0.62>0.0) l=0.30x0.50x1.00 r=0.85
;00:00:19.766: pe=0.9174 eb=0.0210 ve=0.0000 vn=0.4544 vl=0.000 db=0.46
G1 E10.1219 F2400                       ; retract de=-1.9174@-40.0 r=0.97
;00:00:19.814: pe=-1.0022 eb=0.0232 ve=-40.0000 vn=0.0000 vl=0.000 db=0.49
G1 Z0.500 F420                          ; hopup dz=0.20@7 h=0.5 r=0.75
;00:00:19.843: pe=-1.0022 eb=0.0232 ve=0.0000 vn=0.0000 vl=0.000 db=0.38
G1 X-67.52 Y56.98 F6000                 ; move dl=0.5@100(0<11>0) de=0.000@0.0(0.0<0.0>0.0) l=0.50x0.50x0.00 r=0.00
;00:00:19.910: pe=-1.0022 eb=0.0005 ve=0.0000 vn=0.0000 vl=0.000 db=0.05
G1 Z0.300 F420                          ; hopdn dz=-0.20@7 h=0.3 r=0.14
;00:00:19.939: pe=-1.0022 eb=0.0005 ve=0.0000 vn=0.0000 vl=0.000 db=0.07
G1 E12.0345 F1800                       ; restore de=1.9126@30.0 r=0.63
;00:00:20.002: pe=0.9013 eb=0.0096 ve=30.0000 vn=0.5880 vl=0.000 db=0.31
G1 X-67.77 Y56.74 E12.0562 F600         ; draw dl=0.3@10(0<10>10) de=0.022@0.48(0.0<0.62>0.62) l=0.30x0.50x1.00 r=1.06
;00:00:20.047: pe=0.8999 eb=0.0155 ve=0.6237 vn=0.5015 vl=10.000 db=0.40
G1 X-68.16 Y56.49 E12.0850              ; draw dl=0.5@10(10<10>10) de=0.029@0.62(0.62<0.62>0.62) l=0.30x0.50x1.00 r=0.81
;00:00:20.093: pe=0.9055 eb=0.0158 ve=0.6237 vn=0.5045 vl=10.000 db=0.40
G1 X-68.54 Y56.42 E12.1091              ; draw dl=0.4@10(10<10>10) de=0.024@0.62(0.62<0.62>0.62) l=0.30x0.50x1.00 r=0.81
;00:00:20.132: pe=0.9101 eb=0.0159 ve=0.6237 vn=0.5069 vl=10.000 db=0.40
G1 X-68.92 Y56.51 E12.1335              ; draw dl=0.4@10(10<10>10) de=0.024@0.62(0.62<0.62>0.62) l=0.30x0.50x1.00 r=0.81
;00:00:20.171: pe=0.9146 eb=0.0161 ve=0.6237 vn=0.5094 vl=10.000 db=0.41
G1 X-69.22 Y56.77 E12.1583              ; draw dl=0.4@10(10<10>10) de=0.025@0.62(0.62<0.62>0.62) l=0.30x0.50x1.00 r=0.82
;00:00:20.211: pe=0.9191 eb=0.0162 ve=0.6237 vn=0.5118 vl=10.000 db=0.41
G1 X-69.43 Y57.18 E12.1870              ; draw dl=0.5@10(10<10>10) de=0.029@0.62(0.62<0.62>0.62) l=0.30x0.50x1.00 r=0.82
;00:00:20.257: pe=0.9242 eb=0.0164 ve=0.6237 vn=0.5146 vl=10.000 db=0.41
G1 X-69.50 Y57.71 E12.2203              ; draw dl=0.5@10(10<10>10) de=0.033@0.62(0.62<0.62>0.62) l=0.30x0.50x1.00 r=0.83
;00:00:20.310: pe=0.9299 eb=0.0166 ve=0.6237 vn=0.5178 vl=10.000 db=0.41
G1 X-69.44 Y58.22 E12.2524              ; draw dl=0.5@10(10<10>10) de=0.032@0.62(0.62<0.62>0.62) l=0.30x0.50x1.00 r=0.83
;00:00:20.362: pe=0.9353 eb=0.0168 ve=0.6237 vn=0.5207 vl=10.000 db=0.41
G1 X-69.26 Y58.61 E12.2791              ; draw dl=0.4@10(10<10>10) de=0.027@0.62(0.62<0.62>0.62) l=0.30x0.50x1.00 r=0.84
;00:00:20.404: pe=0.9396 eb=0.0170 ve=0.6237 vn=0.5231 vl=10.000 db=0.42
G1 X-68.97 Y58.86 E12.3030              ; draw dl=0.4@10(10<10>10) de=0.024@0.62(0.62<0.62>0.62) l=0.30x0.50x1.00 r=0.84
;00:00:20.443: pe=0.9434 eb=0.0171 ve=0.6237 vn=0.5252 vl=10.000 db=0.42
G1 X-68.57 Y58.95 E12.3286              ; draw dl=0.4@10(10<10>10) de=0.026@0.62(0.62<0.62>0.62) l=0.30x0.50x1.00 r=0.84
;00:00:20.484: pe=0.9474 eb=0.0173 ve=0.6237 vn=0.5274 vl=10.000 db=0.42
G1 X-68.38 Y58.93 E12.3405              ; draw dl=0.2@10(10<10>10) de=0.012@0.62(0.62<0.62>0.62) l=0.30x0.50x1.00 r=0.85
;00:00:20.503: pe=0.9492 eb=0.0174 ve=0.6237 vn=0.5284 vl=10.000 db=0.42
G1 X-68.18 Y58.85 E12.3539              ; draw dl=0.2@10(10<10>10) de=0.013@0.62(0.62<0.62>0.62) l=0.30x0.50x1.00 r=0.85
;00:00:20.524: pe=0.9513 eb=0.0174 ve=0.6237 vn=0.5295 vl=10.000 db=0.42
G1 X-67.97 Y58.72 E12.3693              ; draw dl=0.2@10(10<10>10) de=0.015@0.62(0.62<0.62>0.62) l=0.30x0.50x1.00 r=0.85
;00:00:20.549: pe=0.9536 eb=0.0175 ve=0.6236 vn=0.5308 vl=10.000 db=0.42
G1 X-67.77 Y58.50 E12.3879              ; draw dl=0.3@10(10<10>10) de=0.019@0.62(0.62<0.62>0.62) l=0.30x0.50x1.00 r=0.85
;00:00:20.579: pe=0.9563 eb=0.0176 ve=0.6236 vn=0.5323 vl=10.000 db=0.42
G1 X-67.52 Y58.03 E12.4211              ; draw dl=0.5@10(10<10>0) de=0.033@0.53(0.62<0.62>0.0) l=0.30x0.50x1.00 r=1.01
;00:00:20.642: pe=0.9562 eb=0.0226 ve=0.0000 vn=0.4753 vl=0.000 db=0.48
G1 E10.4649 F2400                       ; retract de=-1.9562@-40.0 r=1.01
;00:00:20.691: pe=-1.0024 eb=0.0250 ve=-40.0000 vn=0.0000 vl=0.000 db=0.51
G1 Z0.500 F420                          ; hopup dz=0.20@7 h=0.5 r=0.78
;00:00:20.720: pe=-1.0024 eb=0.0250 ve=0.0000 vn=0.0000 vl=0.000 db=0.39
G1 X-66.46 Y58.89 F6000                 ; move dl=1.4@100(0<18>0) de=0.000@0.0(0.0<0.0>0.0) l=0.50x0.50x0.00 r=0.00
;00:00:20.830: pe=-1.0024 eb=0.0000 ve=0.0000 vn=0.0000 vl=0.000 db=0.00
G1 Z0.300 F420                          ; hopdn dz=-0.20@7 h=0.3 r=0.00
;00:00:20.859: pe=-1.0024 eb=0.0000 ve=0.0000 vn=0.0000 vl=0.000 db=0.00
G1 E12.3565 F1800                       ; restore de=1.8916@30.0 r=0.61
;00:00:20.922: pe=0.8801 eb=0.0091 ve=30.0000 vn=0.5759 vl=0.000 db=0.30
G1 X-65.29 Y56.44 E12.5258 F600         ; draw dl=2.7@10(0<10>0) de=0.169@0.58(0.0<0.62>0.0) l=0.30x0.50x1.00 r=0.86
;00:00:21.214: pe=0.9043 eb=0.0205 ve=0.0000 vn=0.4474 vl=0.000 db=0.46
G1 E10.6215 F2400                       ; retract de=-1.9043@-40.0 r=0.96
;00:00:21.261: pe=-1.0021 eb=0.0226 ve=-40.0000 vn=0.0000 vl=0.000 db=0.48
G1 Z0.500 F420                          ; hopup dz=0.20@7 h=0.5 r=0.74
;00:00:21.290: pe=-1.0021 eb=0.0226 ve=0.0000 vn=0.0000 vl=0.000 db=0.37
G1 X-66.29 Y55.57 F6000                 ; move dl=1.3@100(0<18>0) de=0.000@0.0(0.0<0.0>0.0) l=0.50x0.50x0.00 r=0.00
;00:00:21.399: pe=-1.0021 eb=0.0000 ve=0.0000 vn=0.0000 vl=0.000 db=0.00
G1 Z0.300 F420                          ; hopdn dz=-0.20@7 h=0.3 r=0.00
;00:00:21.428: pe=-1.0021 eb=0.0000 ve=0.0000 vn=0.0000 vl=0.000 db=0.00
G1 E12.5290 F1800                       ; restore de=1.9075@30.0 r=0.62
;00:00:21.491: pe=0.8960 eb=0.0094 ve=30.0000 vn=0.5865 vl=0.000 db=0.31
G1 X-66.19 Y55.56 E12.5353 F600         ; draw dl=0.1@10(0<10>10) de=0.006@0.31(0.0<0.62>0.62) l=0.30x0.50x1.00 r=1.69
;00:00:21.511: pe=0.8917 eb=0.0152 ve=0.6236 vn=0.4978 vl=10.000 db=0.39
G1 X-66.10 Y55.56 E12.5409              ; draw dl=0.1@10(10<10>10) de=0.006@0.62(0.62<0.62>0.62) l=0.30x0.50x1.00 r=0.80
;00:00:21.520: pe=0.8928 eb=0.0153 ve=0.6236 vn=0.4982 vl=10.000 db=0.39
G1 X-65.84 Y55.62 E12.5575              ; draw dl=0.3@10(10<10>10) de=0.017@0.62(0.62<0.62>0.62) l=0.30x0.50x1.00 r=0.80
;00:00:21.547: pe=0.8961 eb=0.0154 ve=0.6236 vn=0.4996 vl=10.000 db=0.40
G1 X-65.63 Y55.78 E12.5740              ; draw dl=0.3@10(10<10>10) de=0.016@0.62(0.62<0.62>0.62) l=0.30x0.50x1.00 r=0.80
;00:00:21.573: pe=0.8994 eb=0.0155 ve=0.6236 vn=0.5012 vl=10.000 db=0.40
G1 X-65.45 Y56.06 E12.5947              ; draw dl=0.3@10(10<10>10) de=0.021@0.62(0.62<0.62>0.62) l=0.30x0.50x1.00 r=0.81
;00:00:21.607: pe=0.9034 eb=0.0157 ve=0.6236 vn=0.5033 vl=10.000 db=0.40
G1 X-65.29 Y56.44 E12.6205              ; draw dl=0.4@10(10<10>10) de=0.026@0.62(0.62<0.62>0.62) l=0.30x0.50x1.00 r=0.81
;00:00:21.648: pe=0.9083 eb=0.0159 ve=0.6236 vn=0.5060 vl=10.000 db=0.40
G1 X-64.41 Y58.89 E12.7828              ; draw dl=2.6@10(10<10>0) de=0.162@0.6(0.62<0.62>0.0) l=0.30x0.50x1.00 r=0.85
;00:00:21.918: pe=0.9320 eb=0.0216 ve=0.0000 vn=0.4623 vl=0.000 db=0.47
G1 E10.8508 F2400                       ; retract de=-1.9320@-40.0 r=0.99
;00:00:21.966: pe=-1.0023 eb=0.0239 ve=-40.0000 vn=0.0000 vl=0.000 db=0.49
G1 Z0.500 F420                          ; hopup dz=0.20@7 h=0.5 r=0.76
;00:00:21.995: pe=-1.0023 eb=0.0239 ve=0.0000 vn=0.0000 vl=0.000 db=0.38
G1 X-63.35 Y58.76 F6000                 ; move dl=1.1@100(0<16>0) de=0.000@0.0(0.0<0.0>0.0) l=0.50x0.50x0.00 r=0.00
;00:00:22.093: pe=-1.0023 eb=0.0000 ve=0.0000 vn=0.0000 vl=0.000 db=0.00
G1 Z0.300 F420                          ; hopdn dz=-0.20@7 h=0.3 r=0.00
;00:00:22.122: pe=-1.0023 eb=0.0000 ve=0.0000 vn=0.0000 vl=0.000 db=0.00
G1 E12.7361 F1800                       ; restore de=1.8854@30.0 r=0.60
;00:00:22.184: pe=0.8742 eb=0.0089 ve=30.0000 vn=0.5720 vl=0.000 db=0.30
G1 X-63.35 Y56.48 E12.8783 F600         ; draw dl=2.3@10(0<10>0) de=0.142@0.57(0.0<0.62>0.0) l=0.30x0.50x1.00 r=0.86
;00:00:22.432: pe=0.8940 eb=0.0200 ve=0.0000 vn=0.4418 vl=0.000 db=0.45
G1 E10.9843 F2400                       ; retract de=-1.8940@-40.0 r=0.95
;00:00:22.480: pe=-1.0021 eb=0.0221 ve=-40.0000 vn=0.0000 vl=0.000 db=0.47
G1 Z0.500 F420                          ; hopup dz=0.20@7 h=0.5 r=0.74
;00:00:22.508: pe=-1.0021 eb=0.0221 ve=0.0000 vn=0.0000 vl=0.000 db=0.37
G1 X-63.35 Y57.89 F6000                 ; move dl=1.4@100(0<19>0) de=0.000@0.0(0.0<0.0>0.0) l=0.50x0.50x0.00 r=0.00
;00:00:22.621: pe=-1.0021 eb=0.0000 ve=0.0000 vn=0.0000 vl=0.000 db=0.00
G1 Z0.300 F420                          ; hopdn dz=-0.20@7 h=0.3 r=0.00
;00:00:22.650: pe=-1.0021 eb=0.0000 ve=0.0000 vn=0.0000 vl=0.000 db=0.00
G1 E12.8899 F1800                       ; restore de=1.9055@30.0 r=0.62
;00:00:22.713: pe=0.8941 eb=0.0093 ve=30.0000 vn=0.5852 vl=0.000 db=0.31
G1 X-63.11 Y58.34 E12.9217 F600         ; draw dl=0.5@10(0<10>10) de=0.032@0.52(0.0<0.62>0.62) l=0.30x0.50x1.00 r=0.97
;00:00:22.774: pe=0.8950 eb=0.0154 ve=0.6236 vn=0.4989 vl=10.000 db=0.40
G1 X-62.92 Y58.67 E12.9454              ; draw dl=0.4@10(10<10>10) de=0.024@0.62(0.62<0.62>0.62) l=0.30x0.50x1.00 r=0.80
;00:00:22.812: pe=0.8997 eb=0.0155 ve=0.6236 vn=0.5013 vl=10.000 db=0.40
G1 X-62.70 Y58.86 E12.9635              ; draw dl=0.3@10(10<10>10) de=0.018@0.62(0.62<0.62>0.62) l=0.30x0.50x1.00 r=0.81
;00:00:22.841: pe=0.9032 eb=0.0157 ve=0.6236 vn=0.5032 vl=10.000 db=0.40
G1 X-62.49 Y58.93 E12.9773              ; draw dl=0.2@10(10<10>10) de=0.014@0.62(0.62<0.62>0.62) l=0.30x0.50x1.00 r=0.81
;00:00:22.863: pe=0.9059 eb=0.0158 ve=0.6236 vn=0.5046 vl=10.000 db=0.40
G1 X-62.28 Y58.95 E12.9905              ; draw dl=0.2@10(10<10>10) de=0.013@0.62(0.62<0.62>0.62) l=0.30x0.50x1.00 r=0.81
;00:00:22.884: pe=0.9084 eb=0.0159 ve=0.6236 vn=0.5060 vl=10.000 db=0.40
G1 X-61.95 Y58.88 E13.0115              ; draw dl=0.3@10(10<10>10) de=0.021@0.62(0.62<0.62>0.62) l=0.30x0.50x1.00 r=0.81
;00:00:22.918: pe=0.9123 eb=0.0160 ve=0.6236 vn=0.5081 vl=10.000 db=0.40
G1 X-61.77 Y58.73 E13.0261              ; draw dl=0.2@10(10<10>10) de=0.015@0.62(0.62<0.62>0.62) l=0.30x0.50x1.00 r=0.82
;00:00:22.942: pe=0.9150 eb=0.0161 ve=0.6236 vn=0.5096 vl=10.000 db=0.41
G1 X-61.67 Y58.40 E13.0477              ; draw dl=0.3@10(10<10>10) de=0.022@0.62(0.62<0.62>0.62) l=0.30x0.50x1.00 r=0.82
;00:00:22.976: pe=0.9189 eb=0.0162 ve=0.6236 vn=0.5117 vl=10.000 db=0.41
G1 X-61.61 Y58.08 E13.0680              ; draw dl=0.3@10(10<10>10) de=0.020@0.62(0.62<0.62>0.62) l=0.30x0.50x1.00 r=0.82
;00:00:23.009: pe=0.9225 eb=0.0164 ve=0.6236 vn=0.5137 vl=10.000 db=0.41
G1 X-61.61 Y56.48 E13.1677              ; draw dl=1.6@10(10<10>0) de=0.100@0.59(0.62<0.62>0.0) l=0.30x0.50x1.00 r=0.88
;00:00:23.179: pe=0.9345 eb=0.0217 ve=0.0000 vn=0.4636 vl=0.000 db=0.47
G1 E11.2333 F2400                       ; retract de=-1.9345@-40.0 r=0.99
;00:00:23.227: pe=-1.0023 eb=0.0240 ve=-40.0000 vn=0.0000 vl=0.000 db=0.49
G1 Z0.500 F420                          ; hopup dz=0.20@7 h=0.5 r=0.77
;00:00:23.256: pe=-1.0023 eb=0.0240 ve=0.0000 vn=0.0000 vl=0.000 db=0.38
G1 X-60.55 Y56.48 F6000                 ; move dl=1.1@100(0<16>0) de=0.000@0.0(0.0<0.0>0.0) l=0.50x0.50x0.00 r=0.00
;00:00:23.353: pe=-1.0023 eb=0.0000 ve=0.0000 vn=0.0000 vl=0.000 db=0.00
G1 Z0.300 F420                          ; hopdn dz=-0.20@7 h=0.3 r=0.00
;00:00:23.382: pe=-1.0023 eb=0.0000 ve=0.0000 vn=0.0000 vl=0.000 db=0.00
G1 E13.1207 F1800                       ; restore de=1.8874@30.0 r=0.61
;00:00:23.445: pe=0.8762 eb=0.0090 ve=30.0000 vn=0.5733 vl=0.000 db=0.30
G1 X-60.55 Y58.89 E13.2710 F600         ; draw dl=2.4@10(0<10>0) de=0.150@0.58(0.0<0.62>0.0) l=0.30x0.50x1.00 r=0.86
;00:00:23.706: pe=0.8973 eb=0.0202 ve=0.0000 vn=0.4436 vl=0.000 db=0.45
G1 E11.3737 F2400                       ; retract de=-1.8973@-40.0 r=0.95
;00:00:23.753: pe=-1.0021 eb=0.0222 ve=-40.0000 vn=0.0000 vl=0.000 db=0.48
G1 Z0.500 F420                          ; hopup dz=0.20@7 h=0.5 r=0.74
;00:00:23.782: pe=-1.0021 eb=0.0222 ve=0.0000 vn=0.0000 vl=0.000 db=0.37
G1 X-60.55 Y58.20 F6000                 ; move dl=0.7@100(0<13>0) de=0.000@0.0(0.0<0.0>0.0) l=0.50x0.50x0.00 r=0.00
;00:00:23.861: pe=-1.0021 eb=0.0000 ve=0.0000 vn=0.0000 vl=0.000 db=0.00
G1 Z0.300 F420                          ; hopdn dz=-0.20@7 h=0.3 r=0.00
;00:00:23.889: pe=-1.0021 eb=0.0000 ve=0.0000 vn=0.0000 vl=0.000 db=0.00
G1 E13.2567 F1800                       ; restore de=1.8830@30.0 r=0.60
;00:00:23.952: pe=0.8720 eb=0.0089 ve=30.0000 vn=0.5706 vl=0.000 db=0.30
G1 X-60.30 Y58.55 E13.2835 F600         ; draw dl=0.4@10(0<10>10) de=0.027@0.51(0.0<0.62>0.62) l=0.30x0.50x1.00 r=0.98
;00:00:24.005: pe=0.8726 eb=0.0146 ve=0.6236 vn=0.4861 vl=10.000 db=0.39
G1 X-60.09 Y58.76 E13.3020              ; draw dl=0.3@10(10<10>10) de=0.019@0.62(0.62<0.62>0.62) l=0.30x0.50x1.00 r=0.78
;00:00:24.035: pe=0.8767 eb=0.0148 ve=0.6236 vn=0.4885 vl=10.000 db=0.39
G1 X-59.89 Y58.88 E13.3166              ; draw dl=0.2@10(10<10>10) de=0.015@0.62(0.62<0.62>0.62) l=0.30x0.50x1.00 r=0.78
;00:00:24.058: pe=0.8798 eb=0.0149 ve=0.6237 vn=0.4902 vl=10.000 db=0.39
G1 X-59.70 Y58.94 E13.3290              ; draw dl=0.2@10(10<10>10) de=0.012@0.62(0.62<0.62>0.62) l=0.30x0.50x1.00 r=0.79
;00:00:24.078: pe=0.8824 eb=0.0150 ve=0.6236 vn=0.4917 vl=10.000 db=0.39
G1 X-59.54 Y58.95 E13.3390              ; draw dl=0.2@10(10<10>10) de=0.010@0.62(0.62<0.62>0.62) l=0.30x0.50x1.00 r=0.79
;00:00:24.094: pe=0.8845 eb=0.0150 ve=0.6237 vn=0.4929 vl=10.000 db=0.39
G1 X-59.49 Y58.95 E13.3421              ; draw dl=0.1@10(10<10>7) de=0.003@0.54(0.62<0.62>0.45) l=0.30x0.50x1.00 r=0.92
;00:00:24.100: pe=0.8848 eb=0.0154 ve=0.4453 vn=0.4878 vl=7.141 db=0.40
G1 X-59.44 Y58.94 E13.3453              ; draw dl=0.1@10(7<7>0) de=0.003@0.22(0.45<0.45>0.0) l=0.30x0.50x1.00 r=2.10
;00:00:24.114: pe=0.8813 eb=0.0195 ve=0.0000 vn=0.4350 vl=0.000 db=0.45
G1 E11.4640 F2400                       ; retract de=-1.8813@-40.0 r=0.94
;00:00:24.161: pe=-1.0020 eb=0.0215 ve=-40.0000 vn=0.0000 vl=0.000 db=0.47
G1 Z0.500 F420                          ; hopup dz=0.20@7 h=0.5 r=0.73
;00:00:24.190: pe=-1.0020 eb=0.0215 ve=0.0000 vn=0.0000 vl=0.000 db=0.36
G1 X-58.38 Y57.69 F6000                 ; move dl=1.6@100(0<20>0) de=0.000@0.0(0.0<0.0>0.0) l=0.50x0.50x0.00 r=0.00
;00:00:24.311: pe=-1.0020 eb=0.0000 ve=0.0000 vn=0.0000 vl=0.000 db=0.00
G1 Z0.300 F420                          ; hopdn dz=-0.20@7 h=0.3 r=0.00
;00:00:24.340: pe=-1.0020 eb=0.0000 ve=0.0000 vn=0.0000 vl=0.000 db=0.00
G1 E13.3799 F1800                       ; restore de=1.9159@30.0 r=0.62
;00:00:24.403: pe=0.9044 eb=0.0096 ve=30.0000 vn=0.5920 vl=0.000 db=0.31
G1 X-56.24 Y57.69 E13.5134 F600         ; draw dl=2.1@10(0<10>10) de=0.133@0.6(0.0<0.62>0.6) l=0.30x0.50x1.00 r=0.86
;00:00:24.627: pe=0.9235 eb=0.0164 ve=0.6039 vn=0.5142 vl=9.683 db=0.41
G1 X-56.32 Y58.22 E13.5468              ; draw dl=0.5@10(10<10>10) de=0.033@0.62(0.6<0.62>0.62) l=0.30x0.50x1.00 r=0.83
;00:00:24.681: pe=0.9292 eb=0.0166 ve=0.6237 vn=0.5174 vl=10.000 db=0.41
G1 X-56.53 Y58.61 E13.5744              ; draw dl=0.4@10(10<10>10) de=0.028@0.62(0.62<0.62>0.62) l=0.30x0.50x1.00 r=0.83
;00:00:24.725: pe=0.9339 eb=0.0168 ve=0.6236 vn=0.5200 vl=10.000 db=0.41
G1 X-56.87 Y58.86 E13.6007              ; draw dl=0.4@10(10<10>10) de=0.026@0.62(0.62<0.62>0.62) l=0.30x0.50x1.00 r=0.84
;00:00:24.768: pe=0.9382 eb=0.0169 ve=0.6236 vn=0.5223 vl=10.000 db=0.42
G1 X-57.31 Y58.95 E13.6288              ; draw dl=0.4@10(10<10>10) de=0.028@0.62(0.62<0.62>0.62) l=0.30x0.50x1.00 r=0.84
;00:00:24.812: pe=0.9427 eb=0.0171 ve=0.6237 vn=0.5248 vl=10.000 db=0.42
G1 X-57.74 Y58.86 E13.6562              ; draw dl=0.4@10(10<10>10) de=0.027@0.62(0.62<0.62>0.62) l=0.30x0.50x1.00 r=0.84
;00:00:24.856: pe=0.9470 eb=0.0173 ve=0.6236 vn=0.5271 vl=10.000 db=0.42
G1 X-58.08 Y58.61 E13.6825              ; draw dl=0.4@10(10<10>10) de=0.026@0.62(0.62<0.62>0.62) l=0.30x0.50x1.00 r=0.85
;00:00:24.899: pe=0.9510 eb=0.0174 ve=0.6236 vn=0.5294 vl=10.000 db=0.42
G1 X-58.30 Y58.22 E13.7104              ; draw dl=0.4@10(10<10>10) de=0.028@0.62(0.62<0.62>0.62) l=0.30x0.50x1.00 r=0.85
;00:00:24.943: pe=0.9552 eb=0.0176 ve=0.6236 vn=0.5316 vl=10.000 db=0.42
G1 X-58.38 Y57.69 E13.7438              ; draw dl=0.5@10(10<10>10) de=0.033@0.62(0.62<0.62>0.62) l=0.30x0.50x1.00 r=0.85
;00:00:24.997: pe=0.9600 eb=0.0178 ve=0.6237 vn=0.5343 vl=10.000 db=0.43
G1 X-58.30 Y57.15 E13.7779              ; draw dl=0.5@10(10<10>10) de=0.034@0.62(0.62<0.62>0.62) l=0.30x0.50x1.00 r=0.86
;00:00:25.052: pe=0.9648 eb=0.0179 ve=0.6237 vn=0.5369 vl=10.000 db=0.43
G1 X-58.07 Y56.75 E13.8066              ; draw dl=0.5@10(10<10>10) de=0.029@0.62(0.62<0.62>0.62) l=0.30x0.50x1.00 r=0.86
;00:00:25.098: pe=0.9688 eb=0.0181 ve=0.6237 vn=0.5391 vl=10.000 db=0.43
G1 X-57.72 Y56.51 E13.8331              ; draw dl=0.4@10(10<10>10) de=0.026@0.62(0.62<0.62>0.62) l=0.30x0.50x1.00 r=0.87
;00:00:25.140: pe=0.9723 eb=0.0182 ve=0.6237 vn=0.5410 vl=10.000 db=0.43
G1 X-57.26 Y56.42 E13.8623              ; draw dl=0.5@10(10<10>10) de=0.029@0.62(0.62<0.62>0.62) l=0.30x0.50x1.00 r=0.87
;00:00:25.187: pe=0.9762 eb=0.0184 ve=0.6237 vn=0.5431 vl=10.000 db=0.43
G1 X-56.92 Y56.47 E13.8838              ; draw dl=0.3@10(10<10>10) de=0.021@0.62(0.62<0.62>0.62) l=0.30x0.50x1.00 r=0.87
;00:00:25.221: pe=0.9789 eb=0.0185 ve=0.6236 vn=0.5446 vl=10.000 db=0.43
G1 X-56.63 Y56.61 E13.9039              ; draw dl=0.3@10(10<10>10) de=0.020@0.62(0.62<0.62>0.62) l=0.30x0.50x1.00 r=0.87
;00:00:25.254: pe=0.9814 eb=0.0186 ve=0.6236 vn=0.5460 vl=10.000 db=0.44
G1 X-56.42 Y56.83 E13.9228              ; draw dl=0.3@10(10<10>10) de=0.019@0.62(0.62<0.62>0.62) l=0.30x0.50x1.00 r=0.88
;00:00:25.284: pe=0.9838 eb=0.0187 ve=0.6236 vn=0.5473 vl=10.000 db=0.44
G1 X-56.30 Y57.13 E13.9430              ; draw dl=0.3@10(10<10>0) de=0.020@0.48(0.62<0.62>0.0) l=0.30x0.50x1.00 r=1.13
;00:00:25.326: pe=0.9811 eb=0.0237 ve=0.0000 vn=0.4888 vl=0.000 db=0.49
G1 E11.9619 F2400                       ; retract de=-1.9811@-40.0 r=1.04
;00:00:25.376: pe=-1.0025 eb=0.0263 ve=-40.0000 vn=0.0000 vl=0.000 db=0.52
G1 Z0.500 F420                          ; hopup dz=0.20@7 h=0.5 r=0.80
;00:00:25.404: pe=-1.0025 eb=0.0263 ve=0.0000 vn=0.0000 vl=0.000 db=0.40
G1 X-53.99 Y56.46 F6000                 ; move dl=2.4@100(0<25>0) de=0.000@0.0(0.0<0.0>0.0) l=0.50x0.50x0.00 r=0.00
;00:00:25.552: pe=-1.0025 eb=0.0000 ve=0.0000 vn=0.0000 vl=0.000 db=0.00
G1 Z0.300 F420                          ; hopdn dz=-0.20@7 h=0.3 r=0.00
;00:00:25.580: pe=-1.0025 eb=0.0000 ve=0.0000 vn=0.0000 vl=0.000 db=0.00
G1 E13.8654 F1800                       ; restore de=1.9036@30.0 r=0.62
;00:00:25.644: pe=0.8917 eb=0.0093 ve=30.0000 vn=0.5837 vl=0.000 db=0.31
G1 X-54.14 Y56.45 E13.8748 F600         ; draw dl=0.2@10(0<10>10) de=0.009@0.37(0.0<0.62>0.62) l=0.30x0.50x1.00 r=1.39
;00:00:25.669: pe=0.8881 eb=0.0151 ve=0.6236 vn=0.4954 vl=10.000 db=0.39
G1 X-54.32 Y56.50 E13.8865              ; draw dl=0.2@10(10<10>10) de=0.012@0.62(0.62<0.62>0.62) l=0.30x0.50x1.00 r=0.80
;00:00:25.687: pe=0.8905 eb=0.0152 ve=0.6236 vn=0.4965 vl=10.000 db=0.39
G1 X-54.48 Y56.62 E13.8989              ; draw dl=0.2@10(10<10>10) de=0.012@0.62(0.62<0.62>0.62) l=0.30x0.50x1.00 r=0.80
;00:00:25.707: pe=0.8930 eb=0.0153 ve=0.6236 vn=0.4977 vl=10.000 db=0.40
G1 X-54.60 Y56.81 E13.9129              ; draw dl=0.2@10(10<10>10) de=0.014@0.62(0.62<0.62>0.62) l=0.30x0.50x1.00 r=0.80
;00:00:25.730: pe=0.8958 eb=0.0154 ve=0.6236 vn=0.4992 vl=10.000 db=0.40
G1 X-54.68 Y57.19 E13.9372              ; draw dl=0.4@10(10<10>10) de=0.024@0.62(0.62<0.62>0.62) l=0.30x0.50x1.00 r=0.80
;00:00:25.769: pe=0.9006 eb=0.0156 ve=0.6236 vn=0.5017 vl=10.000 db=0.40
G1 X-54.68 Y59.52 E14.0825              ; draw dl=2.3@10(10<10>0) de=0.145@0.6(0.62<0.62>0.0) l=0.30x0.50x1.00 r=0.85
;00:00:26.012: pe=0.9225 eb=0.0212 ve=0.0000 vn=0.4572 vl=0.000 db=0.47
G1 E12.1600 F2400                       ; retract de=-1.9225@-40.0 r=0.98
;00:00:26.060: pe=-1.0022 eb=0.0234 ve=-40.0000 vn=0.0000 vl=0.000 db=0.49
G1 Z0.500 F420                          ; hopup dz=0.20@7 h=0.5 r=0.76
;00:00:26.088: pe=-1.0022 eb=0.0234 ve=0.0000 vn=0.0000 vl=0.000 db=0.38
G1 X-55.18 Y58.76 F6000                 ; move dl=0.9@100(0<15>0) de=0.000@0.0(0.0<0.0>0.0) l=0.50x0.50x0.00 r=0.00
;00:00:26.179: pe=-1.0022 eb=0.0000 ve=0.0000 vn=0.0000 vl=0.000 db=0.00
G1 Z0.300 F420                          ; hopdn dz=-0.20@7 h=0.3 r=0.00
;00:00:26.207: pe=-1.0022 eb=0.0000 ve=0.0000 vn=0.0000 vl=0.000 db=0.00
G1 E14.0076 F1800                       ; restore de=1.8476@30.0 r=0.58
;00:00:26.269: pe=0.8372 eb=0.0082 ve=30.0000 vn=0.5477 vl=0.000 db=0.29
G1 X-54.10 Y58.76 E14.0750 F600         ; draw dl=1.1@10(0<10>0) de=0.067@0.53(0.0<0.62>0.0) l=0.30x0.50x1.00 r=0.89
;00:00:26.397: pe=0.8445 eb=0.0181 ve=0.0000 vn=0.4150 vl=0.000 db=0.43
G1 E12.2304 F2400                       ; retract de=-1.8445@-40.0 r=0.90
;00:00:26.443: pe=-1.0018 eb=0.0199 ve=-40.0000 vn=0.0000 vl=0.000 db=0.45
G1 Z0.500 F420                          ; hopup dz=0.20@7 h=0.5 r=0.70
;00:00:26.472: pe=-1.0018 eb=0.0199 ve=0.0000 vn=0.0000 vl=0.000 db=0.35
G1 X-52.92 Y58.26 F6000                 ; move dl=1.3@100(0<18>0) de=0.000@0.0(0.0<0.0>0.0) l=0.50x0.50x0.00 r=0.00
;00:00:26.579: pe=-1.0018 eb=0.0000 ve=0.0000 vn=0.0000 vl=0.000 db=0.00
G1 Z0.300 F420                          ; hopdn dz=-0.20@7 h=0.3 r=0.00
;00:00:26.608: pe=-1.0018 eb=0.0000 ve=0.0000 vn=0.0000 vl=0.000 db=0.00
G1 E14.1028 F1800                       ; restore de=1.8724@30.0 r=0.60
;00:00:26.670: pe=0.8619 eb=0.0087 ve=30.0000 vn=0.5640 vl=0.000 db=0.30
G1 X-51.23 Y58.26 E14.2082 F600         ; draw dl=1.7@10(0<10>0) de=0.105@0.56(0.0<0.62>0.0) l=0.30x0.50x1.00 r=0.87
;00:00:26.859: pe=0.8756 eb=0.0193 ve=0.0000 vn=0.4319 vl=0.000 db=0.44
G1 E12.3326 F2400                       ; retract de=-1.8756@-40.0 r=0.93
;00:00:26.906: pe=-1.0020 eb=0.0213 ve=-40.0000 vn=0.0000 vl=0.000 db=0.47
G1 Z0.500 F420                          ; hopup dz=0.20@7 h=0.5 r=0.72
;00:00:26.934: pe=-1.0020 eb=0.0213 ve=0.0000 vn=0.0000 vl=0.000 db=0.36
G1 X-51.23 Y57.55 F6000                 ; move dl=0.7@100(0<13>0) de=0.000@0.0(0.0<0.0>0.0) l=0.50x0.50x0.00 r=0.00
;00:00:27.014: pe=-1.0020 eb=0.0000 ve=0.0000 vn=0.0000 vl=0.000 db=0.00
G1 Z0.300 F420                          ; hopdn dz=-0.20@7 h=0.3 r=0.00
;00:00:27.043: pe=-1.0020 eb=0.0000 ve=0.0000 vn=0.0000 vl=0.000 db=0.00
G1 E14.2051 F1800                       ; restore de=1.8726@30.0 r=0.60
;00:00:27.105: pe=0.8619 eb=0.0087 ve=30.0000 vn=0.5640 vl=0.000 db=0.30
G1 X-52.92 Y57.55 E14.3105 F600         ; draw dl=1.7@10(0<10>0) de=0.105@0.56(0.0<0.62>0.0) l=0.30x0.50x1.00 r=0.87
;00:00:27.294: pe=0.8756 eb=0.0193 ve=0.0000 vn=0.4319 vl=0.000 db=0.44
G1 E12.4349 F2400                       ; retract de=-1.8756@-40.0 r=0.93
;00:00:27.341: pe=-1.0020 eb=0.0213 ve=-40.0000 vn=0.0000 vl=0.000 db=0.47
G1 Z0.500 F420                          ; hopup dz=0.20@7 h=0.5 r=0.72
;00:00:27.370: pe=-1.0020 eb=0.0213 ve=0.0000 vn=0.0000 vl=0.000 db=0.36
G1 X-48.95 Y59.94 F6000                 ; move dl=4.6@100(0<34>0) de=0.000@0.0(0.0<0.0>0.0) l=0.50x0.50x0.00 r=0.00
;00:00:27.574: pe=-1.0020 eb=0.0000 ve=0.0000 vn=0.0000 vl=0.000 db=0.00
G1 Z0.300 F420                          ; hopdn dz=-0.20@7 h=0.3 r=0.00
;00:00:27.603: pe=-1.0020 eb=0.0000 ve=0.0000 vn=0.0000 vl=0.000 db=0.00
G1 E14.3514 F1800                       ; restore de=1.9165@30.0 r=0.63
;00:00:27.666: pe=0.9049 eb=0.0096 ve=30.0000 vn=0.5923 vl=0.000 db=0.31
G1 X-48.44 Y59.80 E14.3844 F600         ; draw dl=0.5@10(0<10>10) de=0.033@0.52(0.0<0.62>0.62) l=0.30x0.50x1.00 r=0.98
;00:00:27.729: pe=0.9057 eb=0.0157 ve=0.6236 vn=0.5049 vl=10.000 db=0.40
G1 X-48.05 Y59.42 E14.4183              ; draw dl=0.5@10(10<10>10) de=0.034@0.62(0.62<0.62>0.62) l=0.30x0.50x1.00 r=0.81
;00:00:27.784: pe=0.9120 eb=0.0160 ve=0.6236 vn=0.5081 vl=10.000 db=0.40
G1 X-47.81 Y58.86 E14.4563              ; draw dl=0.6@10(10<10>10) de=0.038@0.62(0.62<0.62>0.62) l=0.30x0.50x1.00 r=0.82
;00:00:27.845: pe=0.9189 eb=0.0162 ve=0.6236 vn=0.5118 vl=10.000 db=0.41
G1 X-47.73 Y58.18 E14.4990              ; draw dl=0.7@10(10<10>10) de=0.043@0.62(0.62<0.62>0.62) l=0.30x0.50x1.00 r=0.82
;00:00:27.913: pe=0.9265 eb=0.0165 ve=0.6236 vn=0.5159 vl=10.000 db=0.41
G1 X-47.81 Y57.51 E14.5411              ; draw dl=0.7@10(10<10>10) de=0.042@0.62(0.62<0.62>0.62) l=0.30x0.50x1.00 r=0.83
;00:00:27.981: pe=0.9336 eb=0.0168 ve=0.6236 vn=0.5198 vl=10.000 db=0.41
G1 X-48.05 Y56.95 E14.5791              ; draw dl=0.6@10(10<10>10) de=0.038@0.62(0.62<0.62>0.62) l=0.30x0.50x1.00 r=0.84
;00:00:28.042: pe=0.9398 eb=0.0170 ve=0.6236 vn=0.5232 vl=10.000 db=0.42
G1 X-48.44 Y56.56 E14.6135              ; draw dl=0.6@10(10<10>10) de=0.034@0.62(0.62<0.62>0.62) l=0.30x0.50x1.00 r=0.84
;00:00:28.097: pe=0.9453 eb=0.0172 ve=0.6236 vn=0.5262 vl=10.000 db=0.42
G1 X-48.95 Y56.42 E14.6465              ; draw dl=0.5@10(10<10>10) de=0.033@0.62(0.62<0.62>0.62) l=0.30x0.50x1.00 r=0.85
;00:00:28.150: pe=0.9503 eb=0.0174 ve=0.6236 vn=0.5290 vl=10.000 db=0.42
G1 X-49.47 Y56.56 E14.6800              ; draw dl=0.5@10(10<10>10) de=0.034@0.62(0.62<0.62>0.62) l=0.30x0.50x1.00 r=0.85
;00:00:28.203: pe=0.9554 eb=0.0176 ve=0.6236 vn=0.5317 vl=10.000 db=0.42
G1 X-49.85 Y56.95 E14.7140              ; draw dl=0.5@10(10<10>10) de=0.034@0.62(0.62<0.62>0.62) l=0.30x0.50x1.00 r=0.85
;00:00:28.258: pe=0.9603 eb=0.0178 ve=0.6236 vn=0.5344 vl=10.000 db=0.43
G1 X-50.09 Y57.51 E14.7520              ; draw dl=0.6@10(10<10>10) de=0.038@0.62(0.62<0.62>0.62) l=0.30x0.50x1.00 r=0.86
;00:00:28.319: pe=0.9656 eb=0.0180 ve=0.6236 vn=0.5374 vl=10.000 db=0.43
G1 X-50.17 Y58.18 E14.7941              ; draw dl=0.7@10(10<10>10) de=0.042@0.62(0.62<0.62>0.62) l=0.30x0.50x1.00 r=0.86
;00:00:28.386: pe=0.9713 eb=0.0182 ve=0.6236 vn=0.5405 vl=10.000 db=0.43
G1 X-50.09 Y58.85 E14.8362              ; draw dl=0.7@10(10<10>10) de=0.042@0.62(0.62<0.62>0.62) l=0.30x0.50x1.00 r=0.87
;00:00:28.454: pe=0.9768 eb=0.0184 ve=0.6236 vn=0.5435 vl=10.000 db=0.43
G1 X-49.85 Y59.42 E14.8747              ; draw dl=0.6@10(10<10>10) de=0.039@0.62(0.62<0.62>0.62) l=0.30x0.50x1.00 r=0.87
;00:00:28.516: pe=0.9817 eb=0.0186 ve=0.6236 vn=0.5462 vl=10.000 db=0.44
G1 X-49.47 Y59.80 E14.9082              ; draw dl=0.5@10(10<10>10) de=0.034@0.62(0.62<0.62>0.62) l=0.30x0.50x1.00 r=0.88
;00:00:28.569: pe=0.9858 eb=0.0187 ve=0.6236 vn=0.5484 vl=10.000 db=0.44
G1 X-48.95 Y59.94 E14.9418              ; draw dl=0.5@10(10<10>0) de=0.034@0.53(0.62<0.62>0.0) l=0.30x0.50x1.00 r=1.03
;00:00:28.633: pe=0.9847 eb=0.0239 ve=0.0000 vn=0.4907 vl=0.000 db=0.49
G1 E12.9571 F2400                       ; retract de=-1.9847@-40.0 r=1.04
;00:00:28.683: pe=-1.0026 eb=0.0265 ve=-40.0000 vn=0.0000 vl=0.000 db=0.52
G1 Z0.500 F420                          ; hopup dz=0.20@7 h=0.5 r=0.81
;00:00:28.711: pe=-1.0026 eb=0.0265 ve=0.0000 vn=0.0000 vl=0.000 db=0.40
;structure:shell-outer
G1 X70.00 Y0.00 F6000                   ; move dl=133.2@100(0<100>0) de=0.000@0.0(0.0<0.0>0.0) l=0.50x0.50x0.00 r=0.00
;00:00:30.243: pe=-1.0026 eb=0.0000 ve=0.0000 vn=0.0000 vl=0.000 db=0.00
G1 Z0.300 F420                          ; hopdn dz=-0.20@7 h=0.3 r=0.00
;00:00:30.272: pe=-1.0026 eb=0.0000 ve=0.0000 vn=0.0000 vl=0.000 db=0.00
G1 E14.8791 F1800                       ; restore de=1.9219@30.0 r=0.63
;00:00:30.336: pe=0.9097 eb=0.0097 ve=30.0000 vn=0.5955 vl=0.000 db=0.31
;00:00:30.336: spiral(dC=1.0, dl=439.822971502571, vl=10, ve=0.6236275321151817
G1 X69.73 Y6.10 E15.2599 F600           ; draw dl=6.1@10(0<10>10) de=0.381@0.61(0.0<0.62>0.62) l=0.30x0.50x1.00 r=0.85
;00:00:30.957: pe=0.9662 eb=0.0180 ve=0.6236 vn=0.5377 vl=10.000 db=0.43
G1 X68.94 Y12.16 E15.6407               ; draw dl=6.1@10(10<10>10) de=0.381@0.62(0.62<0.62>0.62) l=0.30x0.50x1.00 r=0.88
;00:00:31.567: pe=1.0108 eb=0.0197 ve=0.6236 vn=0.5621 vl=10.000 db=0.45
G1 X67.61 Y18.12 E16.0216               ; draw dl=6.1@10(10<10>10) de=0.381@0.62(0.62<0.62>0.62) l=0.30x0.50x1.00 r=0.92
;00:00:32.178: pe=1.0428 eb=0.0210 ve=0.6236 vn=0.5795 vl=10.000 db=0.46
G1 X65.78 Y23.94 E16.4024               ; draw dl=6.1@10(10<10>10) de=0.381@0.62(0.62<0.62>0.62) l=0.30x0.50x1.00 r=0.94
;00:00:32.789: pe=1.0656 eb=0.0220 ve=0.6236 vn=0.5920 vl=10.000 db=0.47
G1 X63.44 Y29.58 E16.7832               ; draw dl=6.1@10(10<10>10) de=0.381@0.62(0.62<0.62>0.62) l=0.30x0.50x1.00 r=0.96
;00:00:33.399: pe=1.0820 eb=0.0227 ve=0.6236 vn=0.6010 vl=10.000 db=0.48
G1 X60.62 Y35.00 E17.1641               ; draw dl=6.1@10(10<10>10) de=0.381@0.62(0.62<0.62>0.62) l=0.30x0.50x1.00 r=0.97
;00:00:34.010: pe=1.0938 eb=0.0232 ve=0.6236 vn=0.6074 vl=10.000 db=0.49
G1 X57.34 Y40.15 E17.5449               ; draw dl=6.1@10(10<10>10) de=0.381@0.62(0.62<0.62>0.62) l=0.30x0.50x1.00 r=0.98
;00:00:34.621: pe=1.1022 eb=0.0235 ve=0.6236 vn=0.6120 vl=10.000 db=0.49
G1 X53.62 Y45.00 E17.9257               ; draw dl=6.1@10(10<10>10) de=0.381@0.62(0.62<0.62>0.62) l=0.30x0.50x1.00 r=0.98
;00:00:35.231: pe=1.1083 eb=0.0238 ve=0.6236 vn=0.6153 vl=10.000 db=0.49
G1 X49.50 Y49.50 E18.3066               ; draw dl=6.1@10(10<10>10) de=0.381@0.62(0.62<0.62>0.62) l=0.30x0.50x1.00 r=0.99
;00:00:35.842: pe=1.1126 eb=0.0240 ve=0.6236 vn=0.6176 vl=10.000 db=0.49
G1 X45.00 Y53.62 E18.6874               ; draw dl=6.1@10(10<10>10) de=0.381@0.62(0.62<0.62>0.62) l=0.30x0.50x1.00 r=0.99
;00:00:36.453: pe=1.1157 eb=0.0241 ve=0.6236 vn=0.6193 vl=10.000 db=0.50
G1 X40.15 Y57.34 E19.0682               ; draw dl=6.1@10(10<10>10) de=0.381@0.62(0.62<0.62>0.62) l=0.30x0.50x1.00 r=0.99
;00:00:37.063: pe=1.1180 eb=0.0242 ve=0.6236 vn=0.6205 vl=10.000 db=0.50
G1 X35.00 Y60.62 E19.4491               ; draw dl=6.1@10(10<10>10) de=0.381@0.62(0.62<0.62>0.62) l=0.30x0.50x1.00 r=1.00
;00:00:37.674: pe=1.1196 eb=0.0243 ve=0.6236 vn=0.6214 vl=10.000 db=0.50
G1 X29.58 Y63.44 E19.8299               ; draw dl=6.1@10(10<10>10) de=0.381@0.62(0.62<0.62>0.62) l=0.30x0.50x1.00 r=1.00
;00:00:38.285: pe=1.1207 eb=0.0244 ve=0.6236 vn=0.6220 vl=10.000 db=0.50
G1 X23.94 Y65.78 E20.2107               ; draw dl=6.1@10(10<10>10) de=0.381@0.62(0.62<0.62>0.62) l=0.30x0.50x1.00 r=1.00
;00:00:38.895: pe=1.1215 eb=0.0244 ve=0.6236 vn=0.6225 vl=10.000 db=0.50
G1 X18.12 Y67.61 E20.5916               ; draw dl=6.1@10(10<10>10) de=0.381@0.62(0.62<0.62>0.62) l=0.30x0.50x1.00 r=1.00
;00:00:39.506: pe=1.1221 eb=0.0244 ve=0.6236 vn=0.6228 vl=10.000 db=0.50
G1 X12.16 Y68.94 E20.9724               ; draw dl=6.1@10(10<10>10) de=0.381@0.62(0.62<0.62>0.62) l=0.30x0.50x1.00 r=1.00
;00:00:40.117: pe=1.1226 eb=0.0244 ve=0.6236 vn=0.6230 vl=10.000 db=0.50
G1 X6.10 Y69.73 E21.3532                ; draw dl=6.1@10(10<10>10) de=0.381@0.62(0.62<0.62>0.62) l=0.30x0.50x1.00 r=1.00
;00:00:40.727: pe=1.1229 eb=0.0245 ve=0.6236 vn=0.6232 vl=10.000 db=0.50
G1 X0.00 Y70.00 E21.7340                ; draw dl=6.1@10(10<10>10) de=0.381@0.62(0.62<0.62>0.62) l=0.30x0.50x1.00 r=1.00
;00:00:41.338: pe=1.1231 eb=0.0245 ve=0.6236 vn=0.6233 vl=10.000 db=0.50
G1 X-6.10 Y69.73 E22.1149               ; draw dl=6.1@10(10<10>10) de=0.381@0.62(0.62<0.62>0.62) l=0.30x0.50x1.00 r=1.00
;00:00:41.949: pe=1.1232 eb=0.0245 ve=0.6236 vn=0.6234 vl=10.000 db=0.50
G1 X-12.16 Y68.94 E22.4957              ; draw dl=6.1@10(10<10>10) de=0.381@0.62(0.62<0.62>0.62) l=0.30x0.50x1.00 r=1.00
;00:00:42.559: pe=1.1233 eb=0.0245 ve=0.6236 vn=0.6235 vl=10.000 db=0.50
G1 X-18.12 Y67.61 E22.8765              ; draw dl=6.1@10(10<10>10) de=0.381@0.62(0.62<0.62>0.62) l=0.30x0.50x1.00 r=1.00
;00:00:43.170: pe=1.1234 eb=0.0245 ve=0.6236 vn=0.6235 vl=10.000 db=0.50
G1 X-23.94 Y65.78 E23.2574              ; draw dl=6.1@10(10<10>10) de=0.381@0.62(0.62<0.62>0.62) l=0.30x0.50x1.00 r=1.00
;00:00:43.781: pe=1.1235 eb=0.0245 ve=0.6236 vn=0.6235 vl=10.000 db=0.50
G1 X-29.58 Y63.44 E23.6382              ; draw dl=6.1@10(10<10>10) de=0.381@0.62(0.62<0.62>0.62) l=0.30x0.50x1.00 r=1.00
;00:00:44.392: pe=1.1235 eb=0.0245 ve=0.6236 vn=0.6236 vl=10.000 db=0.50
G1 X-35.00 Y60.62 E24.0190              ; draw dl=6.1@10(10<10>10) de=0.381@0.62(0.62<0.62>0.62) l=0.30x0.50x1.00 r=1.00
;00:00:45.002: pe=1.1236 eb=0.0245 ve=0.6236 vn=0.6236 vl=10.000 db=0.50
G1 X-40.15 Y57.34 E24.3999              ; draw dl=6.1@10(10<10>10) de=0.381@0.62(0.62<0.62>0.62) l=0.30x0.50x1.00 r=1.00
;00:00:45.613: pe=1.1236 eb=0.0245 ve=0.6236 vn=0.6236 vl=10.000 db=0.50
G1 X-45.00 Y53.62 E24.7807              ; draw dl=6.1@10(10<10>10) de=0.381@0.62(0.62<0.62>0.62) l=0.30x0.50x1.00 r=1.00
;00:00:46.224: pe=1.1236 eb=0.0245 ve=0.6236 vn=0.6236 vl=10.000 db=0.50
G1 X-49.50 Y49.50 E25.1615              ; draw dl=6.1@10(10<10>10) de=0.381@0.62(0.62<0.62>0.62) l=0.30x0.50x1.00 r=1.00
;00:00:46.834: pe=1.1236 eb=0.0245 ve=0.6236 vn=0.6236 vl=10.000 db=0.50
G1 X-53.62 Y45.00 E25.5424              ; draw dl=6.1@10(10<10>10) de=0.381@0.62(0.62<0.62>0.62) l=0.30x0.50x1.00 r=1.00
;00:00:47.445: pe=1.1236 eb=0.0245 ve=0.6236 vn=0.6236 vl=10.000 db=0.50
G1 X-57.34 Y40.15 E25.9232              ; draw dl=6.1@10(10<10>10) de=0.381@0.62(0.62<0.62>0.62) l=0.30x0.50x1.00 r=1.00
;00:00:48.056: pe=1.1236 eb=0.0245 ve=0.6236 vn=0.6236 vl=10.000 db=0.50
G1 X-60.62 Y35.00 E26.3040              ; draw dl=6.1@10(10<10>10) de=0.381@0.62(0.62<0.62>0.62) l=0.30x0.50x1.00 r=1.00
;00:00:48.666: pe=1.1236 eb=0.0245 ve=0.6236 vn=0.6236 vl=10.000 db=0.50
G1 X-63.44 Y29.58 E26.6849              ; draw dl=6.1@10(10<10>10) de=0.381@0.62(0.62<0.62>0.62) l=0.30x0.50x1.00 r=1.00
;00:00:49.277: pe=1.1236 eb=0.0245 ve=0.6236 vn=0.6236 vl=10.000 db=0.50
G1 X-65.78 Y23.94 E27.0657              ; draw dl=6.1@10(10<10>10) de=0.381@0.62(0.62<0.62>0.62) l=0.30x0.50x1.00 r=1.00
;00:00:49.888: pe=1.1236 eb=0.0245 ve=0.6236 vn=0.6236 vl=10.000 db=0.50
G1 X-67.61 Y18.12 E27.4465              ; draw dl=6.1@10(10<10>10) de=0.381@0.62(0.62<0.62>0.62) l=0.30x0.50x1.00 r=1.00
;00:00:50.498: pe=1.1236 eb=0.0245 ve=0.6236 vn=0.6236 vl=10.000 db=0.50
G1 X-68.94 Y12.16 E27.8274              ; draw dl=6.1@10(10<10>10) de=0.381@0.62(0.62<0.62>0.62) l=0.30x0.50x1.00 r=1.00
;00:00:51.109: pe=1.1236 eb=0.0245 ve=0.6236 vn=0.6236 vl=10.000 db=0.50
G1 X-69.73 Y6.10 E28.2082               ; draw dl=6.1@10(10<10>10) de=0.381@0.62(0.62<0.62>0.62) l=0.30x0.50x1.00 r=1.00
;00:00:51.720: pe=1.1236 eb=0.0245 ve=0.6236 vn=0.6236 vl=10.000 db=0.50
G1 X-70.00 Y0.00 E28.5890               ; draw dl=6.1@10(10<10>10) de=0.381@0.62(0.62<0.62>0.62) l=0.30x0.50x1.00 r=1.00
;00:00:52.330: pe=1.1236 eb=0.0245 ve=0.6236 vn=0.6236 vl=10.000 db=0.50
G1 X-69.73 Y-6.10 E28.9699              ; draw dl=6.1@10(10<10>10) de=0.381@0.62(0.62<0.62>0.62) l=0.30x0.50x1.00 r=1.00
;00:00:52.941: pe=1.1236 eb=0.0245 ve=0.6236 vn=0.6236 vl=10.000 db=0.50
G1 X-68.94 Y-12.16 E29.3507             ; draw dl=6.1@10(10<10>10) de=0.381@0.62(0.62<0.62>0.62) l=0.30x0.50x1.00 r=1.00
;00:00:53.552: pe=1.1236 eb=0.0245 ve=0.6236 vn=0.6236 vl=10.000 db=0.50
G1 X-67.61 Y-18.12 E29.7315             ; draw dl=6.1@10(10<10>10) de=0.381@0.62(0.62<0.62>0.62) l=0.30x0.50x1.00 r=1.00
;00:00:54.162: pe=1.1236 eb=0.0245 ve=0.6236 vn=0.6236 vl=10.000 db=0.50
G1 X-65.78 Y-23.94 E30.1123             ; draw dl=6.1@10(10<10>10) de=0.381@0.62(0.62<0.62>0.62) l=0.30x0.50x1.00 r=1.00
;00:00:54.773: pe=1.1236 eb=0.0245 ve=0.6236 vn=0.6236 vl=10.000 db=0.50
G1 X-63.44 Y-29.58 E30.4932             ; draw dl=6.1@10(10<10>10) de=0.381@0.62(0.62<0.62>0.62) l=0.30x0.50x1.00 r=1.00
;00:00:55.384: pe=1.1236 eb=0.0245 ve=0.6236 vn=0.6236 vl=10.000 db=0.50
G1 X-60.62 Y-35.00 E30.8740             ; draw dl=6.1@10(10<10>10) de=0.381@0.62(0.62<0.62>0.62) l=0.30x0.50x1.00 r=1.00
;00:00:55.994: pe=1.1236 eb=0.0245 ve=0.6236 vn=0.6236 vl=10.000 db=0.50
G1 X-57.34 Y-40.15 E31.2548             ; draw dl=6.1@10(10<10>10) de=0.381@0.62(0.62<0.62>0.62) l=0.30x0.50x1.00 r=1.00
;00:00:56.605: pe=1.1236 eb=0.0245 ve=0.6236 vn=0.6236 vl=10.000 db=0.50
G1 X-53.62 Y-45.00 E31.6357             ; draw dl=6.1@10(10<10>10) de=0.381@0.62(0.62<0.62>0.62) l=0.30x0.50x1.00 r=1.00
;00:00:57.216: pe=1.1236 eb=0.0245 ve=0.6236 vn=0.6236 vl=10.000 db=0.50
G1 X-49.50 Y-49.50 E32.0165             ; draw dl=6.1@10(10<10>10) de=0.381@0.62(0.62<0.62>0.62) l=0.30x0.50x1.00 r=1.00
;00:00:57.826: pe=1.1236 eb=0.0245 ve=0.6236 vn=0.6236 vl=10.000 db=0.50
G1 X-45.00 Y-53.62 E32.3973             ; draw dl=6.1@10(10<10>10) de=0.381@0.62(0.62<0.62>0.62) l=0.30x0.50x1.00 r=1.00
;00:00:58.437: pe=1.1236 eb=0.0245 ve=0.6236 vn=0.6236 vl=10.000 db=0.50
G1 X-40.15 Y-57.34 E32.7782             ; draw dl=6.1@10(10<10>10) de=0.381@0.62(0.62<0.62>0.62) l=0.30x0.50x1.00 r=1.00
;00:00:59.048: pe=1.1236 eb=0.0245 ve=0.6236 vn=0.6236 vl=10.000 db=0.50
G1 X-35.00 Y-60.62 E33.1590             ; draw dl=6.1@10(10<10>10) de=0.381@0.62(0.62<0.62>0.62) l=0.30x0.50x1.00 r=1.00
;00:00:59.658: pe=1.1236 eb=0.0245 ve=0.6236 vn=0.6236 vl=10.000 db=0.50
G1 X-29.58 Y-63.44 E33.5398             ; draw dl=6.1@10(10<10>10) de=0.381@0.62(0.62<0.62>0.62) l=0.30x0.50x1.00 r=1.00
;00:01:00.269: pe=1.1236 eb=0.0245 ve=0.6236 vn=0.6236 vl=10.000 db=0.50
G1 X-23.94 Y-65.78 E33.9207             ; draw dl=6.1@10(10<10>10) de=0.381@0.62(0.62<0.62>0.62) l=0.30x0.50x1.00 r=1.00
;00:01:00.880: pe=1.1236 eb=0.0245 ve=0.6236 vn=0.6236 vl=10.000 db=0.50
G1 X-18.12 Y-67.61 E34.3015             ; draw dl=6.1@10(10<10>10) de=0.381@0.62(0.62<0.62>0.62) l=0.30x0.50x1.00 r=1.00
;00:01:01.490: pe=1.1236 eb=0.0245 ve=0.6236 vn=0.6236 vl=10.000 db=0.50
G1 X-12.16 Y-68.94 E34.6823             ; draw dl=6.1@10(10<10>10) de=0.381@0.62(0.62<0.62>0.62) l=0.30x0.50x1.00 r=1.00
;00:01:02.101: pe=1.1236 eb=0.0245 ve=0.6236 vn=0.6236 vl=10.000 db=0.50
G1 X-6.10 Y-69.73 E35.0632              ; draw dl=6.1@10(10<10>10) de=0.381@0.62(0.62<0.62>0.62) l=0.30x0.50x1.00 r=1.00
;00:01:02.712: pe=1.1236 eb=0.0245 ve=0.6236 vn=0.6236 vl=10.000 db=0.50
G1 X0.00 Y-70.00 E35.4440               ; draw dl=6.1@10(10<10>10) de=0.381@0.62(0.62<0.62>0.62) l=0.30x0.50x1.00 r=1.00
;00:01:03.322: pe=1.1236 eb=0.0245 ve=0.6236 vn=0.6236 vl=10.000 db=0.50
G1 X6.10 Y-69.73 E35.8248               ; draw dl=6.1@10(10<10>10) de=0.381@0.62(0.62<0.62>0.62) l=0.30x0.50x1.00 r=1.00
;00:01:03.933: pe=1.1236 eb=0.0245 ve=0.6236 vn=0.6236 vl=10.000 db=0.50
G1 X12.16 Y-68.94 E36.2057              ; draw dl=6.1@10(10<10>10) de=0.381@0.62(0.62<0.62>0.62) l=0.30x0.50x1.00 r=1.00
;00:01:04.544: pe=1.1236 eb=0.0245 ve=0.6236 vn=0.6236 vl=10.000 db=0.50
G1 X18.12 Y-67.61 E36.5865              ; draw dl=6.1@10(10<10>10) de=0.381@0.62(0.62<0.62>0.62) l=0.30x0.50x1.00 r=1.00
;00:01:05.154: pe=1.1236 eb=0.0245 ve=0.6236 vn=0.6236 vl=10.000 db=0.50
G1 X23.94 Y-65.78 E36.9673              ; draw dl=6.1@10(10<10>10) de=0.381@0.62(0.62<0.62>0.62) l=0.30x0.50x1.00 r=1.00
;00:01:05.765: pe=1.1236 eb=0.0245 ve=0.6236 vn=0.6236 vl=10.000 db=0.50
G1 X29.58 Y-63.44 E37.3482              ; draw dl=6.1@10(10<10>10) de=0.381@0.62(0.62<0.62>0.62) l=0.30x0.50x1.00 r=1.00
;00:01:06.376: pe=1.1236 eb=0.0245 ve=0.6236 vn=0.6236 vl=10.000 db=0.50
G1 X35.00 Y-60.62 E37.7290              ; draw dl=6.1@10(10<10>10) de=0.381@0.62(0.62<0.62>0.62) l=0.30x0.50x1.00 r=1.00
;00:01:06.986: pe=1.1236 eb=0.0245 ve=0.6236 vn=0.6236 vl=10.000 db=0.50
G1 X40.15 Y-57.34 E38.1098              ; draw dl=6.1@10(10<10>10) de=0.381@0.62(0.62<0.62>0.62) l=0.30x0.50x1.00 r=1.00
;00:01:07.597: pe=1.1236 eb=0.0245 ve=0.6236 vn=0.6236 vl=10.000 db=0.50
G1 X45.00 Y-53.62 E38.4906              ; draw dl=6.1@10(10<10>10) de=0.381@0.62(0.62<0.62>0.62) l=0.30x0.50x1.00 r=1.00
;00:01:08.208: pe=1.1236 eb=0.0245 ve=0.6236 vn=0.6236 vl=10.000 db=0.50
G1 X49.50 Y-49.50 E38.8715              ; draw dl=6.1@10(10<10>10) de=0.381@0.62(0.62<0.62>0.62) l=0.30x0.50x1.00 r=1.00
;00:01:08.818: pe=1.1236 eb=0.0245 ve=0.6236 vn=0.6236 vl=10.000 db=0.50
G1 X53.62 Y-45.00 E39.2523              ; draw dl=6.1@10(10<10>10) de=0.381@0.62(0.62<0.62>0.62) l=0.30x0.50x1.00 r=1.00
;00:01:09.429: pe=1.1236 eb=0.0245 ve=0.6236 vn=0.6236 vl=10.000 db=0.50
G1 X57.34 Y-40.15 E39.6331              ; draw dl=6.1@10(10<10>10) de=0.381@0.62(0.62<0.62>0.62) l=0.30x0.50x1.00 r=1.00
;00:01:10.040: pe=1.1236 eb=0.0245 ve=0.6236 vn=0.6236 vl=10.000 db=0.50
G1 X60.62 Y-35.00 E40.0140              ; draw dl=6.1@10(10<10>10) de=0.381@0.62(0.62<0.62>0.62) l=0.30x0.50x1.00 r=1.00
;00:01:10.650: pe=1.1236 eb=0.0245 ve=0.6236 vn=0.6236 vl=10.000 db=0.50
G1 X63.44 Y-29.58 E40.3948              ; draw dl=6.1@10(10<10>10) de=0.381@0.62(0.62<0.62>0.62) l=0.30x0.50x1.00 r=1.00
;00:01:11.261: pe=1.1236 eb=0.0245 ve=0.6236 vn=0.6236 vl=10.000 db=0.50
G1 X65.78 Y-23.94 E40.7756              ; draw dl=6.1@10(10<10>10) de=0.381@0.62(0.62<0.62>0.62) l=0.30x0.50x1.00 r=1.00
;00:01:11.872: pe=1.1236 eb=0.0245 ve=0.6236 vn=0.6236 vl=10.000 db=0.50
G1 X67.61 Y-18.12 E41.1565              ; draw dl=6.1@10(10<10>10) de=0.381@0.62(0.62<0.62>0.62) l=0.30x0.50x1.00 r=1.00
;00:01:12.482: pe=1.1236 eb=0.0245 ve=0.6236 vn=0.6236 vl=10.000 db=0.50
G1 X68.94 Y-12.16 E41.5373              ; draw dl=6.1@10(10<10>10) de=0.381@0.62(0.62<0.62>0.62) l=0.30x0.50x1.00 r=1.00
;00:01:13.093: pe=1.1236 eb=0.0245 ve=0.6236 vn=0.6236 vl=10.000 db=0.50
G1 X69.73 Y-6.10 E41.9181               ; draw dl=6.1@10(10<10>10) de=0.381@0.62(0.62<0.62>0.62) l=0.30x0.50x1.00 r=1.00
;00:01:13.704: pe=1.1236 eb=0.0245 ve=0.6236 vn=0.6236 vl=10.000 db=0.50
G1 X70.00 Y0.00 E42.2990                ; draw dl=6.1@10(10<10>0) de=0.381@0.61(0.62<0.62>0.0) l=0.30x0.50x1.00 r=1.02
;00:01:14.324: pe=1.1178 eb=0.0302 ve=0.0000 vn=0.5624 vl=0.000 db=0.56
;00:01:14.324: skipping empty move move dl=0.0@10(0<0>0) de=0.000@0.0(0.0<0.0>0.0) l=0.30x0.50x0.00
G1 E40.1812 F2400                       ; retract de=-2.1178@-40.0 r=1.17
;00:01:14.377: pe=-1.0034 eb=0.0336 ve=-40.0000 vn=0.0000 vl=0.000 db=0.59
G1 Z0.500 F420                          ; hopup dz=0.20@7 h=0.5 r=0.91
;00:01:14.406: pe=-1.0034 eb=0.0336 ve=0.0000 vn=0.0000 vl=0.000 db=0.45
;00:01:14.406: skipping empty move move dl=0.0@7(0<0>0) de=0.000@0.0(0.0<0.0>0.0) l=0.50x0.50x0.00
G1 Z0.300                               ; hopdn dz=-0.20@7 h=0.3 r=1.17
;00:01:14.434: pe=-1.0034 eb=0.0336 ve=0.0000 vn=0.0000 vl=0.000 db=0.59
G1 E42.0768 F1800                       ; restore de=1.8956@30.0 r=1.20
;00:01:14.498: pe=0.8905 eb=0.0353 ve=30.0000 vn=0.2905 vl=0.000 db=0.60
G1 X73.00 Y0.00 E42.2639 F600           ; draw dl=3.0@10(0<10>0) de=0.187@0.58(0.0<0.62>0.0) l=0.30x0.50x1.00 r=0.80
;00:01:14.818: pe=0.9273 eb=0.0214 ve=0.0000 vn=0.4597 vl=0.000 db=0.47
G1 E40.3366 F2400                       ; retract de=-1.9273@-40.0 r=0.98
;00:01:14.866: pe=-1.0022 eb=0.0237 ve=-40.0000 vn=0.0000 vl=0.000 db=0.49
G1 Z0.500 F420                          ; hopup dz=0.20@7 h=0.5 r=0.76
;00:01:14.894: pe=-1.0022 eb=0.0237 ve=0.0000 vn=0.0000 vl=0.000 db=0.38
G1 X69.73 Y6.10 F6000                   ; move dl=6.9@100(0<42>0) de=0.000@0.0(0.0<0.0>0.0) l=0.50x0.50x0.00 r=0.00
;00:01:15.144: pe=-1.0022 eb=0.0000 ve=0.0000 vn=0.0000 vl=0.000 db=0.00
G1 Z0.300 F420                          ; hopdn dz=-0.20@7 h=0.3 r=0.00
;00:01:15.173: pe=-1.0022 eb=0.0000 ve=0.0000 vn=0.0000 vl=0.000 db=0.00
G1 E42.2035 F1800                       ; restore de=1.8669@30.0 r=0.59
;00:01:15.235: pe=0.8561 eb=0.0086 ve=30.0000 vn=0.5601 vl=0.000 db=0.30
G1 X71.23 Y6.23 E42.2971 F600           ; draw dl=1.5@10(0<10>0) de=0.094@0.55(0.0<0.62>0.0) l=0.30x0.50x1.00 r=0.87
;00:01:15.405: pe=0.8679 eb=0.0190 ve=0.0000 vn=0.4277 vl=0.000 db=0.44
G1 E40.4292 F2400                       ; retract de=-1.8679@-40.0 r=0.92
;00:01:15.452: pe=-1.0019 eb=0.0209 ve=-40.0000 vn=0.0000 vl=0.000 db=0.46
G1 Z0.500 F420                          ; hopup dz=0.20@7 h=0.5 r=0.72
;00:01:15.480: pe=-1.0019 eb=0.0209 ve=0.0000 vn=0.0000 vl=0.000 db=0.36
G1 X68.94 Y12.16 F6000                  ; move dl=6.4@100(0<40>0) de=0.000@0.0(0.0<0.0>0.0) l=0.50x0.50x0.00 r=0.00
;00:01:15.719: pe=-1.0019 eb=0.0000 ve=0.0000 vn=0.0000 vl=0.000 db=0.00
G1 Z0.300 F420                          ; hopdn dz=-0.20@7 h=0.3 r=0.00
;00:01:15.748: pe=-1.0019 eb=0.0000 ve=0.0000 vn=0.0000 vl=0.000 db=0.00
G1 E42.2958 F1800                       ; restore de=1.8666@30.0 r=0.59
;00:01:15.810: pe=0.8561 eb=0.0086 ve=30.0000 vn=0.5601 vl=0.000 db=0.30
G1 X70.41 Y12.42 E42.3893 F600          ; draw dl=1.5@10(0<10>0) de=0.094@0.55(0.0<0.62>0.0) l=0.30x0.50x1.00 r=0.87
;00:01:15.980: pe=0.8679 eb=0.0190 ve=0.0000 vn=0.4277 vl=0.000 db=0.44
G1 E40.5215 F2400                       ; retract de=-1.8679@-40.0 r=0.92
;00:01:16.027: pe=-1.0019 eb=0.0209 ve=-40.0000 vn=0.0000 vl=0.000 db=0.46
G1 Z0.500 F420                          ; hopup dz=0.20@7 h=0.5 r=0.72
;00:01:16.055: pe=-1.0019 eb=0.0209 ve=0.0000 vn=0.0000 vl=0.000 db=0.36
G1 X67.61 Y18.12 F6000                  ; move dl=6.4@100(0<40>0) de=0.000@0.0(0.0<0.0>0.0) l=0.50x0.50x0.00 r=0.00
;00:01:16.294: pe=-1.0019 eb=0.0000 ve=0.0000 vn=0.0000 vl=0.000 db=0.00
G1 Z0.300 F420                          ; hopdn dz=-0.20@7 h=0.3 r=0.00
;00:01:16.323: pe=-1.0019 eb=0.0000 ve=0.0000 vn=0.0000 vl=0.000 db=0.00
G1 E42.3881 F1800                       ; restore de=1.8666@30.0 r=0.59
;00:01:16.385: pe=0.8561 eb=0.0086 ve=30.0000 vn=0.5601 vl=0.000 db=0.30
G1 X69.06 Y18.51 E42.4816 F600          ; draw dl=1.5@10(0<10>0) de=0.094@0.55(0.0<0.62>0.0) l=0.30x0.50x1.00 r=0.87
;00:01:16.555: pe=0.8679 eb=0.0190 ve=0.0000 vn=0.4277 vl=0.000 db=0.44
G1 E40.6138 F2400                       ; retract de=-1.8679@-40.0 r=0.92
;00:01:16.602: pe=-1.0019 eb=0.0209 ve=-40.0000 vn=0.0000 vl=0.000 db=0.46
G1 Z0.500 F420                          ; hopup dz=0.20@7 h=0.5 r=0.72
;00:01:16.630: pe=-1.0019 eb=0.0209 ve=0.0000 vn=0.0000 vl=0.000 db=0.36
G1 X65.78 Y23.94 F6000                  ; move dl=6.4@100(0<40>0) de=0.000@0.0(0.0<0.0>0.0) l=0.50x0.50x0.00 r=0.00
;00:01:16.869: pe=-1.0019 eb=0.0000 ve=0.0000 vn=0.0000 vl=0.000 db=0.00
G1 Z0.300 F420                          ; hopdn dz=-0.20@7 h=0.3 r=0.00
;00:01:16.898: pe=-1.0019 eb=0.0000 ve=0.0000 vn=0.0000 vl=0.000 db=0.00
G1 E42.4804 F1800                       ; restore de=1.8666@30.0 r=0.59
;00:01:16.960: pe=0.8561 eb=0.0086 ve=30.0000 vn=0.5601 vl=0.000 db=0.30
G1 X67.19 Y24.45 E42.5739 F600          ; draw dl=1.5@10(0<10>0) de=0.094@0.55(0.0<0.62>0.0) l=0.30x0.50x1.00 r=0.87
;00:01:17.130: pe=0.8679 eb=0.0190 ve=0.0000 vn=0.4277 vl=0.000 db=0.44
G1 E40.7060 F2400                       ; retract de=-1.8679@-40.0 r=0.92
;00:01:17.177: pe=-1.0019 eb=0.0209 ve=-40.0000 vn=0.0000 vl=0.000 db=0.46
G1 Z0.500 F420                          ; hopup dz=0.20@7 h=0.5 r=0.72
;00:01:17.206: pe=-1.0019 eb=0.0209 ve=0.0000 vn=0.0000 vl=0.000 db=0.36
G1 X63.44 Y29.58 F6000                  ; move dl=6.4@100(0<40>0) de=0.000@0.0(0.0<0.0>0.0) l=0.50x0.50x0.00 r=0.00
;00:01:17.445: pe=-1.0019 eb=0.0000 ve=0.0000 vn=0.0000 vl=0.000 db=0.00
G1 Z0.300 F420                          ; hopdn dz=-0.20@7 h=0.3 r=0.00
;00:01:17.473: pe=-1.0019 eb=0.0000 ve=0.0000 vn=0.0000 vl=0.000 db=0.00
G1 E42.5727 F1800                       ; restore de=1.8666@30.0 r=0.59
;00:01:17.535: pe=0.8561 eb=0.0086 ve=30.0000 vn=0.5601 vl=0.000 db=0.30
G1 X64.80 Y30.22 E42.6662 F600          ; draw dl=1.5@10(0<10>0) de=0.094@0.55(0.0<0.62>0.0) l=0.30x0.50x1.00 r=0.87
;00:01:17.705: pe=0.8679 eb=0.0190 ve=0.0000 vn=0.4277 vl=0.000 db=0.44
G1 E40.7983 F2400                       ; retract de=-1.8679@-40.0 r=0.92
;00:01:17.752: pe=-1.0019 eb=0.0209 ve=-40.0000 vn=0.0000 vl=0.000 db=0.46
G1 Z0.500 F420                          ; hopup dz=0.20@7 h=0.5 r=0.72
;00:01:17.781: pe=-1.0019 eb=0.0209 ve=0.0000 vn=0.0000 vl=0.000 db=0.36
G1 X60.62 Y35.00 F6000                  ; move dl=6.4@100(0<40>0) de=0.000@0.0(0.0<0.0>0.0) l=0.50x0.50x0.00 r=0.00
;00:01:18.020: pe=-1.0019 eb=0.0000 ve=0.0000 vn=0.0000 vl=0.000 db=0.00
G1 Z0.300 F420                          ; hopdn dz=-0.20@7 h=0.3 r=0.00
;00:01:18.048: pe=-1.0019 eb=0.0000 ve=0.0000 vn=0.0000 vl=0.000 db=0.00
G1 E42.6925 F1800                       ; restore de=1.8941@30.0 r=0.61
;00:01:18.111: pe=0.8831 eb=0.0091 ve=30.0000 vn=0.5779 vl=0.000 db=0.31
G1 X63.22 Y36.50 E42.8795 F600          ; draw dl=3.0@10(0<10>0) de=0.187@0.58(0.0<0.62>0.0) l=0.30x0.50x1.00 r=0.86
;00:01:18.431: pe=0.9101 eb=0.0207 ve=0.0000 vn=0.4505 vl=0.000 db=0.46
G1 E40.9695 F2400                       ; retract de=-1.9101@-40.0 r=0.97
;00:01:18.479: pe=-1.0021 eb=0.0228 ve=-40.0000 vn=0.0000 vl=0.000 db=0.48
G1 Z0.500 F420                          ; hopup dz=0.20@7 h=0.5 r=0.75
;00:01:18.508: pe=-1.0021 eb=0.0228 ve=0.0000 vn=0.0000 vl=0.000 db=0.37
G1 X57.34 Y40.15 F6000                  ; move dl=6.9@100(0<42>0) de=0.000@0.0(0.0<0.0>0.0) l=0.50x0.50x0.00 r=0.00
;00:01:18.757: pe=-1.0021 eb=0.0000 ve=0.0000 vn=0.0000 vl=0.000 db=0.00
G1 Z0.300 F420                          ; hopdn dz=-0.20@7 h=0.3 r=0.00
;00:01:18.786: pe=-1.0021 eb=0.0000 ve=0.0000 vn=0.0000 vl=0.000 db=0.00
G1 E42.8363 F1800                       ; restore de=1.8668@30.0 r=0.59
;00:01:18.848: pe=0.8561 eb=0.0086 ve=30.0000 vn=0.5601 vl=0.000 db=0.30
G1 X58.57 Y41.01 E42.9299 F600          ; draw dl=1.5@10(0<10>0) de=0.094@0.55(0.0<0.62>0.0) l=0.30x0.50x1.00 r=0.87
;00:01:19.018: pe=0.8679 eb=0.0190 ve=0.0000 vn=0.4277 vl=0.000 db=0.44
G1 E41.0620 F2400                       ; retract de=-1.8679@-40.0 r=0.92
;00:01:19.065: pe=-1.0019 eb=0.0209 ve=-40.0000 vn=0.0000 vl=0.000 db=0.46
G1 Z0.500 F420                          ; hopup dz=0.20@7 h=0.5 r=0.72
;00:01:19.093: pe=-1.0019 eb=0.0209 ve=0.0000 vn=0.0000 vl=0.000 db=0.36
G1 X53.62 Y45.00 F6000                  ; move dl=6.4@100(0<40>0) de=0.000@0.0(0.0<0.0>0.0) l=0.50x0.50x0.00 r=0.00
;00:01:19.333: pe=-1.0019 eb=0.0000 ve=0.0000 vn=0.0000 vl=0.000 db=0.00
G1 Z0.300 F420                          ; hopdn dz=-0.20@7 h=0.3 r=0.00
;00:01:19.361: pe=-1.0019 eb=0.0000 ve=0.0000 vn=0.0000 vl=0.000 db=0.00
G1 E42.9286 F1800                       ; restore de=1.8666@30.0 r=0.59
;00:01:19.423: pe=0.8561 eb=0.0086 ve=30.0000 vn=0.5601 vl=0.000 db=0.30
G1 X54.77 Y45.96 E43.0221 F600          ; draw dl=1.5@10(0<10>0) de=0.094@0.55(0.0<0.62>0.0) l=0.30x0.50x1.00 r=0.87
;00:01:19.593: pe=0.8679 eb=0.0190 ve=0.0000 vn=0.4277 vl=0.000 db=0.44
G1 E41.1543 F2400                       ; retract de=-1.8679@-40.0 r=0.92
;00:01:19.640: pe=-1.0019 eb=0.0209 ve=-40.0000 vn=0.0000 vl=0.000 db=0.46
G1 Z0.500 F420                          ; hopup dz=0.20@7 h=0.5 r=0.72
;00:01:19.669: pe=-1.0019 eb=0.0209 ve=0.0000 vn=0.0000 vl=0.000 db=0.36
G1 X49.50 Y49.50 F6000                  ; move dl=6.4@100(0<40>0) de=0.000@0.0(0.0<0.0>0.0) l=0.50x0.50x0.00 r=0.00
;00:01:19.908: pe=-1.0019 eb=0.0000 ve=0.0000 vn=0.0000 vl=0.000 db=0.00
G1 Z0.300 F420                          ; hopdn dz=-0.20@7 h=0.3 r=0.00
;00:01:19.936: pe=-1.0019 eb=0.0000 ve=0.0000 vn=0.0000 vl=0.000 db=0.00
G1 E43.0209 F1800                       ; restore de=1.8666@30.0 r=0.59
;00:01:19.998: pe=0.8561 eb=0.0086 ve=30.0000 vn=0.5601 vl=0.000 db=0.30
G1 X50.56 Y50.56 E43.1144 F600          ; draw dl=1.5@10(0<10>0) de=0.094@0.55(0.0<0.62>0.0) l=0.30x0.50x1.00 r=0.87
;00:01:20.168: pe=0.8679 eb=0.0190 ve=0.0000 vn=0.4277 vl=0.000 db=0.44
G1 E41.2465 F2400                       ; retract de=-1.8679@-40.0 r=0.92
;00:01:20.215: pe=-1.0019 eb=0.0209 ve=-40.0000 vn=0.0000 vl=0.000 db=0.46
G1 Z0.500 F420                          ; hopup dz=0.20@7 h=0.5 r=0.72
;00:01:20.244: pe=-1.0019 eb=0.0209 ve=0.0000 vn=0.0000 vl=0.000 db=0.36
G1 X45.00 Y53.62 F6000                  ; move dl=6.4@100(0<40>0) de=0.000@0.0(0.0<0.0>0.0) l=0.50x0.50x0.00 r=0.00
;00:01:20.483: pe=-1.0019 eb=0.0000 ve=0.0000 vn=0.0000 vl=0.000 db=0.00
G1 Z0.300 F420                          ; hopdn dz=-0.20@7 h=0.3 r=0.00
;00:01:20.511: pe=-1.0019 eb=0.0000 ve=0.0000 vn=0.0000 vl=0.000 db=0.00
G1 E43.1132 F1800                       ; restore de=1.8666@30.0 r=0.59
;00:01:20.574: pe=0.8561 eb=0.0086 ve=30.0000 vn=0.5601 vl=0.000 db=0.30
G1 X45.96 Y54.77 E43.2067 F600          ; draw dl=1.5@10(0<10>0) de=0.094@0.55(0.0<0.62>0.0) l=0.30x0.50x1.00 r=0.87
;00:01:20.744: pe=0.8679 eb=0.0190 ve=0.0000 vn=0.4277 vl=0.000 db=0.44
G1 E41.3388 F2400                       ; retract de=-1.8679@-40.0 r=0.92
;00:01:20.790: pe=-1.0019 eb=0.0209 ve=-40.0000 vn=0.0000 vl=0.000 db=0.46
G1 Z0.500 F420                          ; hopup dz=0.20@7 h=0.5 r=0.72
;00:01:20.819: pe=-1.0019 eb=0.0209 ve=0.0000 vn=0.0000 vl=0.000 db=0.36
G1 X40.15 Y57.34 F6000                  ; move dl=6.4@100(0<40>0) de=0.000@0.0(0.0<0.0>0.0) l=0.50x0.50x0.00 r=0.00
;00:01:21.058: pe=-1.0019 eb=0.0000 ve=0.0000 vn=0.0000 vl=0.000 db=0.00
G1 Z0.300 F420                          ; hopdn dz=-0.20@7 h=0.3 r=0.00
;00:01:21.087: pe=-1.0019 eb=0.0000 ve=0.0000 vn=0.0000 vl=0.000 db=0.00
G1 E43.2055 F1800                       ; restore de=1.8666@30.0 r=0.59
;00:01:21.149: pe=0.8561 eb=0.0086 ve=30.0000 vn=0.5601 vl=0.000 db=0.30
G1 X41.01 Y58.57 E43.2990 F600          ; draw dl=1.5@10(0<10>0) de=0.094@0.55(0.0<0.62>0.0) l=0.30x0.50x1.00 r=0.87
;00:01:21.319: pe=0.8679 eb=0.0190 ve=0.0000 vn=0.4277 vl=0.000 db=0.44
G1 E41.4311 F2400                       ; retract de=-1.8679@-40.0 r=0.92
;00:01:21.365: pe=-1.0019 eb=0.0209 ve=-40.0000 vn=0.0000 vl=0.000 db=0.46
G1 Z0.500 F420                          ; hopup dz=0.20@7 h=0.5 r=0.72
;00:01:21.394: pe=-1.0019 eb=0.0209 ve=0.0000 vn=0.0000 vl=0.000 db=0.36
G1 X35.00 Y60.62 F6000                  ; move dl=6.4@100(0<40>0) de=0.000@0.0(0.0<0.0>0.0) l=0.50x0.50x0.00 r=0.00
;00:01:21.633: pe=-1.0019 eb=0.0000 ve=0.0000 vn=0.0000 vl=0.000 db=0.00
G1 Z0.300 F420                          ; hopdn dz=-0.20@7 h=0.3 r=0.00
;00:01:21.662: pe=-1.0019 eb=0.0000 ve=0.0000 vn=0.0000 vl=0.000 db=0.00
G1 E43.3253 F1800                       ; restore de=1.8941@30.0 r=0.61
;00:01:21.725: pe=0.8831 eb=0.0091 ve=30.0000 vn=0.5779 vl=0.000 db=0.31
G1 X36.50 Y63.22 E43.5123 F600          ; draw dl=3.0@10(0<10>0) de=0.187@0.58(0.0<0.62>0.0) l=0.30x0.50x1.00 r=0.86
;00:01:22.045: pe=0.9101 eb=0.0207 ve=0.0000 vn=0.4505 vl=0.000 db=0.46
G1 E41.6023 F2400                       ; retract de=-1.9101@-40.0 r=0.97
;00:01:22.093: pe=-1.0021 eb=0.0228 ve=-40.0000 vn=0.0000 vl=0.000 db=0.48
G1 Z0.500 F420                          ; hopup dz=0.20@7 h=0.5 r=0.75
;00:01:22.121: pe=-1.0021 eb=0.0228 ve=0.0000 vn=0.0000 vl=0.000 db=0.37
G1 X29.58 Y63.44 F6000                  ; move dl=6.9@100(0<42>0) de=0.000@0.0(0.0<0.0>0.0) l=0.50x0.50x0.00 r=0.00
;00:01:22.371: pe=-1.0021 eb=0.0000 ve=0.0000 vn=0.0000 vl=0.000 db=0.00
G1 Z0.300 F420                          ; hopdn dz=-0.20@7 h=0.3 r=0.00
;00:01:22.399: pe=-1.0021 eb=0.0000 ve=0.0000 vn=0.0000 vl=0.000 db=0.00
G1 E43.4691 F1800                       ; restore de=1.8668@30.0 r=0.59
;00:01:22.462: pe=0.8561 eb=0.0086 ve=30.0000 vn=0.5601 vl=0.000 db=0.30
G1 X30.22 Y64.80 E43.5627 F600          ; draw dl=1.5@10(0<10>0) de=0.094@0.55(0.0<0.62>0.0) l=0.30x0.50x1.00 r=0.87
;00:01:22.632: pe=0.8679 eb=0.0190 ve=0.0000 vn=0.4277 vl=0.000 db=0.44
G1 E41.6948 F2400                       ; retract de=-1.8679@-40.0 r=0.92
;00:01:22.678: pe=-1.0019 eb=0.0209 ve=-40.0000 vn=0.0000 vl=0.000 db=0.46
G1 Z0.500 F420                          ; hopup dz=0.20@7 h=0.5 r=0.72
;00:01:22.707: pe=-1.0019 eb=0.0209 ve=0.0000 vn=0.0000 vl=0.000 db=0.36
G1 X23.94 Y65.78 F6000                  ; move dl=6.4@100(0<40>0) de=0.000@0.0(0.0<0.0>0.0) l=0.50x0.50x0.00 r=0.00
;00:01:22.946: pe=-1.0019 eb=0.0000 ve=0.0000 vn=0.0000 vl=0.000 db=0.00
G1 Z0.300 F420                          ; hopdn dz=-0.20@7 h=0.3 r=0.00
;00:01:22.974: pe=-1.0019 eb=0.0000 ve=0.0000 vn=0.0000 vl=0.000 db=0.00
G1 E43.5614 F1800                       ; restore de=1.8666@30.0 r=0.59
;00:01:23.037: pe=0.8561 eb=0.0086 ve=30.0000 vn=0.5601 vl=0.000 db=0.30
G1 X24.45 Y67.19 E43.6549 F600          ; draw dl=1.5@10(0<10>0) de=0.094@0.55(0.0<0.62>0.0) l=0.30x0.50x1.00 r=0.87
;00:01:23.207: pe=0.8679 eb=0.0190 ve=0.0000 vn=0.4277 vl=0.000 db=0.44
G1 E41.7871 F2400                       ; retract de=-1.8679@-40.0 r=0.92
;00:01:23.253: pe=-1.0019 eb=0.0209 ve=-40.0000 vn=0.0000 vl=0.000 db=0.46
G1 Z0.500 F420                          ; hopup dz=0.20@7 h=0.5 r=0.72
;00:01:23.282: pe=-1.0019 eb=0.0209 ve=0.0000 vn=0.0000 vl=0.000 db=0.36
G1 X18.12 Y67.61 F6000                  ; move dl=6.4@100(0<40>0) de=0.000@0.0(0.0<0.0>0.0) l=0.50x0.50x0.00 r=0.00
;00:01:23.521: pe=-1.0019 eb=0.0000 ve=0.0000 vn=0.0000 vl=0.000 db=0.00
G1 Z0.300 F420                          ; hopdn dz=-0.20@7 h=0.3 r=0.00
;00:01:23.550: pe=-1.0019 eb=0.0000 ve=0.0000 vn=0.0000 vl=0.000 db=0.00
G1 E43.6537 F1800                       ; restore de=1.8666@30.0 r=0.59
;00:01:23.612: pe=0.8561 eb=0.0086 ve=30.0000 vn=0.5601 vl=0.000 db=0.30
G1 X18.51 Y69.06 E43.7472 F600          ; draw dl=1.5@10(0<10>0) de=0.094@0.55(0.0<0.62>0.0) l=0.30x0.50x1.00 r=0.87
;00:01:23.782: pe=0.8679 eb=0.0190 ve=0.0000 vn=0.4277 vl=0.000 db=0.44
G1 E41.8793 F2400                       ; retract de=-1.8679@-40.0 r=0.92
;00:01:23.828: pe=-1.0019 eb=0.0209 ve=-40.0000 vn=0.0000 vl=0.000 db=0.46
G1 Z0.500 F420                          ; hopup dz=0.20@7 h=0.5 r=0.72
;00:01:23.857: pe=-1.0019 eb=0.0209 ve=0.0000 vn=0.0000 vl=0.000 db=0.36
G1 X12.16 Y68.94 F6000                  ; move dl=6.4@100(0<40>0) de=0.000@0.0(0.0<0.0>0.0) l=0.50x0.50x0.00 r=0.00
;00:01:24.096: pe=-1.0019 eb=0.0000 ve=0.0000 vn=0.0000 vl=0.000 db=0.00
G1 Z0.300 F420                          ; hopdn dz=-0.20@7 h=0.3 r=0.00
;00:01:24.125: pe=-1.0019 eb=0.0000 ve=0.0000 vn=0.0000 vl=0.000 db=0.00
G1 E43.7460 F1800                       ; restore de=1.8666@30.0 r=0.59
;00:01:24.187: pe=0.8561 eb=0.0086 ve=30.0000 vn=0.5601 vl=0.000 db=0.30
G1 X12.42 Y70.41 E43.8395 F600          ; draw dl=1.5@10(0<10>0) de=0.094@0.55(0.0<0.62>0.0) l=0.30x0.50x1.00 r=0.87
;00:01:24.357: pe=0.8679 eb=0.0190 ve=0.0000 vn=0.4277 vl=0.000 db=0.44
G1 E41.9716 F2400                       ; retract de=-1.8679@-40.0 r=0.92
;00:01:24.404: pe=-1.0019 eb=0.0209 ve=-40.0000 vn=0.0000 vl=0.000 db=0.46
G1 Z0.500 F420                          ; hopup dz=0.20@7 h=0.5 r=0.72
;00:01:24.432: pe=-1.0019 eb=0.0209 ve=0.0000 vn=0.0000 vl=0.000 db=0.36
G1 X6.10 Y69.73 F6000                   ; move dl=6.4@100(0<40>0) de=0.000@0.0(0.0<0.0>0.0) l=0.50x0.50x0.00 r=0.00
;00:01:24.671: pe=-1.0019 eb=0.0000 ve=0.0000 vn=0.0000 vl=0.000 db=0.00
G1 Z0.300 F420                          ; hopdn dz=-0.20@7 h=0.3 r=0.00
;00:01:24.700: pe=-1.0019 eb=0.0000 ve=0.0000 vn=0.0000 vl=0.000 db=0.00
G1 E43.8383 F1800                       ; restore de=1.8666@30.0 r=0.59
;00:01:24.762: pe=0.8561 eb=0.0086 ve=30.0000 vn=0.5601 vl=0.000 db=0.30
G1 X6.23 Y71.23 E43.9318 F600           ; draw dl=1.5@10(0<10>0) de=0.094@0.55(0.0<0.62>0.0) l=0.30x0.50x1.00 r=0.87
;00:01:24.932: pe=0.8679 eb=0.0190 ve=0.0000 vn=0.4277 vl=0.000 db=0.44
G1 E42.0639 F2400                       ; retract de=-1.8679@-40.0 r=0.92
;00:01:24.979: pe=-1.0019 eb=0.0209 ve=-40.0000 vn=0.0000 vl=0.000 db=0.46
G1 Z0.500 F420                          ; hopup dz=0.20@7 h=0.5 r=0.72
;00:01:25.007: pe=-1.0019 eb=0.0209 ve=0.0000 vn=0.0000 vl=0.000 db=0.36
G1 X0.00 Y70.00 F6000                   ; move dl=6.4@100(0<40>0) de=0.000@0.0(0.0<0.0>0.0) l=0.50x0.50x0.00 r=0.00
;00:01:25.246: pe=-1.0019 eb=0.0000 ve=0.0000 vn=0.0000 vl=0.000 db=0.00
G1 Z0.300 F420                          ; hopdn dz=-0.20@7 h=0.3 r=0.00
;00:01:25.275: pe=-1.0019 eb=0.0000 ve=0.0000 vn=0.0000 vl=0.000 db=0.00
G1 E43.9581 F1800                       ; restore de=1.8941@30.0 r=0.61
;00:01:25.338: pe=0.8831 eb=0.0091 ve=30.0000 vn=0.5779 vl=0.000 db=0.31
G1 X0.00 Y73.00 E44.1451 F600           ; draw dl=3.0@10(0<10>0) de=0.187@0.58(0.0<0.62>0.0) l=0.30x0.50x1.00 r=0.86
;00:01:25.658: pe=0.9101 eb=0.0207 ve=0.0000 vn=0.4505 vl=0.000 db=0.46
G1 E42.2351 F2400                       ; retract de=-1.9101@-40.0 r=0.97
;00:01:25.706: pe=-1.0021 eb=0.0228 ve=-40.0000 vn=0.0000 vl=0.000 db=0.48
G1 Z0.500 F420                          ; hopup dz=0.20@7 h=0.5 r=0.75
;00:01:25.734: pe=-1.0021 eb=0.0228 ve=0.0000 vn=0.0000 vl=0.000 db=0.37
G1 X-6.10 Y69.73 F6000                  ; move dl=6.9@100(0<42>0) de=0.000@0.0(0.0<0.0>0.0) l=0.50x0.50x0.00 r=0.00
;00:01:25.984: pe=-1.0021 eb=0.0000 ve=0.0000 vn=0.0000 vl=0.000 db=0.00
G1 Z0.300 F420                          ; hopdn dz=-0.20@7 h=0.3 r=0.00
;00:01:26.013: pe=-1.0021 eb=0.0000 ve=0.0000 vn=0.0000 vl=0.000 db=0.00
G1 E44.1019 F1800                       ; restore de=1.8668@30.0 r=0.59
;00:01:26.075: pe=0.8561 eb=0.0086 ve=30.0000 vn=0.5601 vl=0.000 db=0.30
G1 X-6.23 Y71.23 E44.1954 F600          ; draw dl=1.5@10(0<10>0) de=0.094@0.55(0.0<0.62>0.0) l=0.30x0.50x1.00 r=0.87
;00:01:26.245: pe=0.8679 eb=0.0190 ve=0.0000 vn=0.4277 vl=0.000 db=0.44
G1 E42.3276 F2400                       ; retract de=-1.8679@-40.0 r=0.92
;00:01:26.292: pe=-1.0019 eb=0.0209 ve=-40.0000 vn=0.0000 vl=0.000 db=0.46
G1 Z0.500 F420                          ; hopup dz=0.20@7 h=0.5 r=0.72
;00:01:26.320: pe=-1.0019 eb=0.0209 ve=0.0000 vn=0.0000 vl=0.000 db=0.36
G1 X-12.16 Y68.94 F6000                 ; move dl=6.4@100(0<40>0) de=0.000@0.0(0.0<0.0>0.0) l=0.50x0.50x0.00 r=0.00
;00:01:26.559: pe=-1.0019 eb=0.0000 ve=0.0000 vn=0.0000 vl=0.000 db=0.00
G1 Z0.300 F420                          ; hopdn dz=-0.20@7 h=0.3 r=0.00
;00:01:26.588: pe=-1.0019 eb=0.0000 ve=0.0000 vn=0.0000 vl=0.000 db=0.00
G1 E44.1942 F1800                       ; restore de=1.8666@30.0 r=0.59
;00:01:26.650: pe=0.8561 eb=0.0086 ve=30.0000 vn=0.5601 vl=0.000 db=0.30
G1 X-12.42 Y70.41 E44.2877 F600         ; draw dl=1.5@10(0<10>0) de=0.094@0.55(0.0<0.62>0.0) l=0.30x0.50x1.00 r=0.87
;00:01:26.820: pe=0.8679 eb=0.0190 ve=0.0000 vn=0.4277 vl=0.000 db=0.44
G1 E42.4199 F2400                       ; retract de=-1.8679@-40.0 r=0.92
;00:01:26.867: pe=-1.0019 eb=0.0209 ve=-40.0000 vn=0.0000 vl=0.000 db=0.46
G1 Z0.500 F420                          ; hopup dz=0.20@7 h=0.5 r=0.72
;00:01:26.895: pe=-1.0019 eb=0.0209 ve=0.0000 vn=0.0000 vl=0.000 db=0.36
G1 X-18.12 Y67.61 F6000                 ; move dl=6.4@100(0<40>0) de=0.000@0.0(0.0<0.0>0.0) l=0.50x0.50x0.00 r=0.00
;00:01:27.134: pe=-1.0019 eb=0.0000 ve=0.0000 vn=0.0000 vl=0.000 db=0.00
G1 Z0.300 F420                          ; hopdn dz=-0.20@7 h=0.3 r=0.00
;00:01:27.163: pe=-1.0019 eb=0.0000 ve=0.0000 vn=0.0000 vl=0.000 db=0.00
G1 E44.2865 F1800                       ; restore de=1.8666@30.0 r=0.59
;00:01:27.225: pe=0.8561 eb=0.0086 ve=30.0000 vn=0.5601 vl=0.000 db=0.30
G1 X-18.51 Y69.06 E44.3800 F600         ; draw dl=1.5@10(0<10>0) de=0.094@0.55(0.0<0.62>0.0) l=0.30x0.50x1.00 r=0.87
;00:01:27.395: pe=0.8679 eb=0.0190 ve=0.0000 vn=0.4277 vl=0.000 db=0.44
G1 E42.5121 F2400                       ; retract de=-1.8679@-40.0 r=0.92
;00:01:27.442: pe=-1.0019 eb=0.0209 ve=-40.0000 vn=0.0000 vl=0.000 db=0.46
G1 Z0.500 F420                          ; hopup dz=0.20@7 h=0.5 r=0.72
;00:01:27.470: pe=-1.0019 eb=0.0209 ve=0.0000 vn=0.0000 vl=0.000 db=0.36
G1 X-23.94 Y65.78 F6000                 ; move dl=6.4@100(0<40>0) de=0.000@0.0(0.0<0.0>0.0) l=0.50x0.50x0.00 r=0.00
;00:01:27.710: pe=-1.0019 eb=0.0000 ve=0.0000 vn=0.0000 vl=0.000 db=0.00
G1 Z0.300 F420                          ; hopdn dz=-0.20@7 h=0.3 r=0.00
;00:01:27.738: pe=-1.0019 eb=0.0000 ve=0.0000 vn=0.0000 vl=0.000 db=0.00
G1 E44.3788 F1800                       ; restore de=1.8666@30.0 r=0.59
;00:01:27.800: pe=0.8561 eb=0.0086 ve=30.0000 vn=0.5601 vl=0.000 db=0.30
G1 X-24.45 Y67.19 E44.4723 F600         ; draw dl=1.5@10(0<10>0) de=0.094@0.55(0.0<0.62>0.0) l=0.30x0.50x1.00 r=0.87
;00:01:27.970: pe=0.8679 eb=0.0190 ve=0.0000 vn=0.4277 vl=0.000 db=0.44
G1 E42.6044 F2400                       ; retract de=-1.8679@-40.0 r=0.92
;00:01:28.017: pe=-1.0019 eb=0.0209 ve=-40.0000 vn=0.0000 vl=0.000 db=0.46
G1 Z0.500 F420                          ; hopup dz=0.20@7 h=0.5 r=0.72
;00:01:28.046: pe=-1.0019 eb=0.0209 ve=0.0000 vn=0.0000 vl=0.000 db=0.36
G1 X-29.58 Y63.44 F6000                 ; move dl=6.4@100(0<40>0) de=0.000@0.0(0.0<0.0>0.0) l=0.50x0.50x0.00 r=0.00
;00:01:28.285: pe=-1.0019 eb=0.0000 ve=0.0000 vn=0.0000 vl=0.000 db=0.00
G1 Z0.300 F420                          ; hopdn dz=-0.20@7 h=0.3 r=0.00
;00:01:28.313: pe=-1.0019 eb=0.0000 ve=0.0000 vn=0.0000 vl=0.000 db=0.00
G1 E44.4711 F1800                       ; restore de=1.8666@30.0 r=0.59
;00:01:28.375: pe=0.8561 eb=0.0086 ve=30.0000 vn=0.5601 vl=0.000 db=0.30
G1 X-30.22 Y64.80 E44.5646 F600         ; draw dl=1.5@10(0<10>0) de=0.094@0.55(0.0<0.62>0.0) l=0.30x0.50x1.00 r=0.87
;00:01:28.545: pe=0.8679 eb=0.0190 ve=0.0000 vn=0.4277 vl=0.000 db=0.44
G1 E42.6967 F2400                       ; retract de=-1.8679@-40.0 r=0.92
;00:01:28.592: pe=-1.0019 eb=0.0209 ve=-40.0000 vn=0.0000 vl=0.000 db=0.46
G1 Z0.500 F420                          ; hopup dz=0.20@7 h=0.5 r=0.72
;00:01:28.621: pe=-1.0019 eb=0.0209 ve=0.0000 vn=0.0000 vl=0.000 db=0.36
G1 X-35.00 Y60.62 F6000                 ; move dl=6.4@100(0<40>0) de=0.000@0.0(0.0<0.0>0.0) l=0.50x0.50x0.00 r=0.00
;00:01:28.860: pe=-1.0019 eb=0.0000 ve=0.0000 vn=0.0000 vl=0.000 db=0.00
G1 Z0.300 F420                          ; hopdn dz=-0.20@7 h=0.3 r=0.00
;00:01:28.888: pe=-1.0019 eb=0.0000 ve=0.0000 vn=0.0000 vl=0.000 db=0.00
G1 E44.5909 F1800                       ; restore de=1.8941@30.0 r=0.61
;00:01:28.952: pe=0.8831 eb=0.0091 ve=30.0000 vn=0.5779 vl=0.000 db=0.31
G1 X-36.50 Y63.22 E44.7779 F600         ; draw dl=3.0@10(0<10>0) de=0.187@0.58(0.0<0.62>0.0) l=0.30x0.50x1.00 r=0.86
;00:01:29.272: pe=0.9101 eb=0.0207 ve=0.0000 vn=0.4505 vl=0.000 db=0.46
G1 E42.8679 F2400                       ; retract de=-1.9101@-40.0 r=0.97
;00:01:29.319: pe=-1.0021 eb=0.0228 ve=-40.0000 vn=0.0000 vl=0.000 db=0.48
G1 Z0.500 F420                          ; hopup dz=0.20@7 h=0.5 r=0.75
;00:01:29.348: pe=-1.0021 eb=0.0228 ve=0.0000 vn=0.0000 vl=0.000 db=0.37
G1 X-40.15 Y57.34 F6000                 ; move dl=6.9@100(0<42>0) de=0.000@0.0(0.0<0.0>0.0) l=0.50x0.50x0.00 r=0.00
;00:01:29.597: pe=-1.0021 eb=0.0000 ve=0.0000 vn=0.0000 vl=0.000 db=0.00
G1 Z0.300 F420                          ; hopdn dz=-0.20@7 h=0.3 r=0.00
;00:01:29.626: pe=-1.0021 eb=0.0000 ve=0.0000 vn=0.0000 vl=0.000 db=0.00
G1 E44.7347 F1800                       ; restore de=1.8668@30.0 r=0.59
;00:01:29.688: pe=0.8561 eb=0.0086 ve=30.0000 vn=0.5601 vl=0.000 db=0.30
G1 X-41.01 Y58.57 E44.8282 F600         ; draw dl=1.5@10(0<10>0) de=0.094@0.55(0.0<0.62>0.0) l=0.30x0.50x1.00 r=0.87
;00:01:29.858: pe=0.8679 eb=0.0190 ve=0.0000 vn=0.4277 vl=0.000 db=0.44
