;gcode_flavor: flashforge
;machine_type: Adventurer 3 Series
;filament_diameter0: 1.75
;right_extruder_temperature: 210
;platform_temperature: 50
;extruder_fan: 100%
;case_fan: 100%
;base_print_speed: 60
;travel_speed: 100
;vertical_speed: 7
;retract_speed: 40
;restore_speed: 30
;layer_height: 0.30
;line_width: 0.50
;extrusion_ratio: 1.00
;command_line: ./gcodetest.py -Te=210 -Tp=50 -Fe=1.0 -Fc=1.0 -Kf=1.6 -Kb=3.2 -Re=1.7 -R
;start gcode
M118 X75.00 Y75.00 Z150.00 T0
M140 S50 T0
M104 S210 T0
M104 S0 T1
M107
M900 K0.000 T0
G90
G28
M132 X Y Z A B
G1 Z50.000 F420
G161 X Y F3300
M7 T0
M6 T0
M652 S255
M108 T0
M106
;preExtrude:0.20
G1 X69.29 Y28.70 F6000
G1 Z0.200 F420
G1 E4.8398 F1800
G1 X66.53 Y34.63 E5.7103 F600
G1 X63.25 Y40.30 E6.5808
G1 X59.50 Y45.66 E7.4512
G1 X55.30 Y50.67 E8.3217
G1 X50.67 Y55.30 E9.1922
G1 X45.66 Y59.50 E10.0626
G1 X40.30 Y63.25 E10.9331
G1 X34.63 Y66.53 E11.8036
G1 X28.70 Y69.29 E12.6741
G1 X28.70 Y69.29
G1 E6.2973 F2400
G1 Z0.400 F420
;layer:0.30
;structure:shell-outer
G1 X-69.50 Y68.89 F6000
G1 Z0.300 F420
G1 E10.6098 F1800
G1 X-68.48 Y66.48 E10.7730 F600
G1 X-67.46 Y68.89 E10.9362
G1 E6.6846 F2400
G1 Z0.500 F420
G1 X-66.40 Y67.69 F6000
G1 Z0.300 F420
G1 E10.9919 F1800
G1 X-64.26 Y67.69 E11.1253 F600
G1 X-64.34 Y68.22 E11.1588
G1 X-64.55 Y68.61 E11.1864
G1 X-64.89 Y68.86 E11.2127
G1 X-65.33 Y68.95 E11.2407
G1 X-65.76 Y68.86 E11.2681
G1 X-66.10 Y68.61 E11.2944
G1 X-66.32 Y68.22 E11.3224
G1 X-66.40 Y67.69 E11.3558
G1 X-66.32 Y67.15 E11.3898
G1 X-66.09 Y66.75 E11.4186
G1 X-65.74 Y66.51 E11.4451
G1 X-65.28 Y66.42 E11.4743
G1 X-64.94 Y66.47 E11.4957
G1 X-64.65 Y66.61 E11.5158
G1 X-64.44 Y66.83 E11.5348
G1 X-64.32 Y67.13 E11.5549
G1 E7.2798 F2400
G1 Z0.500 F420
G1 X-63.20 Y68.26 F6000
G1 Z0.300 F420
G1 E11.5006 F1800
G1 X-61.51 Y68.26 E11.6060 F600
G1 E7.4156 F2400
G1 Z0.500 F420
G1 X-61.51 Y67.55 F6000
G1 Z0.300 F420
G1 E11.6360 F1800
G1 X-63.20 Y67.55 E11.7414 F600
G1 E7.5510 F2400
G1 Z0.500 F420
G1 X-60.45 Y69.00 F6000
G1 Z0.300 F420
G1 E11.8292 F1800
G1 X-59.98 Y69.24 E11.8622 F600
G1 X-59.61 Y69.55 E11.8923
G1 X-59.36 Y69.88 E11.9181
G1 X-59.36 Y66.48 E12.1301
G1 E7.8830 F2400
G1 Z0.500 F420
G1 X-58.30 Y66.71 F6000
G1 Z0.300 F420
G1 E11.4692 F1800
G1 X-58.30 Y66.65 E11.4730 F600
G1 E7.9088 F2400
G1 Z0.500 F420
G1 X-56.01 Y69.94 F6000
G1 Z0.300 F420
G1 E12.2149 F1800
G1 X-55.50 Y69.80 E12.2479 F600
G1 X-55.11 Y69.42 E12.2818
G1 X-54.88 Y68.86 E12.3196
G1 X-54.79 Y68.18 E12.3624
G1 X-54.88 Y67.51 E12.4045
G1 X-55.11 Y66.95 E12.4423
G1 X-55.50 Y66.56 E12.4767
G1 X-56.01 Y66.42 E12.5097
G1 X-56.54 Y66.56 E12.5439
G1 X-56.91 Y66.95 E12.5774
G1 X-57.15 Y67.51 E12.6154
G1 X-57.23 Y68.18 E12.6575
G1 X-57.15 Y68.85 E12.6996
G1 X-56.91 Y69.42 E12.7381
G1 X-56.54 Y69.80 E12.7712
G1 X-56.01 Y69.94 E12.8054
G1 E8.5290 F2400
G1 Z0.500 F420
G1 X-69.50 Y64.88 F6000
G1 Z0.300 F420
G1 E12.8000 F1800
G1 X-69.50 Y61.48 E13.0121 F600
G1 E8.7722 F2400
G1 Z0.500 F420
G1 X-69.50 Y63.23 F6000
G1 Z0.300 F420
G1 E13.0576 F1800
G1 X-69.25 Y63.53 E13.0820 F600
G1 X-69.02 Y63.75 E13.1018
G1 X-68.80 Y63.88 E13.1178
G1 X-68.60 Y63.93 E13.1306
G1 X-68.41 Y63.95 E13.1425
G1 X-68.09 Y63.88 E13.1630
G1 X-67.86 Y63.71 E13.1808
G1 X-67.76 Y63.51 E13.1948
G1 X-67.67 Y63.08 E13.2222
G1 X-67.67 Y61.48 E13.3219
G1 E9.0682 F2400
G1 Z0.500 F420
G1 X-66.61 Y63.26 F6000
G1 Z0.300 F420
G1 E13.2890 F1800
G1 X-64.92 Y63.26 E13.3944 F600
G1 E9.2039 F2400
G1 Z0.500 F420
G1 X-64.92 Y62.55 F6000
G1 Z0.300 F420
G1 E13.4244 F1800
G1 X-66.61 Y62.55 E13.5298 F600
G1 E9.3393 F2400
G1 Z0.500 F420
G1 X-62.64 Y64.94 F6000
G1 Z0.300 F420
G1 E13.6477 F1800
G1 X-62.13 Y64.80 E13.6807 F600
G1 X-61.74 Y64.42 E13.7146
G1 X-61.50 Y63.86 E13.7526
G1 X-61.42 Y63.18 E13.7953
G1 X-61.50 Y62.51 E13.8374
G1 X-61.74 Y61.95 E13.8754
G1 X-62.13 Y61.56 E13.9098
G1 X-62.64 Y61.42 E13.9428
G1 X-63.16 Y61.56 E13.9764
G1 X-63.54 Y61.95 E14.0103
G1 X-63.78 Y62.51 E14.0483
G1 X-63.86 Y63.18 E14.0904
G1 X-63.78 Y63.85 E14.1325
G1 X-63.54 Y64.42 E14.1711
G1 X-63.16 Y64.80 E14.2046
G1 X-62.64 Y64.94 E14.2382
G1 E9.9618 F2400
G1 Z0.500 F420
G1 X-60.36 Y61.71 F6000
G1 Z0.300 F420
G1 E13.5481 F1800
G1 X-60.36 Y61.65 E13.5519 F600
G1 E9.9878 F2400
G1 Z0.500 F420
G1 X-59.24 Y64.13 F6000
G1 Z0.300 F420
G1 E14.2875 F1800
G1 X-59.13 Y64.47 E14.3098 F600
G1 X-58.92 Y64.73 E14.3306
G1 X-58.63 Y64.89 E14.3513
G1 X-58.29 Y64.94 E14.3727
G1 X-57.90 Y64.87 E14.3974
G1 X-57.61 Y64.68 E14.4190
G1 X-57.43 Y64.41 E14.4393
G1 X-57.36 Y64.06 E14.4615
G1 X-57.43 Y63.85 E14.4754
G1 X-57.57 Y63.68 E14.4891
G1 X-57.94 Y63.45 E14.5163
G1 X-58.38 Y63.30 E14.5453
G1 X-57.94 Y63.18 E14.5737
G1 X-57.58 Y63.02 E14.5983
G1 X-57.29 Y62.74 E14.6234
G1 X-57.19 Y62.45 E14.6425
G1 X-57.26 Y62.03 E14.6691
G1 X-57.49 Y61.70 E14.6942
G1 X-57.83 Y61.50 E14.7188
G1 X-58.25 Y61.42 E14.7454
G1 X-58.65 Y61.48 E14.7707
G1 X-58.97 Y61.65 E14.7933
G1 X-59.19 Y61.92 E14.8150
G1 X-59.29 Y62.28 E14.8383
G1 E10.5683 F2400
G1 Z0.500 F420
G1 X-67.52 Y59.88 F6000
G1 Z0.300 F420
G1 E14.8393 F1800
G1 X-67.52 Y56.48 E15.0514 F600
G1 E10.8115 F2400
G1 Z0.500 F420
G1 X-67.52 Y56.98 F6000
G1 Z0.300 F420
G1 E15.1118 F1800
G1 X-67.77 Y56.74 E15.1334 F600
G1 X-68.16 Y56.49 E15.1623
G1 X-68.54 Y56.42 E15.1864
G1 X-68.92 Y56.51 E15.2107
G1 X-69.22 Y56.77 E15.2355
G1 X-69.43 Y57.18 E15.2642
G1 X-69.50 Y57.71 E15.2976
G1 X-69.44 Y58.22 E15.3296
G1 X-69.26 Y58.61 E15.3564
G1 X-68.97 Y58.86 E15.3803
G1 X-68.57 Y58.95 E15.4058
G1 X-68.38 Y58.93 E15.4177
G1 X-68.18 Y58.85 E15.4312
G1 X-67.97 Y58.72 E15.4466
G1 X-67.77 Y58.50 E15.4651
G1 X-67.52 Y58.03 E15.4983
G1 E11.2281 F2400
G1 Z0.500 F420
G1 X-66.46 Y58.89 F6000
G1 Z0.300 F420
G1 E15.4860 F1800
G1 X-65.29 Y56.44 E15.6553 F600
G1 E11.4284 F2400
G1 Z0.500 F420
G1 X-66.29 Y55.57 F6000
G1 Z0.300 F420
G1 E15.7185 F1800
G1 X-66.19 Y55.56 E15.7247 F600
G1 X-66.10 Y55.56 E15.7303
G1 X-65.84 Y55.62 E15.7470
G1 X-65.63 Y55.78 E15.7634
G1 X-65.45 Y56.06 E15.7842
G1 X-65.29 Y56.44 E15.8099
G1 X-64.41 Y58.89 E15.9722
G1 E11.7145 F2400
G1 Z0.500 F420
G1 X-63.35 Y58.76 F6000
G1 Z0.300 F420
G1 E15.9601 F1800
G1 X-63.35 Y56.48 E16.1023 F600
G1 E11.8874 F2400
G1 Z0.500 F420
G1 X-63.35 Y57.89 F6000
G1 Z0.300 F420
G1 E16.1737 F1800
G1 X-63.11 Y58.34 E16.2055 F600
G1 X-62.92 Y58.67 E16.2292
G1 X-62.70 Y58.86 E16.2473
G1 X-62.49 Y58.93 E16.2611
G1 X-62.28 Y58.95 E16.2743
G1 X-61.95 Y58.88 E16.2953
G1 X-61.77 Y58.73 E16.3099
G1 X-61.67 Y58.40 E16.3314
G1 X-61.61 Y58.08 E16.3517
G1 X-61.61 Y56.48 E16.4515
G1 E12.1968 F2400
G1 Z0.500 F420
G1 X-60.55 Y56.48 F6000
G1 Z0.300 F420
G1 E16.4466 F1800
G1 X-60.55 Y58.89 E16.5969 F600
G1 E12.3778 F2400
G1 Z0.500 F420
G1 X-60.55 Y58.20 F6000
G1 Z0.300 F420
G1 E16.6191 F1800
G1 X-60.30 Y58.55 E16.6459 F600
G1 X-60.09 Y58.76 E16.6644
G1 X-59.89 Y58.88 E16.6790
G1 X-59.70 Y58.94 E16.6914
G1 X-59.54 Y58.95 E16.7014
G1 X-59.49 Y58.95 E16.7045
G1 X-59.44 Y58.94 E16.7077
G1 E12.4984 F2400
G1 Z0.500 F420
G1 X-58.38 Y57.69 F6000
G1 Z0.300 F420
G1 E16.8055 F1800
G1 X-56.24 Y57.69 E16.9390 F600
G1 X-56.32 Y58.22 E16.9724
G1 X-56.53 Y58.61 E17.0000
G1 X-56.87 Y58.86 E17.0263
G1 X-57.31 Y58.95 E17.0544
G1 X-57.74 Y58.86 E17.0818
G1 X-58.08 Y58.61 E17.1081
G1 X-58.30 Y58.22 E17.1360
G1 X-58.38 Y57.69 E17.1694
G1 X-58.30 Y57.15 E17.2035
G1 X-58.07 Y56.75 E17.2322
G1 X-57.72 Y56.51 E17.2587
G1 X-57.26 Y56.42 E17.2879
G1 X-56.92 Y56.47 E17.3094
G1 X-56.63 Y56.61 E17.3295
G1 X-56.42 Y56.83 E17.3484
G1 X-56.30 Y57.13 E17.3686
G1 E13.0935 F2400
G1 Z0.500 F420
G1 X-53.99 Y56.46 F6000
G1 Z0.300 F420
G1 E17.3750 F1800
G1 X-54.14 Y56.45 E17.3844 F600
G1 X-54.32 Y56.50 E17.3960
G1 X-54.48 Y56.62 E17.4085
G1 X-54.60 Y56.81 E17.4225
G1 X-54.68 Y57.19 E17.4467
G1 X-54.68 Y59.52 E17.5921
G1 E13.3426 F2400
G1 Z0.500 F420
G1 X-55.18 Y58.76 F6000
G1 Z0.300 F420
G1 E17.5129 F1800
G1 X-54.10 Y58.76 E17.5803 F600
G1 E13.4394 F2400
G1 Z0.500 F420
G1 X-52.92 Y58.26 F6000
G1 Z0.300 F420
G1 E17.6596 F1800
G1 X-51.23 Y58.26 E17.7650 F600
G1 E13.5747 F2400
G1 Z0.500 F420
G1 X-51.23 Y57.55 F6000
G1 Z0.300 F420
G1 E17.7951 F1800
G1 X-52.92 Y57.55 E17.9005 F600
G1 E13.7101 F2400
G1 Z0.500 F420
G1 X-48.95 Y59.94 F6000
G1 Z0.300 F420
G1 E18.0184 F1800
G1 X-48.44 Y59.80 E18.0514 F600
G1 X-48.05 Y59.42 E18.0853
G1 X-47.81 Y58.86 E18.1233
G1 X-47.73 Y58.18 E18.1660
G1 X-47.81 Y57.51 E18.2081
G1 X-48.05 Y56.95 E18.2461
G1 X-48.44 Y56.56 E18.2805
G1 X-48.95 Y56.42 E18.3135
G1 X-49.47 Y56.56 E18.3470
G1 X-49.85 Y56.95 E18.3810
G1 X-50.09 Y57.51 E18.4190
G1 X-50.17 Y58.18 E18.4611
G1 X-50.09 Y58.85 E18.5032
G1 X-49.85 Y59.42 E18.5417
G1 X-49.47 Y59.80 E18.5752
G1 X-48.95 Y59.94 E18.6088
G1 E14.3326 F2400
G1 Z0.500 F420
;structure:shell-outer
G1 X70.00 Y0.00 F6000
G1 Z0.300 F420
G1 E18.6509 F1800
G1 X69.73 Y6.10 E19.0317 F600
G1 X68.94 Y12.16 E19.4126
G1 X67.61 Y18.12 E19.7934
G1 X65.78 Y23.94 E20.1742
G1 X63.44 Y29.58 E20.5551
G1 X60.62 Y35.00 E20.9359
G1 X57.34 Y40.15 E21.3167
G1 X53.62 Y45.00 E21.6976
G1 X49.50 Y49.50 E22.0784
G1 X45.00 Y53.62 E22.4592
G1 X40.15 Y57.34 E22.8400
G1 X35.00 Y60.62 E23.2209
G1 X29.58 Y63.44 E23.6017
G1 X23.94 Y65.78 E23.9825
G1 X18.12 Y67.61 E24.3634
G1 X12.16 Y68.94 E24.7442
G1 X6.10 Y69.73 E25.1250
G1 X0.00 Y70.00 E25.5059
G1 X-6.10 Y69.73 E25.8867
G1 X-12.16 Y68.94 E26.2675
G1 X-18.12 Y67.61 E26.6484
G1 X-23.94 Y65.78 E27.0292
G1 X-29.58 Y63.44 E27.4100
G1 X-35.00 Y60.62 E27.7909
G1 X-40.15 Y57.34 E28.1717
G1 X-45.00 Y53.62 E28.5525
G1 X-49.50 Y49.50 E28.9334
G1 X-53.62 Y45.00 E29.3142
G1 X-57.34 Y40.15 E29.6950
G1 X-60.62 Y35.00 E30.0759
G1 X-63.44 Y29.58 E30.4567
G1 X-65.78 Y23.94 E30.8375
G1 X-67.61 Y18.12 E31.2183
G1 X-68.94 Y12.16 E31.5992
G1 X-69.73 Y6.10 E31.9800
G1 X-70.00 Y0.00 E32.3608
G1 X-69.73 Y-6.10 E32.7417
G1 X-68.94 Y-12.16 E33.1225
G1 X-67.61 Y-18.12 E33.5033
G1 X-65.78 Y-23.94 E33.8842
G1 X-63.44 Y-29.58 E34.2650
G1 X-60.62 Y-35.00 E34.6458
G1 X-57.34 Y-40.15 E35.0267
G1 X-53.62 Y-45.00 E35.4075
G1 X-49.50 Y-49.50 E35.7883
G1 X-45.00 Y-53.62 E36.1692
G1 X-40.15 Y-57.34 E36.5500
G1 X-35.00 Y-60.62 E36.9308
G1 X-29.58 Y-63.44 E37.3117
G1 X-23.94 Y-65.78 E37.6925
G1 X-18.12 Y-67.61 E38.0733
G1 X-12.16 Y-68.94 E38.4541
G1 X-6.10 Y-69.73 E38.8350
G1 X0.00 Y-70.00 E39.2158
G1 X6.10 Y-69.73 E39.5966
G1 X12.16 Y-68.94 E39.9775
G1 X18.12 Y-67.61 E40.3583
G1 X23.94 Y-65.78 E40.7391
G1 X29.58 Y-63.44 E41.1200
G1 X35.00 Y-60.62 E41.5008
G1 X40.15 Y-57.34 E41.8816
G1 X45.00 Y-53.62 E42.2625
G1 X49.50 Y-49.50 E42.6433
G1 X53.62 Y-45.00 E43.0241
G1 X57.34 Y-40.15 E43.4050
G1 X60.62 Y-35.00 E43.7858
G1 X63.44 Y-29.58 E44.1666
G1 X65.78 Y-23.94 E44.5475
G1 X67.61 Y-18.12 E44.9283
G1 X68.94 Y-12.16 E45.3091
G1 X69.73 Y-6.10 E45.6900
G1 X70.00 Y0.00 E46.0708
G1 E41.7785 F2400
G1 Z0.500 F420
G1 Z0.300
G1 E46.0425 F1800
G1 X73.00 Y0.00 E46.2296 F600
G1 E41.9694 F2400
G1 Z0.500 F420
G1 X69.73 Y6.10 F6000
G1 Z0.300 F420
G1 E46.1783 F1800
G1 X71.23 Y6.23 E46.2718 F600
G1 E42.0930 F2400
G1 Z0.500 F420
G1 X68.94 Y12.16 F6000
G1 Z0.300 F420
G1 E46.3016 F1800
G1 X70.41 Y12.42 E46.3951 F600
G1 E42.2164 F2400
G1 Z0.500 F420
G1 X67.61 Y18.12 F6000
G1 Z0.300 F420
G1 E46.4249 F1800
G1 X69.06 Y18.51 E46.5185 F600
G1 E42.3397 F2400
G1 Z0.500 F420
G1 X65.78 Y23.94 F6000
G1 Z0.300 F420
G1 E46.5483 F1800
G1 X67.19 Y24.45 E46.6418 F600
G1 E42.4631 F2400
G1 Z0.500 F420
G1 X63.44 Y29.58 F6000
G1 Z0.300 F420
G1 E46.6716 F1800
G1 X64.80 Y30.22 E46.7652 F600
G1 E42.5864 F2400
G1 Z0.500 F420
G1 X60.62 Y35.00 F6000
G1 Z0.300 F420
G1 E46.8500 F1800
G1 X63.22 Y36.50 E47.0371 F600
G1 E42.8042 F2400
G1 Z0.500 F420
G1 X57.34 Y40.15 F6000
G1 Z0.300 F420
G1 E47.0130 F1800
G1 X58.57 Y41.01 E47.1065 F600
G1 E42.9277 F2400
G1 Z0.500 F420
G1 X53.62 Y45.00 F6000
G1 Z0.300 F420
G1 E47.1363 F1800
G1 X54.77 Y45.96 E47.2299 F600
G1 E43.0511 F2400
G1 Z0.500 F420
G1 X49.50 Y49.50 F6000
G1 Z0.300 F420
G1 E47.2597 F1800
G1 X50.56 Y50.56 E47.3532 F600
G1 E43.1744 F2400
G1 Z0.500 F420
G1 X45.00 Y53.62 F6000
G1 Z0.300 F420
G1 E47.3830 F1800
G1 X45.96 Y54.77 E47.4766 F600
G1 E43.2978 F2400
G1 Z0.500 F420
G1 X40.15 Y57.34 F6000
G1 Z0.300 F420
G1 E47.5064 F1800
G1 X41.01 Y58.57 E47.5999 F600
G1 E43.4211 F2400
G1 Z0.500 F420
G1 X35.00 Y60.62 F6000
G1 Z0.300 F420
G1 E47.6847 F1800
G1 X36.50 Y63.22 E47.8718 F600
G1 E43.6389 F2400
G1 Z0.500 F420
G1 X29.58 Y63.44 F6000
G1 Z0.300 F420
G1 E47.8477 F1800
G1 X30.22 Y64.80 E47.9412 F600
G1 E43.7625 F2400
G1 Z0.500 F420
G1 X23.94 Y65.78 F6000
G1 Z0.300 F420
G1 E47.9710 F1800
G1 X24.45 Y67.19 E48.0646 F600
G1 E43.8858 F2400
G1 Z0.500 F420
G1 X18.12 Y67.61 F6000
G1 Z0.300 F420
G1 E48.0944 F1800
G1 X18.51 Y69.06 E48.1879 F600
G1 E44.0091 F2400
G1 Z0.500 F420
G1 X12.16 Y68.94 F6000
G1 Z0.300 F420
G1 E48.2177 F1800
G1 X12.42 Y70.41 E48.3113 F600
G1 E44.1325 F2400
G1 Z0.500 F420
G1 X6.10 Y69.73 F6000
G1 Z0.300 F420
G1 E48.3411 F1800
G1 X6.23 Y71.23 E48.4346 F600
G1 E44.2558 F2400
G1 Z0.500 F420
G1 X0.00 Y70.00 F6000
G1 Z0.300 F420
G1 E48.5194 F1800
G1 X0.00 Y73.00 E48.7065 F600
G1 E44.4736 F2400
G1 Z0.500 F420
G1 X-6.10 Y69.73 F6000
G1 Z0.300 F420
G1 E48.6824 F1800
G1 X-6.23 Y71.23 E48.7760 F600
G1 E44.5972 F2400
G1 Z0.500 F420
G1 X-12.16 Y68.94 F6000
G1 Z0.300 F420
G1 E48.8058 F1800
G1 X-12.42 Y70.41 E48.8993 F600
G1 E44.7205 F2400
G1 Z0.500 F420
G1 X-18.12 Y67.61 F6000
G1 Z0.300 F420
G1 E48.9291 F1800
G1 X-18.51 Y69.06 E49.0226 F600
G1 E44.8439 F2400
G1 Z0.500 F420
G1 X-23.94 Y65.78 F6000
G1 Z0.300 F420
G1 E49.0524 F1800
G1 X-24.45 Y67.19 E49.1460 F600
G1 E44.9672 F2400
G1 Z0.500 F420
G1 X-29.58 Y63.44 F6000
G1 Z0.300 F420
G1 E49.1758 F1800
G1 X-30.22 Y64.80 E49.2693 F600
G1 E45.0906 F2400
G1 Z0.500 F420
G1 X-35.00 Y60.62 F6000
G1 Z0.300 F420
G1 E49.3542 F1800
G1 X-36.50 Y63.22 E49.5412 F600
G1 E45.3083 F2400
G1 Z0.500 F420
G1 X-40.15 Y57.34 F6000
G1 Z0.300 F420
G1 E49.5171 F1800
G1 X-41.01 Y58.57 E49.6107 F600
G1 E45.4319 F2400
G1 Z0.500 F420
G1 X-45.00 Y53.62 F6000
G1 Z0.300 F420
G1 E49.6405 F1800
G1 X-45.96 Y54.77 E49.7340 F600
G1 E45.5552 F2400
G1 Z0.500 F420
G1 X-49.50 Y49.50 F6000
G1 Z0.300 F420
G1 E49.7638 F1800
G1 X-50.56 Y50.56 E49.8574 F600
G1 E45.6786 F2400
G1 Z0.500 F420
G1 X-53.62 Y45.00 F6000
G1 Z0.300 F420
G1 E49.8872 F1800
G1 X-54.77 Y45.96 E49.9807 F600
G1 E45.8019 F2400
G1 Z0.500 F420
G1 X-57.34 Y40.15 F6000
G1 Z0.300 F420
G1 E50.0105 F1800
G1 X-58.57 Y41.01 E50.1040 F600
G1 E45.9253 F2400
G1 Z0.500 F420
G1 X-60.62 Y35.00 F6000
G1 Z0.300 F420
G1 E50.1889 F1800
G1 X-63.22 Y36.50 E50.3760 F600
G1 E46.1431 F2400
G1 Z0.500 F420
G1 X-63.44 Y29.58 F6000
G1 Z0.300 F420
G1 E50.3518 F1800
G1 X-64.80 Y30.22 E50.4454 F600
G1 E46.2666 F2400
G1 Z0.500 F420
G1 X-65.78 Y23.94 F6000
G1 Z0.300 F420
G1 E50.4752 F1800
G1 X-67.19 Y24.45 E50.5687 F600
G1 E46.3899 F2400
G1 Z0.500 F420
G1 X-67.61 Y18.12 F6000
G1 Z0.300 F420
G1 E50.5985 F1800
G1 X-69.06 Y18.51 E50.6921 F600
G1 E46.5133 F2400
G1 Z0.500 F420
G1 X-68.94 Y12.16 F6000
G1 Z0.300 F420
G1 E50.7219 F1800
G1 X-70.41 Y12.42 E50.8154 F600
G1 E46.6366 F2400
G1 Z0.500 F420
G1 X-69.73 Y6.10 F6000
G1 Z0.300 F420
G1 E50.8452 F1800
G1 X-71.23 Y6.23 E50.9388 F600
G1 E46.7600 F2400
G1 Z0.500 F420
G1 X-70.00 Y0.00 F6000
G1 Z0.300 F420
G1 E51.0236 F1800
G1 X-73.00 Y0.00 E51.2107 F600
G1 E46.9778 F2400
G1 Z0.500 F420
G1 X-69.73 Y-6.10 F6000
G1 Z0.300 F420
G1 E51.1866 F1800
G1 X-71.23 Y-6.23 E51.2801 F600
G1 E47.1013 F2400
G1 Z0.500 F420
G1 X-68.94 Y-12.16 F6000
G1 Z0.300 F420
G1 E51.3099 F1800
G1 X-70.41 Y-12.42 E51.4034 F600
G1 E47.2247 F2400
G1 Z0.500 F420
G1 X-67.61 Y-18.12 F6000
G1 Z0.300 F420
G1 E51.4332 F1800
G1 X-69.06 Y-18.51 E51.5268 F600
G1 E47.3480 F2400
G1 Z0.500 F420
G1 X-65.78 Y-23.94 F6000
G1 Z0.300 F420
G1 E51.5566 F1800
G1 X-67.19 Y-24.45 E51.6501 F600
G1 E47.4714 F2400
G1 Z0.500 F420
G1 X-63.44 Y-29.58 F6000
G1 Z0.300 F420
G1 E51.6799 F1800
G1 X-64.80 Y-30.22 E51.7735 F600
G1 E47.5947 F2400
G1 Z0.500 F420
G1 X-60.62 Y-35.00 F6000
G1 Z0.300 F420
G1 E51.8583 F1800
G1 X-63.22 Y-36.50 E52.0454 F600
G1 E47.8125 F2400
G1 Z0.500 F420
G1 X-57.34 Y-40.15 F6000
G1 Z0.300 F420
G1 E52.0213 F1800
G1 X-58.57 Y-41.01 E52.1148 F600
G1 E47.9360 F2400
G1 Z0.500 F420
G1 X-53.62 Y-45.00 F6000
G1 Z0.300 F420
G1 E52.1446 F1800
G1 X-54.77 Y-45.96 E52.2382 F600
G1 E48.0594 F2400
G1 Z0.500 F420
G1 X-49.50 Y-49.50 F6000
G1 Z0.300 F420
G1 E52.2680 F1800
G1 X-50.56 Y-50.56 E52.3615 F600
G1 E48.1827 F2400
G1 Z0.500 F420
G1 X-45.00 Y-53.62 F6000
G1 Z0.300 F420
G1 E52.3913 F1800
G1 X-45.96 Y-54.77 E52.4849 F600
G1 E48.3061 F2400
G1 Z0.500 F420
G1 X-40.15 Y-57.34 F6000
G1 Z0.300 F420
G1 E52.5147 F1800
G1 X-41.01 Y-58.57 E52.6082 F600
G1 E48.4294 F2400
G1 Z0.500 F420
G1 X-35.00 Y-60.62 F6000
G1 Z0.300 F420
G1 E52.6930 F1800
G1 X-36.50 Y-63.22 E52.8801 F600
G1 E48.6472 F2400
G1 Z0.500 F420
G1 X-29.58 Y-63.44 F6000
G1 Z0.300 F420
G1 E52.8560 F1800
G1 X-30.22 Y-64.80 E52.9495 F600
G1 E48.7707 F2400
G1 Z0.500 F420
G1 X-23.94 Y-65.78 F6000
G1 Z0.300 F420
G1 E52.9793 F1800
G1 X-24.45 Y-67.19 E53.0729 F600
G1 E48.8941 F2400
G1 Z0.500 F420
G1 X-18.12 Y-67.61 F6000
G1 Z0.300 F420
G1 E53.1027 F1800
G1 X-18.51 Y-69.06 E53.1962 F600
G1 E49.0174 F2400
G1 Z0.500 F420
G1 X-12.16 Y-68.94 F6000
G1 Z0.300 F420
G1 E53.2260 F1800
G1 X-12.42 Y-70.41 E53.3196 F600
G1 E49.1408 F2400
G1 Z0.500 F420
G1 X-6.10 Y-69.73 F6000
G1 Z0.300 F420
G1 E53.3494 F1800
G1 X-6.23 Y-71.23 E53.4429 F600
G1 E49.2641 F2400
G1 Z0.500 F420
G1 X0.00 Y-70.00 F6000
G1 Z0.300 F420
G1 E53.5277 F1800
G1 X0.00 Y-73.00 E53.7148 F600
G1 E49.4819 F2400
G1 Z0.500 F420
G1 X6.10 Y-69.73 F6000
G1 Z0.300 F420
G1 E53.6907 F1800
G1 X6.23 Y-71.23 E53.7842 F600
G1 E49.6055 F2400
G1 Z0.500 F420
G1 X12.16 Y-68.94 F6000
G1 Z0.300 F420
G1 E53.8140 F1800
G1 X12.42 Y-70.41 E53.9076 F600
G1 E49.7288 F2400
G1 Z0.500 F420
G1 X18.12 Y-67.61 F6000
G1 Z0.300 F420
G1 E53.9374 F1800
G1 X18.51 Y-69.06 E54.0309 F600
G1 E49.8522 F2400
G1 Z0.500 F420
G1 X23.94 Y-65.78 F6000
G1 Z0.300 F420
G1 E54.0607 F1800
G1 X24.45 Y-67.19 E54.1543 F600
G1 E49.9755 F2400
G1 Z0.500 F420
G1 X29.58 Y-63.44 F6000
G1 Z0.300 F420
G1 E54.1841 F1800
G1 X30.22 Y-64.80 E54.2776 F600
G1 E50.0988 F2400
G1 Z0.500 F420
G1 X35.00 Y-60.62 F6000
G1 Z0.300 F420
G1 E54.3625 F1800
G1 X36.50 Y-63.22 E54.5495 F600
G1 E50.3166 F2400
G1 Z0.500 F420
G1 X40.15 Y-57.34 F6000
G1 Z0.300 F420
G1 E54.5254 F1800
G1 X41.01 Y-58.57 E54.6190 F600
G1 E50.4402 F2400
G1 Z0.500 F420
G1 X45.00 Y-53.62 F6000
G1 Z0.300 F420
G1 E54.6488 F1800
G1 X45.96 Y-54.77 E54.7423 F600
G1 E50.5635 F2400
G1 Z0.500 F420
G1 X49.50 Y-49.50 F6000
G1 Z0.300 F420
G1 E54.7721 F1800
G1 X50.56 Y-50.56 E54.8657 F600
G1 E50.6869 F2400
G1 Z0.500 F420
G1 X53.62 Y-45.00 F6000
G1 Z0.300 F420
G1 E54.8955 F1800
G1 X54.77 Y-45.96 E54.9890 F600
G1 E50.8102 F2400
G1 Z0.500 F420
G1 X57.34 Y-40.15 F6000
G1 Z0.300 F420
G1 E55.0188 F1800
G1 X58.57 Y-41.01 E55.1123 F600
G1 E50.9336 F2400
G1 Z0.500 F420
G1 X60.62 Y-35.00 F6000
G1 Z0.300 F420
G1 E55.1972 F1800
G1 X63.22 Y-36.50 E55.3843 F600
G1 E51.1514 F2400
G1 Z0.500 F420
G1 X63.44 Y-29.58 F6000
G1 Z0.300 F420
G1 E55.3601 F1800
G1 X64.80 Y-30.22 E55.4537 F600
G1 E51.2749 F2400
G1 Z0.500 F420
G1 X65.78 Y-23.94 F6000
G1 Z0.300 F420
G1 E55.4835 F1800
G1 X67.19 Y-24.45 E55.5770 F600
G1 E51.3982 F2400
G1 Z0.500 F420
G1 X67.61 Y-18.12 F6000
G1 Z0.300 F420
G1 E55.6068 F1800
G1 X69.06 Y-18.51 E55.7004 F600
G1 E51.5216 F2400
G1 Z0.500 F420
G1 X68.94 Y-12.16 F6000
G1 Z0.300 F420
G1 E55.7302 F1800
G1 X70.41 Y-12.42 E55.8237 F600
G1 E51.6449 F2400
G1 Z0.500 F420
G1 X69.73 Y-6.10 F6000
G1 Z0.300 F420
G1 E55.8535 F1800
G1 X71.23 Y-6.23 E55.9471 F600
G1 E51.7683 F2400
G1 Z0.500 F420
G1 X42.00 Y0.00 F6000
G1 Z0.300 F420
G1 E56.0854 F1800
G1 X41.84 Y3.66 E56.3139 F600
G1 X41.36 Y7.29 E56.5424
G1 X40.57 Y10.87 E56.7709
G1 X39.47 Y14.36 E56.9994
G1 X38.06 Y17.75 E57.2279
G1 X36.37 Y21.00 E57.4564
G1 X34.40 Y24.09 E57.6849
G1 X32.17 Y27.00 E57.9134
G1 X29.70 Y29.70 E58.1419
G1 X27.00 Y32.17 E58.3704
G1 X24.09 Y34.40 E58.5989
G1 X21.00 Y36.37 E58.8274
G1 X17.75 Y38.06 E59.0559
G1 X14.36 Y39.47 E59.2844
G1 X10.87 Y40.57 E59.5129
G1 X7.29 Y41.36 E59.7414
G1 X3.66 Y41.84 E59.9699
G1 X0.00 Y42.00 E60.1984
G1 X-3.66 Y41.84 E60.4269
G1 X-7.29 Y41.36 E60.6554
G1 X-10.87 Y40.57 E60.8839
G1 X-14.36 Y39.47 E61.1124
G1 X-17.75 Y38.06 E61.3409
G1 X-21.00 Y36.37 E61.5694
G1 X-24.09 Y34.40 E61.7979
G1 X-27.00 Y32.17 E62.0264
G1 X-29.70 Y29.70 E62.2549
G1 X-32.17 Y27.00 E62.4834
G1 X-34.40 Y24.09 E62.7119
G1 X-36.37 Y21.00 E62.9404
G1 X-38.06 Y17.75 E63.1689
G1 X-39.47 Y14.36 E63.3974
G1 X-40.57 Y10.87 E63.6259
G1 X-41.36 Y7.29 E63.8544
G1 X-41.84 Y3.66 E64.0829
G1 X-42.00 Y0.00 E64.3114
G1 X-41.84 Y-3.66 E64.5399
G1 X-41.36 Y-7.29 E64.7684
G1 X-40.57 Y-10.87 E64.9969
G1 X-39.47 Y-14.36 E65.2254
G1 X-38.06 Y-17.75 E65.4539
G1 X-36.37 Y-21.00 E65.6824
G1 X-34.40 Y-24.09 E65.9109
G1 X-32.17 Y-27.00 E66.1394
G1 X-29.70 Y-29.70 E66.3679
G1 X-27.00 Y-32.17 E66.5964
G1 X-24.09 Y-34.40 E66.8249
G1 X-21.00 Y-36.37 E67.0534
G1 X-17.75 Y-38.06 E67.2819
G1 X-14.36 Y-39.47 E67.5104
G1 X-10.87 Y-40.57 E67.7389
G1 X-7.29 Y-41.36 E67.9674
G1 X-3.66 Y-41.84 E68.1959
G1 X0.00 Y-42.00 E68.4244
G1 X3.66 Y-41.84 E68.6529
G1 X7.29 Y-41.36 E68.8814
G1 X10.87 Y-40.57 E69.1099
G1 X14.36 Y-39.47 E69.3384
G1 X17.75 Y-38.06 E69.5669
G1 X21.00 Y-36.37 E69.7954
G1 X24.09 Y-34.40 E70.0239
G1 X27.00 Y-32.17 E70.2524
G1 X29.70 Y-29.70 E70.4809
G1 X32.17 Y-27.00 E70.7094
G1 X34.40 Y-24.09 E70.9379
G1 X36.37 Y-21.00 E71.1664
G1 X38.06 Y-17.75 E71.3949
G1 X39.47 Y-14.36 E71.6234
G1 X40.57 Y-10.87 E71.8518
G1 X41.36 Y-7.29 E72.0803
G1 X41.84 Y-3.66 E72.3088
G1 X42.00 Y0.00 E72.5373
G1 E68.2451 F2400
G1 Z0.500 F420
G1 Z0.300
G1 E72.5091 F1800
G1 X39.00 Y0.00 E72.6962 F600
G1 E68.4360 F2400
G1 Z0.500 F420
G1 X41.84 Y3.66 F6000
G1 Z0.300 F420
G1 E72.6448 F1800
G1 X40.35 Y3.53 E72.7384 F600
G1 E68.5596 F2400
G1 Z0.500 F420
G1 X41.36 Y7.29 F6000
G1 Z0.300 F420
G1 E72.7682 F1800
G1 X39.88 Y7.03 E72.8617 F600
G1 E68.6830 F2400
G1 Z0.500 F420
G1 X40.57 Y10.87 F6000
G1 Z0.300 F420
G1 E72.8915 F1800
G1 X39.12 Y10.48 E72.9851 F600
G1 E68.8063 F2400
G1 Z0.500 F420
G1 X39.47 Y14.36 F6000
G1 Z0.300 F420
G1 E73.0149 F1800
G1 X38.06 Y13.85 E73.1084 F600
G1 E68.9296 F2400
G1 Z0.500 F420
G1 X38.06 Y17.75 F6000
G1 Z0.300 F420
G1 E73.1382 F1800
G1 X36.71 Y17.12 E73.2318 F600
G1 E69.0530 F2400
G1 Z0.500 F420
G1 X36.37 Y21.00 F6000
G1 Z0.300 F420
G1 E73.3166 F1800
G1 X33.77 Y19.50 E73.5037 F600
G1 E69.2708 F2400
G1 Z0.500 F420
G1 X34.40 Y24.09 F6000
G1 Z0.300 F420
G1 E73.4796 F1800
G1 X33.18 Y23.23 E73.5731 F600
G1 E69.3943 F2400
G1 Z0.500 F420
G1 X32.17 Y27.00 F6000
G1 Z0.300 F420
G1 E73.6029 F1800
G1 X31.02 Y26.03 E73.6964 F600
G1 E69.5177 F2400
G1 Z0.500 F420
G1 X29.70 Y29.70 F6000
G1 Z0.300 F420
G1 E73.7263 F1800
G1 X28.64 Y28.64 E73.8198 F600
G1 E69.6410 F2400
G1 Z0.500 F420
G1 X27.00 Y32.17 F6000
G1 Z0.300 F420
G1 E73.8496 F1800
G1 X26.03 Y31.02 E73.9431 F600
G1 E69.7644 F2400
G1 Z0.500 F420
G1 X24.09 Y34.40 F6000
G1 Z0.300 F420
G1 E73.9729 F1800
G1 X23.23 Y33.18 E74.0665 F600
G1 E69.8877 F2400
G1 Z0.500 F420
G1 X21.00 Y36.37 F6000
G1 Z0.300 F420
G1 E74.1513 F1800
G1 X19.50 Y33.77 E74.3384 F600
G1 E70.1055 F2400
G1 Z0.500 F420
G1 X17.75 Y38.06 F6000
G1 Z0.300 F420
G1 E74.3143 F1800
G1 X17.12 Y36.71 E74.4078 F600
G1 E70.2290 F2400
G1 Z0.500 F420
G1 X14.36 Y39.47 F6000
G1 Z0.300 F420
G1 E74.4376 F1800
G1 X13.85 Y38.06 E74.5312 F600
G1 E70.3524 F2400
G1 Z0.500 F420
G1 X10.87 Y40.57 F6000
G1 Z0.300 F420
G1 E74.5610 F1800
G1 X10.48 Y39.12 E74.6545 F600
G1 E70.4757 F2400
G1 Z0.500 F420
G1 X7.29 Y41.36 F6000
G1 Z0.300 F420
G1 E74.6843 F1800
G1 X7.03 Y39.88 E74.7779 F600
G1 E70.5991 F2400
G1 Z0.500 F420
G1 X3.66 Y41.84 F6000
G1 Z0.300 F420
G1 E74.8077 F1800
G1 X3.53 Y40.35 E74.9012 F600
G1 E70.7224 F2400
G1 Z0.500 F420
G1 X0.00 Y42.00 F6000
G1 Z0.300 F420
G1 E74.9860 F1800
G1 X0.00 Y39.00 E75.1731 F600
G1 E70.9402 F2400
G1 Z0.500 F420
G1 X-3.66 Y41.84 F6000
G1 Z0.300 F420
G1 E75.1490 F1800
G1 X-3.53 Y40.35 E75.2425 F600
G1 E71.0638 F2400
G1 Z0.500 F420
G1 X-7.29 Y41.36 F6000
G1 Z0.300 F420
G1 E75.2723 F1800
G1 X-7.03 Y39.88 E75.3659 F600
G1 E71.1871 F2400
G1 Z0.500 F420
G1 X-10.87 Y40.57 F6000
G1 Z0.300 F420
G1 E75.3957 F1800
G1 X-10.48 Y39.12 E75.4892 F600
G1 E71.3104 F2400
G1 Z0.500 F420
G1 X-14.36 Y39.47 F6000
G1 Z0.300 F420
G1 E75.5190 F1800
G1 X-13.85 Y38.06 E75.6126 F600
G1 E71.4338 F2400
G1 Z0.500 F420
G1 X-17.75 Y38.06 F6000
G1 Z0.300 F420
G1 E75.6424 F1800
G1 X-17.12 Y36.71 E75.7359 F600
G1 E71.5571 F2400
G1 Z0.500 F420
G1 X-21.00 Y36.37 F6000
G1 Z0.300 F420
G1 E75.8207 F1800
G1 X-19.50 Y33.77 E76.0078 F600
G1 E71.7749 F2400
G1 Z0.500 F420
G1 X-24.09 Y34.40 F6000
G1 Z0.300 F420
G1 E75.9837 F1800
G1 X-23.23 Y33.18 E76.0773 F600
G1 E71.8985 F2400
G1 Z0.500 F420
G1 X-27.00 Y32.17 F6000
G1 Z0.300 F420
G1 E76.1071 F1800
G1 X-26.03 Y31.02 E76.2006 F600
G1 E72.0218 F2400
G1 Z0.500 F420
G1 X-29.70 Y29.70 F6000
G1 Z0.300 F420
G1 E76.2304 F1800
G1 X-28.64 Y28.64 E76.3239 F600
G1 E72.1452 F2400
G1 Z0.500 F420
G1 X-32.17 Y27.00 F6000
G1 Z0.300 F420
G1 E76.3537 F1800
G1 X-31.02 Y26.03 E76.4473 F600
G1 E72.2685 F2400
G1 Z0.500 F420
G1 X-34.40 Y24.09 F6000
G1 Z0.300 F420
G1 E76.4771 F1800
G1 X-33.18 Y23.23 E76.5706 F600
G1 E72.3919 F2400
G1 Z0.500 F420
G1 X-36.37 Y21.00 F6000
G1 Z0.300 F420
G1 E76.6555 F1800
G1 X-33.77 Y19.50 E76.8425 F600
G1 E72.6096 F2400
G1 Z0.500 F420
G1 X-38.06 Y17.75 F6000
G1 Z0.300 F420
G1 E76.8184 F1800
G1 X-36.71 Y17.12 E76.9120 F600
G1 E72.7332 F2400
G1 Z0.500 F420
G1 X-39.47 Y14.36 F6000
G1 Z0.300 F420
G1 E76.9418 F1800
G1 X-38.06 Y13.85 E77.0353 F600
G1 E72.8565 F2400
G1 Z0.500 F420
G1 X-40.57 Y10.87 F6000
G1 Z0.300 F420
G1 E77.0651 F1800
G1 X-39.12 Y10.48 E77.1587 F600
G1 E72.9799 F2400
G1 Z0.500 F420
G1 X-41.36 Y7.29 F6000
G1 Z0.300 F420
G1 E77.1885 F1800
G1 X-39.88 Y7.03 E77.2820 F600
G1 E73.1032 F2400
G1 Z0.500 F420
G1 X-41.84 Y3.66 F6000
G1 Z0.300 F420
G1 E77.3118 F1800
G1 X-40.35 Y3.53 E77.4053 F600
G1 E73.2266 F2400
G1 Z0.500 F420
G1 X-42.00 Y0.00 F6000
G1 Z0.300 F420
G1 E77.4902 F1800
G1 X-39.00 Y0.00 E77.6773 F600
G1 E73.4444 F2400
G1 Z0.500 F420
G1 X-41.84 Y-3.66 F6000
G1 Z0.300 F420
G1 E77.6531 F1800
G1 X-40.35 Y-3.53 E77.7467 F600
G1 E73.5679 F2400
G1 Z0.500 F420
G1 X-41.36 Y-7.29 F6000
G1 Z0.300 F420
G1 E77.7765 F1800
G1 X-39.88 Y-7.03 E77.8700 F600
G1 E73.6912 F2400
G1 Z0.500 F420
G1 X-40.57 Y-10.87 F6000
G1 Z0.300 F420
G1 E77.8998 F1800
G1 X-39.12 Y-10.48 E77.9934 F600
G1 E73.8146 F2400
G1 Z0.500 F420
G1 X-39.47 Y-14.36 F6000
G1 Z0.300 F420
G1 E78.0232 F1800
G1 X-38.06 Y-13.85 E78.1167 F600
G1 E73.9379 F2400
G1 Z0.500 F420
G1 X-38.06 Y-17.75 F6000
G1 Z0.300 F420
G1 E78.1465 F1800
G1 X-36.71 Y-17.12 E78.2401 F600
G1 E74.0613 F2400
G1 Z0.500 F420
G1 X-36.37 Y-21.00 F6000
G1 Z0.300 F420
G1 E78.3249 F1800
G1 X-33.77 Y-19.50 E78.5120 F600
G1 E74.2791 F2400
G1 Z0.500 F420
G1 X-34.40 Y-24.09 F6000
G1 Z0.300 F420
G1 E78.4879 F1800
G1 X-33.18 Y-23.23 E78.5814 F600
G1 E74.4026 F2400
G1 Z0.500 F420
G1 X-32.17 Y-27.00 F6000
G1 Z0.300 F420
G1 E78.6112 F1800
G1 X-31.02 Y-26.03 E78.7047 F600
G1 E74.5260 F2400
G1 Z0.500 F420
G1 X-29.70 Y-29.70 F6000
G1 Z0.300 F420
G1 E78.7345 F1800
G1 X-28.64 Y-28.64 E78.8281 F600
G1 E74.6493 F2400
G1 Z0.500 F420
G1 X-27.00 Y-32.17 F6000
G1 Z0.300 F420
G1 E78.8579 F1800
G1 X-26.03 Y-31.02 E78.9514 F600
G1 E74.7727 F2400
G1 Z0.500 F420
G1 X-24.09 Y-34.40 F6000
G1 Z0.300 F420
G1 E78.9812 F1800
G1 X-23.23 Y-33.18 E79.0748 F600
G1 E74.8960 F2400
G1 Z0.500 F420
G1 X-21.00 Y-36.37 F6000
G1 Z0.300 F420
G1 E79.1596 F1800
G1 X-19.50 Y-33.77 E79.3467 F600
G1 E75.1138 F2400
G1 Z0.500 F420
G1 X-17.75 Y-38.06 F6000
G1 Z0.300 F420
G1 E79.3226 F1800
G1 X-17.12 Y-36.71 E79.4161 F600
G1 E75.2373 F2400
G1 Z0.500 F420
G1 X-14.36 Y-39.47 F6000
G1 Z0.300 F420
G1 E79.4459 F1800
G1 X-13.85 Y-38.06 E79.5395 F600
G1 E75.3607 F2400
G1 Z0.500 F420
G1 X-10.87 Y-40.57 F6000
G1 Z0.300 F420
G1 E79.5693 F1800
G1 X-10.48 Y-39.12 E79.6628 F600
G1 E75.4840 F2400
G1 Z0.500 F420
G1 X-7.29 Y-41.36 F6000
G1 Z0.300 F420
G1 E79.6926 F1800
G1 X-7.03 Y-39.88 E79.7861 F600
G1 E75.6074 F2400
G1 Z0.500 F420
G1 X-3.66 Y-41.84 F6000
G1 Z0.300 F420
G1 E79.8160 F1800
G1 X-3.53 Y-40.35 E79.9095 F600
G1 E75.7307 F2400
G1 Z0.500 F420
G1 X0.00 Y-42.00 F6000
G1 Z0.300 F420
G1 E79.9943 F1800
G1 X0.00 Y-39.00 E80.1814 F600
G1 E75.9485 F2400
G1 Z0.500 F420
G1 X3.66 Y-41.84 F6000
G1 Z0.300 F420
G1 E80.1573 F1800
G1 X3.53 Y-40.35 E80.2508 F600
G1 E76.0720 F2400
G1 Z0.500 F420
G1 X7.29 Y-41.36 F6000
G1 Z0.300 F420
G1 E80.2806 F1800
G1 X7.03 Y-39.88 E80.3742 F600
G1 E76.1954 F2400
G1 Z0.500 F420
G1 X10.87 Y-40.57 F6000
G1 Z0.300 F420
G1 E80.4040 F1800
G1 X10.48 Y-39.12 E80.4975 F600
G1 E76.3187 F2400
G1 Z0.500 F420
G1 X14.36 Y-39.47 F6000
G1 Z0.300 F420
G1 E80.5273 F1800
G1 X13.85 Y-38.06 E80.6209 F600
G1 E76.4421 F2400
G1 Z0.500 F420
G1 X17.75 Y-38.06 F6000
G1 Z0.300 F420
G1 E80.6507 F1800
G1 X17.12 Y-36.71 E80.7442 F600
G1 E76.5654 F2400
G1 Z0.500 F420
G1 X21.00 Y-36.37 F6000
G1 Z0.300 F420
G1 E80.8290 F1800
G1 X19.50 Y-33.77 E81.0161 F600
G1 E76.7832 F2400
G1 Z0.500 F420
G1 X24.09 Y-34.40 F6000
G1 Z0.300 F420
G1 E80.9920 F1800
G1 X23.23 Y-33.18 E81.0855 F600
G1 E76.9068 F2400
G1 Z0.500 F420
G1 X27.00 Y-32.17 F6000
G1 Z0.300 F420
G1 E81.1153 F1800
G1 X26.03 Y-31.02 E81.2089 F600
G1 E77.0301 F2400
G1 Z0.500 F420
G1 X29.70 Y-29.70 F6000
G1 Z0.300 F420
G1 E81.2387 F1800
G1 X28.64 Y-28.64 E81.3322 F600
G1 E77.1535 F2400
G1 Z0.500 F420
G1 X32.17 Y-27.00 F6000
G1 Z0.300 F420
G1 E81.3620 F1800
G1 X31.02 Y-26.03 E81.4556 F600
G1 E77.2768 F2400
G1 Z0.500 F420
G1 X34.40 Y-24.09 F6000
G1 Z0.300 F420
G1 E81.4854 F1800
G1 X33.18 Y-23.23 E81.5789 F600
G1 E77.4001 F2400
G1 Z0.500 F420
G1 X36.37 Y-21.00 F6000
G1 Z0.300 F420
G1 E81.6638 F1800
G1 X33.77 Y-19.50 E81.8508 F600
G1 E77.6179 F2400
G1 Z0.500 F420
G1 X38.06 Y-17.75 F6000
G1 Z0.300 F420
G1 E81.8267 F1800
G1 X36.71 Y-17.12 E81.9203 F600
G1 E77.7415 F2400
G1 Z0.500 F420
G1 X39.47 Y-14.36 F6000
G1 Z0.300 F420
G1 E81.9501 F1800
G1 X38.06 Y-13.85 E82.0436 F600
G1 E77.8648 F2400
G1 Z0.500 F420
G1 X40.57 Y-10.87 F6000
G1 Z0.300 F420
G1 E82.0734 F1800
G1 X39.12 Y-10.48 E82.1670 F600
G1 E77.9882 F2400
G1 Z0.500 F420
G1 X41.36 Y-7.29 F6000
G1 Z0.300 F420
G1 E82.1968 F1800
G1 X39.88 Y-7.03 E82.2903 F600
G1 E78.1115 F2400
G1 Z0.500 F420
G1 X41.84 Y-3.66 F6000
G1 Z0.300 F420
G1 E82.3201 F1800
G1 X40.35 Y-3.53 E82.4136 F600
G1 E78.2349 F2400
G1 Z0.500 F420
;structure:shell-outer
G1 X70.00 Y0.00 F6000
G1 Z0.300 F420
G1 E82.5538 F1800
G1 X42.00 Y0.00 E84.2999 F600
G1 E80.0126 F2400
G1 Z0.500 F420
;structure:shell-outer
G1 X0.50 Y21.48 F6000
G1 Z0.300 F420
G1 E84.3145 F1800
G1 X0.50 Y24.88 E84.5266 F600
G1 X1.73 Y24.88 E84.6033
G1 X2.12 Y24.78 E84.6284
G1 X2.43 Y24.58 E84.6514
G1 X2.53 Y24.45 E84.6616
G1 X2.66 Y24.04 E84.6885
G1 X2.61 Y23.80 E84.7037
G1 X2.50 Y23.56 E84.7202
G1 X2.28 Y23.36 E84.7387
G1 X1.51 Y23.18 E84.7881
G1 E80.5180 F2400
G1 Z0.500 F420
G1 X0.50 Y23.18 F6000
G1 Z0.300 F420
G1 E84.7882 F1800
G1 X1.51 Y23.18 E84.8512 F600
G1 X2.02 Y23.00 E84.8849
G1 X2.41 Y22.38 E84.9306
G1 X2.66 Y21.48 E84.9889
G1 E80.7500 F2400
G1 Z0.500 F420
G1 X3.72 Y22.69 F6000
G1 Z0.300 F420
G1 E85.0573 F1800
G1 X5.86 Y22.69 E85.1907 F600
G1 X5.78 Y23.22 E85.2242
G1 X5.57 Y23.61 E85.2518
G1 X5.23 Y23.86 E85.2781
G1 X4.79 Y23.95 E85.3061
G1 X4.36 Y23.86 E85.3335
G1 X4.02 Y23.61 E85.3598
G1 X3.80 Y23.22 E85.3878
G1 X3.72 Y22.69 E85.4212
G1 X3.80 Y22.15 E85.4552
G1 X4.03 Y21.75 E85.4840
G1 X4.38 Y21.51 E85.5105
G1 X4.84 Y21.42 E85.5397
G1 X5.18 Y21.47 E85.5611
G1 X5.47 Y21.61 E85.5812
G1 X5.68 Y21.83 E85.6002
G1 X5.80 Y22.13 E85.6203
G1 E81.3452 F2400
G1 Z0.500 F420
G1 X6.92 Y23.26 F6000
G1 Z0.300 F420
G1 E85.5659 F1800
G1 X8.61 Y23.26 E85.6713 F600
G1 E81.4809 F2400
G1 Z0.500 F420
G1 X8.61 Y22.55 F6000
G1 Z0.300 F420
G1 E85.7014 F1800
G1 X6.92 Y22.55 E85.8068 F600
G1 E81.6164 F2400
G1 Z0.500 F420
G1 X11.38 Y21.48 F6000
G1 Z0.300 F420
G1 E85.9108 F1800
G1 X11.38 Y24.88 E86.1228 F600
G1 X9.67 Y22.65 E86.2981
G1 X11.98 Y22.65 E86.4421
G1 E82.1790 F2400
G1 Z0.500 F420
G1 X13.05 Y21.71 F6000
G1 Z0.300 F420
G1 E85.7652 F1800
G1 X13.05 Y21.65 E85.7689 F600
G1 E82.2048 F2400
G1 Z0.500 F420
G1 X15.33 Y24.94 F6000
G1 Z0.300 F420
G1 E86.5109 F1800
G1 X15.84 Y24.80 E86.5439 F600
G1 X16.23 Y24.42 E86.5778
G1 X16.47 Y23.86 E86.6158
G1 X16.55 Y23.18 E86.6585
G1 X16.47 Y22.51 E86.7006
G1 X16.23 Y21.95 E86.7386
G1 X15.84 Y21.56 E86.7730
G1 X15.33 Y21.42 E86.8060
G1 X14.81 Y21.56 E86.8396
G1 X14.43 Y21.95 E86.8735
G1 X14.19 Y22.51 E86.9115
G1 X14.11 Y23.18 E86.9536
G1 X14.19 Y23.85 E86.9957
G1 X14.43 Y24.42 E87.0343
G1 X14.81 Y24.80 E87.0678
G1 X15.33 Y24.94 E87.1014
G1 E82.8250 F2400
G1 Z0.500 F420
G1 X17.61 Y22.90 F6000
G1 Z0.300 F420
G1 E87.0551 F1800
G1 X19.48 Y22.90 E87.1717 F600
G1 E82.9721 F2400
G1 Z0.500 F420
G1 X22.53 Y24.88 F6000
G1 Z0.300 F420
G1 E87.2751 F1800
G1 X20.78 Y24.88 E87.3843 F600
G1 X20.64 Y23.14 E87.4931
G1 X20.92 Y23.45 E87.5192
G1 X21.09 Y23.57 E87.5322
G1 X21.28 Y23.64 E87.5448
G1 X21.47 Y23.67 E87.5568
G1 X21.67 Y23.68 E87.5693
G1 X22.08 Y23.59 E87.5955
G1 X22.40 Y23.37 E87.6197
G1 X22.61 Y23.03 E87.6446
G1 X22.69 Y22.61 E87.6713
G1 X22.62 Y22.14 E87.7009
G1 X22.41 Y21.77 E87.7274
G1 X22.06 Y21.51 E87.7546
G1 X21.56 Y21.42 E87.7863
G1 X21.19 Y21.48 E87.8097
G1 X20.88 Y21.64 E87.8314
G1 X20.66 Y21.91 E87.8532
G1 X20.54 Y22.27 E87.8768
G1 E83.6056 F2400
G1 Z0.500 F420
G1 X23.75 Y21.71 F6000
G1 Z0.300 F420
G1 E87.1919 F1800
G1 X23.75 Y21.65 E87.1956 F600
G1 E83.6315 F2400
G1 Z0.500 F420
G1 X26.04 Y24.94 F6000
G1 Z0.300 F420
G1 E87.9376 F1800
G1 X26.55 Y24.80 E87.9706 F600
G1 X26.94 Y24.42 E88.0045
G1 X27.18 Y23.86 E88.0425
G1 X27.26 Y23.18 E88.0852
G1 X27.18 Y22.51 E88.1273
G1 X26.94 Y21.95 E88.1653
G1 X26.55 Y21.56 E88.1997
G1 X26.04 Y21.42 E88.2327
G1 X25.52 Y21.56 E88.2663
G1 X25.14 Y21.95 E88.3002
G1 X24.90 Y22.51 E88.3382
G1 X24.82 Y23.18 E88.3803
G1 X24.90 Y23.85 E88.4224
G1 X25.14 Y24.42 E88.4610
G1 X25.52 Y24.80 E88.4945
G1 X26.04 Y24.94 E88.5281
G1 E84.2517 F2400
G1 Z0.500 F420
G1 X0.50 Y19.88 F6000
G1 Z0.300 F420
G1 E88.5397 F1800
G1 X1.47 Y19.88 E88.6002 F600
G1 X1.86 Y19.78 E88.6253
G1 X2.17 Y19.58 E88.6483
G1 X2.27 Y19.45 E88.6585
G1 X2.40 Y19.04 E88.6853
G1 X2.35 Y18.80 E88.7006
G1 X2.28 Y18.56 E88.7162
G1 X2.02 Y18.36 E88.7367
G1 X1.51 Y18.18 E88.7704
G1 X0.50 Y18.18 E88.8334
G1 E84.5771 F2400
G1 Z0.500 F420
G1 X1.51 Y18.18 F6000
G1 Z0.300 F420
G1 E88.8791 F1800
G1 X2.28 Y18.01 E88.9283 F600
G1 X2.50 Y17.81 E88.9468
G1 X2.61 Y17.56 E88.9638
G1 X2.66 Y17.32 E88.9791
G1 X2.53 Y16.91 E89.0059
G1 X2.43 Y16.78 E89.0162
G1 X2.12 Y16.59 E89.0389
G1 X1.73 Y16.48 E89.0641
G1 X0.50 Y16.48 E89.1408
G1 X0.50 Y19.88 E89.3529
G1 E85.0827 F2400
G1 Z0.500 F420
G1 X3.72 Y17.69 F6000
G1 Z0.300 F420
G1 E89.3902 F1800
G1 X5.86 Y17.69 E89.5236 F600
G1 X5.78 Y18.22 E89.5571
G1 X5.57 Y18.61 E89.5847
G1 X5.23 Y18.86 E89.6110
G1 X4.79 Y18.95 E89.6390
G1 X4.36 Y18.86 E89.6664
G1 X4.02 Y18.61 E89.6927
G1 X3.80 Y18.22 E89.7207
G1 X3.72 Y17.69 E89.7541
G1 X3.80 Y17.15 E89.7881
G1 X4.03 Y16.75 E89.8169
G1 X4.38 Y16.51 E89.8434
G1 X4.84 Y16.42 E89.8726
G1 X5.18 Y16.47 E89.8940
G1 X5.47 Y16.61 E89.9141
G1 X5.68 Y16.83 E89.9331
G1 X5.80 Y17.13 E89.9532
G1 E85.6780 F2400
G1 Z0.500 F420
G1 X6.92 Y18.26 F6000
G1 Z0.300 F420
G1 E89.8989 F1800
G1 X8.61 Y18.26 E90.0043 F600
G1 E85.8138 F2400
G1 Z0.500 F420
G1 X8.61 Y17.55 F6000
G1 Z0.300 F420
G1 E90.0343 F1800
G1 X6.92 Y17.55 E90.1397 F600
G1 E85.9492 F2400
G1 Z0.500 F420
G1 X9.67 Y17.90 F6000
G1 Z0.300 F420
G1 E90.1789 F1800
G1 X11.54 Y17.90 E90.2956 F600
G1 E86.0960 F2400
G1 Z0.500 F420
G1 X13.82 Y19.94 F6000
G1 Z0.300 F420
G1 E90.4044 F1800
G1 X14.33 Y19.80 E90.4374 F600
G1 X14.72 Y19.42 E90.4714
G1 X14.96 Y18.86 E90.5094
G1 X15.04 Y18.18 E90.5521
G1 X14.96 Y17.51 E90.5942
G1 X14.72 Y16.95 E90.6322
G1 X14.33 Y16.56 E90.6666
G1 X13.82 Y16.42 E90.6995
G1 X13.30 Y16.56 E90.7331
G1 X12.92 Y16.95 E90.7671
G1 X12.68 Y17.51 E90.8051
G1 X12.60 Y18.18 E90.8472
G1 X12.68 Y18.85 E90.8892
G1 X12.92 Y19.42 E90.9278
G1 X13.30 Y19.80 E90.9613
G1 X13.82 Y19.94 E90.9949
G1 E86.7186 F2400
G1 Z0.500 F420
G1 X16.11 Y16.71 F6000
G1 Z0.300 F420
G1 E90.3049 F1800
G1 X16.11 Y16.65 E90.3086 F600
G1 E86.7445 F2400
G1 Z0.500 F420
G1 X17.17 Y19.00 F6000
G1 Z0.300 F420
G1 E91.0205 F1800
G1 X17.64 Y19.24 E91.0534 F600
G1 X18.01 Y19.55 E91.0835
G1 X18.26 Y19.88 E91.1094
G1 X18.26 Y16.48 E91.3214
G1 E87.0741 F2400
G1 Z0.500 F420
G1 X0.50 Y13.89 F6000
G1 Z0.300 F420
G1 E91.3661 F1800
G1 X1.36 Y11.48 E91.5257 F600
G1 X2.10 Y13.89 E91.6829
G1 X2.87 Y11.48 E91.8407
G1 X3.71 Y13.89 E91.9999
G1 E87.7393 F2400
G1 Z0.500 F420
G1 X4.77 Y13.26 F6000
G1 Z0.300 F420
G1 E91.9602 F1800
G1 X6.46 Y13.26 E92.0656 F600
G1 E87.8750 F2400
G1 Z0.500 F420
G1 X6.46 Y12.55 F6000
G1 Z0.300 F420
G1 E92.0957 F1800
G1 X4.77 Y12.55 E92.2011 F600
G1 E88.0104 F2400
G1 Z0.500 F420
G1 X8.74 Y14.94 F6000
G1 Z0.300 F420
G1 E92.3190 F1800
G1 X9.25 Y14.80 E92.3520 F600
G1 X9.64 Y14.42 E92.3859
G1 X9.88 Y13.86 E92.4239
G1 X9.96 Y13.18 E92.4666
G1 X9.88 Y12.51 E92.5087
G1 X9.64 Y11.95 E92.5467
G1 X9.25 Y11.56 E92.5811
G1 X8.74 Y11.42 E92.6141
G1 X8.22 Y11.56 E92.6477
G1 X7.84 Y11.95 E92.6816
G1 X7.60 Y12.51 E92.7196
G1 X7.52 Y13.18 E92.7617
G1 X7.60 Y13.85 E92.8038
G1 X7.84 Y14.42 E92.8424
G1 X8.22 Y14.80 E92.8759
G1 X8.74 Y14.94 E92.9095
G1 E88.6330 F2400
G1 Z0.500 F420
G1 X11.02 Y11.71 F6000
G1 Z0.300 F420
G1 E92.2193 F1800
G1 X11.02 Y11.65 E92.2230 F600
G1 E88.6589 F2400
G1 Z0.500 F420
G1 X13.11 Y14.92 F6000
G1 Z0.300 F420
G1 E92.9750 F1800
G1 X13.46 Y14.86 E92.9972 F600
G1 X13.75 Y14.71 E93.0176
G1 X13.94 Y14.46 E93.0371
G1 X14.01 Y14.11 E93.0594
G1 X13.87 Y13.66 E93.0888
G1 X13.58 Y13.40 E93.1131
G1 X12.65 Y13.12 E93.1737
G1 X12.26 Y12.84 E93.2036
G1 X12.09 Y12.35 E93.2360
G1 X12.17 Y11.95 E93.2614
G1 X12.38 Y11.66 E93.2837
G1 X12.71 Y11.48 E93.3072
G1 X13.11 Y11.42 E93.3324
G1 X13.52 Y11.48 E93.3582
G1 X13.85 Y11.66 E93.3817
G1 X14.06 Y11.95 E93.4040
G1 X14.14 Y12.35 E93.4295
G1 X13.96 Y12.84 E93.4620
G1 X13.58 Y13.12 E93.4914
G1 X12.65 Y13.40 E93.5520
G1 X12.36 Y13.66 E93.5763
G1 X12.22 Y14.11 E93.6057
G1 X12.29 Y14.46 E93.6280
G1 X12.48 Y14.71 E93.6476
G1 X12.76 Y14.86 E93.6674
G1 X13.11 Y14.92 E93.6895
G1 E89.4049 F2400
G1 Z0.500 F420
;structure:shell-inner
G1 X68.00 Y0.00 F6000
G1 Z0.300 F420
G1 E92.1049 F1800
G1 X67.71 Y5.92 E92.4748 F60
G1 X66.91 Y11.80
G1 X65.60 Y17.58
G1 X63.79 Y23.22
G1 E96.4748 F1800
G1 X61.50 Y28.68 E97.0657 F601
G1 X58.75 Y33.92 E97.6563
G1 X55.54 Y38.89 E98.2466
G1 X51.92 Y43.57 E98.8367
G1 X47.91 Y47.91 E99.4266
G1 X43.53 Y51.88 E100.0162
G1 X39.91 Y54.69 E100.4737
G1 E96.5737 F2400
G1 X34.98 Y57.93 F300
G1 X29.78 Y60.74
G1 X24.36 Y63.08
G1 X22.21 Y63.85
G1 E98.4500 F1800
G1 X16.56 Y65.52 E98.8177 F60
G1 X10.78 Y66.69 E99.1853
G1 X4.92 Y67.34 E99.5527
G1 E96.2100 F2400
G1 Z0.500 F420
G1 X66.00 Y0.00 F6000
G1 Z0.300 F420
G1 E98.7101 F1800
G1 X65.72 Y5.75 E99.0691 F60
G1 X64.94 Y11.45
G1 X63.67 Y17.06
G1 X61.92 Y22.54
G1 E103.2691 F1800
G1 X59.69 Y27.83 E103.8425 F601
G1 X57.01 Y32.92 E104.4157
G1 X53.90 Y37.74 E104.9886
G1 X50.39 Y42.28 E105.5613
G1 X46.49 Y46.49 E106.1338
G1 X42.25 Y50.35 E106.7060
G1 X37.76 Y53.76 E107.2678
G1 E103.1678 F2400
G1 X32.92 Y56.82 F300
G1 X27.83 Y59.45
G1 X22.54 Y61.62
G1 X19.87 Y62.52
G1 E105.1500 F1800
G1 X14.34 Y63.98 E105.5068 F60
G1 X8.71 Y64.96 E105.8634
G1 X3.01 Y65.45 E106.2199
G1 E102.8746 F2400
G1 Z0.500 F420
G1 X64.00 Y0.00 F6000
G1 Z0.300 F420
G1 E105.3746 F1800
G1 X63.73 Y5.58 E105.7227 F60
G1 X62.97 Y11.10
G1 X61.74 Y16.54
G1 X60.04 Y21.85
G1 E110.1227 F1800
G1 X57.88 Y26.99 E110.6788 F601
G1 X55.28 Y31.92 E111.2345
G1 X52.27 Y36.60 E111.7901
G1 X48.86 Y41.00 E112.3454
G1 X45.08 Y45.08 E112.9004
G1 X40.96 Y48.81 E113.4552
G1 X36.53 Y52.18 E114.0098
G1 X35.61 Y52.81 E114.1216
G1 E109.8216 F2400
G1 X30.86 Y55.68 F300
G1 X25.87 Y58.14
G1 X20.70 Y60.14
G1 X17.51 Y61.13
G1 E111.9913 F1800
G1 X12.11 Y62.40 E112.3372 F60
G1 X6.63 Y63.19 E112.6829
G1 X1.09 Y63.50 E113.0285
G1 E109.6804 F2400
G1 Z0.500 F420
G1 X62.00 Y0.00 F6000
G1 Z0.300 F420
G1 E112.1804 F1800
G1 X61.74 Y5.40 E112.5177 F60
G1 X61.00 Y10.76
G1 X59.81 Y16.03
G1 X58.16 Y21.17
G1 E117.1177 F1800
G1 X56.07 Y26.14 E117.6563 F601
G1 X53.55 Y30.92 E118.1947
G1 X50.63 Y35.45 E118.7328
G1 X47.32 Y39.71 E119.2707
G1 X43.66 Y43.66 E119.8083
G1 X39.67 Y47.28 E120.3457
G1 X35.39 Y50.54 E120.8829
G1 X33.44 Y51.83 E121.1165
G1 E116.6165 F2400
G1 X28.78 Y54.53 F300
G1 X23.91 Y56.80
G1 X18.86 Y58.64
G1 X15.14 Y59.69
G1 E118.9688 F1800
G1 X9.87 Y60.75 E119.3037 F60
G1 X4.54 Y61.36 E119.6385
G1 X-0.82 Y61.49 E119.9732
G1 E116.6222 F2400
G1 Z0.500 F420
G1 X60.00 Y0.00 F6000
G1 Z0.300 F420
G1 E119.1223 F1800
G1 X59.74 Y5.23 E119.4487 F60
G1 X59.03 Y10.41
G1 X57.88 Y15.51
G1 X56.28 Y20.48
G1 E124.2487 F1800
G1 X54.25 Y25.30 E124.7699 F601
G1 X51.82 Y29.92 E125.2908
G1 X48.99 Y34.30 E125.8115
G1 X45.79 Y38.42 E126.3320
G1 X42.25 Y42.25 E126.8523
G1 X38.39 Y45.75 E127.3722
G1 X34.24 Y48.90 E127.8920
G1 X31.25 Y50.84 E128.2475
G1 E123.5475 F2400
G1 X26.69 Y53.34 F300
G1 X21.93 Y55.44
G1 X17.00 Y57.11
G1 X12.75 Y58.19
G1 E126.0825 F1800
G1 X7.63 Y59.05 E126.4065 F60
G1 X2.45 Y59.46 E126.7304
G1 X-2.74 Y59.42 E127.0541
G1 E123.7003 F2400
G1 Z0.500 F420
G1 X58.00 Y0.00 F6000
G1 Z0.300 F420
G1 E126.2003 F1800
G1 X57.75 Y5.05 E126.5158 F60
G1 X57.06 Y10.06
G1 X55.94 Y14.99
G1 X54.40 Y19.80
G1 E131.5158 F1800
G1 X52.44 Y24.45 E132.0196 F601
G1 X50.09 Y28.92 E132.5232
G1 X47.35 Y33.16 E133.0265
G1 X44.26 Y37.14 E133.5295
G1 X40.84 Y40.84 E134.0324
G1 X37.10 Y44.22 E134.5349
G1 X33.09 Y47.26 E135.0373
G1 X29.05 Y49.82 E135.5146
G1 E130.6146 F2400
G1 X24.58 Y52.13 F300
G1 X19.94 Y54.05
G1 X15.14 Y55.56
G1 X10.35 Y56.62
G1 E133.3326 F1800
G1 X5.37 Y57.28 E133.6457 F60
G1 X0.36 Y57.50 E133.9586
G1 X-4.65 Y57.29 E134.2713
G1 E130.9146 F2400
G1 Z0.500 F420
;structure:shell-outer
G1 X-29.50 Y21.48 F6000
G1 Z0.300 F420
G1 E134.9806 F1800
G1 X-29.50 Y24.88 E135.1927 F600
G1 X-28.27 Y24.88 E135.2694
G1 X-27.88 Y24.78 E135.2945
G1 X-27.57 Y24.58 E135.3175
G1 X-27.47 Y24.45 E135.3277
G1 X-27.34 Y24.04 E135.3545
G1 X-27.39 Y23.80 E135.3698
G1 X-27.50 Y23.56 E135.3863
G1 X-27.72 Y23.36 E135.4048
G1 X-28.49 Y23.18 E135.4541
G1 E131.1841 F2400
G1 Z0.500 F420
G1 X-29.50 Y23.18 F6000
G1 Z0.300 F420
G1 E135.4543 F1800
G1 X-28.49 Y23.18 E135.5173 F600
G1 X-27.98 Y23.00 E135.5510
G1 X-27.59 Y22.38 E135.5967
G1 X-27.34 Y21.48 E135.6549
G1 E131.4161 F2400
G1 Z0.500 F420
G1 X-26.28 Y22.69 F6000
G1 Z0.300 F420
G1 E135.7234 F1800
G1 X-24.14 Y22.69 E135.8568 F600
G1 X-24.22 Y23.22 E135.8902
G1 X-24.43 Y23.61 E135.9179
G1 X-24.77 Y23.86 E135.9442
G1 X-25.21 Y23.95 E135.9722
G1 X-25.64 Y23.86 E135.9996
G1 X-25.98 Y23.61 E136.0259
G1 X-26.20 Y23.22 E136.0538
G1 X-26.28 Y22.69 E136.0873
G1 X-26.20 Y22.15 E136.1213
G1 X-25.97 Y21.75 E136.1501
G1 X-25.62 Y21.51 E136.1766
G1 X-25.16 Y21.42 E136.2058
G1 X-24.82 Y21.47 E136.2272
G1 X-24.53 Y21.61 E136.2473
G1 X-24.32 Y21.83 E136.2663
G1 X-24.20 Y22.13 E136.2864
G1 E132.0113 F2400
G1 Z0.500 F420
G1 X-23.08 Y23.26 F6000
G1 Z0.300 F420
G1 E136.2320 F1800
G1 X-21.39 Y23.26 E136.3374 F600
G1 E132.1470 F2400
G1 Z0.500 F420
G1 X-21.39 Y22.55 F6000
G1 Z0.300 F420
G1 E136.3674 F1800
G1 X-23.08 Y22.55 E136.4728 F600
G1 E132.2824 F2400
G1 Z0.500 F420
G1 X-18.62 Y21.48 F6000
G1 Z0.300 F420
G1 E136.5769 F1800
G1 X-18.62 Y24.88 E136.7889 F600
G1 X-20.33 Y22.65 E136.9642
G1 X-18.02 Y22.65 E137.1082
G1 E132.8450 F2400
G1 Z0.500 F420
G1 X-16.95 Y21.71 F6000
G1 Z0.300 F420
G1 E136.4313 F1800
G1 X-16.95 Y21.65 E136.4350 F600
G1 E132.8709 F2400
G1 Z0.500 F420
G1 X-15.89 Y24.00 F6000
G1 Z0.300 F420
G1 E137.1469 F1800
G1 X-15.42 Y24.24 E137.1798 F600
G1 X-15.05 Y24.55 E137.2099
G1 X-14.80 Y24.88 E137.2358
G1 X-14.80 Y21.48 E137.4478
G1 E133.2006 F2400
G1 Z0.500 F420
G1 X-13.74 Y22.90 F6000
G1 Z0.300 F420
G1 E137.4306 F1800
G1 X-11.87 Y22.90 E137.5473 F600
G1 E133.3476 F2400
G1 Z0.500 F420
G1 X-8.82 Y24.88 F6000
G1 Z0.300 F420
G1 E137.6506 F1800
G1 X-10.57 Y24.88 E137.7598 F600
G1 X-10.71 Y23.14 E137.8687
G1 X-10.43 Y23.45 E137.8947
G1 X-10.26 Y23.57 E137.9077
G1 X-10.07 Y23.64 E137.9203
G1 X-9.88 Y23.67 E137.9323
G1 X-9.68 Y23.68 E137.9448
G1 X-9.27 Y23.59 E137.9710
G1 X-8.95 Y23.37 E137.9952
G1 X-8.74 Y23.03 E138.0201
G1 X-8.66 Y22.61 E138.0468
G1 X-8.73 Y22.14 E138.0764
G1 X-8.94 Y21.77 E138.1030
G1 X-9.29 Y21.51 E138.1302
G1 X-9.79 Y21.42 E138.1618
G1 X-10.16 Y21.48 E138.1852
G1 X-10.47 Y21.64 E138.2070
G1 X-10.69 Y21.91 E138.2287
G1 X-10.81 Y22.27 E138.2524
G1 E133.9811 F2400
G1 Z0.500 F420
G1 X-7.60 Y21.71 F6000
G1 Z0.300 F420
G1 E137.5674 F1800
G1 X-7.60 Y21.65 E137.5711 F600
G1 E134.0070 F2400
G1 Z0.500 F420
G1 X-6.54 Y24.00 F6000
G1 Z0.300 F420
G1 E138.2830 F1800
G1 X-6.07 Y24.24 E138.3159 F600
G1 X-5.70 Y24.55 E138.3460
G1 X-5.45 Y24.88 E138.3719
G1 X-5.45 Y21.48 E138.5839
G1 E134.3367 F2400
G1 Z0.500 F420
G1 X-29.50 Y19.88 F6000
G1 Z0.300 F420
G1 E138.6246 F1800
G1 X-28.53 Y19.88 E138.6851 F600
G1 X-28.14 Y19.78 E138.7102
G1 X-27.83 Y19.58 E138.7332
G1 X-27.73 Y19.45 E138.7434
G1 X-27.60 Y19.04 E138.7702
G1 X-27.65 Y18.80 E138.7855
G1 X-27.72 Y18.56 E138.8011
G1 X-27.98 Y18.36 E138.8216
G1 X-28.49 Y18.18 E138.8553
G1 X-29.50 Y18.18 E138.9183
G1 E134.6620 F2400
G1 Z0.500 F420
G1 X-28.49 Y18.18 F6000
G1 Z0.300 F420
G1 E138.9640 F1800
G1 X-27.72 Y18.01 E139.0132 F600
G1 X-27.50 Y17.81 E139.0317
G1 X-27.39 Y17.56 E139.0487
G1 X-27.34 Y17.32 E139.0640
G1 X-27.47 Y16.91 E139.0908
G1 X-27.57 Y16.78 E139.1011
G1 X-27.88 Y16.59 E139.1237
G1 X-28.27 Y16.48 E139.1490
G1 X-29.50 Y16.48 E139.2257
G1 X-29.50 Y19.88 E139.4378
G1 E135.1676 F2400
G1 Z0.500 F420
G1 X-26.28 Y17.69 F6000
G1 Z0.300 F420
G1 E139.4751 F1800
G1 X-24.14 Y17.69 E139.6085 F600
G1 X-24.22 Y18.22 E139.6420
G1 X-24.43 Y18.61 E139.6696
G1 X-24.77 Y18.86 E139.6959
G1 X-25.21 Y18.95 E139.7239
G1 X-25.64 Y18.86 E139.7513
G1 X-25.98 Y18.61 E139.7776
G1 X-26.20 Y18.22 E139.8056
G1 X-26.28 Y17.69 E139.8390
G1 X-26.20 Y17.15 E139.8730
G1 X-25.97 Y16.75 E139.9018
G1 X-25.62 Y16.51 E139.9283
G1 X-25.16 Y16.42 E139.9575
G1 X-24.82 Y16.47 E139.9789
G1 X-24.53 Y16.61 E139.9990
G1 X-24.32 Y16.83 E140.0180
G1 X-24.20 Y17.13 E140.0381
G1 E135.7629 F2400
G1 Z0.500 F420
G1 X-23.08 Y18.26 F6000
G1 Z0.300 F420
G1 E139.9838 F1800
G1 X-21.39 Y18.26 E140.0892 F600
G1 E135.8987 F2400
G1 Z0.500 F420
G1 X-21.39 Y17.55 F6000
G1 Z0.300 F420
G1 E140.1192 F1800
G1 X-23.08 Y17.55 E140.2246 F600
G1 E136.0341 F2400
G1 Z0.500 F420
G1 X-20.33 Y17.90 F6000
G1 Z0.300 F420
G1 E140.2638 F1800
G1 X-18.46 Y17.90 E140.3805 F600
G1 E136.1809 F2400
G1 Z0.500 F420
G1 X-16.18 Y19.94 F6000
G1 Z0.300 F420
G1 E140.4893 F1800
G1 X-15.67 Y19.80 E140.5223 F600
G1 X-15.28 Y19.42 E140.5563
G1 X-15.04 Y18.86 E140.5943
G1 X-14.96 Y18.18 E140.6370
G1 X-15.04 Y17.51 E140.6791
G1 X-15.28 Y16.95 E140.7170
G1 X-15.67 Y16.56 E140.7514
G1 X-16.18 Y16.42 E140.7844
G1 X-16.70 Y16.56 E140.8180
G1 X-17.08 Y16.95 E140.8520
G1 X-17.32 Y17.51 E140.8900
G1 X-17.40 Y18.18 E140.9321
G1 X-17.32 Y18.85 E140.9741
G1 X-17.08 Y19.42 E141.0127
G1 X-16.70 Y19.80 E141.0462
G1 X-16.18 Y19.94 E141.0798
G1 E136.8035 F2400
G1 Z0.500 F420
G1 X-13.89 Y16.71 F6000
G1 Z0.300 F420
G1 E140.3898 F1800
G1 X-13.89 Y16.65 E140.3935 F600
G1 E136.8294 F2400
G1 Z0.500 F420
G1 X-12.83 Y19.44 F6000
G1 Z0.300 F420
G1 E141.1294 F1800
G1 X-12.64 Y19.65 E141.1471 F600
G1 X-12.41 Y19.81 E141.1646
G1 X-12.15 Y19.90 E141.1817
G1 X-11.87 Y19.94 E141.1994
G1 X-11.50 Y19.88 E141.2228
G1 X-11.20 Y19.68 E141.2452
G1 X-11.01 Y19.39 E141.2669
G1 X-10.94 Y19.02 E141.2903
G1 X-11.04 Y18.63 E141.3155
G1 X-11.32 Y18.27 E141.3439
G1 X-12.10 Y17.64 E141.4064
G1 X-12.40 Y17.23 E141.4381
G1 X-12.79 Y16.48 E141.4908
G1 X-10.97 Y16.48 E141.6044
G1 E137.3339 F2400
G1 Z0.500 F420
G1 X-29.50 Y13.89 F6000
G1 Z0.300 F420
G1 E141.6260 F1800
G1 X-28.64 Y11.48 E141.7856 F600
G1 X-27.90 Y13.89 E141.9428
G1 X-27.13 Y11.48 E142.1006
G1 X-26.29 Y13.89 E142.2598
G1 E137.9991 F2400
G1 Z0.500 F420
G1 X-25.23 Y13.26 F6000
G1 Z0.300 F420
G1 E142.2201 F1800
G1 X-23.54 Y13.26 E142.3255 F600
G1 E138.1348 F2400
G1 Z0.500 F420
G1 X-23.54 Y12.55 F6000
G1 Z0.300 F420
G1 E142.3556 F1800
G1 X-25.23 Y12.55 E142.4610 F600
G1 E138.2703 F2400
G1 Z0.500 F420
G1 X-22.48 Y14.00 F6000
G1 Z0.300 F420
G1 E142.5487 F1800
G1 X-22.01 Y14.24 E142.5817 F600
G1 X-21.64 Y14.55 E142.6118
G1 X-21.39 Y14.88 E142.6376
G1 X-21.39 Y11.48 E142.8496
G1 E138.6023 F2400
G1 Z0.500 F420
G1 X-20.33 Y11.71 F6000
G1 Z0.300 F420
G1 E142.1885 F1800
G1 X-20.33 Y11.65 E142.1923 F600
G1 E138.6282 F2400
G1 Z0.500 F420
G1 X-18.05 Y14.94 F6000
G1 Z0.300 F420
G1 E142.9342 F1800
G1 X-17.54 Y14.80 E142.9672 F600
G1 X-17.15 Y14.42 E143.0011
G1 X-16.91 Y13.86 E143.0391
G1 X-16.83 Y13.18 E143.0818
G1 X-16.91 Y12.51 E143.1239
G1 X-17.15 Y11.95 E143.1619
G1 X-17.54 Y11.56 E143.1963
G1 X-18.05 Y11.42 E143.2293
G1 X-18.57 Y11.56 E143.2629
G1 X-18.95 Y11.95 E143.2969
G1 X-19.19 Y12.51 E143.3349
G1 X-19.27 Y13.18 E143.3769
G1 X-19.19 Y13.85 E143.4190
G1 X-18.95 Y14.42 E143.4576
G1 X-18.57 Y14.80 E143.4911
G1 X-18.05 Y14.94 E143.5247
G1 E139.2483 F2400
G1 Z0.500 F420
;structure:shell-inner
G1 X56.00 Y0.00 F6000
G1 Z0.300 F420
G1 E141.9483 F1800
G1 X55.76 Y4.88 E142.2529 F60
G1 X55.09 Y9.71
G1 X54.01 Y14.47
G1 X52.52 Y19.12
G1 E146.3529 F1800
G1 X50.63 Y23.61 E146.9609 F481
G1 X48.35 Y27.92 E147.5686
G1 X45.71 Y32.01 E148.1760
G1 X42.73 Y35.85 E148.7830
G1 X39.42 Y39.42 E149.3898
G1 X35.82 Y42.69 E149.9963
G1 X33.58 Y44.45 E150.3518
G1 E146.4518 F2400
G1 X29.56 Y47.18 F300
G1 X25.32 Y49.55
G1 X20.90 Y51.55
G1 X16.32 Y53.15
G1 X15.77 Y53.31
G1 E148.3151 F1800
G1 X11.06 Y54.45 E148.6174 F60
G1 X6.26 Y55.18 E148.9197
G1 X1.43 Y55.49 E149.2217
G1 E145.8620 F2400
G1 Z0.500 F420
G1 X54.00 Y0.00 F6000
G1 Z0.300 F420
G1 E148.3621 F1800
G1 X53.77 Y4.70 E148.6558 F60
G1 X53.12 Y9.37
G1 X52.08 Y13.95
G1 X50.64 Y18.43
G1 E152.9558 F1800
G1 X48.81 Y22.76 E153.5420 F481
G1 X46.62 Y26.92 E154.1279
G1 X44.07 Y30.86 E154.7135
G1 X41.20 Y34.57 E155.2989
G1 X38.01 Y38.01 E155.8839
G1 X34.53 Y41.15 E156.4686
G1 X31.44 Y43.53 E156.9547
G1 E152.8546 F2400
G1 X27.52 Y46.08 F300
G1 X23.38 Y48.28
G1 X19.08 Y50.11
G1 X14.63 Y51.55
G1 X13.40 Y51.88
G1 E154.8240 F1800
G1 X8.82 Y52.82 E155.1155 F60
G1 X4.18 Y53.36 E155.4068
G1 X-0.49 Y53.49 E155.6979
G1 E152.3352 F2400
G1 Z0.500 F420
G1 X52.00 Y0.00 F6000
G1 Z0.300 F420
G1 E154.8353 F1800
G1 X51.77 Y4.53 E155.1181 F60
G1 X51.16 Y9.02
G1 X50.15 Y13.44
G1 X48.76 Y17.75
G1 E159.6181 F1800
G1 X47.00 Y21.92 E160.1826 F481
G1 X44.89 Y25.92 E160.7467
G1 X42.44 Y29.71 E161.3106
G1 X39.66 Y33.28 E161.8741
G1 X36.59 Y36.59 E162.4374
G1 X33.25 Y39.62 E163.0003
G1 X29.65 Y42.35 E163.5630
G1 X29.29 Y42.59 E163.6169
G1 E159.3169 F2400
G1 X25.46 Y44.96 F300
G1 X21.43 Y46.98
G1 X17.24 Y48.64
G1 X12.93 Y49.93
G1 X11.01 Y50.38
G1 E161.4628 F1800
G1 X6.57 Y51.12 E161.7433 F60
G1 X2.09 Y51.47 E162.0236
G1 X-2.40 Y51.43 E162.3038
G1 E158.9381 F2400
G1 Z0.500 F420
G1 X50.00 Y0.00 F6000
G1 Z0.300 F420
G1 E161.4381 F1800
G1 X49.78 Y4.36 E161.7101 F60
G1 X49.19 Y8.67
G1 X48.22 Y12.92
G1 X46.88 Y17.06
G1 E166.4101 F1800
G1 X45.19 Y21.07 E166.9528 F481
G1 X43.16 Y24.92 E167.4952
G1 X40.80 Y28.57 E168.0373
G1 X38.13 Y32.00 E168.5790
G1 X35.18 Y35.18 E169.1205
G1 X31.96 Y38.09 E169.6617
G1 X28.50 Y40.71 E170.2026
G1 X27.13 Y41.62 E170.4089
G1 E165.9089 F2400
G1 X23.38 Y43.81 F300
G1 X19.46 Y45.65
G1 X15.40 Y47.15
G1 X11.23 Y48.28
G1 X8.60 Y48.80
G1 E168.2369 F1800
G1 X4.32 Y49.34 E168.5064 F60
G1 X-0.00 Y49.50 E168.7758
G1 X-4.31 Y49.28 E169.0450
G1 E165.6762 F2400
G1 Z0.500 F420
G1 X48.00 Y0.00 F6000
G1 Z0.300 F420
G1 E168.1762 F1800
G1 X47.79 Y4.18 E168.4373 F60
G1 X47.22 Y8.33
G1 X46.28 Y12.40
G1 X45.00 Y16.38
G1 E173.3373 F1800
G1 X43.38 Y20.23 E173.8582 F481
G1 X41.42 Y23.92 E174.3789
G1 X39.16 Y27.42 E174.8992
G1 X36.60 Y30.71 E175.4192
G1 X33.76 Y33.76 E175.9390
G1 X30.68 Y36.56 E176.4584
G1 X27.36 Y39.07 E176.9775
G1 X24.94 Y40.63 E177.3362
G1 E172.6362 F2400
G1 X21.29 Y42.62 F300
G1 X17.49 Y44.29
G1 X13.55 Y45.62
G1 X9.52 Y46.60
G1 X6.18 Y47.14
G1 E175.1465 F1800
G1 X2.05 Y47.47 E175.4051 F60
G1 X-2.09 Y47.44 E175.6635
G1 X-6.22 Y47.05 E175.9218
G1 E172.5497 F2400
G1 Z0.500 F420
G1 X46.00 Y0.00 F6000
G1 Z0.300 F420
G1 E175.0498 F1800
G1 X45.80 Y4.01 E175.3000 F60
G1 X45.25 Y7.98
G1 X44.35 Y11.88
G1 X43.12 Y15.69
G1 E180.4000 F1800
G1 X41.56 Y19.38 E180.8992 F481
G1 X39.69 Y22.92 E181.3980
G1 X37.52 Y26.27 E181.8966
G1 X35.07 Y29.43 E182.3949
G1 X32.35 Y32.35 E182.8928
G1 X29.39 Y35.03 E183.3905
G1 X26.21 Y37.43 E183.8879
G1 X22.83 Y39.55 E184.3849
G1 X22.74 Y39.60 E184.3988
G1 E179.4988 F2400
G1 X19.19 Y41.41 F300
G1 X15.49 Y42.90
G1 X11.69 Y44.06
G1 X7.80 Y44.88
G1 X3.86 Y45.36
G1 X3.75 Y45.37
G1 E182.2097 F1800
G1 X-0.22 Y45.50 E182.4573 F60
G1 X-4.18 Y45.28 E182.7048
G1 X-8.10 Y44.71 E182.9521
G1 E179.5767 F2400
G1 Z0.500 F420
;structure:shell-outer
G1 X-70.00 Y0.00 F6000
G1 Z0.300 F420
G1 E183.6516 F1800
G1 X-42.00 Y0.00 E185.3977 F600
G1 E181.1104 F2400
G1 Z0.500 F420
;structure:shell-outer
G1 X-29.50 Y-3.52 F6000
G1 Z0.300 F420
G1 E185.4124 F1800
G1 X-29.50 Y-0.12 E185.6244 F600
G1 X-28.27 Y-0.12 E185.7011
G1 X-27.88 Y-0.22 E185.7262
G1 X-27.57 Y-0.42 E185.7492
G1 X-27.47 Y-0.55 E185.7595
G1 X-27.34 Y-0.96 E185.7863
G1 X-27.39 Y-1.20 E185.8016
G1 X-27.50 Y-1.44 E185.8180
G1 X-27.72 Y-1.64 E185.8366
G1 X-28.49 Y-1.82 E185.8859
G1 E181.6159 F2400
G1 Z0.500 F420
G1 X-29.50 Y-1.82 F6000
G1 Z0.300 F420
G1 E185.8860 F1800
G1 X-28.49 Y-1.82 E185.9490 F600
G1 X-27.98 Y-2.00 E185.9828
G1 X-27.59 Y-2.62 E186.0284
G1 X-27.34 Y-3.52 E186.0867
G1 E181.8478 F2400
G1 Z0.500 F420
G1 X-26.28 Y-2.31 F6000
G1 Z0.300 F420
G1 E186.1551 F1800
G1 X-24.14 Y-2.31 E186.2886 F600
G1 X-24.22 Y-1.78 E186.3220
G1 X-24.43 Y-1.39 E186.3496
G1 X-24.77 Y-1.14 E186.3759
G1 X-25.21 Y-1.05 E186.4039
G1 X-25.64 Y-1.14 E186.4313
G1 X-25.98 Y-1.39 E186.4577
G1 X-26.20 Y-1.78 E186.4856
G1 X-26.28 Y-2.31 E186.5190
G1 X-26.20 Y-2.85 E186.5531
G1 X-25.97 Y-3.25 E186.5818
G1 X-25.62 Y-3.49 E186.6083
G1 X-25.16 Y-3.58 E186.6375
G1 X-24.82 Y-3.53 E186.6590
G1 X-24.53 Y-3.39 E186.6790
G1 X-24.32 Y-3.17 E186.6980
G1 X-24.20 Y-2.87 E186.7182
G1 E182.4430 F2400
G1 Z0.500 F420
G1 X-23.08 Y-1.74 F6000
G1 Z0.300 F420
G1 E186.6638 F1800
G1 X-21.39 Y-1.74 E186.7692 F600
G1 E182.5788 F2400
G1 Z0.500 F420
G1 X-21.39 Y-2.45 F6000
G1 Z0.300 F420
G1 E186.7992 F1800
G1 X-23.08 Y-2.45 E186.9046 F600
G1 E182.7142 F2400
G1 Z0.500 F420
G1 X-18.62 Y-3.52 F6000
G1 Z0.300 F420
G1 E187.0086 F1800
G1 X-18.62 Y-0.12 E187.2207 F600
G1 X-20.33 Y-2.35 E187.3959
G1 X-18.02 Y-2.35 E187.5400
G1 E183.2768 F2400
G1 Z0.500 F420
G1 X-16.95 Y-3.29 F6000
G1 Z0.300 F420
G1 E186.8630 F1800
G1 X-16.95 Y-3.35 E186.8668 F600
G1 E183.3027 F2400
G1 Z0.500 F420
G1 X-15.89 Y-0.56 F6000
G1 Z0.300 F420
G1 E187.6027 F1800
G1 X-15.70 Y-0.35 E187.6204 F600
G1 X-15.47 Y-0.19 E187.6378
G1 X-15.21 Y-0.10 E187.6550
G1 X-14.93 Y-0.06 E187.6726
G1 X-14.56 Y-0.12 E187.6960
G1 X-14.26 Y-0.32 E187.7185
G1 X-14.07 Y-0.61 E187.7401
G1 X-14.00 Y-0.98 E187.7636
G1 X-14.10 Y-1.37 E187.7887
G1 X-14.38 Y-1.73 E187.8172
G1 X-15.16 Y-2.36 E187.8797
G1 X-15.46 Y-2.77 E187.9114
G1 X-15.85 Y-3.52 E187.9641
G1 X-14.03 Y-3.52 E188.0776
G1 E183.8071 F2400
G1 Z0.500 F420
G1 X-12.94 Y-2.10 F6000
G1 Z0.300 F420
G1 E188.0373 F1800
G1 X-11.07 Y-2.10 E188.1540 F600
G1 E183.9543 F2400
G1 Z0.500 F420
G1 X-8.02 Y-0.12 F6000
G1 Z0.300 F420
G1 E188.2573 F1800
G1 X-9.77 Y-0.12 E188.3665 F600
G1 X-9.91 Y-1.86 E188.4754
G1 X-9.63 Y-1.55 E188.5014
G1 X-9.46 Y-1.43 E188.5144
G1 X-9.27 Y-1.36 E188.5270
G1 X-9.08 Y-1.33 E188.5390
G1 X-8.88 Y-1.32 E188.5515
G1 X-8.47 Y-1.41 E188.5777
G1 X-8.15 Y-1.63 E188.6019
G1 X-7.94 Y-1.97 E188.6268
G1 X-7.86 Y-2.39 E188.6535
G1 X-7.93 Y-2.86 E188.6831
G1 X-8.14 Y-3.23 E188.7097
G1 X-8.49 Y-3.49 E188.7368
G1 X-8.99 Y-3.58 E188.7685
G1 X-9.36 Y-3.52 E188.7919
G1 X-9.67 Y-3.36 E188.8137
G1 X-9.89 Y-3.09 E188.8354
G1 X-10.01 Y-2.73 E188.8591
G1 E184.5878 F2400
G1 Z0.500 F420
G1 X-6.80 Y-3.29 F6000
G1 Z0.300 F420
G1 E188.1741 F1800
G1 X-6.80 Y-3.35 E188.1778 F600
G1 E184.6137 F2400
G1 Z0.500 F420
G1 X-5.73 Y-0.56 F6000
G1 Z0.300 F420
G1 E188.9137 F1800
G1 X-5.54 Y-0.35 E188.9314 F600
G1 X-5.31 Y-0.19 E188.9489
G1 X-5.05 Y-0.10 E188.9660
G1 X-4.77 Y-0.06 E188.9837
G1 X-4.40 Y-0.12 E189.0071
G1 X-4.10 Y-0.32 E189.0295
G1 X-3.91 Y-0.61 E189.0512
G1 X-3.84 Y-0.98 E189.0746
G1 X-3.94 Y-1.37 E189.0998
G1 X-4.22 Y-1.73 E189.1282
G1 X-5.00 Y-2.36 E189.1907
G1 X-5.30 Y-2.77 E189.2224
G1 X-5.69 Y-3.52 E189.2752
G1 X-3.87 Y-3.52 E189.3887
G1 E185.1182 F2400
G1 Z0.500 F420
G1 X-29.50 Y-5.12 F6000
G1 Z0.300 F420
G1 E189.4062 F1800
G1 X-28.53 Y-5.12 E189.4667 F600
G1 X-28.14 Y-5.22 E189.4918
G1 X-27.83 Y-5.42 E189.5148
G1 X-27.73 Y-5.55 E189.5250
G1 X-27.60 Y-5.96 E189.5519
G1 X-27.65 Y-6.20 E189.5672
G1 X-27.72 Y-6.44 E189.5827
G1 X-27.98 Y-6.64 E189.6032
G1 X-28.49 Y-6.82 E189.6369
G1 X-29.50 Y-6.82 E189.6999
G1 E185.4436 F2400
G1 Z0.500 F420
G1 X-28.49 Y-6.82 F6000
G1 Z0.300 F420
G1 E189.7456 F1800
G1 X-27.72 Y-6.99 E189.7948 F600
G1 X-27.50 Y-7.19 E189.8133
G1 X-27.39 Y-7.44 E189.8303
G1 X-27.34 Y-7.68 E189.8456
G1 X-27.47 Y-8.09 E189.8725
G1 X-27.57 Y-8.22 E189.8827
G1 X-27.88 Y-8.41 E189.9054
G1 X-28.27 Y-8.52 E189.9306
G1 X-29.50 Y-8.52 E190.0073
G1 X-29.50 Y-5.12 E190.2194
G1 E185.9492 F2400
G1 Z0.500 F420
G1 X-26.28 Y-7.31 F6000
G1 Z0.300 F420
G1 E190.2567 F1800
G1 X-24.14 Y-7.31 E190.3901 F600
G1 X-24.22 Y-6.78 E190.4236
G1 X-24.43 Y-6.39 E190.4512
G1 X-24.77 Y-6.14 E190.4775
G1 X-25.21 Y-6.05 E190.5055
G1 X-25.64 Y-6.14 E190.5329
G1 X-25.98 Y-6.39 E190.5592
G1 X-26.20 Y-6.78 E190.5872
G1 X-26.28 Y-7.31 E190.6206
G1 X-26.20 Y-7.85 E190.6546
G1 X-25.97 Y-8.25 E190.6834
G1 X-25.62 Y-8.49 E190.7099
G1 X-25.16 Y-8.58 E190.7391
G1 X-24.82 Y-8.53 E190.7605
G1 X-24.53 Y-8.39 E190.7806
G1 X-24.32 Y-8.17 E190.7996
G1 X-24.20 Y-7.87 E190.8197
G1 E186.5445 F2400
G1 Z0.500 F420
G1 X-23.08 Y-6.74 F6000
G1 Z0.300 F420
G1 E190.7654 F1800
G1 X-21.39 Y-6.74 E190.8708 F600
G1 E186.6803 F2400
G1 Z0.500 F420
G1 X-21.39 Y-7.45 F6000
G1 Z0.300 F420
G1 E190.9008 F1800
G1 X-23.08 Y-7.45 E191.0062 F600
G1 E186.8157 F2400
G1 Z0.500 F420
G1 X-20.33 Y-7.10 F6000
G1 Z0.300 F420
G1 E191.0454 F1800
G1 X-18.46 Y-7.10 E191.1621 F600
G1 E186.9625 F2400
G1 Z0.500 F420
G1 X-16.18 Y-5.06 F6000
G1 Z0.300 F420
G1 E191.2709 F1800
G1 X-15.67 Y-5.20 E191.3039 F600
G1 X-15.28 Y-5.58 E191.3379
G1 X-15.04 Y-6.14 E191.3759
G1 X-14.96 Y-6.82 E191.4186
G1 X-15.04 Y-7.49 E191.4607
G1 X-15.28 Y-8.05 E191.4987
G1 X-15.67 Y-8.44 E191.5331
G1 X-16.18 Y-8.58 E191.5660
G1 X-16.70 Y-8.44 E191.5996
G1 X-17.08 Y-8.05 E191.6336
G1 X-17.32 Y-7.49 E191.6716
G1 X-17.40 Y-6.82 E191.7137
G1 X-17.32 Y-6.15 E191.7557
G1 X-17.08 Y-5.58 E191.7943
G1 X-16.70 Y-5.20 E191.8278
G1 X-16.18 Y-5.06 E191.8614
G1 E187.5851 F2400
G1 Z0.500 F420
G1 X-13.89 Y-8.29 F6000
G1 Z0.300 F420
G1 E191.1714 F1800
G1 X-13.89 Y-8.35 E191.1751 F600
G1 E187.6110 F2400
G1 Z0.500 F420
G1 X-12.78 Y-5.87 F6000
G1 Z0.300 F420
G1 E191.9107 F1800
G1 X-12.67 Y-5.53 E191.9330 F600
G1 X-12.46 Y-5.27 E191.9539
G1 X-12.17 Y-5.11 E191.9745
G1 X-11.83 Y-5.06 E191.9960
G1 X-11.44 Y-5.13 E192.0207
G1 X-11.15 Y-5.32 E192.0423
G1 X-10.97 Y-5.59 E192.0625
G1 X-10.90 Y-5.94 E192.0848
G1 X-10.97 Y-6.15 E192.0986
G1 X-11.11 Y-6.32 E192.1123
G1 X-11.48 Y-6.55 E192.1395
G1 X-11.92 Y-6.70 E192.1685
G1 X-11.48 Y-6.82 E192.1969
G1 X-11.12 Y-6.98 E192.2215
G1 X-10.83 Y-7.26 E192.2466
G1 X-10.73 Y-7.55 E192.2658
G1 X-10.80 Y-7.97 E192.2923
G1 X-11.03 Y-8.30 E192.3174
G1 X-11.37 Y-8.50 E192.3420
G1 X-11.79 Y-8.58 E192.3687
G1 X-12.19 Y-8.52 E192.3939
G1 X-12.51 Y-8.35 E192.4165
G1 X-12.73 Y-8.08 E192.4382
G1 X-12.83 Y-7.72 E192.4615
G1 E188.1916 F2400
G1 Z0.500 F420
G1 X-29.50 Y-11.11 F6000
G1 Z0.300 F420
G1 E192.4835 F1800
G1 X-28.64 Y-13.52 E192.6431 F600
G1 X-27.90 Y-11.11 E192.8003
G1 X-27.13 Y-13.52 E192.9581
G1 X-26.29 Y-11.11 E193.1173
G1 E188.8568 F2400
G1 Z0.500 F420
G1 X-25.23 Y-11.74 F6000
G1 Z0.300 F420
G1 E193.0776 F1800
G1 X-23.54 Y-11.74 E193.1830 F600
G1 E188.9925 F2400
G1 Z0.500 F420
G1 X-23.54 Y-12.45 F6000
G1 Z0.300 F420
G1 E193.2130 F1800
G1 X-25.23 Y-12.45 E193.3184 F600
G1 E189.1279 F2400
G1 Z0.500 F420
G1 X-22.48 Y-11.00 F6000
G1 Z0.300 F420
G1 E193.4063 F1800
G1 X-22.01 Y-10.76 E193.4392 F600
G1 X-21.64 Y-10.45 E193.4693
G1 X-21.39 Y-10.12 E193.4952
G1 X-21.39 Y-13.52 E193.7072
G1 E189.4600 F2400
G1 Z0.500 F420
G1 X-20.33 Y-13.29 F6000
G1 Z0.300 F420
G1 E193.0461 F1800
G1 X-20.33 Y-13.35 E193.0499 F600
G1 E189.4858 F2400
G1 Z0.500 F420
G1 X-19.27 Y-10.56 F6000
G1 Z0.300 F420
G1 E193.7858 F1800
G1 X-19.08 Y-10.35 E193.8035 F600
G1 X-18.85 Y-10.19 E193.8209
G1 X-18.59 Y-10.10 E193.8381
G1 X-18.31 Y-10.06 E193.8557
G1 X-17.94 Y-10.12 E193.8791
G1 X-17.64 Y-10.32 E193.9016
G1 X-17.45 Y-10.61 E193.9232
G1 X-17.38 Y-10.98 E193.9467
G1 X-17.48 Y-11.37 E193.9718
G1 X-17.76 Y-11.73 E194.0003
G1 X-18.54 Y-12.36 E194.0628
G1 X-18.84 Y-12.77 E194.0945
G1 X-19.23 Y-13.52 E194.1472
G1 X-17.41 Y-13.52 E194.2607
G1 E189.9903 F2400
G1 Z0.500 F420
;structure:shell-inner
G1 X-68.00 Y0.00 F6000
G1 Z0.300 F420
G1 E192.6903 F1800
G1 X-67.71 Y-5.92 E193.0602 F60
G1 X-66.91 Y-11.80
G1 X-65.60 Y-17.58
G1 X-63.79 Y-23.22
G1 E197.2602 F1800
G1 X-61.50 Y-28.68 E198.1464 F401
G1 X-58.75 Y-33.92 E199.0323
G1 X-55.54 Y-38.89 E199.9178
G1 X-51.92 Y-43.57 E200.8030
G1 X-49.90 Y-45.85 E201.2590
G1 E197.3590 F2400
G1 X-45.70 Y-50.00 F300
G1 X-41.15 Y-53.77
G1 X-36.29 Y-57.13
G1 X-34.35 Y-58.30
G1 E199.2093 F1800
G1 X-29.12 Y-61.05 E199.5774 F60
G1 X-23.68 Y-63.33 E199.9454
G1 X-18.06 Y-65.13 E200.3131
G1 E196.9705 F2400
G1 Z0.500 F420
G1 X-66.00 Y0.00 F6000
G1 Z0.300 F420
G1 E199.4705 F1800
G1 X-65.72 Y-5.75 E199.8295 F60
G1 X-64.94 Y-11.45
G1 X-63.67 Y-17.06
G1 X-61.92 Y-22.54
G1 E204.2295 F1800
G1 X-59.69 Y-27.83 E205.0897 F401
G1 X-57.01 Y-32.92 E205.9494
G1 X-53.90 Y-37.74 E206.8089
G1 X-50.39 Y-42.28 E207.6679
G1 X-47.89 Y-45.07 E208.2284
G1 E204.1284 F2400
G1 X-43.76 Y-49.05 F300
G1 X-39.30 Y-52.65
G1 X-34.55 Y-55.86
G1 X-32.13 Y-57.26
G1 E206.0862 F1800
G1 X-27.01 Y-59.82 E206.4434 F60
G1 X-21.68 Y-61.92 E206.8004
G1 X-16.20 Y-63.55 E207.1572
G1 E203.8119 F2400
G1 Z0.500 F420
G1 X-64.00 Y0.00 F6000
G1 Z0.300 F420
G1 E206.3120 F1800
G1 X-63.73 Y-5.58 E206.6601 F60
G1 X-62.97 Y-11.10
G1 X-61.74 Y-16.54
G1 X-60.04 Y-21.85
G1 E211.2601 F1800
G1 X-57.88 Y-26.99 E212.0941 F401
G1 X-55.28 Y-31.92 E212.9278
G1 X-52.27 Y-36.60 E213.7611
G1 X-48.86 Y-41.00 E214.5941
G1 X-45.87 Y-44.28 E215.2590
G1 E210.9590 F2400
G1 X-41.82 Y-48.09 F300
G1 X-37.45 Y-51.53
G1 X-32.80 Y-54.57
G1 X-29.90 Y-56.19
G1 E213.0708 F1800
G1 X-24.88 Y-58.56 E213.4171 F60
G1 X-19.67 Y-60.48 E213.7632
G1 X-14.32 Y-61.94 E214.1091
G1 E210.7611 F2400
G1 Z0.500 F420
G1 X-62.00 Y0.00 F6000
G1 Z0.300 F420
G1 E213.2611 F1800
G1 X-61.74 Y-5.40 E213.5984 F60
G1 X-61.00 Y-10.76
G1 X-59.81 Y-16.03
G1 X-58.16 Y-21.17
G1 E218.3984 F1800
G1 X-56.07 Y-26.14 E219.2063 F401
G1 X-53.55 Y-30.92 E220.0138
G1 X-50.63 Y-35.45 E220.8210
G1 X-47.32 Y-39.71 E221.6279
G1 X-43.84 Y-43.49 E222.3972
G1 E217.8972 F2400
G1 X-39.87 Y-47.12 F300
G1 X-35.59 Y-50.40
G1 X-31.05 Y-53.28
G1 X-27.66 Y-55.09
G1 E220.1929 F1800
G1 X-22.74 Y-57.27 E220.5282 F60
G1 X-17.66 Y-59.01 E220.8634
G1 X-12.44 Y-60.29 E221.1984
G1 E217.8476 F2400
G1 Z0.500 F420
G1 X-60.00 Y0.00 F6000
G1 Z0.300 F420
G1 E220.3476 F1800
G1 X-59.74 Y-5.23 E220.6740 F60
G1 X-59.03 Y-10.41
G1 X-57.88 Y-15.51
G1 X-56.28 Y-20.48
G1 E225.6740 F1800
G1 X-54.25 Y-25.30 E226.4558 F401
G1 X-51.82 Y-29.92 E227.2372
G1 X-48.99 Y-34.30 E228.0183
G1 X-45.79 Y-38.42 E228.7990
G1 X-42.25 Y-42.25 E229.5794
G1 X-41.80 Y-42.69 E229.6728
G1 E224.9728 F2400
G1 X-37.91 Y-46.15 F300
G1 X-33.72 Y-49.25
G1 X-29.29 Y-51.98
G1 X-25.40 Y-53.96
G1 E227.4654 F1800
G1 X-20.59 Y-55.94 E227.7898 F60
G1 X-15.63 Y-57.50 E228.1140
G1 X-10.55 Y-58.61 E228.4381
G1 E225.0844 F2400
G1 Z0.500 F420
G1 X-58.00 Y0.00 F6000
G1 Z0.300 F420
G1 E227.5845 F1800
G1 X-57.75 Y-5.05 E227.9000 F60
G1 X-57.06 Y-10.06
G1 X-55.94 Y-14.99
G1 X-54.40 Y-19.80
G1 E233.1000 F1800
G1 X-52.44 Y-24.45 E233.8557 F401
G1 X-50.09 Y-28.92 E234.6110
G1 X-47.35 Y-33.16 E235.3659
G1 X-44.26 Y-37.14 E236.1206
G1 X-40.84 Y-40.84 E236.8748
G1 X-39.76 Y-41.87 E237.0988
G1 E232.1988 F2400
G1 X-35.94 Y-45.16 F300
G1 X-31.85 Y-48.10
G1 X-27.53 Y-50.66
G1 X-23.12 Y-52.79
G1 E234.8747 F1800
G1 X-18.42 Y-54.58 E235.1881 F60
G1 X-13.59 Y-55.95 E235.5015
G1 X-8.66 Y-56.89 E235.8146
G1 E232.4580 F2400
G1 Z0.500 F420
;structure:shell-outer
G1 X0.50 Y-3.52 F6000
G1 Z0.300 F420
G1 E236.5375 F1800
G1 X0.50 Y-0.12 E236.7496 F600
G1 X1.73 Y-0.12 E236.8263
G1 X2.12 Y-0.22 E236.8514
G1 X2.43 Y-0.42 E236.8744
G1 X2.53 Y-0.55 E236.8846
G1 X2.66 Y-0.96 E236.9115
G1 X2.61 Y-1.20 E236.9267
G1 X2.50 Y-1.44 E236.9432
G1 X2.28 Y-1.64 E236.9617
G1 X1.51 Y-1.82 E237.0111
G1 E232.7410 F2400
G1 Z0.500 F420
G1 X0.50 Y-1.82 F6000
G1 Z0.300 F420
G1 E237.0112 F1800
G1 X1.51 Y-1.82 E237.0742 F600
G1 X2.02 Y-2.00 E237.1079
G1 X2.41 Y-2.62 E237.1536
G1 X2.66 Y-3.52 E237.2119
G1 E232.9730 F2400
G1 Z0.500 F420
G1 X3.72 Y-2.31 F6000
G1 Z0.300 F420
G1 E237.2803 F1800
G1 X5.86 Y-2.31 E237.4137 F600
G1 X5.78 Y-1.78 E237.4472
G1 X5.57 Y-1.39 E237.4748
G1 X5.23 Y-1.14 E237.5011
G1 X4.79 Y-1.05 E237.5291
G1 X4.36 Y-1.14 E237.5565
G1 X4.02 Y-1.39 E237.5828
G1 X3.80 Y-1.78 E237.6108
G1 X3.72 Y-2.31 E237.6442
G1 X3.80 Y-2.85 E237.6782
G1 X4.03 Y-3.25 E237.7070
G1 X4.38 Y-3.49 E237.7335
G1 X4.84 Y-3.58 E237.7627
G1 X5.18 Y-3.53 E237.7841
G1 X5.47 Y-3.39 E237.8042
G1 X5.68 Y-3.17 E237.8232
G1 X5.80 Y-2.87 E237.8433
G1 E233.5682 F2400
G1 Z0.500 F420
G1 X6.92 Y-1.74 F6000
G1 Z0.300 F420
G1 E237.7889 F1800
G1 X8.61 Y-1.74 E237.8943 F600
G1 E233.7039 F2400
G1 Z0.500 F420
G1 X8.61 Y-2.45 F6000
G1 Z0.300 F420
G1 E237.9244 F1800
G1 X6.92 Y-2.45 E238.0298 F600
G1 E233.8394 F2400
G1 Z0.500 F420
G1 X11.38 Y-3.52 F6000
G1 Z0.300 F420
G1 E238.1338 F1800
G1 X11.38 Y-0.12 E238.3458 F600
G1 X9.67 Y-2.35 E238.5211
G1 X11.98 Y-2.35 E238.6651
G1 E234.4020 F2400
G1 Z0.500 F420
G1 X13.05 Y-3.29 F6000
G1 Z0.300 F420
G1 E237.9882 F1800
G1 X13.05 Y-3.35 E237.9919 F600
G1 E234.4278 F2400
G1 Z0.500 F420
G1 X16.10 Y-0.12 F6000
G1 Z0.300 F420
G1 E238.7284 F1800
G1 X14.35 Y-0.12 E238.8375 F600
G1 X14.21 Y-1.86 E238.9464
G1 X14.49 Y-1.55 E238.9725
G1 X14.66 Y-1.43 E238.9854
G1 X14.85 Y-1.36 E238.9981
G1 X15.04 Y-1.33 E239.0101
G1 X15.24 Y-1.32 E239.0226
G1 X15.65 Y-1.41 E239.0487
G1 X15.97 Y-1.63 E239.0729
G1 X16.18 Y-1.97 E239.0979
G1 X16.26 Y-2.39 E239.1245
G1 X16.19 Y-2.86 E239.1542
G1 X15.98 Y-3.23 E239.1807
G1 X15.63 Y-3.49 E239.2079
G1 X15.13 Y-3.58 E239.2396
G1 X14.76 Y-3.52 E239.2630
G1 X14.45 Y-3.36 E239.2847
G1 X14.23 Y-3.09 E239.3064
G1 X14.11 Y-2.73 E239.3301
G1 E235.0589 F2400
G1 Z0.500 F420
G1 X17.32 Y-2.10 F6000
G1 Z0.300 F420
G1 E239.2889 F1800
G1 X19.19 Y-2.10 E239.4055 F600
G1 E235.2060 F2400
G1 Z0.500 F420
G1 X22.24 Y-0.12 F6000
G1 Z0.300 F420
G1 E239.5089 F1800
G1 X20.49 Y-0.12 E239.6180 F600
G1 X20.35 Y-1.86 E239.7269
G1 X20.63 Y-1.55 E239.7529
G1 X20.80 Y-1.43 E239.7659
G1 X20.99 Y-1.36 E239.7785
G1 X21.18 Y-1.33 E239.7905
G1 X21.38 Y-1.32 E239.8030
G1 X21.79 Y-1.41 E239.8292
G1 X22.11 Y-1.63 E239.8534
G1 X22.32 Y-1.97 E239.8783
G1 X22.40 Y-2.39 E239.9050
G1 X22.33 Y-2.86 E239.9346
G1 X22.12 Y-3.23 E239.9611
G1 X21.77 Y-3.49 E239.9883
G1 X21.27 Y-3.58 E240.0200
G1 X20.90 Y-3.52 E240.0434
G1 X20.59 Y-3.36 E240.0651
G1 X20.37 Y-3.09 E240.0869
G1 X20.25 Y-2.73 E240.1105
G1 E235.8395 F2400
G1 Z0.500 F420
G1 X23.46 Y-3.29 F6000
G1 Z0.300 F420
G1 E239.4258 F1800
G1 X23.46 Y-3.35 E239.4295 F600
G1 E235.8654 F2400
G1 Z0.500 F420
G1 X26.51 Y-0.12 F6000
G1 Z0.300 F420
G1 E240.1660 F1800
G1 X24.76 Y-0.12 E240.2751 F600
G1 X24.62 Y-1.86 E240.3840
G1 X24.90 Y-1.55 E240.4100
G1 X25.07 Y-1.43 E240.4230
G1 X25.26 Y-1.36 E240.4356
G1 X25.45 Y-1.33 E240.4476
G1 X25.65 Y-1.32 E240.4601
G1 X26.06 Y-1.41 E240.4863
G1 X26.38 Y-1.63 E240.5105
G1 X26.59 Y-1.97 E240.5354
G1 X26.67 Y-2.39 E240.5621
G1 X26.60 Y-2.86 E240.5917
G1 X26.39 Y-3.23 E240.6183
G1 X26.04 Y-3.49 E240.6455
G1 X25.54 Y-3.58 E240.6772
G1 X25.17 Y-3.52 E240.7005
G1 X24.86 Y-3.36 E240.7223
G1 X24.64 Y-3.09 E240.7440
G1 X24.52 Y-2.73 E240.7677
G1 E236.4965 F2400
G1 Z0.500 F420
G1 X0.50 Y-5.12 F6000
G1 Z0.300 F420
G1 E240.7843 F1800
G1 X1.47 Y-5.12 E240.8448 F600
G1 X1.86 Y-5.22 E240.8699
G1 X2.17 Y-5.42 E240.8929
G1 X2.27 Y-5.55 E240.9031
G1 X2.40 Y-5.96 E240.9300
G1 X2.35 Y-6.20 E240.9452
G1 X2.28 Y-6.44 E240.9608
G1 X2.02 Y-6.64 E240.9813
G1 X1.51 Y-6.82 E241.0150
G1 X0.50 Y-6.82 E241.0780
G1 E236.8219 F2400
G1 Z0.500 F420
G1 X1.51 Y-6.82 F6000
G1 Z0.300 F420
G1 E241.1237 F1800
G1 X2.28 Y-6.99 E241.1728 F600
G1 X2.50 Y-7.19 E241.1914
G1 X2.61 Y-7.44 E241.2084
G1 X2.66 Y-7.68 E241.2237
G1 X2.53 Y-8.09 E241.2505
G1 X2.43 Y-8.22 E241.2607
G1 X2.12 Y-8.41 E241.2834
G1 X1.73 Y-8.52 E241.3087
G1 X0.50 Y-8.52 E241.3854
G1 X0.50 Y-5.12 E241.5974
G1 E237.3274 F2400
G1 Z0.500 F420
G1 X3.72 Y-7.31 F6000
G1 Z0.300 F420
G1 E241.6346 F1800
G1 X5.86 Y-7.31 E241.7681 F600
G1 X5.78 Y-6.78 E241.8015
G1 X5.57 Y-6.39 E241.8292
G1 X5.23 Y-6.14 E241.8555
G1 X4.79 Y-6.05 E241.8835
G1 X4.36 Y-6.14 E241.9109
G1 X4.02 Y-6.39 E241.9372
G1 X3.80 Y-6.78 E241.9651
G1 X3.72 Y-7.31 E241.9985
G1 X3.80 Y-7.85 E242.0326
G1 X4.03 Y-8.25 E242.0614
G1 X4.38 Y-8.49 E242.0878
G1 X4.84 Y-8.58 E242.1170
G1 X5.18 Y-8.53 E242.1385
G1 X5.47 Y-8.39 E242.1586
G1 X5.68 Y-8.17 E242.1775
G1 X5.80 Y-7.87 E242.1977
G1 E237.9227 F2400
G1 Z0.500 F420
G1 X6.92 Y-6.74 F6000
G1 Z0.300 F420
G1 E242.1434 F1800
G1 X8.61 Y-6.74 E242.2488 F600
G1 E238.0584 F2400
G1 Z0.500 F420
G1 X8.61 Y-7.45 F6000
G1 Z0.300 F420
G1 E242.2789 F1800
G1 X6.92 Y-7.45 E242.3843 F600
G1 E238.1939 F2400
G1 Z0.500 F420
G1 X9.67 Y-7.10 F6000
G1 Z0.300 F420
G1 E242.4235 F1800
G1 X11.54 Y-7.10 E242.5401 F600
G1 E238.3407 F2400
G1 Z0.500 F420
G1 X13.82 Y-5.06 F6000
G1 Z0.300 F420
G1 E242.6490 F1800
G1 X14.33 Y-5.20 E242.6820 F600
G1 X14.72 Y-5.58 E242.7159
G1 X14.96 Y-6.14 E242.7539
G1 X15.04 Y-6.82 E242.7966
G1 X14.96 Y-7.49 E242.8387
G1 X14.72 Y-8.05 E242.8767
G1 X14.33 Y-8.44 E242.9111
G1 X13.82 Y-8.58 E242.9441
G1 X13.30 Y-8.44 E242.9777
G1 X12.92 Y-8.05 E243.0116
G1 X12.68 Y-7.49 E243.0496
G1 X12.60 Y-6.82 E243.0917
G1 X12.68 Y-6.15 E243.1338
G1 X12.92 Y-5.58 E243.1723
G1 X13.30 Y-5.20 E243.2059
G1 X13.82 Y-5.06 E243.2394
G1 E238.9632 F2400
G1 Z0.500 F420
G1 X16.11 Y-8.29 F6000
G1 Z0.300 F420
G1 E242.5495 F1800
G1 X16.11 Y-8.35 E242.5532 F600
G1 E238.9891 F2400
G1 Z0.500 F420
G1 X19.16 Y-5.12 F6000
G1 Z0.300 F420
G1 E243.2897 F1800
G1 X17.41 Y-5.12 E243.3988 F600
G1 X17.27 Y-6.86 E243.5077
G1 X17.55 Y-6.55 E243.5338
G1 X17.72 Y-6.43 E243.5467
G1 X17.91 Y-6.36 E243.5594
G1 X18.10 Y-6.33 E243.5714
G1 X18.30 Y-6.32 E243.5839
G1 X18.71 Y-6.41 E243.6100
G1 X19.03 Y-6.63 E243.6343
G1 X19.24 Y-6.97 E243.6592
G1 X19.32 Y-7.39 E243.6858
G1 X19.25 Y-7.86 E243.7155
G1 X19.04 Y-8.23 E243.7420
G1 X18.69 Y-8.49 E243.7692
G1 X18.19 Y-8.58 E243.8009
G1 X17.82 Y-8.52 E243.8243
G1 X17.51 Y-8.36 E243.8460
G1 X17.29 Y-8.09 E243.8677
G1 X17.17 Y-7.73 E243.8914
G1 E239.6202 F2400
G1 Z0.500 F420
G1 X0.50 Y-11.11 F6000
G1 Z0.300 F420
G1 E243.9121 F1800
G1 X1.36 Y-13.52 E244.0717 F600
G1 X2.10 Y-11.11 E244.2289
G1 X2.87 Y-13.52 E244.3867
G1 X3.71 Y-11.11 E244.5459
G1 E240.2854 F2400
G1 Z0.500 F420
G1 X4.77 Y-11.74 F6000
G1 Z0.300 F420
G1 E244.5062 F1800
G1 X6.46 Y-11.74 E244.6116 F600
G1 E240.4211 F2400
G1 Z0.500 F420
G1 X6.46 Y-12.45 F6000
G1 Z0.300 F420
G1 E244.6416 F1800
G1 X4.77 Y-12.45 E244.7470 F600
G1 E240.5565 F2400
G1 Z0.500 F420
G1 X7.52 Y-11.00 F6000
G1 Z0.300 F420
G1 E244.8349 F1800
G1 X7.99 Y-10.76 E244.8678 F600
G1 X8.36 Y-10.45 E244.8979
G1 X8.61 Y-10.12 E244.9237
G1 X8.61 Y-13.52 E245.1357
G1 E240.8886 F2400
G1 Z0.500 F420
G1 X9.67 Y-13.29 F6000
G1 Z0.300 F420
G1 E244.4747 F1800
G1 X9.67 Y-13.35 E244.4785 F600
G1 E240.9144 F2400
G1 Z0.500 F420
G1 X12.77 Y-10.83 F6000
G1 Z0.300 F420
G1 E245.2297 F1800
G1 X12.46 Y-10.26 E245.2702 F600
G1 X11.87 Y-10.06 E245.3090
G1 X11.36 Y-10.18 E245.3417
G1 X11.01 Y-10.53 E245.3726
G1 X10.80 Y-11.13 E245.4122
G1 X10.73 Y-11.95 E245.4636
G1 X10.80 Y-12.64 E245.5068
G1 X11.02 Y-13.16 E245.5420
G1 X11.36 Y-13.47 E245.5707
G1 X11.83 Y-13.58 E245.6008
G1 X12.28 Y-13.49 E245.6294
G1 X12.60 Y-13.24 E245.6548
G1 X12.78 Y-12.87 E245.6804
G1 X12.85 Y-12.44 E245.7076
G1 X12.78 Y-12.04 E245.7329
G1 X12.59 Y-11.69 E245.7578
G1 X12.28 Y-11.46 E245.7818
G1 X11.88 Y-11.38 E245.8073
G1 X11.42 Y-11.47 E245.8365
G1 X11.00 Y-11.72 E245.8670
G1 X10.73 Y-11.95 E245.8891
G1 E241.6052 F2400
G1 Z0.500 F420
;structure:shell-inner
G1 X-56.00 Y0.00 F6000
G1 Z0.300 F420
G1 E244.3053 F1800
G1 X-55.76 Y-4.88 E244.6099 F60
G1 X-55.09 Y-9.71
G1 X-54.01 Y-14.47
G1 X-52.52 Y-19.12
G1 E249.1099 F1800
G1 X-50.63 Y-23.61 E250.0827 F301
G1 X-48.35 Y-27.92 E251.0550
G1 X-45.71 Y-32.01 E252.0268
G1 X-42.73 Y-35.85 E252.9981
G1 X-42.37 Y-36.27 E253.1087
G1 E249.1087 F2400
G1 X-39.03 Y-39.81 F300
G1 X-35.39 Y-43.04
G1 X-31.49 Y-45.93
G1 X-27.35 Y-48.48
G1 X-26.87 Y-48.75
G1 E250.9971 F1800
G1 X-22.51 Y-50.88 E251.2999 F60
G1 X-17.98 Y-52.62 E251.6025
G1 X-13.32 Y-53.96 E251.9049
G1 E248.5453 F2400
G1 Z0.500 F420
G1 X-54.00 Y0.00 F6000
G1 Z0.300 F420
G1 E251.0454 F1800
G1 X-53.77 Y-4.70 E251.3391 F60
G1 X-53.12 Y-9.37
G1 X-52.08 Y-13.95
G1 X-50.64 Y-18.43
G1 E256.0391 F1800
G1 X-48.81 Y-22.76 E256.9770 F301
G1 X-46.62 Y-26.92 E257.9145
G1 X-44.07 Y-30.86 E258.8515
G1 X-41.20 Y-34.57 E259.7880
G1 X-40.37 Y-35.51 E260.0380
G1 E255.8380 F2400
G1 X-37.11 Y-38.88 F300
G1 X-33.56 Y-41.94
G1 X-29.76 Y-44.68
G1 X-25.74 Y-47.08
G1 X-24.63 Y-47.66
G1 E257.8369 F1800
G1 X-20.37 Y-49.60 E258.1287 F60
G1 X-15.97 Y-51.16 E258.4204
G1 X-11.44 Y-52.33 E258.7119
G1 E255.3494 F2400
G1 Z0.500 F420
G1 X-52.00 Y0.00 F6000
G1 Z0.300 F420
G1 E257.8494 F1800
G1 X-51.77 Y-4.53 E258.1323 F60
G1 X-51.16 Y-9.02
G1 X-50.15 Y-13.44
G1 X-48.76 Y-17.75
G1 E263.0323 F1800
G1 X-47.00 Y-21.92 E263.9354 F301
G1 X-44.89 Y-25.92 E264.8381
G1 X-42.44 Y-29.71 E265.7402
G1 X-39.66 Y-33.28 E266.6419
G1 X-38.37 Y-34.74 E267.0312
G1 E262.6312 F2400
G1 X-35.18 Y-37.94 F300
G1 X-31.72 Y-40.84
G1 X-28.03 Y-43.42
G1 X-24.12 Y-45.68
G1 X-22.38 Y-46.54
G1 E264.8116 F1800
G1 X-18.23 Y-48.29 E265.0925 F60
G1 X-13.94 Y-49.67 E265.3732
G1 X-9.55 Y-50.67 E265.6538
G1 E262.2882 F2400
G1 Z0.500 F420
G1 X-50.00 Y0.00 F6000
G1 Z0.300 F420
G1 E264.7882 F1800
G1 X-49.78 Y-4.36 E265.0602 F60
G1 X-49.19 Y-8.67
G1 X-48.22 Y-12.92
G1 X-46.88 Y-17.06
G1 E270.1602 F1800
G1 X-45.19 Y-21.07 E271.0285 F301
G1 X-43.16 Y-24.92 E271.8963
G1 X-40.80 Y-28.57 E272.7637
G1 X-38.13 Y-32.00 E273.6306
G1 X-36.36 Y-33.97 E274.1591
G1 E269.5591 F2400
G1 X-33.25 Y-36.99 F300
G1 X-29.88 Y-39.72
G1 X-26.29 Y-42.15
G1 X-22.50 Y-44.26
G1 X-20.10 Y-45.38
G1 E271.9231 F1800
G1 X-16.06 Y-46.93 E272.1931 F60
G1 X-11.90 Y-48.13 E272.4629
G1 X-7.66 Y-48.95 E272.7326
G1 E269.3638 F2400
G1 Z0.500 F420
G1 X-48.00 Y0.00 F6000
G1 Z0.300 F420
G1 E271.8639 F1800
G1 X-47.79 Y-4.18 E272.1249 F60
G1 X-47.22 Y-8.33
G1 X-46.28 Y-12.40
G1 X-45.00 Y-16.38
G1 E277.4249 F1800
G1 X-43.38 Y-20.23 E278.2584 F301
G1 X-41.42 Y-23.92 E279.0914
G1 X-39.16 Y-27.42 E279.9240
G1 X-36.60 Y-30.71 E280.7560
G1 X-34.34 Y-33.18 E281.4238
G1 E276.6238 F2400
G1 X-31.30 Y-36.03 F300
G1 X-28.03 Y-38.60
G1 X-24.54 Y-40.87
G1 X-20.87 Y-42.83
G1 X-17.81 Y-44.17
G1 E279.1716 F1800
G1 X-13.88 Y-45.53 E279.4306 F60
G1 X-9.85 Y-46.53 E279.6895
G1 X-5.76 Y-47.19 E279.9482
G1 E276.5763 F2400
G1 Z0.500 F420
G1 X-46.00 Y0.00 F6000
G1 Z0.300 F420
G1 E279.0763 F1800
G1 X-45.80 Y-4.01 E279.3265 F60
G1 X-45.25 Y-7.98
G1 X-44.35 Y-11.88
G1 X-43.12 Y-15.69
G1 E284.8265 F1800
G1 X-41.56 Y-19.38 E285.6252 F301
G1 X-39.69 Y-22.92 E286.4234
G1 X-37.52 Y-26.27 E287.2211
G1 X-35.07 Y-29.43 E288.0183
G1 X-32.35 Y-32.35 E288.8151
G1 X-32.31 Y-32.39 E288.8253
G1 E283.8253 F2400
G1 X-29.35 Y-35.06 F300
G1 X-26.17 Y-37.46
G1 X-22.79 Y-39.57
G1 X-19.24 Y-41.38
G1 X-15.55 Y-42.88
G1 X-15.49 Y-42.90
G1 E286.5688 F1800
G1 X-11.68 Y-44.06 E286.8168 F60
G1 X-7.79 Y-44.88 E287.0648
G1 X-3.85 Y-45.36 E287.3125
G1 E283.9373 F2400
G1 Z0.500 F420
;structure:shell-outer
G1 X0.00 Y-70.00 F6000
G1 Z0.300 F420
G1 E288.0344 F1800
G1 X0.00 Y-42.00 E289.7805 F600
G1 E285.4932 F2400
G1 Z0.500 F420
G1 E285.4973 F2400
;end gcode
M107
M104 S0 T0
M140 S0 T0
G162 Z F1800
G28 X Y
M132 X Y A B
M652
G91
M18
