;gcode_flavor: flashforge
;machine_type: Adventurer 3 Series
;filament_diameter0: 1.75
;right_extruder_temperature: 210
;platform_temperature: 50
;extruder_fan: 100%
;case_fan: 100%
;base_print_speed: 60
;travel_speed: 100
;vertical_speed: 7
;retract_speed: 40
;restore_speed: 30
;layer_height: 0.30
;line_width: 0.50
;extrusion_ratio: 1.00
;command_line: ./gcodetest.py -Te=210 -Tp=50 -Fe=1.0 -Fc=1.0 -Kf=2.0 -Kb=3.0 -Re=1.0 -R -v
;start gcode
M118 X75.00 Y75.00 Z150.00 T0
M140 S50 T0
M104 S210 T0
M104 S0 T1
M107
M900 K0.000 T0
G90
G28
M132 X Y Z A B
G1 Z50.000 F420
G161 X Y F3300
M7 T0
M6 T0
M652 S255
M108 T0
M106
;preExtrude:0.20
;00:00:00.000: layer=0 h=0.20 w=0.50 r=1.00
G1 X69.29 Y28.70 F6000                  ; move dl=75.0@100(0<100>0) de=0.000@0.0(0.0<0.0>0.0) l=0.00x0.50x0.00 r=0.00
;00:00:00.950: pe=0.0000 eb=0.0000 ve=0.0000 vn=0.0000 vl=0.000 db=0.00
G1 Z0.200 F420                          ; hopup dz=0.20@7 h=0.2 r=0.00
;00:00:00.979: pe=0.0000 eb=0.0000 ve=0.0000 vn=0.0000 vl=0.000 db=0.00
G1 E5.2080 F1800                        ; restore de=5.2080@30.0 r=2.36
;00:00:01.152: pe=5.1167 eb=0.0913 ve=30.0000 vn=1.3583 vl=0.000 db=1.18
;00:00:01.152: spiral RC0=(75.0,0.062) dRC=(0.0,0.125) dl=58.9@10 de=7.837@1.3 l=0.20x0.40x4.00
G1 X66.53 Y34.63 E6.0784 F600           ; draw dl=6.5@10(0<10>10) de=0.870@1.31(0.0<1.33>1.33) l=0.20x0.40x4.00 r=4.12
;00:00:01.816: pe=5.0913 eb=0.1669 ve=1.3304 vn=1.3456 vl=10.000 db=1.60
G1 X63.25 Y40.30 E6.9489                ; draw dl=6.5@10(10<10>10) de=0.870@1.33(1.33<1.33>1.33) l=0.20x0.40x4.00 r=4.04
;00:00:02.471: pe=5.0828 eb=0.1700 ve=1.3304 vn=1.3414 vl=10.000 db=1.61
G1 X59.50 Y45.66 E7.8194                ; draw dl=6.5@10(10<10>10) de=0.870@1.33(1.33<1.33>1.33) l=0.20x0.40x4.00 r=4.03
;00:00:03.125: pe=5.0767 eb=0.1694 ve=1.3304 vn=1.3383 vl=10.000 db=1.61
G1 X55.30 Y50.67 E8.6899                ; draw dl=6.5@10(10<10>10) de=0.870@1.33(1.33<1.33>1.33) l=0.20x0.40x4.00 r=4.02
;00:00:03.779: pe=5.0722 eb=0.1688 ve=1.3304 vn=1.3361 vl=10.000 db=1.61
G1 X50.67 Y55.30 E9.5603                ; draw dl=6.5@10(10<10>10) de=0.870@1.33(1.33<1.33>1.33) l=0.20x0.40x4.00 r=4.01
;00:00:04.434: pe=5.0691 eb=0.1684 ve=1.3304 vn=1.3345 vl=10.000 db=1.61
G1 X45.66 Y59.50 E10.4308               ; draw dl=6.5@10(10<10>10) de=0.870@1.33(1.33<1.33>1.33) l=0.20x0.40x4.00 r=4.01
;00:00:05.088: pe=5.0668 eb=0.1680 ve=1.3304 vn=1.3334 vl=10.000 db=1.60
G1 X40.30 Y63.25 E11.3013               ; draw dl=6.5@10(10<10>10) de=0.870@1.33(1.33<1.33>1.33) l=0.20x0.40x4.00 r=4.01
;00:00:05.742: pe=5.0651 eb=0.1678 ve=1.3304 vn=1.3325 vl=10.000 db=1.60
G1 X34.63 Y66.53 E12.1717               ; draw dl=6.5@10(10<10>10) de=0.870@1.33(1.33<1.33>1.33) l=0.20x0.40x4.00 r=4.01
;00:00:06.396: pe=5.0639 eb=0.1676 ve=1.3304 vn=1.3319 vl=10.000 db=1.60
G1 X28.70 Y69.29 E13.0422               ; draw dl=6.5@10(10<10>0) de=0.870@1.31(1.33<1.33>0.0) l=0.20x0.40x4.00 r=4.06
;00:00:07.061: pe=5.0499 eb=0.1806 ve=0.0042 vn=1.3249 vl=0.032 db=1.66
G1 X28.70 Y69.29                        ; move dl=0.0@10(0<0>0) de=0.000@0.0(0.0<0.0>0.0) l=0.20x0.40x0.00 r=2519.33
;00:00:07.061: pe=5.0498 eb=0.1807 ve=0.0000 vn=1.3249 vl=0.000 db=1.66
G1 E6.9924 F2400                        ; retract de=-6.0498@-40.0 r=4.62
;00:00:07.212: pe=-1.0423 eb=0.2230 ve=-40.0000 vn=0.0000 vl=0.000 db=1.85
G1 Z0.400 F420                          ; hopup dz=0.20@7 h=0.4 r=3.27
;00:00:07.241: pe=-1.0423 eb=0.2230 ve=0.0000 vn=0.0000 vl=0.000 db=1.31
;layer:0.30
;00:00:07.241: layer=1 h=0.30 w=0.50 r=1.00
;structure:shell-outer
;00:00:07.241: text [(-70, 70), (None, None)] fsize=5 angle=0 've=1.0\nh=0.3\ndynret=0'
G1 X-69.50 Y68.89 F6000                 ; move dl=98.2@100(0<100>0) de=0.000@0.0(0.0<0.0>0.0) l=0.40x0.50x0.00 r=0.00
;00:00:08.423: pe=-1.0423 eb=0.0000 ve=0.0000 vn=0.0000 vl=0.000 db=0.00
G1 Z0.300 F420                          ; hopdn dz=-0.10@7 h=0.3 r=0.00
;00:00:08.437: pe=-1.0423 eb=0.0000 ve=0.0000 vn=0.0000 vl=0.000 db=0.00
G1 E10.7523 F1800                       ; restore de=3.7598@30.0 r=1.04
;00:00:08.562: pe=2.6910 eb=0.0265 ve=30.0000 vn=0.5654 vl=0.000 db=0.52
G1 X-68.48 Y66.48 E10.9155 F600         ; draw dl=2.6@10(0<10>6) de=0.163@0.6(0.0<0.62>0.35) l=0.30x0.50x1.00 r=0.99
;00:00:08.836: pe=2.6924 eb=0.0246 ve=0.3524 vn=0.5941 vl=5.651 db=0.50
G1 X-67.46 Y68.89 E11.0787              ; draw dl=2.6@10(6<10>0) de=0.163@0.6(0.35<0.62>0.0) l=0.30x0.50x1.00 r=1.01
;00:00:09.109: pe=2.6901 eb=0.0290 ve=0.0000 vn=0.5283 vl=0.000 db=0.54
G1 E7.3886 F2400                        ; retract de=-3.6901@-40.0 r=1.19
;00:00:09.202: pe=-1.0055 eb=0.0345 ve=-40.0000 vn=0.0000 vl=0.000 db=0.59
G1 Z0.500 F420                          ; hopup dz=0.20@7 h=0.5 r=0.92
;00:00:09.230: pe=-1.0055 eb=0.0345 ve=0.0000 vn=0.0000 vl=0.000 db=0.46
G1 X-66.40 Y67.69 F6000                 ; move dl=1.6@100(0<20>0) de=0.000@0.0(0.0<0.0>0.0) l=0.50x0.50x0.00 r=0.00
;00:00:09.350: pe=-1.0055 eb=0.0000 ve=0.0000 vn=0.0000 vl=0.000 db=0.00
G1 Z0.300 F420                          ; hopdn dz=-0.20@7 h=0.3 r=0.00
;00:00:09.379: pe=-1.0055 eb=0.0000 ve=0.0000 vn=0.0000 vl=0.000 db=0.00
G1 E11.1421 F1800                       ; restore de=3.7535@30.0 r=1.05
;00:00:09.504: pe=2.7209 eb=0.0271 ve=30.0000 vn=0.5717 vl=0.000 db=0.53
G1 X-64.26 Y67.69 E11.2755 F600         ; draw dl=2.1@10(0<10>10) de=0.133@0.6(0.0<0.62>0.6) l=0.30x0.50x1.00 r=1.00
;00:00:09.728: pe=2.7215 eb=0.0241 ve=0.6039 vn=0.6174 vl=9.683 db=0.50
G1 X-64.34 Y68.22 E11.3089              ; draw dl=0.5@10(10<10>10) de=0.033@0.62(0.6<0.62>0.62) l=0.30x0.50x1.00 r=0.99
;00:00:09.782: pe=2.7218 eb=0.0240 ve=0.6236 vn=0.6178 vl=10.000 db=0.50
G1 X-64.55 Y68.61 E11.3366              ; draw dl=0.4@10(10<10>10) de=0.028@0.62(0.62<0.62>0.62) l=0.30x0.50x1.00 r=0.99
;00:00:09.826: pe=2.7221 eb=0.0240 ve=0.6236 vn=0.6179 vl=10.000 db=0.50
G1 X-64.89 Y68.86 E11.3629              ; draw dl=0.4@10(10<10>10) de=0.026@0.62(0.62<0.62>0.62) l=0.30x0.50x1.00 r=0.99
;00:00:09.868: pe=2.7223 eb=0.0240 ve=0.6236 vn=0.6180 vl=10.000 db=0.50
G1 X-65.33 Y68.95 E11.3909              ; draw dl=0.4@10(10<10>10) de=0.028@0.62(0.62<0.62>0.62) l=0.30x0.50x1.00 r=0.99
;00:00:09.913: pe=2.7225 eb=0.0240 ve=0.6237 vn=0.6181 vl=10.000 db=0.50
G1 X-65.76 Y68.86 E11.4183              ; draw dl=0.4@10(10<10>10) de=0.027@0.62(0.62<0.62>0.62) l=0.30x0.50x1.00 r=0.99
;00:00:09.957: pe=2.7228 eb=0.0241 ve=0.6236 vn=0.6181 vl=10.000 db=0.50
G1 X-66.10 Y68.61 E11.4446              ; draw dl=0.4@10(10<10>10) de=0.026@0.62(0.62<0.62>0.62) l=0.30x0.50x1.00 r=0.99
;00:00:09.999: pe=2.7230 eb=0.0241 ve=0.6236 vn=0.6182 vl=10.000 db=0.50
G1 X-66.32 Y68.22 E11.4725              ; draw dl=0.4@10(10<10>10) de=0.028@0.62(0.62<0.62>0.62) l=0.30x0.50x1.00 r=0.99
;00:00:10.044: pe=2.7233 eb=0.0241 ve=0.6236 vn=0.6182 vl=10.000 db=0.50
G1 X-66.40 Y67.69 E11.5060              ; draw dl=0.5@10(10<10>10) de=0.033@0.62(0.62<0.62>0.62) l=0.30x0.50x1.00 r=0.99
;00:00:10.098: pe=2.7236 eb=0.0241 ve=0.6237 vn=0.6183 vl=10.000 db=0.50
G1 X-66.32 Y67.15 E11.5400              ; draw dl=0.5@10(10<10>10) de=0.034@0.62(0.62<0.62>0.62) l=0.30x0.50x1.00 r=0.99
;00:00:10.152: pe=2.7238 eb=0.0241 ve=0.6237 vn=0.6184 vl=10.000 db=0.50
G1 X-66.09 Y66.75 E11.5688              ; draw dl=0.5@10(10<10>10) de=0.029@0.62(0.62<0.62>0.62) l=0.30x0.50x1.00 r=0.99
;00:00:10.198: pe=2.7241 eb=0.0241 ve=0.6237 vn=0.6184 vl=10.000 db=0.50
G1 X-65.74 Y66.51 E11.5952              ; draw dl=0.4@10(10<10>10) de=0.026@0.62(0.62<0.62>0.62) l=0.30x0.50x1.00 r=0.99
;00:00:10.241: pe=2.7243 eb=0.0241 ve=0.6237 vn=0.6185 vl=10.000 db=0.50
G1 X-65.28 Y66.42 E11.6245              ; draw dl=0.5@10(10<10>10) de=0.029@0.62(0.62<0.62>0.62) l=0.30x0.50x1.00 r=0.99
;00:00:10.288: pe=2.7245 eb=0.0241 ve=0.6237 vn=0.6185 vl=10.000 db=0.50
G1 X-64.94 Y66.47 E11.6459              ; draw dl=0.3@10(10<10>10) de=0.021@0.62(0.62<0.62>0.62) l=0.30x0.50x1.00 r=0.99
;00:00:10.322: pe=2.7247 eb=0.0241 ve=0.6236 vn=0.6186 vl=10.000 db=0.50
G1 X-64.65 Y66.61 E11.6660              ; draw dl=0.3@10(10<10>10) de=0.020@0.62(0.62<0.62>0.62) l=0.30x0.50x1.00 r=0.99
;00:00:10.354: pe=2.7249 eb=0.0241 ve=0.6236 vn=0.6186 vl=10.000 db=0.50
G1 X-64.44 Y66.83 E11.6850              ; draw dl=0.3@10(10<10>10) de=0.019@0.62(0.62<0.62>0.62) l=0.30x0.50x1.00 r=0.99
;00:00:10.385: pe=2.7250 eb=0.0241 ve=0.6236 vn=0.6186 vl=10.000 db=0.50
G1 X-64.32 Y67.13 E11.7051              ; draw dl=0.3@10(10<10>0) de=0.020@0.48(0.62<0.62>0.0) l=0.30x0.50x1.00 r=1.27
;00:00:10.427: pe=2.7196 eb=0.0296 ve=0.0000 vn=0.5348 vl=0.000 db=0.55
G1 E7.9856 F2400                        ; retract de=-3.7196@-40.0 r=1.20
;00:00:10.520: pe=-1.0056 eb=0.0352 ve=-40.0000 vn=0.0000 vl=0.000 db=0.60
G1 Z0.500 F420                          ; hopup dz=0.20@7 h=0.5 r=0.93
;00:00:10.548: pe=-1.0056 eb=0.0352 ve=0.0000 vn=0.0000 vl=0.000 db=0.46
G1 X-63.20 Y68.26 F6000                 ; move dl=1.6@100(0<20>0) de=0.000@0.0(0.0<0.0>0.0) l=0.50x0.50x0.00 r=0.00
;00:00:10.668: pe=-1.0056 eb=0.0000 ve=0.0000 vn=0.0000 vl=0.000 db=0.00
G1 Z0.300 F420                          ; hopdn dz=-0.20@7 h=0.3 r=0.00
;00:00:10.697: pe=-1.0056 eb=0.0000 ve=0.0000 vn=0.0000 vl=0.000 db=0.00
G1 E11.6309 F1800                       ; restore de=3.6454@30.0 r=1.01
;00:00:10.818: pe=2.6147 eb=0.0250 ve=30.0000 vn=0.5493 vl=0.000 db=0.51
G1 X-61.51 Y68.26 E11.7363 F600         ; draw dl=1.7@10(0<10>0) de=0.105@0.56(0.0<0.62>0.0) l=0.30x0.50x1.00 r=1.01
;00:00:11.007: pe=2.6135 eb=0.0276 ve=0.0000 vn=0.5108 vl=0.000 db=0.53
G1 E8.1228 F2400                        ; retract de=-3.6135@-40.0 r=1.16
;00:00:11.097: pe=-1.0051 eb=0.0327 ve=-40.0000 vn=0.0000 vl=0.000 db=0.58
G1 Z0.500 F420                          ; hopup dz=0.20@7 h=0.5 r=0.89
;00:00:11.126: pe=-1.0051 eb=0.0327 ve=0.0000 vn=0.0000 vl=0.000 db=0.45
G1 X-61.51 Y67.55 F6000                 ; move dl=0.7@100(0<13>0) de=0.000@0.0(0.0<0.0>0.0) l=0.50x0.50x0.00 r=0.00
;00:00:11.206: pe=-1.0051 eb=0.0000 ve=0.0000 vn=0.0000 vl=0.000 db=0.00
G1 Z0.300 F420                          ; hopdn dz=-0.20@7 h=0.3 r=0.00
;00:00:11.235: pe=-1.0051 eb=0.0000 ve=0.0000 vn=0.0000 vl=0.000 db=0.00
G1 E11.7676 F1800                       ; restore de=3.6449@30.0 r=1.01
;00:00:11.356: pe=2.6147 eb=0.0250 ve=30.0000 vn=0.5493 vl=0.000 db=0.51
G1 X-63.20 Y67.55 E11.8730 F600         ; draw dl=1.7@10(0<10>0) de=0.105@0.56(0.0<0.62>0.0) l=0.30x0.50x1.00 r=1.01
;00:00:11.545: pe=2.6135 eb=0.0276 ve=0.0000 vn=0.5108 vl=0.000 db=0.53
G1 E8.2595 F2400                        ; retract de=-3.6135@-40.0 r=1.16
;00:00:11.635: pe=-1.0051 eb=0.0327 ve=-40.0000 vn=0.0000 vl=0.000 db=0.58
G1 Z0.500 F420                          ; hopup dz=0.20@7 h=0.5 r=0.89
;00:00:11.664: pe=-1.0051 eb=0.0327 ve=0.0000 vn=0.0000 vl=0.000 db=0.45
G1 X-60.45 Y69.00 F6000                 ; move dl=3.1@100(0<28>0) de=0.000@0.0(0.0<0.0>0.0) l=0.50x0.50x0.00 r=0.00
;00:00:11.831: pe=-1.0051 eb=0.0000 ve=0.0000 vn=0.0000 vl=0.000 db=0.00
G1 Z0.300 F420                          ; hopdn dz=-0.20@7 h=0.3 r=0.00
;00:00:11.860: pe=-1.0051 eb=0.0000 ve=0.0000 vn=0.0000 vl=0.000 db=0.00
G1 E11.9766 F1800                       ; restore de=3.7171@30.0 r=1.04
;00:00:11.984: pe=2.6856 eb=0.0264 ve=30.0000 vn=0.5642 vl=0.000 db=0.52
G1 X-59.98 Y69.24 E12.0095 F600         ; draw dl=0.5@10(0<10>10) de=0.033@0.52(0.0<0.62>0.62) l=0.30x0.50x1.00 r=1.03
;00:00:12.046: pe=2.6846 eb=0.0253 ve=0.6236 vn=0.5793 vl=10.000 db=0.51
G1 X-59.61 Y69.55 E12.0396              ; draw dl=0.5@10(10<10>10) de=0.030@0.62(0.62<0.62>0.62) l=0.30x0.50x1.00 r=0.95
;00:00:12.095: pe=2.6860 eb=0.0239 ve=0.6236 vn=0.6023 vl=10.000 db=0.49
G1 X-59.36 Y69.88 E12.0654              ; draw dl=0.4@10(10<10>5) de=0.026@0.59(0.62<0.62>0.3) l=0.30x0.50x1.00 r=1.03
;00:00:12.139: pe=2.6852 eb=0.0251 ve=0.3015 vn=0.5838 vl=4.834 db=0.51
G1 X-59.36 Y66.48 E12.2775              ; draw dl=3.4@10(5<10>0) de=0.212@0.6(0.3<0.62>0.0) l=0.30x0.50x1.00 r=1.00
;00:00:12.491: pe=2.6844 eb=0.0289 ve=0.0000 vn=0.5271 vl=0.000 db=0.54
G1 E8.5930 F2400                        ; retract de=-3.6845@-40.0 r=1.18
;00:00:12.584: pe=-1.0054 eb=0.0344 ve=-40.0000 vn=0.0000 vl=0.000 db=0.59
G1 Z0.500 F420                          ; hopup dz=0.20@7 h=0.5 r=0.92
;00:00:12.612: pe=-1.0054 eb=0.0344 ve=0.0000 vn=0.0000 vl=0.000 db=0.46
G1 X-58.30 Y66.71 F6000                 ; move dl=1.1@100(0<16>0) de=0.000@0.0(0.0<0.0>0.0) l=0.50x0.50x0.00 r=0.00
;00:00:12.711: pe=-1.0054 eb=0.0000 ve=0.0000 vn=0.0000 vl=0.000 db=0.00
G1 Z0.300 F420                          ; hopdn dz=-0.20@7 h=0.3 r=0.00
;00:00:12.740: pe=-1.0054 eb=0.0000 ve=0.0000 vn=0.0000 vl=0.000 db=0.00
G1 E11.4451 F1800                       ; restore de=2.8521@30.0 r=0.71
;00:00:12.835: pe=1.8343 eb=0.0124 ve=30.0000 vn=0.3840 vl=0.000 db=0.36
G1 X-58.30 Y66.65 E11.4488 F600         ; draw dl=0.1@10(0<4>0) de=0.004@0.16(0.0<0.24>0.0) l=0.30x0.50x1.00 r=2.06
;00:00:12.858: pe=1.8303 eb=0.0172 ve=0.0000 vn=0.2870 vl=0.000 db=0.42
G1 E8.6185 F2400                        ; retract de=-2.8303@-40.0 r=0.88
;00:00:12.929: pe=-1.0017 eb=0.0188 ve=-40.0000 vn=0.0000 vl=0.000 db=0.44
G1 Z0.500 F420                          ; hopup dz=0.20@7 h=0.5 r=0.68
;00:00:12.957: pe=-1.0017 eb=0.0188 ve=0.0000 vn=0.0000 vl=0.000 db=0.34
G1 X-56.01 Y69.94 F6000                 ; move dl=4.0@100(0<32>0) de=0.000@0.0(0.0<0.0>0.0) l=0.50x0.50x0.00 r=0.00
;00:00:13.147: pe=-1.0017 eb=0.0000 ve=0.0000 vn=0.0000 vl=0.000 db=0.00
G1 Z0.300 F420                          ; hopdn dz=-0.20@7 h=0.3 r=0.00
;00:00:13.176: pe=-1.0017 eb=0.0000 ve=0.0000 vn=0.0000 vl=0.000 db=0.00
G1 E12.3699 F1800                       ; restore de=3.7514@30.0 r=1.05
;00:00:13.301: pe=2.7226 eb=0.0271 ve=30.0000 vn=0.5721 vl=0.000 db=0.53
G1 X-55.50 Y69.80 E12.4029 F600         ; draw dl=0.5@10(0<10>10) de=0.033@0.52(0.0<0.62>0.62) l=0.30x0.50x1.00 r=1.05
;00:00:13.364: pe=2.7211 eb=0.0261 ve=0.6237 vn=0.5869 vl=10.000 db=0.52
G1 X-55.11 Y69.42 E12.4369              ; draw dl=0.5@10(10<10>10) de=0.034@0.62(0.62<0.62>0.62) l=0.30x0.50x1.00 r=0.97
;00:00:13.418: pe=2.7223 eb=0.0245 ve=0.6237 vn=0.6114 vl=10.000 db=0.50
G1 X-54.88 Y68.86 E12.4746              ; draw dl=0.6@10(10<10>10) de=0.038@0.62(0.62<0.62>0.62) l=0.30x0.50x1.00 r=0.99
;00:00:13.479: pe=2.7228 eb=0.0241 ve=0.6237 vn=0.6170 vl=10.000 db=0.50
G1 X-54.79 Y68.18 E12.5174              ; draw dl=0.7@10(10<10>10) de=0.043@0.62(0.62<0.62>0.62) l=0.30x0.50x1.00 r=0.99
;00:00:13.547: pe=2.7232 eb=0.0241 ve=0.6237 vn=0.6181 vl=10.000 db=0.50
G1 X-54.88 Y67.51 E12.5596              ; draw dl=0.7@10(10<10>10) de=0.042@0.62(0.62<0.62>0.62) l=0.30x0.50x1.00 r=0.99
;00:00:13.615: pe=2.7236 eb=0.0241 ve=0.6237 vn=0.6183 vl=10.000 db=0.50
G1 X-55.11 Y66.95 E12.5973              ; draw dl=0.6@10(10<10>10) de=0.038@0.62(0.62<0.62>0.62) l=0.30x0.50x1.00 r=0.99
;00:00:13.675: pe=2.7239 eb=0.0241 ve=0.6237 vn=0.6184 vl=10.000 db=0.50
G1 X-55.50 Y66.56 E12.6317              ; draw dl=0.6@10(10<10>10) de=0.034@0.62(0.62<0.62>0.62) l=0.30x0.50x1.00 r=0.99
;00:00:13.731: pe=2.7242 eb=0.0241 ve=0.6237 vn=0.6184 vl=10.000 db=0.50
G1 X-56.01 Y66.42 E12.6647              ; draw dl=0.5@10(10<10>10) de=0.033@0.62(0.62<0.62>0.62) l=0.30x0.50x1.00 r=0.99
;00:00:13.783: pe=2.7245 eb=0.0241 ve=0.6237 vn=0.6185 vl=10.000 db=0.50
G1 X-56.54 Y66.56 E12.6989              ; draw dl=0.5@10(10<10>10) de=0.034@0.62(0.62<0.62>0.62) l=0.30x0.50x1.00 r=0.99
;00:00:13.838: pe=2.7248 eb=0.0241 ve=0.6237 vn=0.6186 vl=10.000 db=0.50
G1 X-56.91 Y66.95 E12.7324              ; draw dl=0.5@10(10<10>10) de=0.034@0.62(0.62<0.62>0.62) l=0.30x0.50x1.00 r=0.99
;00:00:13.892: pe=2.7250 eb=0.0241 ve=0.6237 vn=0.6186 vl=10.000 db=0.50
G1 X-57.15 Y67.51 E12.7704              ; draw dl=0.6@10(10<10>10) de=0.038@0.62(0.62<0.62>0.62) l=0.30x0.50x1.00 r=0.99
;00:00:13.953: pe=2.7253 eb=0.0241 ve=0.6237 vn=0.6187 vl=10.000 db=0.50
G1 X-57.23 Y68.18 E12.8125              ; draw dl=0.7@10(10<10>10) de=0.042@0.62(0.62<0.62>0.62) l=0.30x0.50x1.00 r=0.99
;00:00:14.020: pe=2.7257 eb=0.0241 ve=0.6237 vn=0.6188 vl=10.000 db=0.50
G1 X-57.15 Y68.85 E12.8546              ; draw dl=0.7@10(10<10>10) de=0.042@0.62(0.62<0.62>0.62) l=0.30x0.50x1.00 r=0.99
;00:00:14.088: pe=2.7260 eb=0.0241 ve=0.6237 vn=0.6188 vl=10.000 db=0.50
G1 X-56.91 Y69.42 E12.8932              ; draw dl=0.6@10(10<10>10) de=0.039@0.62(0.62<0.62>0.62) l=0.30x0.50x1.00 r=0.99
;00:00:14.150: pe=2.7263 eb=0.0241 ve=0.6237 vn=0.6189 vl=10.000 db=0.50
G1 X-56.54 Y69.80 E12.9263              ; draw dl=0.5@10(10<10>10) de=0.033@0.62(0.62<0.62>0.62) l=0.30x0.50x1.00 r=0.99
;00:00:14.203: pe=2.7265 eb=0.0241 ve=0.6237 vn=0.6190 vl=10.000 db=0.50
G1 X-56.01 Y69.94 E12.9605              ; draw dl=0.5@10(10<10>0) de=0.034@0.53(0.62<0.62>0.0) l=0.30x0.50x1.00 r=1.16
;00:00:14.268: pe=2.7212 eb=0.0297 ve=0.0000 vn=0.5352 vl=0.000 db=0.55
G1 E9.2393 F2400                        ; retract de=-3.7212@-40.0 r=1.20
;00:00:14.361: pe=-1.0056 eb=0.0353 ve=-40.0000 vn=0.0000 vl=0.000 db=0.60
G1 Z0.500 F420                          ; hopup dz=0.20@7 h=0.5 r=0.93
;00:00:14.389: pe=-1.0056 eb=0.0353 ve=0.0000 vn=0.0000 vl=0.000 db=0.46
G1 X-69.50 Y64.88 F6000                 ; move dl=14.4@100(0<60>0) de=0.000@0.0(0.0<0.0>0.0) l=0.50x0.50x0.00 r=0.00
;00:00:14.749: pe=-1.0056 eb=0.0000 ve=0.0000 vn=0.0000 vl=0.000 db=0.00
G1 Z0.300 F420                          ; hopdn dz=-0.20@7 h=0.3 r=0.00
;00:00:14.778: pe=-1.0056 eb=0.0000 ve=0.0000 vn=0.0000 vl=0.000 db=0.00
G1 E12.9475 F1800                       ; restore de=3.7082@30.0 r=1.03
;00:00:14.901: pe=2.6764 eb=0.0262 ve=30.0000 vn=0.5623 vl=0.000 db=0.52
G1 X-69.50 Y61.48 E13.1596 F600         ; draw dl=3.4@10(0<10>0) de=0.212@0.59(0.0<0.62>0.0) l=0.30x0.50x1.00 r=1.00
;00:00:15.261: pe=2.6754 eb=0.0287 ve=0.0000 vn=0.5251 vl=0.000 db=0.54
G1 E9.4841 F2400                        ; retract de=-3.6754@-40.0 r=1.18
;00:00:15.353: pe=-1.0054 eb=0.0341 ve=-40.0000 vn=0.0000 vl=0.000 db=0.59
G1 Z0.500 F420                          ; hopup dz=0.20@7 h=0.5 r=0.91
;00:00:15.382: pe=-1.0054 eb=0.0341 ve=0.0000 vn=0.0000 vl=0.000 db=0.46
G1 X-69.50 Y63.23 F6000                 ; move dl=1.8@100(0<21>0) de=0.000@0.0(0.0<0.0>0.0) l=0.50x0.50x0.00 r=0.00
;00:00:15.507: pe=-1.0054 eb=0.0000 ve=0.0000 vn=0.0000 vl=0.000 db=0.00
G1 Z0.300 F420                          ; hopdn dz=-0.20@7 h=0.3 r=0.00
;00:00:15.536: pe=-1.0054 eb=0.0000 ve=0.0000 vn=0.0000 vl=0.000 db=0.00
G1 E13.2103 F1800                       ; restore de=3.7261@30.0 r=1.04
;00:00:15.660: pe=2.6942 eb=0.0266 ve=30.0000 vn=0.5661 vl=0.000 db=0.52
G1 X-69.25 Y63.53 E13.2346 F600         ; draw dl=0.4@10(0<10>10) de=0.024@0.5(0.0<0.62>0.62) l=0.30x0.50x1.00 r=1.08
;00:00:15.709: pe=2.6923 eb=0.0264 ve=0.6237 vn=0.5668 vl=10.000 db=0.52
G1 X-69.02 Y63.75 E13.2545              ; draw dl=0.3@10(10<10>10) de=0.020@0.62(0.62<0.62>0.62) l=0.30x0.50x1.00 r=0.93
;00:00:15.741: pe=2.6937 eb=0.0247 ve=0.6237 vn=0.5934 vl=10.000 db=0.50
G1 X-68.80 Y63.88 E13.2704              ; draw dl=0.3@10(10<10>10) de=0.016@0.62(0.62<0.62>0.62) l=0.30x0.50x1.00 r=0.96
;00:00:15.767: pe=2.6943 eb=0.0241 ve=0.6237 vn=0.6030 vl=10.000 db=0.50
G1 X-68.60 Y63.93 E13.2833              ; draw dl=0.2@10(10<10>10) de=0.013@0.62(0.62<0.62>0.62) l=0.30x0.50x1.00 r=0.97
;00:00:15.787: pe=2.6947 eb=0.0239 ve=0.6237 vn=0.6070 vl=10.000 db=0.49
G1 X-68.41 Y63.95 E13.2952              ; draw dl=0.2@10(10<10>10) de=0.012@0.62(0.62<0.62>0.62) l=0.30x0.50x1.00 r=0.98
;00:00:15.806: pe=2.6950 eb=0.0237 ve=0.6237 vn=0.6091 vl=10.000 db=0.49
G1 X-68.09 Y63.88 E13.3156              ; draw dl=0.3@10(10<10>10) de=0.020@0.62(0.62<0.62>0.62) l=0.30x0.50x1.00 r=0.98
;00:00:15.839: pe=2.6954 eb=0.0236 ve=0.6237 vn=0.6109 vl=10.000 db=0.49
G1 X-67.86 Y63.71 E13.3335              ; draw dl=0.3@10(10<10>10) de=0.018@0.62(0.62<0.62>0.62) l=0.30x0.50x1.00 r=0.98
;00:00:15.868: pe=2.6958 eb=0.0236 ve=0.6237 vn=0.6116 vl=10.000 db=0.49
G1 X-67.76 Y63.51 E13.3474              ; draw dl=0.2@10(10<10>10) de=0.014@0.62(0.62<0.62>0.62) l=0.30x0.50x1.00 r=0.98
;00:00:15.890: pe=2.6960 eb=0.0236 ve=0.6236 vn=0.6119 vl=10.000 db=0.49
G1 X-67.67 Y63.08 E13.3748              ; draw dl=0.4@10(10<10>10) de=0.027@0.62(0.62<0.62>0.62) l=0.30x0.50x1.00 r=0.98
;00:00:15.934: pe=2.6966 eb=0.0236 ve=0.6236 vn=0.6122 vl=10.000 db=0.49
G1 X-67.67 Y61.48 E13.4746              ; draw dl=1.6@10(10<10>0) de=0.100@0.59(0.62<0.62>0.0) l=0.30x0.50x1.00 r=1.04
;00:00:16.104: pe=2.6928 eb=0.0291 ve=0.0000 vn=0.5289 vl=0.000 db=0.54
G1 E9.7818 F2400                        ; retract de=-3.6928@-40.0 r=1.19
;00:00:16.196: pe=-1.0055 eb=0.0346 ve=-40.0000 vn=0.0000 vl=0.000 db=0.59
G1 Z0.500 F420                          ; hopup dz=0.20@7 h=0.5 r=0.92
;00:00:16.225: pe=-1.0055 eb=0.0346 ve=0.0000 vn=0.0000 vl=0.000 db=0.46
G1 X-66.61 Y63.26 F6000                 ; move dl=2.1@100(0<23>0) de=0.000@0.0(0.0<0.0>0.0) l=0.50x0.50x0.00 r=0.00
;00:00:16.361: pe=-1.0055 eb=0.0000 ve=0.0000 vn=0.0000 vl=0.000 db=0.00
G1 Z0.300 F420                          ; hopdn dz=-0.20@7 h=0.3 r=0.00
;00:00:16.390: pe=-1.0055 eb=0.0000 ve=0.0000 vn=0.0000 vl=0.000 db=0.00
G1 E13.4271 F1800                       ; restore de=3.6453@30.0 r=1.01
;00:00:16.511: pe=2.6148 eb=0.0250 ve=30.0000 vn=0.5493 vl=0.000 db=0.51
G1 X-64.92 Y63.26 E13.5325 F600         ; draw dl=1.7@10(0<10>0) de=0.105@0.56(0.0<0.62>0.0) l=0.30x0.50x1.00 r=1.01
;00:00:16.700: pe=2.6136 eb=0.0276 ve=0.0000 vn=0.5108 vl=0.000 db=0.53
G1 E9.9189 F2400                        ; retract de=-3.6136@-40.0 r=1.16
;00:00:16.791: pe=-1.0051 eb=0.0327 ve=-40.0000 vn=0.0000 vl=0.000 db=0.58
G1 Z0.500 F420                          ; hopup dz=0.20@7 h=0.5 r=0.89
;00:00:16.819: pe=-1.0051 eb=0.0327 ve=0.0000 vn=0.0000 vl=0.000 db=0.45
G1 X-64.92 Y62.55 F6000                 ; move dl=0.7@100(0<13>0) de=0.000@0.0(0.0<0.0>0.0) l=0.50x0.50x0.00 r=0.00
;00:00:16.899: pe=-1.0051 eb=0.0000 ve=0.0000 vn=0.0000 vl=0.000 db=0.00
G1 Z0.300 F420                          ; hopdn dz=-0.20@7 h=0.3 r=0.00
;00:00:16.928: pe=-1.0051 eb=0.0000 ve=0.0000 vn=0.0000 vl=0.000 db=0.00
G1 E13.5639 F1800                       ; restore de=3.6450@30.0 r=1.01
;00:00:17.049: pe=2.6148 eb=0.0250 ve=30.0000 vn=0.5493 vl=0.000 db=0.51
G1 X-66.61 Y62.55 E13.6693 F600         ; draw dl=1.7@10(0<10>0) de=0.105@0.56(0.0<0.62>0.0) l=0.30x0.50x1.00 r=1.01
;00:00:17.238: pe=2.6136 eb=0.0276 ve=0.0000 vn=0.5108 vl=0.000 db=0.53
G1 E10.0556 F2400                       ; retract de=-3.6136@-40.0 r=1.16
;00:00:17.329: pe=-1.0051 eb=0.0327 ve=-40.0000 vn=0.0000 vl=0.000 db=0.58
G1 Z0.500 F420                          ; hopup dz=0.20@7 h=0.5 r=0.89
;00:00:17.357: pe=-1.0051 eb=0.0327 ve=0.0000 vn=0.0000 vl=0.000 db=0.45
G1 X-62.64 Y64.94 F6000                 ; move dl=4.6@100(0<34>0) de=0.000@0.0(0.0<0.0>0.0) l=0.50x0.50x0.00 r=0.00
;00:00:17.562: pe=-1.0051 eb=0.0000 ve=0.0000 vn=0.0000 vl=0.000 db=0.00
G1 Z0.300 F420                          ; hopdn dz=-0.20@7 h=0.3 r=0.00
;00:00:17.590: pe=-1.0051 eb=0.0000 ve=0.0000 vn=0.0000 vl=0.000 db=0.00
G1 E13.8104 F1800                       ; restore de=3.7548@30.0 r=1.05
;00:00:17.715: pe=2.7226 eb=0.0271 ve=30.0000 vn=0.5721 vl=0.000 db=0.53
G1 X-62.13 Y64.80 E13.8434 F600         ; draw dl=0.5@10(0<10>10) de=0.033@0.52(0.0<0.62>0.62) l=0.30x0.50x1.00 r=1.05
;00:00:17.778: pe=2.7210 eb=0.0261 ve=0.6237 vn=0.5869 vl=10.000 db=0.52
G1 X-61.74 Y64.42 E13.8774              ; draw dl=0.5@10(10<10>10) de=0.034@0.62(0.62<0.62>0.62) l=0.30x0.50x1.00 r=0.97
;00:00:17.833: pe=2.7222 eb=0.0245 ve=0.6237 vn=0.6114 vl=10.000 db=0.50
G1 X-61.50 Y63.86 E13.9154              ; draw dl=0.6@10(10<10>10) de=0.038@0.62(0.62<0.62>0.62) l=0.30x0.50x1.00 r=0.99
;00:00:17.894: pe=2.7227 eb=0.0241 ve=0.6237 vn=0.6170 vl=10.000 db=0.50
G1 X-61.42 Y63.18 E13.9581              ; draw dl=0.7@10(10<10>10) de=0.043@0.62(0.62<0.62>0.62) l=0.30x0.50x1.00 r=0.99
;00:00:17.962: pe=2.7232 eb=0.0241 ve=0.6237 vn=0.6181 vl=10.000 db=0.50
G1 X-61.50 Y62.51 E14.0001              ; draw dl=0.7@10(10<10>10) de=0.042@0.62(0.62<0.62>0.62) l=0.30x0.50x1.00 r=0.99
;00:00:18.029: pe=2.7235 eb=0.0241 ve=0.6237 vn=0.6183 vl=10.000 db=0.50
G1 X-61.74 Y61.95 E14.0381              ; draw dl=0.6@10(10<10>10) de=0.038@0.62(0.62<0.62>0.62) l=0.30x0.50x1.00 r=0.99
;00:00:18.090: pe=2.7239 eb=0.0241 ve=0.6237 vn=0.6184 vl=10.000 db=0.50
G1 X-62.13 Y61.56 E14.0725              ; draw dl=0.6@10(10<10>10) de=0.034@0.62(0.62<0.62>0.62) l=0.30x0.50x1.00 r=0.99
;00:00:18.146: pe=2.7241 eb=0.0241 ve=0.6237 vn=0.6184 vl=10.000 db=0.50
G1 X-62.64 Y61.42 E14.1055              ; draw dl=0.5@10(10<10>10) de=0.033@0.62(0.62<0.62>0.62) l=0.30x0.50x1.00 r=0.99
;00:00:18.198: pe=2.7244 eb=0.0241 ve=0.6237 vn=0.6185 vl=10.000 db=0.50
G1 X-63.16 Y61.56 E14.1391              ; draw dl=0.5@10(10<10>10) de=0.034@0.62(0.62<0.62>0.62) l=0.30x0.50x1.00 r=0.99
;00:00:18.252: pe=2.7247 eb=0.0241 ve=0.6237 vn=0.6186 vl=10.000 db=0.50
G1 X-63.54 Y61.95 E14.1731              ; draw dl=0.5@10(10<10>10) de=0.034@0.62(0.62<0.62>0.62) l=0.30x0.50x1.00 r=0.99
;00:00:18.307: pe=2.7250 eb=0.0241 ve=0.6237 vn=0.6186 vl=10.000 db=0.50
G1 X-63.78 Y62.51 E14.2111              ; draw dl=0.6@10(10<10>10) de=0.038@0.62(0.62<0.62>0.62) l=0.30x0.50x1.00 r=0.99
;00:00:18.368: pe=2.7253 eb=0.0241 ve=0.6237 vn=0.6187 vl=10.000 db=0.50
G1 X-63.86 Y63.18 E14.2531              ; draw dl=0.7@10(10<10>10) de=0.042@0.62(0.62<0.62>0.62) l=0.30x0.50x1.00 r=0.99
;00:00:18.435: pe=2.7256 eb=0.0241 ve=0.6237 vn=0.6188 vl=10.000 db=0.50
G1 X-63.78 Y63.85 E14.2952              ; draw dl=0.7@10(10<10>10) de=0.042@0.62(0.62<0.62>0.62) l=0.30x0.50x1.00 r=0.99
;00:00:18.503: pe=2.7259 eb=0.0241 ve=0.6237 vn=0.6188 vl=10.000 db=0.50
G1 X-63.54 Y64.42 E14.3338              ; draw dl=0.6@10(10<10>10) de=0.039@0.62(0.62<0.62>0.62) l=0.30x0.50x1.00 r=0.99
;00:00:18.564: pe=2.7262 eb=0.0241 ve=0.6237 vn=0.6189 vl=10.000 db=0.50
G1 X-63.16 Y64.80 E14.3673              ; draw dl=0.5@10(10<10>10) de=0.034@0.62(0.62<0.62>0.62) l=0.30x0.50x1.00 r=0.99
;00:00:18.618: pe=2.7265 eb=0.0241 ve=0.6236 vn=0.6190 vl=10.000 db=0.50
G1 X-62.64 Y64.94 E14.4009              ; draw dl=0.5@10(10<10>0) de=0.034@0.53(0.62<0.62>0.0) l=0.30x0.50x1.00 r=1.16
;00:00:18.682: pe=2.7211 eb=0.0297 ve=0.0000 vn=0.5352 vl=0.000 db=0.55
G1 E10.6798 F2400                       ; retract de=-3.7211@-40.0 r=1.20
;00:00:18.775: pe=-1.0056 eb=0.0353 ve=-40.0000 vn=0.0000 vl=0.000 db=0.60
G1 Z0.500 F420                          ; hopup dz=0.20@7 h=0.5 r=0.93
;00:00:18.804: pe=-1.0056 eb=0.0353 ve=0.0000 vn=0.0000 vl=0.000 db=0.46
G1 X-60.36 Y61.71 F6000                 ; move dl=4.0@100(0<31>0) de=0.000@0.0(0.0<0.0>0.0) l=0.50x0.50x0.00 r=0.00
;00:00:18.992: pe=-1.0056 eb=0.0000 ve=0.0000 vn=0.0000 vl=0.000 db=0.00
G1 Z0.300 F420                          ; hopdn dz=-0.20@7 h=0.3 r=0.00
;00:00:19.021: pe=-1.0056 eb=0.0000 ve=0.0000 vn=0.0000 vl=0.000 db=0.00
G1 E13.5320 F1800                       ; restore de=2.8522@30.0 r=0.71
;00:00:19.116: pe=1.8343 eb=0.0124 ve=30.0000 vn=0.3840 vl=0.000 db=0.36
G1 X-60.36 Y61.65 E13.5358 F600         ; draw dl=0.1@10(0<4>0) de=0.004@0.16(0.0<0.24>0.0) l=0.30x0.50x1.00 r=2.06
;00:00:19.139: pe=1.8303 eb=0.0172 ve=0.0000 vn=0.2870 vl=0.000 db=0.42
G1 E10.7055 F2400                       ; retract de=-2.8303@-40.0 r=0.88
;00:00:19.210: pe=-1.0017 eb=0.0188 ve=-40.0000 vn=0.0000 vl=0.000 db=0.44
G1 Z0.500 F420                          ; hopup dz=0.20@7 h=0.5 r=0.68
;00:00:19.239: pe=-1.0017 eb=0.0188 ve=0.0000 vn=0.0000 vl=0.000 db=0.34
G1 X-59.24 Y64.13 F6000                 ; move dl=2.7@100(0<26>0) de=0.000@0.0(0.0<0.0>0.0) l=0.50x0.50x0.00 r=0.00
;00:00:19.395: pe=-1.0017 eb=0.0000 ve=0.0000 vn=0.0000 vl=0.000 db=0.00
G1 Z0.300 F420                          ; hopdn dz=-0.20@7 h=0.3 r=0.00
;00:00:19.424: pe=-1.0017 eb=0.0000 ve=0.0000 vn=0.0000 vl=0.000 db=0.00
G1 E14.4490 F1800                       ; restore de=3.7435@30.0 r=1.05
;00:00:19.548: pe=2.7149 eb=0.0270 ve=30.0000 vn=0.5704 vl=0.000 db=0.52
G1 X-59.13 Y64.47 E14.4713 F600         ; draw dl=0.4@10(0<10>10) de=0.022@0.49(0.0<0.62>0.62) l=0.30x0.50x1.00 r=1.10
;00:00:19.594: pe=2.7127 eb=0.0272 ve=0.6237 vn=0.5666 vl=10.000 db=0.53
G1 X-58.92 Y64.73 E14.4922              ; draw dl=0.3@10(10<10>10) de=0.021@0.62(0.62<0.62>0.62) l=0.30x0.50x1.00 r=0.94
;00:00:19.628: pe=2.7140 eb=0.0252 ve=0.6237 vn=0.5967 vl=10.000 db=0.51
G1 X-58.63 Y64.89 E14.5128              ; draw dl=0.3@10(10<10>10) de=0.021@0.62(0.62<0.62>0.62) l=0.30x0.50x1.00 r=0.97
;00:00:19.661: pe=2.7147 eb=0.0244 ve=0.6237 vn=0.6088 vl=10.000 db=0.50
G1 X-58.29 Y64.94 E14.5342              ; draw dl=0.3@10(10<10>10) de=0.021@0.62(0.62<0.62>0.62) l=0.30x0.50x1.00 r=0.98
;00:00:19.695: pe=2.7151 eb=0.0241 ve=0.6237 vn=0.6136 vl=10.000 db=0.50
G1 X-57.90 Y64.87 E14.5590              ; draw dl=0.4@10(10<10>10) de=0.025@0.62(0.62<0.62>0.62) l=0.30x0.50x1.00 r=0.99
;00:00:19.735: pe=2.7154 eb=0.0240 ve=0.6237 vn=0.6156 vl=10.000 db=0.49
G1 X-57.61 Y64.68 E14.5806              ; draw dl=0.3@10(10<10>10) de=0.022@0.62(0.62<0.62>0.62) l=0.30x0.50x1.00 r=0.99
;00:00:19.769: pe=2.7157 eb=0.0239 ve=0.6237 vn=0.6162 vl=10.000 db=0.49
G1 X-57.43 Y64.41 E14.6008              ; draw dl=0.3@10(10<10>10) de=0.020@0.62(0.62<0.62>0.62) l=0.30x0.50x1.00 r=0.99
;00:00:19.802: pe=2.7159 eb=0.0239 ve=0.6237 vn=0.6165 vl=10.000 db=0.49
G1 X-57.36 Y64.06 E14.6231              ; draw dl=0.4@10(10<10>10) de=0.022@0.62(0.62<0.62>0.62) l=0.30x0.50x1.00 r=0.99
;00:00:19.837: pe=2.7162 eb=0.0239 ve=0.6237 vn=0.6166 vl=10.000 db=0.49
G1 X-57.43 Y63.85 E14.6369              ; draw dl=0.2@10(10<10>10) de=0.014@0.62(0.62<0.62>0.62) l=0.30x0.50x1.00 r=0.99
;00:00:19.860: pe=2.7164 eb=0.0239 ve=0.6237 vn=0.6167 vl=10.000 db=0.49
G1 X-57.57 Y63.68 E14.6506              ; draw dl=0.2@10(10<10>10) de=0.014@0.62(0.62<0.62>0.62) l=0.30x0.50x1.00 r=0.99
;00:00:19.882: pe=2.7165 eb=0.0239 ve=0.6237 vn=0.6167 vl=10.000 db=0.49
G1 X-57.94 Y63.45 E14.6778              ; draw dl=0.4@10(10<10>10) de=0.027@0.62(0.62<0.62>0.62) l=0.30x0.50x1.00 r=0.99
;00:00:19.925: pe=2.7168 eb=0.0239 ve=0.6237 vn=0.6168 vl=10.000 db=0.49
G1 X-58.38 Y63.30 E14.7068              ; draw dl=0.5@10(10<10>5) de=0.029@0.59(0.62<0.62>0.28) l=0.30x0.50x1.00 r=1.05
;00:00:19.975: pe=2.7154 eb=0.0257 ve=0.2839 vn=0.5901 vl=4.552 db=0.51
G1 X-57.94 Y63.18 E14.7352              ; draw dl=0.5@10(5<10>10) de=0.028@0.59(0.28<0.62>0.62) l=0.30x0.50x1.00 r=1.00
;00:00:20.023: pe=2.7154 eb=0.0249 ve=0.6237 vn=0.6013 vl=10.000 db=0.50
G1 X-57.58 Y63.02 E14.7598              ; draw dl=0.4@10(10<10>10) de=0.025@0.62(0.62<0.62>0.62) l=0.30x0.50x1.00 r=0.97
;00:00:20.063: pe=2.7160 eb=0.0242 ve=0.6237 vn=0.6117 vl=10.000 db=0.50
G1 X-57.29 Y62.74 E14.7849              ; draw dl=0.4@10(10<10>10) de=0.025@0.62(0.62<0.62>0.62) l=0.30x0.50x1.00 r=0.98
;00:00:20.103: pe=2.7164 eb=0.0240 ve=0.6236 vn=0.6152 vl=10.000 db=0.50
G1 X-57.19 Y62.45 E14.8041              ; draw dl=0.3@10(10<10>10) de=0.019@0.62(0.62<0.62>0.62) l=0.30x0.50x1.00 r=0.99
;00:00:20.134: pe=2.7166 eb=0.0240 ve=0.6237 vn=0.6161 vl=10.000 db=0.49
G1 X-57.26 Y62.03 E14.8306              ; draw dl=0.4@10(10<10>10) de=0.027@0.62(0.62<0.62>0.62) l=0.30x0.50x1.00 r=0.99
;00:00:20.176: pe=2.7169 eb=0.0240 ve=0.6237 vn=0.6166 vl=10.000 db=0.49
G1 X-57.49 Y61.70 E14.8557              ; draw dl=0.4@10(10<10>10) de=0.025@0.62(0.62<0.62>0.62) l=0.30x0.50x1.00 r=0.99
;00:00:20.216: pe=2.7172 eb=0.0240 ve=0.6237 vn=0.6168 vl=10.000 db=0.49
G1 X-57.83 Y61.50 E14.8803              ; draw dl=0.4@10(10<10>10) de=0.025@0.62(0.62<0.62>0.62) l=0.30x0.50x1.00 r=0.99
;00:00:20.256: pe=2.7175 eb=0.0240 ve=0.6237 vn=0.6169 vl=10.000 db=0.49
G1 X-58.25 Y61.42 E14.9070              ; draw dl=0.4@10(10<10>10) de=0.027@0.62(0.62<0.62>0.62) l=0.30x0.50x1.00 r=0.99
;00:00:20.299: pe=2.7178 eb=0.0240 ve=0.6237 vn=0.6170 vl=10.000 db=0.49
G1 X-58.65 Y61.48 E14.9322              ; draw dl=0.4@10(10<10>10) de=0.025@0.62(0.62<0.62>0.62) l=0.30x0.50x1.00 r=0.99
;00:00:20.339: pe=2.7181 eb=0.0240 ve=0.6237 vn=0.6171 vl=10.000 db=0.49
G1 X-58.97 Y61.65 E14.9548              ; draw dl=0.4@10(10<10>10) de=0.023@0.62(0.62<0.62>0.62) l=0.30x0.50x1.00 r=0.99
;00:00:20.375: pe=2.7183 eb=0.0240 ve=0.6237 vn=0.6171 vl=10.000 db=0.49
G1 X-59.19 Y61.92 E14.9765              ; draw dl=0.3@10(10<10>10) de=0.022@0.62(0.62<0.62>0.62) l=0.30x0.50x1.00 r=0.99
;00:00:20.410: pe=2.7185 eb=0.0240 ve=0.6237 vn=0.6172 vl=10.000 db=0.49
G1 X-59.29 Y62.28 E14.9998              ; draw dl=0.4@10(10<10>0) de=0.023@0.49(0.62<0.62>0.0) l=0.30x0.50x1.00 r=1.23
;00:00:20.457: pe=2.7131 eb=0.0295 ve=0.0000 vn=0.5334 vl=0.000 db=0.55
G1 E11.2867 F2400                       ; retract de=-3.7131@-40.0 r=1.20
;00:00:20.550: pe=-1.0056 eb=0.0351 ve=-40.0000 vn=0.0000 vl=0.000 db=0.60
G1 Z0.500 F420                          ; hopup dz=0.20@7 h=0.5 r=0.93
;00:00:20.579: pe=-1.0056 eb=0.0351 ve=0.0000 vn=0.0000 vl=0.000 db=0.46
G1 X-67.52 Y59.88 F6000                 ; move dl=8.6@100(0<46>0) de=0.000@0.0(0.0<0.0>0.0) l=0.50x0.50x0.00 r=0.00
;00:00:20.857: pe=-1.0056 eb=0.0000 ve=0.0000 vn=0.0000 vl=0.000 db=0.00
G1 Z0.300 F420                          ; hopdn dz=-0.20@7 h=0.3 r=0.00
;00:00:20.885: pe=-1.0056 eb=0.0000 ve=0.0000 vn=0.0000 vl=0.000 db=0.00
G1 E14.9949 F1800                       ; restore de=3.7082@30.0 r=1.03
;00:00:21.009: pe=2.6764 eb=0.0262 ve=30.0000 vn=0.5623 vl=0.000 db=0.52
G1 X-67.52 Y56.48 E15.2069 F600         ; draw dl=3.4@10(0<10>0) de=0.212@0.59(0.0<0.62>0.0) l=0.30x0.50x1.00 r=1.00
;00:00:21.369: pe=2.6754 eb=0.0287 ve=0.0000 vn=0.5251 vl=0.000 db=0.54
G1 E11.5315 F2400                       ; retract de=-3.6754@-40.0 r=1.18
;00:00:21.461: pe=-1.0054 eb=0.0341 ve=-40.0000 vn=0.0000 vl=0.000 db=0.59
G1 Z0.500 F420                          ; hopup dz=0.20@7 h=0.5 r=0.91
;00:00:21.489: pe=-1.0054 eb=0.0341 ve=0.0000 vn=0.0000 vl=0.000 db=0.46
G1 X-67.52 Y56.98 F6000                 ; move dl=0.5@100(0<11>0) de=0.000@0.0(0.0<0.0>0.0) l=0.50x0.50x0.00 r=0.00
;00:00:21.556: pe=-1.0054 eb=0.0030 ve=0.0000 vn=0.0000 vl=0.000 db=0.14
G1 Z0.300 F420                          ; hopdn dz=-0.20@7 h=0.3 r=0.35
;00:00:21.585: pe=-1.0054 eb=0.0030 ve=0.0000 vn=0.0000 vl=0.000 db=0.17
G1 E15.2762 F1800                       ; restore de=3.7447@30.0 r=1.05
;00:00:21.710: pe=2.7151 eb=0.0272 ve=30.0000 vn=0.5671 vl=0.000 db=0.53
G1 X-67.77 Y56.74 E15.2978 F600         ; draw dl=0.3@10(0<10>10) de=0.022@0.48(0.0<0.62>0.62) l=0.30x0.50x1.00 r=1.10
;00:00:21.754: pe=2.7129 eb=0.0273 ve=0.6237 vn=0.5640 vl=10.000 db=0.53
G1 X-68.16 Y56.49 E15.3267              ; draw dl=0.5@10(10<10>10) de=0.029@0.62(0.62<0.62>0.62) l=0.30x0.50x1.00 r=0.94
;00:00:21.801: pe=2.7146 eb=0.0248 ve=0.6237 vn=0.6021 vl=10.000 db=0.50
G1 X-68.54 Y56.42 E15.3508              ; draw dl=0.4@10(10<10>10) de=0.024@0.62(0.62<0.62>0.62) l=0.30x0.50x1.00 r=0.97
;00:00:21.839: pe=2.7152 eb=0.0242 ve=0.6237 vn=0.6117 vl=10.000 db=0.50
G1 X-68.92 Y56.51 E15.3752              ; draw dl=0.4@10(10<10>10) de=0.024@0.62(0.62<0.62>0.62) l=0.30x0.50x1.00 r=0.98
;00:00:21.878: pe=2.7156 eb=0.0240 ve=0.6237 vn=0.6150 vl=10.000 db=0.50
G1 X-69.22 Y56.77 E15.3999              ; draw dl=0.4@10(10<10>10) de=0.025@0.62(0.62<0.62>0.62) l=0.30x0.50x1.00 r=0.99
;00:00:21.918: pe=2.7159 eb=0.0240 ve=0.6237 vn=0.6161 vl=10.000 db=0.49
G1 X-69.43 Y57.18 E15.4287              ; draw dl=0.5@10(10<10>10) de=0.029@0.62(0.62<0.62>0.62) l=0.30x0.50x1.00 r=0.99
;00:00:21.964: pe=2.7163 eb=0.0239 ve=0.6237 vn=0.6165 vl=10.000 db=0.49
G1 X-69.50 Y57.71 E15.4620              ; draw dl=0.5@10(10<10>10) de=0.033@0.62(0.62<0.62>0.62) l=0.30x0.50x1.00 r=0.99
;00:00:22.018: pe=2.7167 eb=0.0239 ve=0.6237 vn=0.6167 vl=10.000 db=0.49
G1 X-69.44 Y58.22 E15.4940              ; draw dl=0.5@10(10<10>10) de=0.032@0.62(0.62<0.62>0.62) l=0.30x0.50x1.00 r=0.99
;00:00:22.069: pe=2.7170 eb=0.0239 ve=0.6237 vn=0.6168 vl=10.000 db=0.49
G1 X-69.26 Y58.61 E15.5208              ; draw dl=0.4@10(10<10>10) de=0.027@0.62(0.62<0.62>0.62) l=0.30x0.50x1.00 r=0.99
;00:00:22.112: pe=2.7173 eb=0.0240 ve=0.6237 vn=0.6169 vl=10.000 db=0.49
G1 X-68.97 Y58.86 E15.5447              ; draw dl=0.4@10(10<10>10) de=0.024@0.62(0.62<0.62>0.62) l=0.30x0.50x1.00 r=0.99
;00:00:22.150: pe=2.7176 eb=0.0240 ve=0.6237 vn=0.6169 vl=10.000 db=0.49
G1 X-68.57 Y58.95 E15.5703              ; draw dl=0.4@10(10<10>10) de=0.026@0.62(0.62<0.62>0.62) l=0.30x0.50x1.00 r=0.99
;00:00:22.191: pe=2.7178 eb=0.0240 ve=0.6237 vn=0.6170 vl=10.000 db=0.49
G1 X-68.38 Y58.93 E15.5822              ; draw dl=0.2@10(10<10>10) de=0.012@0.62(0.62<0.62>0.62) l=0.30x0.50x1.00 r=0.99
;00:00:22.210: pe=2.7180 eb=0.0240 ve=0.6237 vn=0.6170 vl=10.000 db=0.49
G1 X-68.18 Y58.85 E15.5956              ; draw dl=0.2@10(10<10>10) de=0.013@0.62(0.62<0.62>0.62) l=0.30x0.50x1.00 r=0.99
;00:00:22.232: pe=2.7181 eb=0.0240 ve=0.6237 vn=0.6171 vl=10.000 db=0.49
G1 X-67.97 Y58.72 E15.6110              ; draw dl=0.2@10(10<10>10) de=0.015@0.62(0.62<0.62>0.62) l=0.30x0.50x1.00 r=0.99
;00:00:22.257: pe=2.7183 eb=0.0240 ve=0.6236 vn=0.6171 vl=10.000 db=0.49
G1 X-67.77 Y58.50 E15.6296              ; draw dl=0.3@10(10<10>10) de=0.019@0.62(0.62<0.62>0.62) l=0.30x0.50x1.00 r=0.99
;00:00:22.286: pe=2.7185 eb=0.0240 ve=0.6236 vn=0.6172 vl=10.000 db=0.49
G1 X-67.52 Y58.03 E15.6628              ; draw dl=0.5@10(10<10>0) de=0.033@0.53(0.62<0.62>0.0) l=0.30x0.50x1.00 r=1.16
;00:00:22.350: pe=2.7132 eb=0.0295 ve=0.0000 vn=0.5334 vl=0.000 db=0.55
G1 E11.9496 F2400                       ; retract de=-3.7132@-40.0 r=1.20
;00:00:22.442: pe=-1.0056 eb=0.0351 ve=-40.0000 vn=0.0000 vl=0.000 db=0.60
G1 Z0.500 F420                          ; hopup dz=0.20@7 h=0.5 r=0.93
;00:00:22.471: pe=-1.0056 eb=0.0351 ve=0.0000 vn=0.0000 vl=0.000 db=0.46
G1 X-66.46 Y58.89 F6000                 ; move dl=1.4@100(0<18>0) de=0.000@0.0(0.0<0.0>0.0) l=0.50x0.50x0.00 r=0.00
;00:00:22.582: pe=-1.0056 eb=0.0000 ve=0.0000 vn=0.0000 vl=0.000 db=0.00
G1 Z0.300 F420                          ; hopdn dz=-0.20@7 h=0.3 r=0.00
;00:00:22.610: pe=-1.0056 eb=0.0000 ve=0.0000 vn=0.0000 vl=0.000 db=0.00
G1 E15.6413 F1800                       ; restore de=3.6917@30.0 r=1.03
;00:00:22.733: pe=2.6603 eb=0.0259 ve=30.0000 vn=0.5589 vl=0.000 db=0.51
G1 X-65.29 Y56.44 E15.8106 F600         ; draw dl=2.7@10(0<10>0) de=0.169@0.58(0.0<0.62>0.0) l=0.30x0.50x1.00 r=1.01
;00:00:23.025: pe=2.6592 eb=0.0284 ve=0.0000 vn=0.5215 vl=0.000 db=0.54
G1 E12.1514 F2400                       ; retract de=-3.6592@-40.0 r=1.17
;00:00:23.116: pe=-1.0053 eb=0.0338 ve=-40.0000 vn=0.0000 vl=0.000 db=0.59
G1 Z0.500 F420                          ; hopup dz=0.20@7 h=0.5 r=0.91
;00:00:23.145: pe=-1.0053 eb=0.0338 ve=0.0000 vn=0.0000 vl=0.000 db=0.45
G1 X-66.29 Y55.57 F6000                 ; move dl=1.3@100(0<18>0) de=0.000@0.0(0.0<0.0>0.0) l=0.50x0.50x0.00 r=0.00
;00:00:23.254: pe=-1.0053 eb=0.0000 ve=0.0000 vn=0.0000 vl=0.000 db=0.00
G1 Z0.300 F420                          ; hopdn dz=-0.20@7 h=0.3 r=0.00
;00:00:23.283: pe=-1.0053 eb=0.0000 ve=0.0000 vn=0.0000 vl=0.000 db=0.00
G1 E15.8834 F1800                       ; restore de=3.7320@30.0 r=1.04
;00:00:23.407: pe=2.7000 eb=0.0267 ve=30.0000 vn=0.5673 vl=0.000 db=0.52
G1 X-66.19 Y55.56 E15.8897 F600         ; draw dl=0.1@10(0<10>10) de=0.006@0.31(0.0<0.62>0.62) l=0.30x0.50x1.00 r=1.68
;00:00:23.427: pe=2.6958 eb=0.0302 ve=0.6236 vn=0.5149 vl=10.000 db=0.56
G1 X-66.10 Y55.56 E15.8953              ; draw dl=0.1@10(10<10>10) de=0.006@0.62(0.62<0.62>0.62) l=0.30x0.50x1.00 r=0.84
;00:00:23.436: pe=2.6967 eb=0.0288 ve=0.6236 vn=0.5355 vl=10.000 db=0.54
G1 X-65.84 Y55.62 E15.9119              ; draw dl=0.3@10(10<10>10) de=0.017@0.62(0.62<0.62>0.62) l=0.30x0.50x1.00 r=0.89
;00:00:23.463: pe=2.6984 eb=0.0261 ve=0.6236 vn=0.5755 vl=10.000 db=0.52
G1 X-65.63 Y55.78 E15.9284              ; draw dl=0.3@10(10<10>10) de=0.016@0.62(0.62<0.62>0.62) l=0.30x0.50x1.00 r=0.94
;00:00:23.489: pe=2.6994 eb=0.0248 ve=0.6236 vn=0.5953 vl=10.000 db=0.50
G1 X-65.45 Y56.06 E15.9491              ; draw dl=0.3@10(10<10>10) de=0.021@0.62(0.62<0.62>0.62) l=0.30x0.50x1.00 r=0.96
;00:00:23.523: pe=2.7002 eb=0.0241 ve=0.6236 vn=0.6063 vl=10.000 db=0.50
G1 X-65.29 Y56.44 E15.9748              ; draw dl=0.4@10(10<10>10) de=0.026@0.62(0.62<0.62>0.62) l=0.30x0.50x1.00 r=0.98
;00:00:23.564: pe=2.7007 eb=0.0238 ve=0.6236 vn=0.6111 vl=10.000 db=0.49
G1 X-64.41 Y58.89 E16.1372              ; draw dl=2.6@10(10<10>0) de=0.162@0.6(0.62<0.62>0.0) l=0.30x0.50x1.00 r=1.02
;00:00:23.834: pe=2.6979 eb=0.0292 ve=0.0000 vn=0.5300 vl=0.000 db=0.55
G1 E12.4393 F2400                       ; retract de=-3.6979@-40.0 r=1.19
;00:00:23.927: pe=-1.0055 eb=0.0347 ve=-40.0000 vn=0.0000 vl=0.000 db=0.60
G1 Z0.500 F420                          ; hopup dz=0.20@7 h=0.5 r=0.92
;00:00:23.955: pe=-1.0055 eb=0.0347 ve=0.0000 vn=0.0000 vl=0.000 db=0.46
G1 X-63.35 Y58.76 F6000                 ; move dl=1.1@100(0<16>0) de=0.000@0.0(0.0<0.0>0.0) l=0.50x0.50x0.00 r=0.00
;00:00:24.053: pe=-1.0055 eb=0.0000 ve=0.0000 vn=0.0000 vl=0.000 db=0.00
G1 Z0.300 F420                          ; hopdn dz=-0.20@7 h=0.3 r=0.00
;00:00:24.082: pe=-1.0055 eb=0.0000 ve=0.0000 vn=0.0000 vl=0.000 db=0.00
G1 E16.1158 F1800                       ; restore de=3.6765@30.0 r=1.02
;00:00:24.204: pe=2.6454 eb=0.0256 ve=30.0000 vn=0.5558 vl=0.000 db=0.51
G1 X-63.35 Y56.48 E16.2580 F600         ; draw dl=2.3@10(0<10>0) de=0.142@0.57(0.0<0.62>0.0) l=0.30x0.50x1.00 r=1.01
;00:00:24.452: pe=2.6443 eb=0.0281 ve=0.0000 vn=0.5181 vl=0.000 db=0.54
G1 E12.6137 F2400                       ; retract de=-3.6443@-40.0 r=1.17
;00:00:24.543: pe=-1.0053 eb=0.0334 ve=-40.0000 vn=0.0000 vl=0.000 db=0.58
G1 Z0.500 F420                          ; hopup dz=0.20@7 h=0.5 r=0.90
;00:00:24.572: pe=-1.0053 eb=0.0334 ve=0.0000 vn=0.0000 vl=0.000 db=0.45
G1 X-63.35 Y57.89 F6000                 ; move dl=1.4@100(0<19>0) de=0.000@0.0(0.0<0.0>0.0) l=0.50x0.50x0.00 r=0.00
;00:00:24.685: pe=-1.0053 eb=0.0000 ve=0.0000 vn=0.0000 vl=0.000 db=0.00
G1 Z0.300 F420                          ; hopdn dz=-0.20@7 h=0.3 r=0.00
;00:00:24.713: pe=-1.0053 eb=0.0000 ve=0.0000 vn=0.0000 vl=0.000 db=0.00
G1 E16.3409 F1800                       ; restore de=3.7272@30.0 r=1.04
;00:00:24.837: pe=2.6954 eb=0.0266 ve=30.0000 vn=0.5663 vl=0.000 db=0.52
G1 X-63.11 Y58.34 E16.3727 F600         ; draw dl=0.5@10(0<10>10) de=0.032@0.52(0.0<0.62>0.62) l=0.30x0.50x1.00 r=1.04
;00:00:24.898: pe=2.6941 eb=0.0256 ve=0.6236 vn=0.5797 vl=10.000 db=0.51
G1 X-62.92 Y58.67 E16.3965              ; draw dl=0.4@10(10<10>10) de=0.024@0.62(0.62<0.62>0.62) l=0.30x0.50x1.00 r=0.95
;00:00:24.937: pe=2.6953 eb=0.0243 ve=0.6236 vn=0.6012 vl=10.000 db=0.50
G1 X-62.70 Y58.86 E16.4146              ; draw dl=0.3@10(10<10>10) de=0.018@0.62(0.62<0.62>0.62) l=0.30x0.50x1.00 r=0.97
;00:00:24.966: pe=2.6959 eb=0.0239 ve=0.6236 vn=0.6074 vl=10.000 db=0.49
G1 X-62.49 Y58.93 E16.4284              ; draw dl=0.2@10(10<10>10) de=0.014@0.62(0.62<0.62>0.62) l=0.30x0.50x1.00 r=0.98
;00:00:24.988: pe=2.6962 eb=0.0237 ve=0.6236 vn=0.6097 vl=10.000 db=0.49
G1 X-62.28 Y58.95 E16.4415              ; draw dl=0.2@10(10<10>10) de=0.013@0.62(0.62<0.62>0.62) l=0.30x0.50x1.00 r=0.98
;00:00:25.009: pe=2.6965 eb=0.0237 ve=0.6236 vn=0.6109 vl=10.000 db=0.49
G1 X-61.95 Y58.88 E16.4626              ; draw dl=0.3@10(10<10>10) de=0.021@0.62(0.62<0.62>0.62) l=0.30x0.50x1.00 r=0.98
;00:00:25.043: pe=2.6969 eb=0.0236 ve=0.6236 vn=0.6118 vl=10.000 db=0.49
G1 X-61.77 Y58.73 E16.4772              ; draw dl=0.2@10(10<10>10) de=0.015@0.62(0.62<0.62>0.62) l=0.30x0.50x1.00 r=0.98
;00:00:25.066: pe=2.6971 eb=0.0236 ve=0.6236 vn=0.6121 vl=10.000 db=0.49
G1 X-61.67 Y58.40 E16.4987              ; draw dl=0.3@10(10<10>10) de=0.022@0.62(0.62<0.62>0.62) l=0.30x0.50x1.00 r=0.98
;00:00:25.100: pe=2.6975 eb=0.0236 ve=0.6236 vn=0.6124 vl=10.000 db=0.49
G1 X-61.61 Y58.08 E16.5190              ; draw dl=0.3@10(10<10>10) de=0.020@0.62(0.62<0.62>0.62) l=0.30x0.50x1.00 r=0.98
;00:00:25.133: pe=2.6979 eb=0.0236 ve=0.6236 vn=0.6125 vl=10.000 db=0.49
G1 X-61.61 Y56.48 E16.6188              ; draw dl=1.6@10(10<10>0) de=0.100@0.59(0.62<0.62>0.0) l=0.30x0.50x1.00 r=1.04
;00:00:25.303: pe=2.6941 eb=0.0291 ve=0.0000 vn=0.5292 vl=0.000 db=0.55
G1 E12.9247 F2400                       ; retract de=-3.6941@-40.0 r=1.19
;00:00:25.395: pe=-1.0055 eb=0.0346 ve=-40.0000 vn=0.0000 vl=0.000 db=0.59
G1 Z0.500 F420                          ; hopup dz=0.20@7 h=0.5 r=0.92
;00:00:25.424: pe=-1.0055 eb=0.0346 ve=0.0000 vn=0.0000 vl=0.000 db=0.46
G1 X-60.55 Y56.48 F6000                 ; move dl=1.1@100(0<16>0) de=0.000@0.0(0.0<0.0>0.0) l=0.50x0.50x0.00 r=0.00
;00:00:25.522: pe=-1.0055 eb=0.0000 ve=0.0000 vn=0.0000 vl=0.000 db=0.00
G1 Z0.300 F420                          ; hopdn dz=-0.20@7 h=0.3 r=0.00
;00:00:25.550: pe=-1.0055 eb=0.0000 ve=0.0000 vn=0.0000 vl=0.000 db=0.00
G1 E16.6064 F1800                       ; restore de=3.6817@30.0 r=1.02
;00:00:25.673: pe=2.6505 eb=0.0257 ve=30.0000 vn=0.5568 vl=0.000 db=0.51
G1 X-60.55 Y58.89 E16.7567 F600         ; draw dl=2.4@10(0<10>0) de=0.150@0.58(0.0<0.62>0.0) l=0.30x0.50x1.00 r=1.01
;00:00:25.934: pe=2.6494 eb=0.0282 ve=0.0000 vn=0.5193 vl=0.000 db=0.54
G1 E13.1073 F2400                       ; retract de=-3.6494@-40.0 r=1.17
;00:00:26.025: pe=-1.0053 eb=0.0335 ve=-40.0000 vn=0.0000 vl=0.000 db=0.58
G1 Z0.500 F420                          ; hopup dz=0.20@7 h=0.5 r=0.91
;00:00:26.054: pe=-1.0053 eb=0.0335 ve=0.0000 vn=0.0000 vl=0.000 db=0.45
G1 X-60.55 Y58.20 F6000                 ; move dl=0.7@100(0<13>0) de=0.000@0.0(0.0<0.0>0.0) l=0.50x0.50x0.00 r=0.00
;00:00:26.133: pe=-1.0053 eb=0.0000 ve=0.0000 vn=0.0000 vl=0.000 db=0.00
G1 Z0.300 F420                          ; hopdn dz=-0.20@7 h=0.3 r=0.01
;00:00:26.161: pe=-1.0053 eb=0.0000 ve=0.0000 vn=0.0000 vl=0.000 db=0.00
G1 E16.7782 F1800                       ; restore de=3.6709@30.0 r=1.02
;00:00:26.283: pe=2.6401 eb=0.0255 ve=30.0000 vn=0.5547 vl=0.000 db=0.51
G1 X-60.30 Y58.55 E16.8050 F600         ; draw dl=0.4@10(0<10>10) de=0.027@0.51(0.0<0.62>0.62) l=0.30x0.50x1.00 r=1.04
;00:00:26.336: pe=2.6391 eb=0.0251 ve=0.6236 vn=0.5606 vl=10.000 db=0.51
G1 X-60.09 Y58.76 E16.8235              ; draw dl=0.3@10(10<10>10) de=0.019@0.62(0.62<0.62>0.62) l=0.30x0.50x1.00 r=0.92
;00:00:26.366: pe=2.6406 eb=0.0237 ve=0.6236 vn=0.5832 vl=10.000 db=0.49
G1 X-59.89 Y58.88 E16.8381              ; draw dl=0.2@10(10<10>10) de=0.015@0.62(0.62<0.62>0.62) l=0.30x0.50x1.00 r=0.94
;00:00:26.389: pe=2.6414 eb=0.0231 ve=0.6237 vn=0.5915 vl=10.000 db=0.49
G1 X-59.70 Y58.94 E16.8505              ; draw dl=0.2@10(10<10>10) de=0.012@0.62(0.62<0.62>0.62) l=0.30x0.50x1.00 r=0.95
;00:00:26.409: pe=2.6420 eb=0.0229 ve=0.6236 vn=0.5954 vl=10.000 db=0.48
G1 X-59.54 Y58.95 E16.8605              ; draw dl=0.2@10(10<10>10) de=0.010@0.62(0.62<0.62>0.62) l=0.30x0.50x1.00 r=0.96
;00:00:26.425: pe=2.6424 eb=0.0228 ve=0.6237 vn=0.5972 vl=10.000 db=0.48
G1 X-59.49 Y58.95 E16.8636              ; draw dl=0.1@10(10<10>7) de=0.003@0.54(0.62<0.62>0.45) l=0.30x0.50x1.00 r=1.11
;00:00:26.431: pe=2.6421 eb=0.0233 ve=0.4453 vn=0.5900 vl=7.141 db=0.49
G1 X-59.44 Y58.94 E16.8668              ; draw dl=0.1@10(7<7>0) de=0.003@0.22(0.45<0.45>0.0) l=0.30x0.50x1.00 r=2.52
;00:00:26.446: pe=2.6373 eb=0.0281 ve=0.0000 vn=0.5151 vl=0.000 db=0.54
G1 E13.2295 F2400                       ; retract de=-3.6373@-40.0 r=1.17
;00:00:26.536: pe=-1.0052 eb=0.0333 ve=-40.0000 vn=0.0000 vl=0.000 db=0.58
G1 Z0.500 F420                          ; hopup dz=0.20@7 h=0.5 r=0.90
;00:00:26.565: pe=-1.0052 eb=0.0333 ve=0.0000 vn=0.0000 vl=0.000 db=0.45
G1 X-58.38 Y57.69 F6000                 ; move dl=1.6@100(0<20>0) de=0.000@0.0(0.0<0.0>0.0) l=0.50x0.50x0.00 r=0.00
;00:00:26.687: pe=-1.0052 eb=0.0000 ve=0.0000 vn=0.0000 vl=0.000 db=0.00
G1 Z0.300 F420                          ; hopdn dz=-0.20@7 h=0.3 r=0.00
;00:00:26.715: pe=-1.0052 eb=0.0000 ve=0.0000 vn=0.0000 vl=0.000 db=0.00
G1 E16.9828 F1800                       ; restore de=3.7533@30.0 r=1.05
;00:00:26.840: pe=2.7210 eb=0.0271 ve=30.0000 vn=0.5717 vl=0.000 db=0.53
G1 X-56.24 Y57.69 E17.1162 F600         ; draw dl=2.1@10(0<10>10) de=0.133@0.6(0.0<0.62>0.6) l=0.30x0.50x1.00 r=1.00
;00:00:27.064: pe=2.7215 eb=0.0241 ve=0.6039 vn=0.6174 vl=9.683 db=0.50
G1 X-56.32 Y58.22 E17.1497              ; draw dl=0.5@10(10<10>10) de=0.033@0.62(0.6<0.62>0.62) l=0.30x0.50x1.00 r=0.99
;00:00:27.118: pe=2.7218 eb=0.0240 ve=0.6237 vn=0.6178 vl=10.000 db=0.50
G1 X-56.53 Y58.61 E17.1773              ; draw dl=0.4@10(10<10>10) de=0.028@0.62(0.62<0.62>0.62) l=0.30x0.50x1.00 r=0.99
;00:00:27.162: pe=2.7221 eb=0.0240 ve=0.6236 vn=0.6179 vl=10.000 db=0.50
G1 X-56.87 Y58.86 E17.2036              ; draw dl=0.4@10(10<10>10) de=0.026@0.62(0.62<0.62>0.62) l=0.30x0.50x1.00 r=0.99
;00:00:27.204: pe=2.7223 eb=0.0240 ve=0.6236 vn=0.6180 vl=10.000 db=0.50
G1 X-57.31 Y58.95 E17.2316              ; draw dl=0.4@10(10<10>10) de=0.028@0.62(0.62<0.62>0.62) l=0.30x0.50x1.00 r=0.99
;00:00:27.249: pe=2.7226 eb=0.0240 ve=0.6237 vn=0.6181 vl=10.000 db=0.50
G1 X-57.74 Y58.86 E17.2590              ; draw dl=0.4@10(10<10>10) de=0.027@0.62(0.62<0.62>0.62) l=0.30x0.50x1.00 r=0.99
;00:00:27.293: pe=2.7228 eb=0.0241 ve=0.6236 vn=0.6181 vl=10.000 db=0.50
G1 X-58.08 Y58.61 E17.2853              ; draw dl=0.4@10(10<10>10) de=0.026@0.62(0.62<0.62>0.62) l=0.30x0.50x1.00 r=0.99
;00:00:27.335: pe=2.7231 eb=0.0241 ve=0.6236 vn=0.6182 vl=10.000 db=0.50
G1 X-58.30 Y58.22 E17.3133              ; draw dl=0.4@10(10<10>10) de=0.028@0.62(0.62<0.62>0.62) l=0.30x0.50x1.00 r=0.99
;00:00:27.380: pe=2.7233 eb=0.0241 ve=0.6236 vn=0.6182 vl=10.000 db=0.50
G1 X-58.38 Y57.69 E17.3467              ; draw dl=0.5@10(10<10>10) de=0.033@0.62(0.62<0.62>0.62) l=0.30x0.50x1.00 r=0.99
;00:00:27.434: pe=2.7236 eb=0.0241 ve=0.6237 vn=0.6183 vl=10.000 db=0.50
G1 X-58.30 Y57.15 E17.3807              ; draw dl=0.5@10(10<10>10) de=0.034@0.62(0.62<0.62>0.62) l=0.30x0.50x1.00 r=0.99
;00:00:27.488: pe=2.7239 eb=0.0241 ve=0.6237 vn=0.6184 vl=10.000 db=0.50
G1 X-58.07 Y56.75 E17.4095              ; draw dl=0.5@10(10<10>10) de=0.029@0.62(0.62<0.62>0.62) l=0.30x0.50x1.00 r=0.99
;00:00:27.534: pe=2.7241 eb=0.0241 ve=0.6237 vn=0.6184 vl=10.000 db=0.50
G1 X-57.72 Y56.51 E17.4360              ; draw dl=0.4@10(10<10>10) de=0.026@0.62(0.62<0.62>0.62) l=0.30x0.50x1.00 r=0.99
;00:00:27.577: pe=2.7243 eb=0.0241 ve=0.6237 vn=0.6185 vl=10.000 db=0.50
G1 X-57.26 Y56.42 E17.4652              ; draw dl=0.5@10(10<10>10) de=0.029@0.62(0.62<0.62>0.62) l=0.30x0.50x1.00 r=0.99
;00:00:27.624: pe=2.7246 eb=0.0241 ve=0.6237 vn=0.6185 vl=10.000 db=0.50
G1 X-56.92 Y56.47 E17.4866              ; draw dl=0.3@10(10<10>10) de=0.021@0.62(0.62<0.62>0.62) l=0.30x0.50x1.00 r=0.99
;00:00:27.658: pe=2.7248 eb=0.0241 ve=0.6236 vn=0.6186 vl=10.000 db=0.50
G1 X-56.63 Y56.61 E17.5067              ; draw dl=0.3@10(10<10>10) de=0.020@0.62(0.62<0.62>0.62) l=0.30x0.50x1.00 r=0.99
;00:00:27.690: pe=2.7249 eb=0.0241 ve=0.6236 vn=0.6186 vl=10.000 db=0.50
G1 X-56.42 Y56.83 E17.5257              ; draw dl=0.3@10(10<10>10) de=0.019@0.62(0.62<0.62>0.62) l=0.30x0.50x1.00 r=0.99
;00:00:27.721: pe=2.7251 eb=0.0241 ve=0.6236 vn=0.6186 vl=10.000 db=0.50
G1 X-56.30 Y57.13 E17.5458              ; draw dl=0.3@10(10<10>0) de=0.020@0.48(0.62<0.62>0.0) l=0.30x0.50x1.00 r=1.27
;00:00:27.763: pe=2.7196 eb=0.0296 ve=0.0000 vn=0.5348 vl=0.000 db=0.55
G1 E13.8263 F2400                       ; retract de=-3.7196@-40.0 r=1.20
;00:00:27.856: pe=-1.0056 eb=0.0352 ve=-40.0000 vn=0.0000 vl=0.000 db=0.60
G1 Z0.500 F420                          ; hopup dz=0.20@7 h=0.5 r=0.93
;00:00:27.885: pe=-1.0056 eb=0.0352 ve=0.0000 vn=0.0000 vl=0.000 db=0.46
G1 X-53.99 Y56.46 F6000                 ; move dl=2.4@100(0<25>0) de=0.000@0.0(0.0<0.0>0.0) l=0.50x0.50x0.00 r=0.00
;00:00:28.032: pe=-1.0056 eb=0.0000 ve=0.0000 vn=0.0000 vl=0.000 db=0.00
G1 Z0.300 F420                          ; hopdn dz=-0.20@7 h=0.3 r=0.00
;00:00:28.060: pe=-1.0056 eb=0.0000 ve=0.0000 vn=0.0000 vl=0.000 db=0.00
G1 E17.5477 F1800                       ; restore de=3.7214@30.0 r=1.04
;00:00:28.184: pe=2.6893 eb=0.0265 ve=30.0000 vn=0.5650 vl=0.000 db=0.52
G1 X-54.14 Y56.45 E17.5570 F600         ; draw dl=0.2@10(0<10>10) de=0.009@0.37(0.0<0.62>0.62) l=0.30x0.50x1.00 r=1.39
;00:00:28.209: pe=2.6857 eb=0.0291 ve=0.6236 vn=0.5247 vl=10.000 db=0.55
G1 X-54.32 Y56.50 E17.5687              ; draw dl=0.2@10(10<10>10) de=0.012@0.62(0.62<0.62>0.62) l=0.30x0.50x1.00 r=0.87
;00:00:28.228: pe=2.6872 eb=0.0268 ve=0.6236 vn=0.5587 vl=10.000 db=0.52
G1 X-54.48 Y56.62 E17.5812              ; draw dl=0.2@10(10<10>10) de=0.012@0.62(0.62<0.62>0.62) l=0.30x0.50x1.00 r=0.91
;00:00:28.248: pe=2.6883 eb=0.0254 ve=0.6236 vn=0.5809 vl=10.000 db=0.51
G1 X-54.60 Y56.81 E17.5952              ; draw dl=0.2@10(10<10>10) de=0.014@0.62(0.62<0.62>0.62) l=0.30x0.50x1.00 r=0.94
;00:00:28.271: pe=2.6891 eb=0.0245 ve=0.6236 vn=0.5950 vl=10.000 db=0.50
G1 X-54.68 Y57.19 E17.6194              ; draw dl=0.4@10(10<10>10) de=0.024@0.62(0.62<0.62>0.62) l=0.30x0.50x1.00 r=0.96
;00:00:28.309: pe=2.6899 eb=0.0238 ve=0.6236 vn=0.6057 vl=10.000 db=0.49
G1 X-54.68 Y59.52 E17.7647              ; draw dl=2.3@10(10<10>0) de=0.145@0.6(0.62<0.62>0.0) l=0.30x0.50x1.00 r=1.02
;00:00:28.552: pe=2.6875 eb=0.0290 ve=0.0000 vn=0.5277 vl=0.000 db=0.54
G1 E14.0772 F2400                       ; retract de=-3.6875@-40.0 r=1.19
;00:00:28.645: pe=-1.0054 eb=0.0344 ve=-40.0000 vn=0.0000 vl=0.000 db=0.59
G1 Z0.500 F420                          ; hopup dz=0.20@7 h=0.5 r=0.92
;00:00:28.673: pe=-1.0054 eb=0.0344 ve=0.0000 vn=0.0000 vl=0.000 db=0.46
G1 X-55.18 Y58.76 F6000                 ; move dl=0.9@100(0<15>0) de=0.000@0.0(0.0<0.0>0.0) l=0.50x0.50x0.00 r=0.00
;00:00:28.764: pe=-1.0054 eb=0.0000 ve=0.0000 vn=0.0000 vl=0.000 db=0.00
G1 Z0.300 F420                          ; hopdn dz=-0.20@7 h=0.3 r=0.00
;00:00:28.792: pe=-1.0054 eb=0.0000 ve=0.0000 vn=0.0000 vl=0.000 db=0.00
G1 E17.6595 F1800                       ; restore de=3.5823@30.0 r=0.99
;00:00:28.912: pe=2.5530 eb=0.0239 ve=30.0000 vn=0.5362 vl=0.000 db=0.49
G1 X-54.10 Y58.76 E17.7269 F600         ; draw dl=1.1@10(0<10>0) de=0.067@0.53(0.0<0.62>0.0) l=0.30x0.50x1.00 r=1.02
;00:00:29.040: pe=2.5515 eb=0.0266 ve=0.0000 vn=0.4938 vl=0.000 db=0.52
G1 E14.1754 F2400                       ; retract de=-3.5515@-40.0 r=1.13
;00:00:29.128: pe=-1.0048 eb=0.0314 ve=-40.0000 vn=0.0000 vl=0.000 db=0.57
G1 Z0.500 F420                          ; hopup dz=0.20@7 h=0.5 r=0.88
;00:00:29.157: pe=-1.0048 eb=0.0314 ve=0.0000 vn=0.0000 vl=0.000 db=0.44
G1 X-52.92 Y58.26 F6000                 ; move dl=1.3@100(0<18>0) de=0.000@0.0(0.0<0.0>0.0) l=0.50x0.50x0.00 r=0.00
;00:00:29.264: pe=-1.0048 eb=0.0000 ve=0.0000 vn=0.0000 vl=0.000 db=0.00
G1 Z0.300 F420                          ; hopdn dz=-0.20@7 h=0.3 r=0.00
;00:00:29.293: pe=-1.0048 eb=0.0000 ve=0.0000 vn=0.0000 vl=0.000 db=0.00
G1 E17.8199 F1800                       ; restore de=3.6445@30.0 r=1.01
;00:00:29.414: pe=2.6147 eb=0.0250 ve=30.0000 vn=0.5493 vl=0.000 db=0.51
G1 X-51.23 Y58.26 E17.9253 F600         ; draw dl=1.7@10(0<10>0) de=0.105@0.56(0.0<0.62>0.0) l=0.30x0.50x1.00 r=1.01
;00:00:29.603: pe=2.6135 eb=0.0276 ve=0.0000 vn=0.5108 vl=0.000 db=0.53
G1 E14.3117 F2400                       ; retract de=-3.6135@-40.0 r=1.16
;00:00:29.694: pe=-1.0051 eb=0.0327 ve=-40.0000 vn=0.0000 vl=0.000 db=0.58
G1 Z0.500 F420                          ; hopup dz=0.20@7 h=0.5 r=0.89
;00:00:29.722: pe=-1.0051 eb=0.0327 ve=0.0000 vn=0.0000 vl=0.000 db=0.45
G1 X-51.23 Y57.55 F6000                 ; move dl=0.7@100(0<13>0) de=0.000@0.0(0.0<0.0>0.0) l=0.50x0.50x0.00 r=0.00
;00:00:29.802: pe=-1.0051 eb=0.0000 ve=0.0000 vn=0.0000 vl=0.000 db=0.00
G1 Z0.300 F420                          ; hopdn dz=-0.20@7 h=0.3 r=0.00
;00:00:29.831: pe=-1.0051 eb=0.0000 ve=0.0000 vn=0.0000 vl=0.000 db=0.00
G1 E17.9566 F1800                       ; restore de=3.6448@30.0 r=1.01
;00:00:29.952: pe=2.6147 eb=0.0250 ve=30.0000 vn=0.5493 vl=0.000 db=0.51
G1 X-52.92 Y57.55 E18.0620 F600         ; draw dl=1.7@10(0<10>0) de=0.105@0.56(0.0<0.62>0.0) l=0.30x0.50x1.00 r=1.01
;00:00:30.141: pe=2.6135 eb=0.0276 ve=0.0000 vn=0.5108 vl=0.000 db=0.53
G1 E14.4485 F2400                       ; retract de=-3.6135@-40.0 r=1.16
;00:00:30.232: pe=-1.0051 eb=0.0327 ve=-40.0000 vn=0.0000 vl=0.000 db=0.58
G1 Z0.500 F420                          ; hopup dz=0.20@7 h=0.5 r=0.89
;00:00:30.260: pe=-1.0051 eb=0.0327 ve=0.0000 vn=0.0000 vl=0.000 db=0.45
G1 X-48.95 Y59.94 F6000                 ; move dl=4.6@100(0<34>0) de=0.000@0.0(0.0<0.0>0.0) l=0.50x0.50x0.00 r=0.00
;00:00:30.464: pe=-1.0051 eb=0.0000 ve=0.0000 vn=0.0000 vl=0.000 db=0.00
G1 Z0.300 F420                          ; hopdn dz=-0.20@7 h=0.3 r=0.00
;00:00:30.493: pe=-1.0051 eb=0.0000 ve=0.0000 vn=0.0000 vl=0.000 db=0.00
G1 E18.2031 F1800                       ; restore de=3.7547@30.0 r=1.05
;00:00:30.618: pe=2.7225 eb=0.0271 ve=30.0000 vn=0.5720 vl=0.000 db=0.53
G1 X-48.44 Y59.80 E18.2361 F600         ; draw dl=0.5@10(0<10>10) de=0.033@0.52(0.0<0.62>0.62) l=0.30x0.50x1.00 r=1.05
;00:00:30.681: pe=2.7209 eb=0.0261 ve=0.6236 vn=0.5869 vl=10.000 db=0.52
G1 X-48.05 Y59.42 E18.2701              ; draw dl=0.5@10(10<10>10) de=0.034@0.62(0.62<0.62>0.62) l=0.30x0.50x1.00 r=0.97
;00:00:30.736: pe=2.7221 eb=0.0245 ve=0.6236 vn=0.6114 vl=10.000 db=0.50
G1 X-47.81 Y58.86 E18.3081              ; draw dl=0.6@10(10<10>10) de=0.038@0.62(0.62<0.62>0.62) l=0.30x0.50x1.00 r=0.99
;00:00:30.796: pe=2.7226 eb=0.0241 ve=0.6236 vn=0.6170 vl=10.000 db=0.50
G1 X-47.73 Y58.18 E18.3508              ; draw dl=0.7@10(10<10>10) de=0.043@0.62(0.62<0.62>0.62) l=0.30x0.50x1.00 r=0.99
;00:00:30.865: pe=2.7231 eb=0.0241 ve=0.6236 vn=0.6180 vl=10.000 db=0.50
G1 X-47.81 Y57.51 E18.3929              ; draw dl=0.7@10(10<10>10) de=0.042@0.62(0.62<0.62>0.62) l=0.30x0.50x1.00 r=0.99
;00:00:30.932: pe=2.7234 eb=0.0241 ve=0.6236 vn=0.6182 vl=10.000 db=0.50
G1 X-48.05 Y56.95 E18.4309              ; draw dl=0.6@10(10<10>10) de=0.038@0.62(0.62<0.62>0.62) l=0.30x0.50x1.00 r=0.99
;00:00:30.993: pe=2.7237 eb=0.0241 ve=0.6236 vn=0.6183 vl=10.000 db=0.50
G1 X-48.44 Y56.56 E18.4653              ; draw dl=0.6@10(10<10>10) de=0.034@0.62(0.62<0.62>0.62) l=0.30x0.50x1.00 r=0.99
;00:00:31.048: pe=2.7240 eb=0.0241 ve=0.6236 vn=0.6184 vl=10.000 db=0.50
G1 X-48.95 Y56.42 E18.4982              ; draw dl=0.5@10(10<10>10) de=0.033@0.62(0.62<0.62>0.62) l=0.30x0.50x1.00 r=0.99
;00:00:31.101: pe=2.7243 eb=0.0241 ve=0.6236 vn=0.6185 vl=10.000 db=0.50
G1 X-49.47 Y56.56 E18.5318              ; draw dl=0.5@10(10<10>10) de=0.034@0.62(0.62<0.62>0.62) l=0.30x0.50x1.00 r=0.99
;00:00:31.155: pe=2.7246 eb=0.0241 ve=0.6236 vn=0.6185 vl=10.000 db=0.50
G1 X-49.85 Y56.95 E18.5658              ; draw dl=0.5@10(10<10>10) de=0.034@0.62(0.62<0.62>0.62) l=0.30x0.50x1.00 r=0.99
;00:00:31.210: pe=2.7249 eb=0.0241 ve=0.6236 vn=0.6186 vl=10.000 db=0.50
G1 X-50.09 Y57.51 E18.6038              ; draw dl=0.6@10(10<10>10) de=0.038@0.62(0.62<0.62>0.62) l=0.30x0.50x1.00 r=0.99
;00:00:31.271: pe=2.7252 eb=0.0241 ve=0.6236 vn=0.6187 vl=10.000 db=0.50
G1 X-50.17 Y58.18 E18.6459              ; draw dl=0.7@10(10<10>10) de=0.042@0.62(0.62<0.62>0.62) l=0.30x0.50x1.00 r=0.99
;00:00:31.338: pe=2.7255 eb=0.0241 ve=0.6236 vn=0.6187 vl=10.000 db=0.50
G1 X-50.09 Y58.85 E18.6879              ; draw dl=0.7@10(10<10>10) de=0.042@0.62(0.62<0.62>0.62) l=0.30x0.50x1.00 r=0.99
;00:00:31.406: pe=2.7258 eb=0.0241 ve=0.6236 vn=0.6188 vl=10.000 db=0.50
G1 X-49.85 Y59.42 E18.7265              ; draw dl=0.6@10(10<10>10) de=0.039@0.62(0.62<0.62>0.62) l=0.30x0.50x1.00 r=0.99
;00:00:31.467: pe=2.7261 eb=0.0241 ve=0.6236 vn=0.6189 vl=10.000 db=0.50
G1 X-49.47 Y59.80 E18.7600              ; draw dl=0.5@10(10<10>10) de=0.034@0.62(0.62<0.62>0.62) l=0.30x0.50x1.00 r=0.99
;00:00:31.521: pe=2.7264 eb=0.0241 ve=0.6236 vn=0.6189 vl=10.000 db=0.50
G1 X-48.95 Y59.94 E18.7936              ; draw dl=0.5@10(10<10>0) de=0.034@0.53(0.62<0.62>0.0) l=0.30x0.50x1.00 r=1.16
;00:00:31.585: pe=2.7210 eb=0.0297 ve=0.0000 vn=0.5351 vl=0.000 db=0.55
G1 E15.0726 F2400                       ; retract de=-3.7210@-40.0 r=1.20
;00:00:31.678: pe=-1.0056 eb=0.0353 ve=-40.0000 vn=0.0000 vl=0.000 db=0.60
G1 Z0.500 F420                          ; hopup dz=0.20@7 h=0.5 r=0.93
;00:00:31.707: pe=-1.0056 eb=0.0353 ve=0.0000 vn=0.0000 vl=0.000 db=0.46
;structure:shell-outer
G1 X70.00 Y0.00 F6000                   ; move dl=133.2@100(0<100>0) de=0.000@0.0(0.0<0.0>0.0) l=0.50x0.50x0.00 r=0.00
;00:00:33.239: pe=-1.0056 eb=0.0000 ve=0.0000 vn=0.0000 vl=0.000 db=0.00
G1 Z0.300 F420                          ; hopdn dz=-0.20@7 h=0.3 r=0.00
;00:00:33.267: pe=-1.0056 eb=0.0000 ve=0.0000 vn=0.0000 vl=0.000 db=0.00
G1 E18.8399 F1800                       ; restore de=3.7673@30.0 r=1.06
;00:00:33.393: pe=2.7343 eb=0.0274 ve=30.0000 vn=0.5746 vl=0.000 db=0.53
;00:00:33.393: spiral RC0=(70.0,0.000) dRC=(0.0,1.000) dl=439.8@10 de=27.429@0.6 l=0.30x0.50x1.00
G1 X69.73 Y6.10 E19.2207 F600           ; draw dl=6.1@10(0<10>10) de=0.381@0.61(0.0<0.62>0.62) l=0.30x0.50x1.00 r=1.00
;00:00:34.013: pe=2.7354 eb=0.0243 ve=0.6236 vn=0.6210 vl=10.000 db=0.50
G1 X68.94 Y12.16 E19.6016               ; draw dl=6.1@10(10<10>10) de=0.381@0.62(0.62<0.62>0.62) l=0.30x0.50x1.00 r=1.00
;00:00:34.624: pe=2.7369 eb=0.0243 ve=0.6236 vn=0.6213 vl=10.000 db=0.50
G1 X67.61 Y18.12 E19.9824               ; draw dl=6.1@10(10<10>10) de=0.381@0.62(0.62<0.62>0.62) l=0.30x0.50x1.00 r=1.00
;00:00:35.235: pe=2.7382 eb=0.0243 ve=0.6236 vn=0.6216 vl=10.000 db=0.50
G1 X65.78 Y23.94 E20.3632               ; draw dl=6.1@10(10<10>10) de=0.381@0.62(0.62<0.62>0.62) l=0.30x0.50x1.00 r=1.00
;00:00:35.845: pe=2.7394 eb=0.0243 ve=0.6236 vn=0.6219 vl=10.000 db=0.50
G1 X63.44 Y29.58 E20.7441               ; draw dl=6.1@10(10<10>10) de=0.381@0.62(0.62<0.62>0.62) l=0.30x0.50x1.00 r=1.00
;00:00:36.456: pe=2.7404 eb=0.0244 ve=0.6236 vn=0.6221 vl=10.000 db=0.50
G1 X60.62 Y35.00 E21.1249               ; draw dl=6.1@10(10<10>10) de=0.381@0.62(0.62<0.62>0.62) l=0.30x0.50x1.00 r=1.00
;00:00:37.067: pe=2.7413 eb=0.0244 ve=0.6236 vn=0.6223 vl=10.000 db=0.50
G1 X57.34 Y40.15 E21.5057               ; draw dl=6.1@10(10<10>10) de=0.381@0.62(0.62<0.62>0.62) l=0.30x0.50x1.00 r=1.00
;00:00:37.677: pe=2.7420 eb=0.0244 ve=0.6236 vn=0.6225 vl=10.000 db=0.50
G1 X53.62 Y45.00 E21.8866               ; draw dl=6.1@10(10<10>10) de=0.381@0.62(0.62<0.62>0.62) l=0.30x0.50x1.00 r=1.00
;00:00:38.288: pe=2.7427 eb=0.0244 ve=0.6236 vn=0.6226 vl=10.000 db=0.50
G1 X49.50 Y49.50 E22.2674               ; draw dl=6.1@10(10<10>10) de=0.381@0.62(0.62<0.62>0.62) l=0.30x0.50x1.00 r=1.00
;00:00:38.899: pe=2.7433 eb=0.0244 ve=0.6236 vn=0.6227 vl=10.000 db=0.50
G1 X45.00 Y53.62 E22.6482               ; draw dl=6.1@10(10<10>10) de=0.381@0.62(0.62<0.62>0.62) l=0.30x0.50x1.00 r=1.00
;00:00:39.509: pe=2.7438 eb=0.0244 ve=0.6236 vn=0.6229 vl=10.000 db=0.50
G1 X40.15 Y57.34 E23.0291               ; draw dl=6.1@10(10<10>10) de=0.381@0.62(0.62<0.62>0.62) l=0.30x0.50x1.00 r=1.00
;00:00:40.120: pe=2.7442 eb=0.0244 ve=0.6236 vn=0.6230 vl=10.000 db=0.50
G1 X35.00 Y60.62 E23.4099               ; draw dl=6.1@10(10<10>10) de=0.381@0.62(0.62<0.62>0.62) l=0.30x0.50x1.00 r=1.00
;00:00:40.731: pe=2.7446 eb=0.0244 ve=0.6236 vn=0.6230 vl=10.000 db=0.50
G1 X29.58 Y63.44 E23.7907               ; draw dl=6.1@10(10<10>10) de=0.381@0.62(0.62<0.62>0.62) l=0.30x0.50x1.00 r=1.00
;00:00:41.341: pe=2.7450 eb=0.0244 ve=0.6236 vn=0.6231 vl=10.000 db=0.50
G1 X23.94 Y65.78 E24.1716               ; draw dl=6.1@10(10<10>10) de=0.381@0.62(0.62<0.62>0.62) l=0.30x0.50x1.00 r=1.00
;00:00:41.952: pe=2.7453 eb=0.0245 ve=0.6236 vn=0.6232 vl=10.000 db=0.50
G1 X18.12 Y67.61 E24.5524               ; draw dl=6.1@10(10<10>10) de=0.381@0.62(0.62<0.62>0.62) l=0.30x0.50x1.00 r=1.00
;00:00:42.563: pe=2.7455 eb=0.0245 ve=0.6236 vn=0.6232 vl=10.000 db=0.50
G1 X12.16 Y68.94 E24.9332               ; draw dl=6.1@10(10<10>10) de=0.381@0.62(0.62<0.62>0.62) l=0.30x0.50x1.00 r=1.00
;00:00:43.173: pe=2.7457 eb=0.0245 ve=0.6236 vn=0.6233 vl=10.000 db=0.50
G1 X6.10 Y69.73 E25.3141                ; draw dl=6.1@10(10<10>10) de=0.381@0.62(0.62<0.62>0.62) l=0.30x0.50x1.00 r=1.00
;00:00:43.784: pe=2.7459 eb=0.0245 ve=0.6236 vn=0.6233 vl=10.000 db=0.50
G1 X0.00 Y70.00 E25.6949                ; draw dl=6.1@10(10<10>10) de=0.381@0.62(0.62<0.62>0.62) l=0.30x0.50x1.00 r=1.00
;00:00:44.395: pe=2.7461 eb=0.0245 ve=0.6236 vn=0.6234 vl=10.000 db=0.50
G1 X-6.10 Y69.73 E26.0757               ; draw dl=6.1@10(10<10>10) de=0.381@0.62(0.62<0.62>0.62) l=0.30x0.50x1.00 r=1.00
;00:00:45.005: pe=2.7463 eb=0.0245 ve=0.6236 vn=0.6234 vl=10.000 db=0.50
G1 X-12.16 Y68.94 E26.4565              ; draw dl=6.1@10(10<10>10) de=0.381@0.62(0.62<0.62>0.62) l=0.30x0.50x1.00 r=1.00
;00:00:45.616: pe=2.7464 eb=0.0245 ve=0.6236 vn=0.6234 vl=10.000 db=0.50
G1 X-18.12 Y67.61 E26.8374              ; draw dl=6.1@10(10<10>10) de=0.381@0.62(0.62<0.62>0.62) l=0.30x0.50x1.00 r=1.00
;00:00:46.227: pe=2.7465 eb=0.0245 ve=0.6236 vn=0.6235 vl=10.000 db=0.50
G1 X-23.94 Y65.78 E27.2182              ; draw dl=6.1@10(10<10>10) de=0.381@0.62(0.62<0.62>0.62) l=0.30x0.50x1.00 r=1.00
;00:00:46.837: pe=2.7466 eb=0.0245 ve=0.6236 vn=0.6235 vl=10.000 db=0.50
G1 X-29.58 Y63.44 E27.5990              ; draw dl=6.1@10(10<10>10) de=0.381@0.62(0.62<0.62>0.62) l=0.30x0.50x1.00 r=1.00
;00:00:47.448: pe=2.7467 eb=0.0245 ve=0.6236 vn=0.6235 vl=10.000 db=0.50
G1 X-35.00 Y60.62 E27.9799              ; draw dl=6.1@10(10<10>10) de=0.381@0.62(0.62<0.62>0.62) l=0.30x0.50x1.00 r=1.00
;00:00:48.059: pe=2.7468 eb=0.0245 ve=0.6236 vn=0.6235 vl=10.000 db=0.50
G1 X-40.15 Y57.34 E28.3607              ; draw dl=6.1@10(10<10>10) de=0.381@0.62(0.62<0.62>0.62) l=0.30x0.50x1.00 r=1.00
;00:00:48.670: pe=2.7468 eb=0.0245 ve=0.6236 vn=0.6235 vl=10.000 db=0.50
G1 X-45.00 Y53.62 E28.7415              ; draw dl=6.1@10(10<10>10) de=0.381@0.62(0.62<0.62>0.62) l=0.30x0.50x1.00 r=1.00
;00:00:49.280: pe=2.7469 eb=0.0245 ve=0.6236 vn=0.6235 vl=10.000 db=0.50
G1 X-49.50 Y49.50 E29.1224              ; draw dl=6.1@10(10<10>10) de=0.381@0.62(0.62<0.62>0.62) l=0.30x0.50x1.00 r=1.00
;00:00:49.891: pe=2.7469 eb=0.0245 ve=0.6236 vn=0.6236 vl=10.000 db=0.50
G1 X-53.62 Y45.00 E29.5032              ; draw dl=6.1@10(10<10>10) de=0.381@0.62(0.62<0.62>0.62) l=0.30x0.50x1.00 r=1.00
;00:00:50.502: pe=2.7470 eb=0.0245 ve=0.6236 vn=0.6236 vl=10.000 db=0.50
G1 X-57.34 Y40.15 E29.8840              ; draw dl=6.1@10(10<10>10) de=0.381@0.62(0.62<0.62>0.62) l=0.30x0.50x1.00 r=1.00
;00:00:51.112: pe=2.7470 eb=0.0245 ve=0.6236 vn=0.6236 vl=10.000 db=0.50
G1 X-60.62 Y35.00 E30.2649              ; draw dl=6.1@10(10<10>10) de=0.381@0.62(0.62<0.62>0.62) l=0.30x0.50x1.00 r=1.00
;00:00:51.723: pe=2.7470 eb=0.0245 ve=0.6236 vn=0.6236 vl=10.000 db=0.50
G1 X-63.44 Y29.58 E30.6457              ; draw dl=6.1@10(10<10>10) de=0.381@0.62(0.62<0.62>0.62) l=0.30x0.50x1.00 r=1.00
;00:00:52.334: pe=2.7471 eb=0.0245 ve=0.6236 vn=0.6236 vl=10.000 db=0.50
G1 X-65.78 Y23.94 E31.0265              ; draw dl=6.1@10(10<10>10) de=0.381@0.62(0.62<0.62>0.62) l=0.30x0.50x1.00 r=1.00
;00:00:52.944: pe=2.7471 eb=0.0245 ve=0.6236 vn=0.6236 vl=10.000 db=0.50
G1 X-67.61 Y18.12 E31.4074              ; draw dl=6.1@10(10<10>10) de=0.381@0.62(0.62<0.62>0.62) l=0.30x0.50x1.00 r=1.00
;00:00:53.555: pe=2.7471 eb=0.0245 ve=0.6236 vn=0.6236 vl=10.000 db=0.50
G1 X-68.94 Y12.16 E31.7882              ; draw dl=6.1@10(10<10>10) de=0.381@0.62(0.62<0.62>0.62) l=0.30x0.50x1.00 r=1.00
;00:00:54.166: pe=2.7471 eb=0.0245 ve=0.6236 vn=0.6236 vl=10.000 db=0.50
G1 X-69.73 Y6.10 E32.1690               ; draw dl=6.1@10(10<10>10) de=0.381@0.62(0.62<0.62>0.62) l=0.30x0.50x1.00 r=1.00
;00:00:54.776: pe=2.7471 eb=0.0245 ve=0.6236 vn=0.6236 vl=10.000 db=0.50
G1 X-70.00 Y0.00 E32.5499               ; draw dl=6.1@10(10<10>10) de=0.381@0.62(0.62<0.62>0.62) l=0.30x0.50x1.00 r=1.00
;00:00:55.387: pe=2.7472 eb=0.0245 ve=0.6236 vn=0.6236 vl=10.000 db=0.50
G1 X-69.73 Y-6.10 E32.9307              ; draw dl=6.1@10(10<10>10) de=0.381@0.62(0.62<0.62>0.62) l=0.30x0.50x1.00 r=1.00
;00:00:55.998: pe=2.7472 eb=0.0245 ve=0.6236 vn=0.6236 vl=10.000 db=0.50
G1 X-68.94 Y-12.16 E33.3115             ; draw dl=6.1@10(10<10>10) de=0.381@0.62(0.62<0.62>0.62) l=0.30x0.50x1.00 r=1.00
;00:00:56.608: pe=2.7472 eb=0.0245 ve=0.6236 vn=0.6236 vl=10.000 db=0.50
G1 X-67.61 Y-18.12 E33.6924             ; draw dl=6.1@10(10<10>10) de=0.381@0.62(0.62<0.62>0.62) l=0.30x0.50x1.00 r=1.00
;00:00:57.219: pe=2.7472 eb=0.0245 ve=0.6236 vn=0.6236 vl=10.000 db=0.50
G1 X-65.78 Y-23.94 E34.0732             ; draw dl=6.1@10(10<10>10) de=0.381@0.62(0.62<0.62>0.62) l=0.30x0.50x1.00 r=1.00
;00:00:57.830: pe=2.7472 eb=0.0245 ve=0.6236 vn=0.6236 vl=10.000 db=0.50
G1 X-63.44 Y-29.58 E34.4540             ; draw dl=6.1@10(10<10>10) de=0.381@0.62(0.62<0.62>0.62) l=0.30x0.50x1.00 r=1.00
;00:00:58.440: pe=2.7472 eb=0.0245 ve=0.6236 vn=0.6236 vl=10.000 db=0.50
G1 X-60.62 Y-35.00 E34.8348             ; draw dl=6.1@10(10<10>10) de=0.381@0.62(0.62<0.62>0.62) l=0.30x0.50x1.00 r=1.00
;00:00:59.051: pe=2.7472 eb=0.0245 ve=0.6236 vn=0.6236 vl=10.000 db=0.50
G1 X-57.34 Y-40.15 E35.2157             ; draw dl=6.1@10(10<10>10) de=0.381@0.62(0.62<0.62>0.62) l=0.30x0.50x1.00 r=1.00
;00:00:59.662: pe=2.7472 eb=0.0245 ve=0.6236 vn=0.6236 vl=10.000 db=0.50
G1 X-53.62 Y-45.00 E35.5965             ; draw dl=6.1@10(10<10>10) de=0.381@0.62(0.62<0.62>0.62) l=0.30x0.50x1.00 r=1.00
;00:01:00.272: pe=2.7472 eb=0.0245 ve=0.6236 vn=0.6236 vl=10.000 db=0.50
G1 X-49.50 Y-49.50 E35.9773             ; draw dl=6.1@10(10<10>10) de=0.381@0.62(0.62<0.62>0.62) l=0.30x0.50x1.00 r=1.00
;00:01:00.883: pe=2.7472 eb=0.0245 ve=0.6236 vn=0.6236 vl=10.000 db=0.50
G1 X-45.00 Y-53.62 E36.3582             ; draw dl=6.1@10(10<10>10) de=0.381@0.62(0.62<0.62>0.62) l=0.30x0.50x1.00 r=1.00
;00:01:01.494: pe=2.7472 eb=0.0245 ve=0.6236 vn=0.6236 vl=10.000 db=0.50
G1 X-40.15 Y-57.34 E36.7390             ; draw dl=6.1@10(10<10>10) de=0.381@0.62(0.62<0.62>0.62) l=0.30x0.50x1.00 r=1.00
;00:01:02.104: pe=2.7472 eb=0.0245 ve=0.6236 vn=0.6236 vl=10.000 db=0.50
G1 X-35.00 Y-60.62 E37.1198             ; draw dl=6.1@10(10<10>10) de=0.381@0.62(0.62<0.62>0.62) l=0.30x0.50x1.00 r=1.00
;00:01:02.715: pe=2.7472 eb=0.0245 ve=0.6236 vn=0.6236 vl=10.000 db=0.50
G1 X-29.58 Y-63.44 E37.5007             ; draw dl=6.1@10(10<10>10) de=0.381@0.62(0.62<0.62>0.62) l=0.30x0.50x1.00 r=1.00
;00:01:03.326: pe=2.7472 eb=0.0245 ve=0.6236 vn=0.6236 vl=10.000 db=0.50
G1 X-23.94 Y-65.78 E37.8815             ; draw dl=6.1@10(10<10>10) de=0.381@0.62(0.62<0.62>0.62) l=0.30x0.50x1.00 r=1.00
;00:01:03.936: pe=2.7472 eb=0.0245 ve=0.6236 vn=0.6236 vl=10.000 db=0.50
G1 X-18.12 Y-67.61 E38.2623             ; draw dl=6.1@10(10<10>10) de=0.381@0.62(0.62<0.62>0.62) l=0.30x0.50x1.00 r=1.00
;00:01:04.547: pe=2.7472 eb=0.0245 ve=0.6236 vn=0.6236 vl=10.000 db=0.50
G1 X-12.16 Y-68.94 E38.6432             ; draw dl=6.1@10(10<10>10) de=0.381@0.62(0.62<0.62>0.62) l=0.30x0.50x1.00 r=1.00
;00:01:05.158: pe=2.7472 eb=0.0245 ve=0.6236 vn=0.6236 vl=10.000 db=0.50
G1 X-6.10 Y-69.73 E39.0240              ; draw dl=6.1@10(10<10>10) de=0.381@0.62(0.62<0.62>0.62) l=0.30x0.50x1.00 r=1.00
;00:01:05.768: pe=2.7472 eb=0.0245 ve=0.6236 vn=0.6236 vl=10.000 db=0.50
G1 X0.00 Y-70.00 E39.4048               ; draw dl=6.1@10(10<10>10) de=0.381@0.62(0.62<0.62>0.62) l=0.30x0.50x1.00 r=1.00
;00:01:06.379: pe=2.7472 eb=0.0245 ve=0.6236 vn=0.6236 vl=10.000 db=0.50
G1 X6.10 Y-69.73 E39.7857               ; draw dl=6.1@10(10<10>10) de=0.381@0.62(0.62<0.62>0.62) l=0.30x0.50x1.00 r=1.00
;00:01:06.990: pe=2.7472 eb=0.0245 ve=0.6236 vn=0.6236 vl=10.000 db=0.50
G1 X12.16 Y-68.94 E40.1665              ; draw dl=6.1@10(10<10>10) de=0.381@0.62(0.62<0.62>0.62) l=0.30x0.50x1.00 r=1.00
;00:01:07.600: pe=2.7473 eb=0.0245 ve=0.6236 vn=0.6236 vl=10.000 db=0.50
G1 X18.12 Y-67.61 E40.5473              ; draw dl=6.1@10(10<10>10) de=0.381@0.62(0.62<0.62>0.62) l=0.30x0.50x1.00 r=1.00
;00:01:08.211: pe=2.7473 eb=0.0245 ve=0.6236 vn=0.6236 vl=10.000 db=0.50
G1 X23.94 Y-65.78 E40.9282              ; draw dl=6.1@10(10<10>10) de=0.381@0.62(0.62<0.62>0.62) l=0.30x0.50x1.00 r=1.00
;00:01:08.822: pe=2.7473 eb=0.0245 ve=0.6236 vn=0.6236 vl=10.000 db=0.50
G1 X29.58 Y-63.44 E41.3090              ; draw dl=6.1@10(10<10>10) de=0.381@0.62(0.62<0.62>0.62) l=0.30x0.50x1.00 r=1.00
;00:01:09.432: pe=2.7473 eb=0.0245 ve=0.6236 vn=0.6236 vl=10.000 db=0.50
G1 X35.00 Y-60.62 E41.6898              ; draw dl=6.1@10(10<10>10) de=0.381@0.62(0.62<0.62>0.62) l=0.30x0.50x1.00 r=1.00
;00:01:10.043: pe=2.7473 eb=0.0245 ve=0.6236 vn=0.6236 vl=10.000 db=0.50
G1 X40.15 Y-57.34 E42.0707              ; draw dl=6.1@10(10<10>10) de=0.381@0.62(0.62<0.62>0.62) l=0.30x0.50x1.00 r=1.00
;00:01:10.654: pe=2.7473 eb=0.0245 ve=0.6236 vn=0.6236 vl=10.000 db=0.50
G1 X45.00 Y-53.62 E42.4515              ; draw dl=6.1@10(10<10>10) de=0.381@0.62(0.62<0.62>0.62) l=0.30x0.50x1.00 r=1.00
;00:01:11.264: pe=2.7473 eb=0.0245 ve=0.6236 vn=0.6236 vl=10.000 db=0.50
G1 X49.50 Y-49.50 E42.8323              ; draw dl=6.1@10(10<10>10) de=0.381@0.62(0.62<0.62>0.62) l=0.30x0.50x1.00 r=1.00
;00:01:11.875: pe=2.7473 eb=0.0245 ve=0.6236 vn=0.6236 vl=10.000 db=0.50
G1 X53.62 Y-45.00 E43.2131              ; draw dl=6.1@10(10<10>10) de=0.381@0.62(0.62<0.62>0.62) l=0.30x0.50x1.00 r=1.00
;00:01:12.486: pe=2.7473 eb=0.0245 ve=0.6236 vn=0.6236 vl=10.000 db=0.50
G1 X57.34 Y-40.15 E43.5940              ; draw dl=6.1@10(10<10>10) de=0.381@0.62(0.62<0.62>0.62) l=0.30x0.50x1.00 r=1.00
;00:01:13.096: pe=2.7473 eb=0.0245 ve=0.6236 vn=0.6236 vl=10.000 db=0.50
G1 X60.62 Y-35.00 E43.9748              ; draw dl=6.1@10(10<10>10) de=0.381@0.62(0.62<0.62>0.62) l=0.30x0.50x1.00 r=1.00
;00:01:13.707: pe=2.7473 eb=0.0245 ve=0.6236 vn=0.6236 vl=10.000 db=0.50
G1 X63.44 Y-29.58 E44.3556              ; draw dl=6.1@10(10<10>10) de=0.381@0.62(0.62<0.62>0.62) l=0.30x0.50x1.00 r=1.00
;00:01:14.318: pe=2.7473 eb=0.0245 ve=0.6236 vn=0.6236 vl=10.000 db=0.50
G1 X65.78 Y-23.94 E44.7365              ; draw dl=6.1@10(10<10>10) de=0.381@0.62(0.62<0.62>0.62) l=0.30x0.50x1.00 r=1.00
;00:01:14.928: pe=2.7473 eb=0.0245 ve=0.6236 vn=0.6236 vl=10.000 db=0.50
G1 X67.61 Y-18.12 E45.1173              ; draw dl=6.1@10(10<10>10) de=0.381@0.62(0.62<0.62>0.62) l=0.30x0.50x1.00 r=1.00
;00:01:15.539: pe=2.7473 eb=0.0245 ve=0.6236 vn=0.6236 vl=10.000 db=0.50
G1 X68.94 Y-12.16 E45.4981              ; draw dl=6.1@10(10<10>10) de=0.381@0.62(0.62<0.62>0.62) l=0.30x0.50x1.00 r=1.00
;00:01:16.150: pe=2.7473 eb=0.0245 ve=0.6236 vn=0.6236 vl=10.000 db=0.50
G1 X69.73 Y-6.10 E45.8790               ; draw dl=6.1@10(10<10>10) de=0.381@0.62(0.62<0.62>0.62) l=0.30x0.50x1.00 r=1.00
;00:01:16.760: pe=2.7473 eb=0.0245 ve=0.6236 vn=0.6236 vl=10.000 db=0.50
G1 X70.00 Y0.00 E46.2598                ; draw dl=6.1@10(10<10>0) de=0.381@0.61(0.62<0.62>0.0) l=0.30x0.50x1.00 r=1.01
;00:01:17.381: pe=2.7416 eb=0.0301 ve=0.0000 vn=0.5397 vl=0.000 db=0.55
;00:01:17.381: skipping empty move move dl=0.0@10(0<0>0) de=0.000@0.0(0.0<0.0>0.0) l=0.30x0.50x0.00
G1 E42.5182 F2400                       ; retract de=-3.7416@-40.0 r=1.21
;00:01:17.475: pe=-1.0057 eb=0.0358 ve=-40.0000 vn=0.0000 vl=0.000 db=0.60
G1 Z0.500 F420                          ; hopup dz=0.20@7 h=0.5 r=0.94
;00:01:17.503: pe=-1.0057 eb=0.0358 ve=0.0000 vn=0.0000 vl=0.000 db=0.47
;00:01:17.503: skipping empty move move dl=0.0@7(0<0>0) de=0.000@0.0(0.0<0.0>0.0) l=0.50x0.50x0.00
G1 Z0.300                               ; hopdn dz=-0.20@7 h=0.3 r=1.21
;00:01:17.532: pe=-1.0057 eb=0.0358 ve=0.0000 vn=0.0000 vl=0.000 db=0.60
G1 E46.2177 F1800                       ; restore de=3.6995@30.0 r=1.30
;00:01:17.655: pe=2.6879 eb=0.0417 ve=30.0000 vn=0.3652 vl=0.000 db=0.65
G1 X73.00 Y0.00 E46.4048 F600           ; draw dl=3.0@10(0<10>0) de=0.187@0.58(0.0<0.62>0.0) l=0.30x0.50x1.00 r=0.97
;00:01:17.975: pe=2.6940 eb=0.0291 ve=0.0000 vn=0.5291 vl=0.000 db=0.55
G1 E42.7108 F2400                       ; retract de=-3.6940@-40.0 r=1.19
;00:01:18.067: pe=-1.0055 eb=0.0346 ve=-40.0000 vn=0.0000 vl=0.000 db=0.59
G1 Z0.500 F420                          ; hopup dz=0.20@7 h=0.5 r=0.92
;00:01:18.096: pe=-1.0055 eb=0.0346 ve=0.0000 vn=0.0000 vl=0.000 db=0.46
G1 X69.73 Y6.10 F6000                   ; move dl=6.9@100(0<42>0) de=0.000@0.0(0.0<0.0>0.0) l=0.50x0.50x0.00 r=0.00
;00:01:18.346: pe=-1.0055 eb=0.0000 ve=0.0000 vn=0.0000 vl=0.000 db=0.00
G1 Z0.300 F420                          ; hopdn dz=-0.20@7 h=0.3 r=0.00
;00:01:18.374: pe=-1.0055 eb=0.0000 ve=0.0000 vn=0.0000 vl=0.000 db=0.00
G1 E46.3413 F1800                       ; restore de=3.6305@30.0 r=1.01
;00:01:18.495: pe=2.6003 eb=0.0247 ve=30.0000 vn=0.5462 vl=0.000 db=0.50
G1 X71.23 Y6.23 E46.4349 F600           ; draw dl=1.5@10(0<10>0) de=0.094@0.55(0.0<0.62>0.0) l=0.30x0.50x1.00 r=1.01
;00:01:18.665: pe=2.5990 eb=0.0273 ve=0.0000 vn=0.5071 vl=0.000 db=0.53
G1 E42.8358 F2400                       ; retract de=-3.5990@-40.0 r=1.15
;00:01:18.755: pe=-1.0050 eb=0.0324 ve=-40.0000 vn=0.0000 vl=0.000 db=0.57
G1 Z0.500 F420                          ; hopup dz=0.20@7 h=0.5 r=0.89
;00:01:18.784: pe=-1.0050 eb=0.0324 ve=0.0000 vn=0.0000 vl=0.000 db=0.45
G1 X68.94 Y12.16 F6000                  ; move dl=6.4@100(0<40>0) de=0.000@0.0(0.0<0.0>0.0) l=0.50x0.50x0.00 r=0.00
;00:01:19.023: pe=-1.0050 eb=0.0000 ve=0.0000 vn=0.0000 vl=0.000 db=0.00
G1 Z0.300 F420                          ; hopdn dz=-0.20@7 h=0.3 r=0.00
;00:01:19.051: pe=-1.0050 eb=0.0000 ve=0.0000 vn=0.0000 vl=0.000 db=0.00
G1 E46.4659 F1800                       ; restore de=3.6300@30.0 r=1.01
;00:01:19.172: pe=2.6003 eb=0.0247 ve=30.0000 vn=0.5462 vl=0.000 db=0.50
G1 X70.41 Y12.42 E46.5594 F600          ; draw dl=1.5@10(0<10>0) de=0.094@0.55(0.0<0.62>0.0) l=0.30x0.50x1.00 r=1.01
;00:01:19.342: pe=2.5990 eb=0.0273 ve=0.0000 vn=0.5071 vl=0.000 db=0.53
G1 E42.9604 F2400                       ; retract de=-3.5990@-40.0 r=1.15
;00:01:19.432: pe=-1.0050 eb=0.0324 ve=-40.0000 vn=0.0000 vl=0.000 db=0.57
G1 Z0.500 F420                          ; hopup dz=0.20@7 h=0.5 r=0.89
;00:01:19.461: pe=-1.0050 eb=0.0324 ve=0.0000 vn=0.0000 vl=0.000 db=0.45
G1 X67.61 Y18.12 F6000                  ; move dl=6.4@100(0<40>0) de=0.000@0.0(0.0<0.0>0.0) l=0.50x0.50x0.00 r=0.00
;00:01:19.700: pe=-1.0050 eb=0.0000 ve=0.0000 vn=0.0000 vl=0.000 db=0.00
G1 Z0.300 F420                          ; hopdn dz=-0.20@7 h=0.3 r=0.00
;00:01:19.729: pe=-1.0050 eb=0.0000 ve=0.0000 vn=0.0000 vl=0.000 db=0.00
G1 E46.5905 F1800                       ; restore de=3.6300@30.0 r=1.01
;00:01:19.850: pe=2.6003 eb=0.0247 ve=30.0000 vn=0.5462 vl=0.000 db=0.50
G1 X69.06 Y18.51 E46.6840 F600          ; draw dl=1.5@10(0<10>0) de=0.094@0.55(0.0<0.62>0.0) l=0.30x0.50x1.00 r=1.01
;00:01:20.020: pe=2.5990 eb=0.0273 ve=0.0000 vn=0.5071 vl=0.000 db=0.53
G1 E43.0850 F2400                       ; retract de=-3.5990@-40.0 r=1.15
;00:01:20.110: pe=-1.0050 eb=0.0324 ve=-40.0000 vn=0.0000 vl=0.000 db=0.57
G1 Z0.500 F420                          ; hopup dz=0.20@7 h=0.5 r=0.89
;00:01:20.138: pe=-1.0050 eb=0.0324 ve=0.0000 vn=0.0000 vl=0.000 db=0.45
G1 X65.78 Y23.94 F6000                  ; move dl=6.4@100(0<40>0) de=0.000@0.0(0.0<0.0>0.0) l=0.50x0.50x0.00 r=0.00
;00:01:20.377: pe=-1.0050 eb=0.0000 ve=0.0000 vn=0.0000 vl=0.000 db=0.00
G1 Z0.300 F420                          ; hopdn dz=-0.20@7 h=0.3 r=0.00
;00:01:20.406: pe=-1.0050 eb=0.0000 ve=0.0000 vn=0.0000 vl=0.000 db=0.00
G1 E46.7150 F1800                       ; restore de=3.6300@30.0 r=1.01
;00:01:20.527: pe=2.6003 eb=0.0247 ve=30.0000 vn=0.5462 vl=0.000 db=0.50
G1 X67.19 Y24.45 E46.8086 F600          ; draw dl=1.5@10(0<10>0) de=0.094@0.55(0.0<0.62>0.0) l=0.30x0.50x1.00 r=1.01
;00:01:20.697: pe=2.5990 eb=0.0273 ve=0.0000 vn=0.5071 vl=0.000 db=0.53
G1 E43.2096 F2400                       ; retract de=-3.5990@-40.0 r=1.15
;00:01:20.787: pe=-1.0050 eb=0.0324 ve=-40.0000 vn=0.0000 vl=0.000 db=0.57
G1 Z0.500 F420                          ; hopup dz=0.20@7 h=0.5 r=0.89
;00:01:20.815: pe=-1.0050 eb=0.0324 ve=0.0000 vn=0.0000 vl=0.000 db=0.45
G1 X63.44 Y29.58 F6000                  ; move dl=6.4@100(0<40>0) de=0.000@0.0(0.0<0.0>0.0) l=0.50x0.50x0.00 r=0.00
;00:01:21.054: pe=-1.0050 eb=0.0000 ve=0.0000 vn=0.0000 vl=0.000 db=0.00
G1 Z0.300 F420                          ; hopdn dz=-0.20@7 h=0.3 r=0.00
;00:01:21.083: pe=-1.0050 eb=0.0000 ve=0.0000 vn=0.0000 vl=0.000 db=0.00
G1 E46.8396 F1800                       ; restore de=3.6300@30.0 r=1.01
;00:01:21.204: pe=2.6003 eb=0.0247 ve=30.0000 vn=0.5462 vl=0.000 db=0.50
G1 X64.80 Y30.22 E46.9332 F600          ; draw dl=1.5@10(0<10>0) de=0.094@0.55(0.0<0.62>0.0) l=0.30x0.50x1.00 r=1.01
;00:01:21.374: pe=2.5990 eb=0.0273 ve=0.0000 vn=0.5071 vl=0.000 db=0.53
G1 E43.3342 F2400                       ; retract de=-3.5990@-40.0 r=1.15
;00:01:21.464: pe=-1.0050 eb=0.0324 ve=-40.0000 vn=0.0000 vl=0.000 db=0.57
G1 Z0.500 F420                          ; hopup dz=0.20@7 h=0.5 r=0.89
;00:01:21.493: pe=-1.0050 eb=0.0324 ve=0.0000 vn=0.0000 vl=0.000 db=0.45
G1 X60.62 Y35.00 F6000                  ; move dl=6.4@100(0<40>0) de=0.000@0.0(0.0<0.0>0.0) l=0.50x0.50x0.00 r=0.00
;00:01:21.732: pe=-1.0050 eb=0.0000 ve=0.0000 vn=0.0000 vl=0.000 db=0.00
G1 Z0.300 F420                          ; hopdn dz=-0.20@7 h=0.3 r=0.00
;00:01:21.760: pe=-1.0050 eb=0.0000 ve=0.0000 vn=0.0000 vl=0.000 db=0.00
G1 E47.0330 F1800                       ; restore de=3.6988@30.0 r=1.03
;00:01:21.883: pe=2.6677 eb=0.0260 ve=30.0000 vn=0.5605 vl=0.000 db=0.52
G1 X63.22 Y36.50 E47.2201 F600          ; draw dl=3.0@10(0<10>0) de=0.187@0.58(0.0<0.62>0.0) l=0.30x0.50x1.00 r=1.01
;00:01:22.203: pe=2.6667 eb=0.0286 ve=0.0000 vn=0.5232 vl=0.000 db=0.54
G1 E43.5534 F2400                       ; retract de=-3.6667@-40.0 r=1.18
;00:01:22.295: pe=-1.0054 eb=0.0339 ve=-40.0000 vn=0.0000 vl=0.000 db=0.59
G1 Z0.500 F420                          ; hopup dz=0.20@7 h=0.5 r=0.91
;00:01:22.324: pe=-1.0054 eb=0.0339 ve=0.0000 vn=0.0000 vl=0.000 db=0.46
G1 X57.34 Y40.15 F6000                  ; move dl=6.9@100(0<42>0) de=0.000@0.0(0.0<0.0>0.0) l=0.50x0.50x0.00 r=0.00
;00:01:22.573: pe=-1.0054 eb=0.0000 ve=0.0000 vn=0.0000 vl=0.000 db=0.00
G1 Z0.300 F420                          ; hopdn dz=-0.20@7 h=0.3 r=0.00
;00:01:22.602: pe=-1.0054 eb=0.0000 ve=0.0000 vn=0.0000 vl=0.000 db=0.00
G1 E47.1837 F1800                       ; restore de=3.6304@30.0 r=1.01
;00:01:22.723: pe=2.6003 eb=0.0247 ve=30.0000 vn=0.5462 vl=0.000 db=0.50
G1 X58.57 Y41.01 E47.2773 F600          ; draw dl=1.5@10(0<10>0) de=0.094@0.55(0.0<0.62>0.0) l=0.30x0.50x1.00 r=1.01
;00:01:22.893: pe=2.5990 eb=0.0273 ve=0.0000 vn=0.5071 vl=0.000 db=0.53
G1 E43.6783 F2400                       ; retract de=-3.5990@-40.0 r=1.15
;00:01:22.983: pe=-1.0050 eb=0.0324 ve=-40.0000 vn=0.0000 vl=0.000 db=0.57
G1 Z0.500 F420                          ; hopup dz=0.20@7 h=0.5 r=0.89
;00:01:23.011: pe=-1.0050 eb=0.0324 ve=0.0000 vn=0.0000 vl=0.000 db=0.45
G1 X53.62 Y45.00 F6000                  ; move dl=6.4@100(0<40>0) de=0.000@0.0(0.0<0.0>0.0) l=0.50x0.50x0.00 r=0.00
;00:01:23.250: pe=-1.0050 eb=0.0000 ve=0.0000 vn=0.0000 vl=0.000 db=0.00
G1 Z0.300 F420                          ; hopdn dz=-0.20@7 h=0.3 r=0.00
;00:01:23.279: pe=-1.0050 eb=0.0000 ve=0.0000 vn=0.0000 vl=0.000 db=0.00
G1 E47.3083 F1800                       ; restore de=3.6300@30.0 r=1.01
;00:01:23.400: pe=2.6003 eb=0.0247 ve=30.0000 vn=0.5462 vl=0.000 db=0.50
G1 X54.77 Y45.96 E47.4018 F600          ; draw dl=1.5@10(0<10>0) de=0.094@0.55(0.0<0.62>0.0) l=0.30x0.50x1.00 r=1.01
;00:01:23.570: pe=2.5990 eb=0.0273 ve=0.0000 vn=0.5071 vl=0.000 db=0.53
G1 E43.8028 F2400                       ; retract de=-3.5990@-40.0 r=1.15
;00:01:23.660: pe=-1.0050 eb=0.0324 ve=-40.0000 vn=0.0000 vl=0.000 db=0.57
G1 Z0.500 F420                          ; hopup dz=0.20@7 h=0.5 r=0.89
;00:01:23.689: pe=-1.0050 eb=0.0324 ve=0.0000 vn=0.0000 vl=0.000 db=0.45
G1 X49.50 Y49.50 F6000                  ; move dl=6.4@100(0<40>0) de=0.000@0.0(0.0<0.0>0.0) l=0.50x0.50x0.00 r=0.00
;00:01:23.928: pe=-1.0050 eb=0.0000 ve=0.0000 vn=0.0000 vl=0.000 db=0.00
G1 Z0.300 F420                          ; hopdn dz=-0.20@7 h=0.3 r=0.00
;00:01:23.956: pe=-1.0050 eb=0.0000 ve=0.0000 vn=0.0000 vl=0.000 db=0.00
G1 E47.4329 F1800                       ; restore de=3.6300@30.0 r=1.01
;00:01:24.077: pe=2.6003 eb=0.0247 ve=30.0000 vn=0.5462 vl=0.000 db=0.50
G1 X50.56 Y50.56 E47.5264 F600          ; draw dl=1.5@10(0<10>0) de=0.094@0.55(0.0<0.62>0.0) l=0.30x0.50x1.00 r=1.01
;00:01:24.247: pe=2.5990 eb=0.0273 ve=0.0000 vn=0.5071 vl=0.000 db=0.53
G1 E43.9274 F2400                       ; retract de=-3.5990@-40.0 r=1.15
;00:01:24.337: pe=-1.0050 eb=0.0324 ve=-40.0000 vn=0.0000 vl=0.000 db=0.57
G1 Z0.500 F420                          ; hopup dz=0.20@7 h=0.5 r=0.89
;00:01:24.366: pe=-1.0050 eb=0.0324 ve=0.0000 vn=0.0000 vl=0.000 db=0.45
G1 X45.00 Y53.62 F6000                  ; move dl=6.4@100(0<40>0) de=0.000@0.0(0.0<0.0>0.0) l=0.50x0.50x0.00 r=0.00
;00:01:24.605: pe=-1.0050 eb=0.0000 ve=0.0000 vn=0.0000 vl=0.000 db=0.00
G1 Z0.300 F420                          ; hopdn dz=-0.20@7 h=0.3 r=0.00
;00:01:24.633: pe=-1.0050 eb=0.0000 ve=0.0000 vn=0.0000 vl=0.000 db=0.00
G1 E47.5575 F1800                       ; restore de=3.6300@30.0 r=1.01
;00:01:24.754: pe=2.6003 eb=0.0247 ve=30.0000 vn=0.5462 vl=0.000 db=0.50
G1 X45.96 Y54.77 E47.6510 F600          ; draw dl=1.5@10(0<10>0) de=0.094@0.55(0.0<0.62>0.0) l=0.30x0.50x1.00 r=1.01
;00:01:24.924: pe=2.5990 eb=0.0273 ve=0.0000 vn=0.5071 vl=0.000 db=0.53
G1 E44.0520 F2400                       ; retract de=-3.5990@-40.0 r=1.15
;00:01:25.014: pe=-1.0050 eb=0.0324 ve=-40.0000 vn=0.0000 vl=0.000 db=0.57
G1 Z0.500 F420                          ; hopup dz=0.20@7 h=0.5 r=0.89
;00:01:25.043: pe=-1.0050 eb=0.0324 ve=0.0000 vn=0.0000 vl=0.000 db=0.45
G1 X40.15 Y57.34 F6000                  ; move dl=6.4@100(0<40>0) de=0.000@0.0(0.0<0.0>0.0) l=0.50x0.50x0.00 r=0.00
;00:01:25.282: pe=-1.0050 eb=0.0000 ve=0.0000 vn=0.0000 vl=0.000 db=0.00
G1 Z0.300 F420                          ; hopdn dz=-0.20@7 h=0.3 r=0.00
;00:01:25.311: pe=-1.0050 eb=0.0000 ve=0.0000 vn=0.0000 vl=0.000 db=0.00
G1 E47.6820 F1800                       ; restore de=3.6300@30.0 r=1.01
;00:01:25.432: pe=2.6003 eb=0.0247 ve=30.0000 vn=0.5462 vl=0.000 db=0.50
G1 X41.01 Y58.57 E47.7756 F600          ; draw dl=1.5@10(0<10>0) de=0.094@0.55(0.0<0.62>0.0) l=0.30x0.50x1.00 r=1.01
;00:01:25.602: pe=2.5990 eb=0.0273 ve=0.0000 vn=0.5071 vl=0.000 db=0.53
G1 E44.1766 F2400                       ; retract de=-3.5990@-40.0 r=1.15
;00:01:25.692: pe=-1.0050 eb=0.0324 ve=-40.0000 vn=0.0000 vl=0.000 db=0.57
G1 Z0.500 F420                          ; hopup dz=0.20@7 h=0.5 r=0.89
;00:01:25.720: pe=-1.0050 eb=0.0324 ve=0.0000 vn=0.0000 vl=0.000 db=0.45
G1 X35.00 Y60.62 F6000                  ; move dl=6.4@100(0<40>0) de=0.000@0.0(0.0<0.0>0.0) l=0.50x0.50x0.00 r=0.00
;00:01:25.959: pe=-1.0050 eb=0.0000 ve=0.0000 vn=0.0000 vl=0.000 db=0.00
G1 Z0.300 F420                          ; hopdn dz=-0.20@7 h=0.3 r=0.00
;00:01:25.988: pe=-1.0050 eb=0.0000 ve=0.0000 vn=0.0000 vl=0.000 db=0.00
G1 E47.8754 F1800                       ; restore de=3.6988@30.0 r=1.03
;00:01:26.111: pe=2.6677 eb=0.0260 ve=30.0000 vn=0.5605 vl=0.000 db=0.52
G1 X36.50 Y63.22 E48.0625 F600          ; draw dl=3.0@10(0<10>0) de=0.187@0.58(0.0<0.62>0.0) l=0.30x0.50x1.00 r=1.01
;00:01:26.431: pe=2.6667 eb=0.0286 ve=0.0000 vn=0.5232 vl=0.000 db=0.54
G1 E44.3958 F2400                       ; retract de=-3.6667@-40.0 r=1.18
;00:01:26.523: pe=-1.0054 eb=0.0339 ve=-40.0000 vn=0.0000 vl=0.000 db=0.59
G1 Z0.500 F420                          ; hopup dz=0.20@7 h=0.5 r=0.91
;00:01:26.551: pe=-1.0054 eb=0.0339 ve=0.0000 vn=0.0000 vl=0.000 db=0.46
G1 X29.58 Y63.44 F6000                  ; move dl=6.9@100(0<42>0) de=0.000@0.0(0.0<0.0>0.0) l=0.50x0.50x0.00 r=0.00
;00:01:26.801: pe=-1.0054 eb=0.0000 ve=0.0000 vn=0.0000 vl=0.000 db=0.00
G1 Z0.300 F420                          ; hopdn dz=-0.20@7 h=0.3 r=0.00
;00:01:26.830: pe=-1.0054 eb=0.0000 ve=0.0000 vn=0.0000 vl=0.000 db=0.00
G1 E48.0261 F1800                       ; restore de=3.6304@30.0 r=1.01
;00:01:26.951: pe=2.6003 eb=0.0247 ve=30.0000 vn=0.5462 vl=0.000 db=0.50
G1 X30.22 Y64.80 E48.1197 F600          ; draw dl=1.5@10(0<10>0) de=0.094@0.55(0.0<0.62>0.0) l=0.30x0.50x1.00 r=1.01
;00:01:27.121: pe=2.5990 eb=0.0273 ve=0.0000 vn=0.5071 vl=0.000 db=0.53
G1 E44.5207 F2400                       ; retract de=-3.5990@-40.0 r=1.15
;00:01:27.211: pe=-1.0050 eb=0.0324 ve=-40.0000 vn=0.0000 vl=0.000 db=0.57
G1 Z0.500 F420                          ; hopup dz=0.20@7 h=0.5 r=0.89
;00:01:27.239: pe=-1.0050 eb=0.0324 ve=0.0000 vn=0.0000 vl=0.000 db=0.45
G1 X23.94 Y65.78 F6000                  ; move dl=6.4@100(0<40>0) de=0.000@0.0(0.0<0.0>0.0) l=0.50x0.50x0.00 r=0.00
;00:01:27.478: pe=-1.0050 eb=0.0000 ve=0.0000 vn=0.0000 vl=0.000 db=0.00
G1 Z0.300 F420                          ; hopdn dz=-0.20@7 h=0.3 r=0.00
;00:01:27.507: pe=-1.0050 eb=0.0000 ve=0.0000 vn=0.0000 vl=0.000 db=0.00
G1 E48.1507 F1800                       ; restore de=3.6300@30.0 r=1.01
;00:01:27.628: pe=2.6003 eb=0.0247 ve=30.0000 vn=0.5462 vl=0.000 db=0.50
G1 X24.45 Y67.19 E48.2442 F600          ; draw dl=1.5@10(0<10>0) de=0.094@0.55(0.0<0.62>0.0) l=0.30x0.50x1.00 r=1.01
;00:01:27.798: pe=2.5990 eb=0.0273 ve=0.0000 vn=0.5071 vl=0.000 db=0.53
G1 E44.6452 F2400                       ; retract de=-3.5990@-40.0 r=1.15
;00:01:27.888: pe=-1.0050 eb=0.0324 ve=-40.0000 vn=0.0000 vl=0.000 db=0.57
G1 Z0.500 F420                          ; hopup dz=0.20@7 h=0.5 r=0.89
;00:01:27.916: pe=-1.0050 eb=0.0324 ve=0.0000 vn=0.0000 vl=0.000 db=0.45
G1 X18.12 Y67.61 F6000                  ; move dl=6.4@100(0<40>0) de=0.000@0.0(0.0<0.0>0.0) l=0.50x0.50x0.00 r=0.00
;00:01:28.155: pe=-1.0050 eb=0.0000 ve=0.0000 vn=0.0000 vl=0.000 db=0.00
G1 Z0.300 F420                          ; hopdn dz=-0.20@7 h=0.3 r=0.00
;00:01:28.184: pe=-1.0050 eb=0.0000 ve=0.0000 vn=0.0000 vl=0.000 db=0.00
G1 E48.2753 F1800                       ; restore de=3.6300@30.0 r=1.01
;00:01:28.305: pe=2.6003 eb=0.0247 ve=30.0000 vn=0.5462 vl=0.000 db=0.50
G1 X18.51 Y69.06 E48.3688 F600          ; draw dl=1.5@10(0<10>0) de=0.094@0.55(0.0<0.62>0.0) l=0.30x0.50x1.00 r=1.01
;00:01:28.475: pe=2.5990 eb=0.0273 ve=0.0000 vn=0.5071 vl=0.000 db=0.53
G1 E44.7698 F2400                       ; retract de=-3.5990@-40.0 r=1.15
;00:01:28.565: pe=-1.0050 eb=0.0324 ve=-40.0000 vn=0.0000 vl=0.000 db=0.57
G1 Z0.500 F420                          ; hopup dz=0.20@7 h=0.5 r=0.89
;00:01:28.594: pe=-1.0050 eb=0.0324 ve=0.0000 vn=0.0000 vl=0.000 db=0.45
G1 X12.16 Y68.94 F6000                  ; move dl=6.4@100(0<40>0) de=0.000@0.0(0.0<0.0>0.0) l=0.50x0.50x0.00 r=0.00
;00:01:28.833: pe=-1.0050 eb=0.0000 ve=0.0000 vn=0.0000 vl=0.000 db=0.00
G1 Z0.300 F420                          ; hopdn dz=-0.20@7 h=0.3 r=0.00
;00:01:28.861: pe=-1.0050 eb=0.0000 ve=0.0000 vn=0.0000 vl=0.000 db=0.00
G1 E48.3999 F1800                       ; restore de=3.6300@30.0 r=1.01
;00:01:28.982: pe=2.6003 eb=0.0247 ve=30.0000 vn=0.5462 vl=0.000 db=0.50
G1 X12.42 Y70.41 E48.4934 F600          ; draw dl=1.5@10(0<10>0) de=0.094@0.55(0.0<0.62>0.0) l=0.30x0.50x1.00 r=1.01
;00:01:29.152: pe=2.5990 eb=0.0273 ve=0.0000 vn=0.5071 vl=0.000 db=0.53
G1 E44.8944 F2400                       ; retract de=-3.5990@-40.0 r=1.15
;00:01:29.242: pe=-1.0050 eb=0.0324 ve=-40.0000 vn=0.0000 vl=0.000 db=0.57
G1 Z0.500 F420                          ; hopup dz=0.20@7 h=0.5 r=0.89
;00:01:29.271: pe=-1.0050 eb=0.0324 ve=0.0000 vn=0.0000 vl=0.000 db=0.45
G1 X6.10 Y69.73 F6000                   ; move dl=6.4@100(0<40>0) de=0.000@0.0(0.0<0.0>0.0) l=0.50x0.50x0.00 r=0.00
;00:01:29.510: pe=-1.0050 eb=0.0000 ve=0.0000 vn=0.0000 vl=0.000 db=0.00
G1 Z0.300 F420                          ; hopdn dz=-0.20@7 h=0.3 r=0.00
;00:01:29.538: pe=-1.0050 eb=0.0000 ve=0.0000 vn=0.0000 vl=0.000 db=0.00
G1 E48.5244 F1800                       ; restore de=3.6300@30.0 r=1.01
;00:01:29.659: pe=2.6003 eb=0.0247 ve=30.0000 vn=0.5462 vl=0.000 db=0.50
G1 X6.23 Y71.23 E48.6180 F600           ; draw dl=1.5@10(0<10>0) de=0.094@0.55(0.0<0.62>0.0) l=0.30x0.50x1.00 r=1.01
;00:01:29.829: pe=2.5990 eb=0.0273 ve=0.0000 vn=0.5071 vl=0.000 db=0.53
G1 E45.0190 F2400                       ; retract de=-3.5990@-40.0 r=1.15
;00:01:29.919: pe=-1.0050 eb=0.0324 ve=-40.0000 vn=0.0000 vl=0.000 db=0.57
G1 Z0.500 F420                          ; hopup dz=0.20@7 h=0.5 r=0.89
;00:01:29.948: pe=-1.0050 eb=0.0324 ve=0.0000 vn=0.0000 vl=0.000 db=0.45
G1 X0.00 Y70.00 F6000                   ; move dl=6.4@100(0<40>0) de=0.000@0.0(0.0<0.0>0.0) l=0.50x0.50x0.00 r=0.00
;00:01:30.187: pe=-1.0050 eb=0.0000 ve=0.0000 vn=0.0000 vl=0.000 db=0.00
G1 Z0.300 F420                          ; hopdn dz=-0.20@7 h=0.3 r=0.00
;00:01:30.216: pe=-1.0050 eb=0.0000 ve=0.0000 vn=0.0000 vl=0.000 db=0.00
G1 E48.7178 F1800                       ; restore de=3.6988@30.0 r=1.03
;00:01:30.339: pe=2.6677 eb=0.0260 ve=30.0000 vn=0.5605 vl=0.000 db=0.52
G1 X0.00 Y73.00 E48.9049 F600           ; draw dl=3.0@10(0<10>0) de=0.187@0.58(0.0<0.62>0.0) l=0.30x0.50x1.00 r=1.01
;00:01:30.659: pe=2.6667 eb=0.0286 ve=0.0000 vn=0.5232 vl=0.000 db=0.54
G1 E45.2382 F2400                       ; retract de=-3.6667@-40.0 r=1.18
;00:01:30.751: pe=-1.0054 eb=0.0339 ve=-40.0000 vn=0.0000 vl=0.000 db=0.59
G1 Z0.500 F420                          ; hopup dz=0.20@7 h=0.5 r=0.91
;00:01:30.779: pe=-1.0054 eb=0.0339 ve=0.0000 vn=0.0000 vl=0.000 db=0.46
G1 X-6.10 Y69.73 F6000                  ; move dl=6.9@100(0<42>0) de=0.000@0.0(0.0<0.0>0.0) l=0.50x0.50x0.00 r=0.00
;00:01:31.029: pe=-1.0054 eb=0.0000 ve=0.0000 vn=0.0000 vl=0.000 db=0.00
G1 Z0.300 F420                          ; hopdn dz=-0.20@7 h=0.3 r=0.00
;00:01:31.057: pe=-1.0054 eb=0.0000 ve=0.0000 vn=0.0000 vl=0.000 db=0.00
G1 E48.8685 F1800                       ; restore de=3.6304@30.0 r=1.01
;00:01:31.178: pe=2.6003 eb=0.0247 ve=30.0000 vn=0.5462 vl=0.000 db=0.50
G1 X-6.23 Y71.23 E48.9621 F600          ; draw dl=1.5@10(0<10>0) de=0.094@0.55(0.0<0.62>0.0) l=0.30x0.50x1.00 r=1.01
;00:01:31.348: pe=2.5990 eb=0.0273 ve=0.0000 vn=0.5071 vl=0.000 db=0.53
G1 E45.3631 F2400                       ; retract de=-3.5990@-40.0 r=1.15
;00:01:31.438: pe=-1.0050 eb=0.0324 ve=-40.0000 vn=0.0000 vl=0.000 db=0.57
G1 Z0.500 F420                          ; hopup dz=0.20@7 h=0.5 r=0.89
;00:01:31.467: pe=-1.0050 eb=0.0324 ve=0.0000 vn=0.0000 vl=0.000 db=0.45
G1 X-12.16 Y68.94 F6000                 ; move dl=6.4@100(0<40>0) de=0.000@0.0(0.0<0.0>0.0) l=0.50x0.50x0.00 r=0.00
;00:01:31.706: pe=-1.0050 eb=0.0000 ve=0.0000 vn=0.0000 vl=0.000 db=0.00
G1 Z0.300 F420                          ; hopdn dz=-0.20@7 h=0.3 r=0.00
;00:01:31.734: pe=-1.0050 eb=0.0000 ve=0.0000 vn=0.0000 vl=0.000 db=0.00
G1 E48.9931 F1800                       ; restore de=3.6300@30.0 r=1.01
;00:01:31.855: pe=2.6003 eb=0.0247 ve=30.0000 vn=0.5462 vl=0.000 db=0.50
G1 X-12.42 Y70.41 E49.0866 F600         ; draw dl=1.5@10(0<10>0) de=0.094@0.55(0.0<0.62>0.0) l=0.30x0.50x1.00 r=1.01
;00:01:32.025: pe=2.5990 eb=0.0273 ve=0.0000 vn=0.5071 vl=0.000 db=0.53
G1 E45.4876 F2400                       ; retract de=-3.5990@-40.0 r=1.15
;00:01:32.115: pe=-1.0050 eb=0.0324 ve=-40.0000 vn=0.0000 vl=0.000 db=0.57
G1 Z0.500 F420                          ; hopup dz=0.20@7 h=0.5 r=0.89
;00:01:32.144: pe=-1.0050 eb=0.0324 ve=0.0000 vn=0.0000 vl=0.000 db=0.45
G1 X-18.12 Y67.61 F6000                 ; move dl=6.4@100(0<40>0) de=0.000@0.0(0.0<0.0>0.0) l=0.50x0.50x0.00 r=0.00
;00:01:32.383: pe=-1.0050 eb=0.0000 ve=0.0000 vn=0.0000 vl=0.000 db=0.00
G1 Z0.300 F420                          ; hopdn dz=-0.20@7 h=0.3 r=0.00
;00:01:32.412: pe=-1.0050 eb=0.0000 ve=0.0000 vn=0.0000 vl=0.000 db=0.00
G1 E49.1177 F1800                       ; restore de=3.6300@30.0 r=1.01
;00:01:32.533: pe=2.6003 eb=0.0247 ve=30.0000 vn=0.5462 vl=0.000 db=0.50
G1 X-18.51 Y69.06 E49.2112 F600         ; draw dl=1.5@10(0<10>0) de=0.094@0.55(0.0<0.62>0.0) l=0.30x0.50x1.00 r=1.01
;00:01:32.703: pe=2.5990 eb=0.0273 ve=0.0000 vn=0.5071 vl=0.000 db=0.53
G1 E45.6122 F2400                       ; retract de=-3.5990@-40.0 r=1.15
;00:01:32.793: pe=-1.0050 eb=0.0324 ve=-40.0000 vn=0.0000 vl=0.000 db=0.57
G1 Z0.500 F420                          ; hopup dz=0.20@7 h=0.5 r=0.89
;00:01:32.821: pe=-1.0050 eb=0.0324 ve=0.0000 vn=0.0000 vl=0.000 db=0.45
G1 X-23.94 Y65.78 F6000                 ; move dl=6.4@100(0<40>0) de=0.000@0.0(0.0<0.0>0.0) l=0.50x0.50x0.00 r=0.00
;00:01:33.060: pe=-1.0050 eb=0.0000 ve=0.0000 vn=0.0000 vl=0.000 db=0.00
G1 Z0.300 F420                          ; hopdn dz=-0.20@7 h=0.3 r=0.00
;00:01:33.089: pe=-1.0050 eb=0.0000 ve=0.0000 vn=0.0000 vl=0.000 db=0.00
G1 E49.2423 F1800                       ; restore de=3.6300@30.0 r=1.01
;00:01:33.210: pe=2.6003 eb=0.0247 ve=30.0000 vn=0.5462 vl=0.000 db=0.50
G1 X-24.45 Y67.19 E49.3358 F600         ; draw dl=1.5@10(0<10>0) de=0.094@0.55(0.0<0.62>0.0) l=0.30x0.50x1.00 r=1.01
;00:01:33.380: pe=2.5990 eb=0.0273 ve=0.0000 vn=0.5071 vl=0.000 db=0.53
G1 E45.7368 F2400                       ; retract de=-3.5990@-40.0 r=1.15
;00:01:33.470: pe=-1.0050 eb=0.0324 ve=-40.0000 vn=0.0000 vl=0.000 db=0.57
G1 Z0.500 F420                          ; hopup dz=0.20@7 h=0.5 r=0.89
;00:01:33.498: pe=-1.0050 eb=0.0324 ve=0.0000 vn=0.0000 vl=0.000 db=0.45
G1 X-29.58 Y63.44 F6000                 ; move dl=6.4@100(0<40>0) de=0.000@0.0(0.0<0.0>0.0) l=0.50x0.50x0.00 r=0.00
;00:01:33.738: pe=-1.0050 eb=0.0000 ve=0.0000 vn=0.0000 vl=0.000 db=0.00
G1 Z0.300 F420                          ; hopdn dz=-0.20@7 h=0.3 r=0.00
;00:01:33.766: pe=-1.0050 eb=0.0000 ve=0.0000 vn=0.0000 vl=0.000 db=0.00
G1 E49.3668 F1800                       ; restore de=3.6300@30.0 r=1.01
;00:01:33.887: pe=2.6003 eb=0.0247 ve=30.0000 vn=0.5462 vl=0.000 db=0.50
G1 X-30.22 Y64.80 E49.4604 F600         ; draw dl=1.5@10(0<10>0) de=0.094@0.55(0.0<0.62>0.0) l=0.30x0.50x1.00 r=1.01
;00:01:34.057: pe=2.5990 eb=0.0273 ve=0.0000 vn=0.5071 vl=0.000 db=0.53
G1 E45.8614 F2400                       ; retract de=-3.5990@-40.0 r=1.15
;00:01:34.147: pe=-1.0050 eb=0.0324 ve=-40.0000 vn=0.0000 vl=0.000 db=0.57
G1 Z0.500 F420                          ; hopup dz=0.20@7 h=0.5 r=0.89
;00:01:34.176: pe=-1.0050 eb=0.0324 ve=0.0000 vn=0.0000 vl=0.000 db=0.45
G1 X-35.00 Y60.62 F6000                 ; move dl=6.4@100(0<40>0) de=0.000@0.0(0.0<0.0>0.0) l=0.50x0.50x0.00 r=0.00
;00:01:34.415: pe=-1.0050 eb=0.0000 ve=0.0000 vn=0.0000 vl=0.000 db=0.00
G1 Z0.300 F420                          ; hopdn dz=-0.20@7 h=0.3 r=0.00
;00:01:34.443: pe=-1.0050 eb=0.0000 ve=0.0000 vn=0.0000 vl=0.000 db=0.00
G1 E49.5602 F1800                       ; restore de=3.6988@30.0 r=1.03
;00:01:34.567: pe=2.6677 eb=0.0260 ve=30.0000 vn=0.5605 vl=0.000 db=0.52
G1 X-36.50 Y63.22 E49.7473 F600         ; draw dl=3.0@10(0<10>0) de=0.187@0.58(0.0<0.62>0.0) l=0.30x0.50x1.00 r=1.01
;00:01:34.887: pe=2.6667 eb=0.0286 ve=0.0000 vn=0.5232 vl=0.000 db=0.54
G1 E46.0806 F2400                       ; retract de=-3.6667@-40.0 r=1.18
;00:01:34.978: pe=-1.0054 eb=0.0339 ve=-40.0000 vn=0.0000 vl=0.000 db=0.59
G1 Z0.500 F420                          ; hopup dz=0.20@7 h=0.5 r=0.91
;00:01:35.007: pe=-1.0054 eb=0.0339 ve=0.0000 vn=0.0000 vl=0.000 db=0.46
G1 X-40.15 Y57.34 F6000                 ; move dl=6.9@100(0<42>0) de=0.000@0.0(0.0<0.0>0.0) l=0.50x0.50x0.00 r=0.00
;00:01:35.256: pe=-1.0054 eb=0.0000 ve=0.0000 vn=0.0000 vl=0.000 db=0.00
G1 Z0.300 F420                          ; hopdn dz=-0.20@7 h=0.3 r=0.00
;00:01:35.285: pe=-1.0054 eb=0.0000 ve=0.0000 vn=0.0000 vl=0.000 db=0.00
G1 E49.7109 F1800                       ; restore de=3.6304@30.0 r=1.01
;00:01:35.406: pe=2.6003 eb=0.0247 ve=30.0000 vn=0.5462 vl=0.000 db=0.50
G1 X-41.01 Y58.57 E49.8045 F600         ; draw dl=1.5@10(0<10>0) de=0.094@0.55(0.0<0.62>0.0) l=0.30x0.50x1.00 r=1.01
;00:01:35.576: pe=2.5990 eb=0.0273 ve=0.0000 vn=0.5071 vl=0.000 db=0.53
