;gcode_flavor: flashforge
;machine_type: Adventurer 3 Series
;filament_diameter0: 1.75
;right_extruder_temperature: 210
;platform_temperature: 50
;extruder_fan: 100%
;case_fan: 100%
;base_print_speed: 60
;travel_speed: 100
;vertical_speed: 7
;retract_speed: 40
;restore_speed: 30
;layer_height: 0.30
;line_width: 0.50
;extrusion_ratio: 1.00
;command_line: ./gcodetest.py -Te=210 -Tp=50 -Fe=1.0 -Fc=1.0 -Kf=0.4 -Kb=1.0 -Re=1.5 -R
;start gcode
M118 X75.00 Y75.00 Z150.00 T0
M140 S50 T0
M104 S210 T0
M104 S0 T1
M107
M900 K0.000 T0
G90
G28
M132 X Y Z A B
G1 Z50.000 F420
G161 X Y F3300
M7 T0
M6 T0
M652 S255
M108 T0
M106
;preExtrude:0.20
G1 X69.29 Y28.70 F6000
G1 Z0.200 F420
G1 E2.2953 F1800
G1 X66.53 Y34.63 E3.1658 F600
G1 X63.25 Y40.30 E4.0363
G1 X59.50 Y45.66 E4.9068
G1 X55.30 Y50.67 E5.7772
G1 X50.67 Y55.30 E6.6477
G1 X45.66 Y59.50 E7.5182
G1 X40.30 Y63.25 E8.3886
G1 X34.63 Y66.53 E9.2591
G1 X28.70 Y69.29 E10.1296
G1 X28.70 Y69.29
G1 E6.5094 F2400
G1 Z0.400 F420
;layer:0.30
;structure:shell-outer
G1 X-69.50 Y68.89 F6000
G1 Z0.300 F420
G1 E8.7781 F1800
G1 X-68.48 Y66.48 E8.9413 F600
G1 X-67.46 Y68.89 E9.1045
G1 E6.8670 F2400
G1 Z0.500 F420
G1 X-66.40 Y67.69 F6000
G1 Z0.300 F420
G1 E9.1371 F1800
G1 X-64.26 Y67.69 E9.2706 F600
G1 X-64.34 Y68.22 E9.3040
G1 X-64.55 Y68.61 E9.3316
G1 X-64.89 Y68.86 E9.3579
G1 X-65.33 Y68.95 E9.3859
G1 X-65.76 Y68.86 E9.4133
G1 X-66.10 Y68.61 E9.4397
G1 X-66.32 Y68.22 E9.4676
G1 X-66.40 Y67.69 E9.5010
G1 X-66.32 Y67.15 E9.5351
G1 X-66.09 Y66.75 E9.5638
G1 X-65.74 Y66.51 E9.5903
G1 X-65.28 Y66.42 E9.6195
G1 X-64.94 Y66.47 E9.6410
G1 X-64.65 Y66.61 E9.6610
G1 X-64.44 Y66.83 E9.6800
G1 X-64.32 Y67.13 E9.7002
G1 E7.4578 F2400
G1 Z0.500 F420
G1 X-63.20 Y68.26 F6000
G1 Z0.300 F420
G1 E9.7062 F1800
G1 X-61.51 Y68.26 E9.8116 F600
G1 E7.5883 F2400
G1 Z0.500 F420
G1 X-61.51 Y67.55 F6000
G1 Z0.300 F420
G1 E9.8367 F1800
G1 X-63.20 Y67.55 E9.9421 F600
G1 E7.7188 F2400
G1 Z0.500 F420
G1 X-60.45 Y69.00 F6000
G1 Z0.300 F420
G1 E9.9817 F1800
G1 X-59.98 Y69.24 E10.0146 F600
G1 X-59.61 Y69.55 E10.0447
G1 X-59.36 Y69.88 E10.0705
G1 X-59.36 Y66.48 E10.2825
G1 E8.0462 F2400
G1 Z0.500 F420
G1 X-58.30 Y66.71 F6000
G1 Z0.300 F420
G1 E10.1360 F1800
G1 X-58.30 Y66.65 E10.1397 F600
G1 E8.0673 F2400
G1 Z0.500 F420
G1 X-56.01 Y69.94 F6000
G1 Z0.300 F420
G1 E10.3373 F1800
G1 X-55.50 Y69.80 E10.3703 F600
G1 X-55.11 Y69.42 E10.4043
G1 X-54.88 Y68.86 E10.4420
G1 X-54.79 Y68.18 E10.4848
G1 X-54.88 Y67.51 E10.5270
G1 X-55.11 Y66.95 E10.5647
G1 X-55.50 Y66.56 E10.5991
G1 X-56.01 Y66.42 E10.6321
G1 X-56.54 Y66.56 E10.6663
G1 X-56.91 Y66.95 E10.6998
G1 X-57.15 Y67.51 E10.7378
G1 X-57.23 Y68.18 E10.7799
G1 X-57.15 Y68.85 E10.8220
G1 X-56.91 Y69.42 E10.8606
G1 X-56.54 Y69.80 E10.8936
G1 X-56.01 Y69.94 E10.9278
G1 E8.6852 F2400
G1 Z0.500 F420
G1 X-69.50 Y64.88 F6000
G1 Z0.300 F420
G1 E10.9462 F1800
G1 X-69.50 Y61.48 E11.1583 F600
G1 E8.9234 F2400
G1 Z0.500 F420
G1 X-69.50 Y63.23 F6000
G1 Z0.300 F420
G1 E11.1880 F1800
G1 X-69.25 Y63.53 E11.2123 F600
G1 X-69.02 Y63.75 E11.2322
G1 X-68.80 Y63.88 E11.2481
G1 X-68.60 Y63.93 E11.2610
G1 X-68.41 Y63.95 E11.2729
G1 X-68.09 Y63.88 E11.2933
G1 X-67.86 Y63.71 E11.3111
G1 X-67.76 Y63.51 E11.3251
G1 X-67.67 Y63.08 E11.3525
G1 X-67.67 Y61.48 E11.4523
G1 E9.2143 F2400
G1 Z0.500 F420
G1 X-66.61 Y63.26 F6000
G1 Z0.300 F420
G1 E11.4628 F1800
G1 X-64.92 Y63.26 E11.5682 F600
G1 E9.3449 F2400
G1 Z0.500 F420
G1 X-64.92 Y62.55 F6000
G1 Z0.300 F420
G1 E11.5933 F1800
G1 X-66.61 Y62.55 E11.6987 F600
G1 E9.4754 F2400
G1 Z0.500 F420
G1 X-62.64 Y64.94 F6000
G1 Z0.300 F420
G1 E11.7458 F1800
G1 X-62.13 Y64.80 E11.7788 F600
G1 X-61.74 Y64.42 E11.8127
G1 X-61.50 Y63.86 E11.8507
G1 X-61.42 Y63.18 E11.8934
G1 X-61.50 Y62.51 E11.9355
G1 X-61.74 Y61.95 E11.9735
G1 X-62.13 Y61.56 E12.0079
G1 X-62.64 Y61.42 E12.0409
G1 X-63.16 Y61.56 E12.0745
G1 X-63.54 Y61.95 E12.1084
G1 X-63.78 Y62.51 E12.1464
G1 X-63.86 Y63.18 E12.1885
G1 X-63.78 Y63.85 E12.2306
G1 X-63.54 Y64.42 E12.2691
G1 X-63.16 Y64.80 E12.3027
G1 X-62.64 Y64.94 E12.3362
G1 E10.0936 F2400
G1 Z0.500 F420
G1 X-60.36 Y61.71 F6000
G1 Z0.300 F420
G1 E12.1835 F1800
G1 X-60.36 Y61.65 E12.1872 F600
G1 E10.1148 F2400
G1 Z0.500 F420
G1 X-59.24 Y64.13 F6000
G1 Z0.300 F420
G1 E12.3833 F1800
G1 X-59.13 Y64.47 E12.4055 F600
G1 X-58.92 Y64.73 E12.4264
G1 X-58.63 Y64.89 E12.4470
G1 X-58.29 Y64.94 E12.4685
G1 X-57.90 Y64.87 E12.4932
G1 X-57.61 Y64.68 E12.5148
G1 X-57.43 Y64.41 E12.5351
G1 X-57.36 Y64.06 E12.5573
G1 X-57.43 Y63.85 E12.5711
G1 X-57.57 Y63.68 E12.5849
G1 X-57.94 Y63.45 E12.6120
G1 X-58.38 Y63.30 E12.6410
G1 X-57.94 Y63.18 E12.6695
G1 X-57.58 Y63.02 E12.6940
G1 X-57.29 Y62.74 E12.7192
G1 X-57.19 Y62.45 E12.7383
G1 X-57.26 Y62.03 E12.7649
G1 X-57.49 Y61.70 E12.7899
G1 X-57.83 Y61.50 E12.8145
G1 X-58.25 Y61.42 E12.8412
G1 X-58.65 Y61.48 E12.8664
G1 X-58.97 Y61.65 E12.8890
G1 X-59.19 Y61.92 E12.9108
G1 X-59.29 Y62.28 E12.9341
G1 E10.6930 F2400
G1 Z0.500 F420
G1 X-67.52 Y59.88 F6000
G1 Z0.300 F420
G1 E12.9540 F1800
G1 X-67.52 Y56.48 E13.1660 F600
G1 E10.9311 F2400
G1 Z0.500 F420
G1 X-67.52 Y56.98 F6000
G1 Z0.300 F420
G1 E13.1994 F1800
G1 X-67.77 Y56.74 E13.2210 F600
G1 X-68.16 Y56.49 E13.2499
G1 X-68.54 Y56.42 E13.2740
G1 X-68.92 Y56.51 E13.2984
G1 X-69.22 Y56.77 E13.3231
G1 X-69.43 Y57.18 E13.3519
G1 X-69.50 Y57.71 E13.3852
G1 X-69.44 Y58.22 E13.4172
G1 X-69.26 Y58.61 E13.4440
G1 X-68.97 Y58.86 E13.4679
G1 X-68.57 Y58.95 E13.4935
G1 X-68.38 Y58.93 E13.5054
G1 X-68.18 Y58.85 E13.5188
G1 X-67.97 Y58.72 E13.5342
G1 X-67.77 Y58.50 E13.5528
G1 X-67.52 Y58.03 E13.5860
G1 E11.3440 F2400
G1 Z0.500 F420
G1 X-66.46 Y58.89 F6000
G1 Z0.300 F420
G1 E13.6017 F1800
G1 X-65.29 Y56.44 E13.7710 F600
G1 E11.5392 F2400
G1 Z0.500 F420
G1 X-66.29 Y55.57 F6000
G1 Z0.300 F420
G1 E13.8049 F1800
G1 X-66.19 Y55.56 E13.8112 F600
G1 X-66.10 Y55.56 E13.8168
G1 X-65.84 Y55.62 E13.8334
G1 X-65.63 Y55.78 E13.8499
G1 X-65.45 Y56.06 E13.8706
G1 X-65.29 Y56.44 E13.8964
G1 X-64.41 Y58.89 E14.0587
G1 E11.8201 F2400
G1 Z0.500 F420
G1 X-63.35 Y58.76 F6000
G1 Z0.300 F420
G1 E14.0747 F1800
G1 X-63.35 Y56.48 E14.2169 F600
G1 E11.9878 F2400
G1 Z0.500 F420
G1 X-63.35 Y57.89 F6000
G1 Z0.300 F420
G1 E14.2527 F1800
G1 X-63.11 Y58.34 E14.2845 F600
G1 X-62.92 Y58.67 E14.3082
G1 X-62.70 Y58.86 E14.3263
G1 X-62.49 Y58.93 E14.3401
G1 X-62.28 Y58.95 E14.3533
G1 X-61.95 Y58.88 E14.3743
G1 X-61.77 Y58.73 E14.3889
G1 X-61.67 Y58.40 E14.4104
G1 X-61.61 Y58.08 E14.4307
G1 X-61.61 Y56.48 E14.5305
G1 E12.2924 F2400
G1 Z0.500 F420
G1 X-60.55 Y56.48 F6000
G1 Z0.300 F420
G1 E14.5481 F1800
G1 X-60.55 Y58.89 E14.6984 F600
G1 E12.4683 F2400
G1 Z0.500 F420
G1 X-60.55 Y58.20 F6000
G1 Z0.300 F420
G1 E14.7219 F1800
G1 X-60.30 Y58.55 E14.7487 F600
G1 X-60.09 Y58.76 E14.7672
G1 X-59.89 Y58.88 E14.7818
G1 X-59.70 Y58.94 E14.7942
G1 X-59.54 Y58.95 E14.8042
G1 X-59.49 Y58.95 E14.8073
G1 X-59.44 Y58.94 E14.8105
G1 E12.5833 F2400
G1 Z0.500 F420
G1 X-58.38 Y57.69 F6000
G1 Z0.300 F420
G1 E14.8534 F1800
G1 X-56.24 Y57.69 E14.9869 F600
G1 X-56.32 Y58.22 E15.0203
G1 X-56.53 Y58.61 E15.0479
G1 X-56.87 Y58.86 E15.0742
G1 X-57.31 Y58.95 E15.1022
G1 X-57.74 Y58.86 E15.1296
G1 X-58.08 Y58.61 E15.1560
G1 X-58.30 Y58.22 E15.1839
G1 X-58.38 Y57.69 E15.2173
G1 X-58.30 Y57.15 E15.2513
G1 X-58.07 Y56.75 E15.2801
G1 X-57.72 Y56.51 E15.3066
G1 X-57.26 Y56.42 E15.3358
G1 X-56.92 Y56.47 E15.3573
G1 X-56.63 Y56.61 E15.3773
G1 X-56.42 Y56.83 E15.3963
G1 X-56.30 Y57.13 E15.4165
G1 E13.1741 F2400
G1 Z0.500 F420
G1 X-53.99 Y56.46 F6000
G1 Z0.300 F420
G1 E15.4377 F1800
G1 X-54.14 Y56.45 E15.4471 F600
G1 X-54.32 Y56.50 E15.4587
G1 X-54.48 Y56.62 E15.4712
G1 X-54.60 Y56.81 E15.4852
G1 X-54.68 Y57.19 E15.5094
G1 X-54.68 Y59.52 E15.6547
G1 E13.4179 F2400
G1 Z0.500 F420
G1 X-55.18 Y58.76 F6000
G1 Z0.300 F420
G1 E15.6537 F1800
G1 X-54.10 Y58.76 E15.7211 F600
G1 E13.5097 F2400
G1 Z0.500 F420
G1 X-52.92 Y58.26 F6000
G1 Z0.300 F420
G1 E15.7580 F1800
G1 X-51.23 Y58.26 E15.8634 F600
G1 E13.6402 F2400
G1 Z0.500 F420
G1 X-51.23 Y57.55 F6000
G1 Z0.300 F420
G1 E15.8885 F1800
G1 X-52.92 Y57.55 E15.9939 F600
G1 E13.7707 F2400
G1 Z0.500 F420
G1 X-48.95 Y59.94 F6000
G1 Z0.300 F420
G1 E16.0410 F1800
G1 X-48.44 Y59.80 E16.0740 F600
G1 X-48.05 Y59.42 E16.1079
G1 X-47.81 Y58.86 E16.1459
G1 X-47.73 Y58.18 E16.1886
G1 X-47.81 Y57.51 E16.2307
G1 X-48.05 Y56.95 E16.2687
G1 X-48.44 Y56.56 E16.3031
G1 X-48.95 Y56.42 E16.3361
G1 X-49.47 Y56.56 E16.3697
G1 X-49.85 Y56.95 E16.4036
G1 X-50.09 Y57.51 E16.4416
G1 X-50.17 Y58.18 E16.4837
G1 X-50.09 Y58.85 E16.5258
G1 X-49.85 Y59.42 E16.5643
G1 X-49.47 Y59.80 E16.5979
G1 X-48.95 Y59.94 E16.6314
G1 E14.3889 F2400
G1 Z0.500 F420
;structure:shell-outer
G1 X70.00 Y0.00 F6000
G1 Z0.300 F420
G1 E16.6617 F1800
G1 X69.73 Y6.10 E17.0425 F600
G1 X68.94 Y12.16 E17.4233
G1 X67.61 Y18.12 E17.8042
G1 X65.78 Y23.94 E18.1850
G1 X63.44 Y29.58 E18.5658
G1 X60.62 Y35.00 E18.9467
G1 X57.34 Y40.15 E19.3275
G1 X53.62 Y45.00 E19.7083
G1 X49.50 Y49.50 E20.0892
G1 X45.00 Y53.62 E20.4700
G1 X40.15 Y57.34 E20.8508
G1 X35.00 Y60.62 E21.2317
G1 X29.58 Y63.44 E21.6125
G1 X23.94 Y65.78 E21.9933
G1 X18.12 Y67.61 E22.3742
G1 X12.16 Y68.94 E22.7550
G1 X6.10 Y69.73 E23.1358
G1 X0.00 Y70.00 E23.5167
G1 X-6.10 Y69.73 E23.8975
G1 X-12.16 Y68.94 E24.2783
G1 X-18.12 Y67.61 E24.6591
G1 X-23.94 Y65.78 E25.0400
G1 X-29.58 Y63.44 E25.4208
G1 X-35.00 Y60.62 E25.8016
G1 X-40.15 Y57.34 E26.1825
G1 X-45.00 Y53.62 E26.5633
G1 X-49.50 Y49.50 E26.9441
G1 X-53.62 Y45.00 E27.3250
G1 X-57.34 Y40.15 E27.7058
G1 X-60.62 Y35.00 E28.0866
G1 X-63.44 Y29.58 E28.4675
G1 X-65.78 Y23.94 E28.8483
G1 X-67.61 Y18.12 E29.2291
G1 X-68.94 Y12.16 E29.6100
G1 X-69.73 Y6.10 E29.9908
G1 X-70.00 Y0.00 E30.3716
G1 X-69.73 Y-6.10 E30.7525
G1 X-68.94 Y-12.16 E31.1333
G1 X-67.61 Y-18.12 E31.5141
G1 X-65.78 Y-23.94 E31.8950
G1 X-63.44 Y-29.58 E32.2758
G1 X-60.62 Y-35.00 E32.6566
G1 X-57.34 Y-40.15 E33.0374
G1 X-53.62 Y-45.00 E33.4183
G1 X-49.50 Y-49.50 E33.7991
G1 X-45.00 Y-53.62 E34.1799
G1 X-40.15 Y-57.34 E34.5608
G1 X-35.00 Y-60.62 E34.9416
G1 X-29.58 Y-63.44 E35.3224
G1 X-23.94 Y-65.78 E35.7033
G1 X-18.12 Y-67.61 E36.0841
G1 X-12.16 Y-68.94 E36.4649
G1 X-6.10 Y-69.73 E36.8458
G1 X0.00 Y-70.00 E37.2266
G1 X6.10 Y-69.73 E37.6074
G1 X12.16 Y-68.94 E37.9883
G1 X18.12 Y-67.61 E38.3691
G1 X23.94 Y-65.78 E38.7499
G1 X29.58 Y-63.44 E39.1308
G1 X35.00 Y-60.62 E39.5116
G1 X40.15 Y-57.34 E39.8924
G1 X45.00 Y-53.62 E40.2733
G1 X49.50 Y-49.50 E40.6541
G1 X53.62 Y-45.00 E41.0349
G1 X57.34 Y-40.15 E41.4157
G1 X60.62 Y-35.00 E41.7966
G1 X63.44 Y-29.58 E42.1774
G1 X65.78 Y-23.94 E42.5582
G1 X67.61 Y-18.12 E42.9391
G1 X68.94 Y-12.16 E43.3199
G1 X69.73 Y-6.10 E43.7007
G1 X70.00 Y0.00 E44.0816
G1 E41.8374 F2400
G1 Z0.500 F420
G1 Z0.300
G1 E44.0967 F1800
G1 X73.00 Y0.00 E44.2837 F600
G1 E42.0313 F2400
G1 Z0.500 F420
G1 X69.73 Y6.10 F6000
G1 Z0.300 F420
G1 E44.2768 F1800
G1 X71.23 Y6.23 E44.3703 F600
G1 E42.1498 F2400
G1 Z0.500 F420
G1 X68.94 Y12.16 F6000
G1 Z0.300 F420
G1 E44.3952 F1800
G1 X70.41 Y12.42 E44.4888 F600
G1 E42.2683 F2400
G1 Z0.500 F420
G1 X67.61 Y18.12 F6000
G1 Z0.300 F420
G1 E44.5137 F1800
G1 X69.06 Y18.51 E44.6073 F600
G1 E42.3868 F2400
G1 Z0.500 F420
G1 X65.78 Y23.94 F6000
G1 Z0.300 F420
G1 E44.6322 F1800
G1 X67.19 Y24.45 E44.7257 F600
G1 E42.5052 F2400
G1 Z0.500 F420
G1 X63.44 Y29.58 F6000
G1 Z0.300 F420
G1 E44.7507 F1800
G1 X64.80 Y30.22 E44.8442 F600
G1 E42.6237 F2400
G1 Z0.500 F420
G1 X60.62 Y35.00 F6000
G1 Z0.300 F420
G1 E44.8829 F1800
G1 X63.22 Y36.50 E45.0700 F600
G1 E42.8367 F2400
G1 Z0.500 F420
G1 X57.34 Y40.15 F6000
G1 Z0.300 F420
G1 E45.0821 F1800
G1 X58.57 Y41.01 E45.1757 F600
G1 E42.9552 F2400
G1 Z0.500 F420
G1 X53.62 Y45.00 F6000
G1 Z0.300 F420
G1 E45.2006 F1800
G1 X54.77 Y45.96 E45.2941 F600
G1 E43.0737 F2400
G1 Z0.500 F420
G1 X49.50 Y49.50 F6000
G1 Z0.300 F420
G1 E45.3191 F1800
G1 X50.56 Y50.56 E45.4126 F600
G1 E43.1921 F2400
G1 Z0.500 F420
G1 X45.00 Y53.62 F6000
G1 Z0.300 F420
G1 E45.4375 F1800
G1 X45.96 Y54.77 E45.5311 F600
G1 E43.3106 F2400
G1 Z0.500 F420
G1 X40.15 Y57.34 F6000
G1 Z0.300 F420
G1 E45.5560 F1800
G1 X41.01 Y58.57 E45.6495 F600
G1 E43.4291 F2400
G1 Z0.500 F420
G1 X35.00 Y60.62 F6000
G1 Z0.300 F420
G1 E45.6882 F1800
G1 X36.50 Y63.22 E45.8753 F600
G1 E43.6420 F2400
G1 Z0.500 F420
G1 X29.58 Y63.44 F6000
G1 Z0.300 F420
G1 E45.8875 F1800
G1 X30.22 Y64.80 E45.9810 F600
G1 E43.7605 F2400
G1 Z0.500 F420
G1 X23.94 Y65.78 F6000
G1 Z0.300 F420
G1 E46.0059 F1800
G1 X24.45 Y67.19 E46.0995 F600
G1 E43.8790 F2400
G1 Z0.500 F420
G1 X18.12 Y67.61 F6000
G1 Z0.300 F420
G1 E46.1244 F1800
G1 X18.51 Y69.06 E46.2180 F600
G1 E43.9975 F2400
G1 Z0.500 F420
G1 X12.16 Y68.94 F6000
G1 Z0.300 F420
G1 E46.2429 F1800
G1 X12.42 Y70.41 E46.3364 F600
G1 E44.1159 F2400
G1 Z0.500 F420
G1 X6.10 Y69.73 F6000
G1 Z0.300 F420
G1 E46.3613 F1800
G1 X6.23 Y71.23 E46.4549 F600
G1 E44.2344 F2400
G1 Z0.500 F420
G1 X0.00 Y70.00 F6000
G1 Z0.300 F420
G1 E46.4936 F1800
G1 X0.00 Y73.00 E46.6807 F600
G1 E44.4474 F2400
G1 Z0.500 F420
G1 X-6.10 Y69.73 F6000
G1 Z0.300 F420
G1 E46.6928 F1800
G1 X-6.23 Y71.23 E46.7864 F600
G1 E44.5659 F2400
G1 Z0.500 F420
G1 X-12.16 Y68.94 F6000
G1 Z0.300 F420
G1 E46.8113 F1800
G1 X-12.42 Y70.41 E46.9048 F600
G1 E44.6843 F2400
G1 Z0.500 F420
G1 X-18.12 Y67.61 F6000
G1 Z0.300 F420
G1 E46.9298 F1800
G1 X-18.51 Y69.06 E47.0233 F600
G1 E44.8028 F2400
G1 Z0.500 F420
G1 X-23.94 Y65.78 F6000
G1 Z0.300 F420
G1 E47.0482 F1800
G1 X-24.45 Y67.19 E47.1418 F600
G1 E44.9213 F2400
G1 Z0.500 F420
G1 X-29.58 Y63.44 F6000
G1 Z0.300 F420
G1 E47.1667 F1800
G1 X-30.22 Y64.80 E47.2602 F600
G1 E45.0398 F2400
G1 Z0.500 F420
G1 X-35.00 Y60.62 F6000
G1 Z0.300 F420
G1 E47.2989 F1800
G1 X-36.50 Y63.22 E47.4860 F600
G1 E45.2527 F2400
G1 Z0.500 F420
G1 X-40.15 Y57.34 F6000
G1 Z0.300 F420
G1 E47.4982 F1800
G1 X-41.01 Y58.57 E47.5917 F600
G1 E45.3712 F2400
G1 Z0.500 F420
G1 X-45.00 Y53.62 F6000
G1 Z0.300 F420
G1 E47.6166 F1800
G1 X-45.96 Y54.77 E47.7102 F600
G1 E45.4897 F2400
G1 Z0.500 F420
G1 X-49.50 Y49.50 F6000
G1 Z0.300 F420
G1 E47.7351 F1800
G1 X-50.56 Y50.56 E47.8286 F600
G1 E45.6082 F2400
G1 Z0.500 F420
G1 X-53.62 Y45.00 F6000
G1 Z0.300 F420
G1 E47.8536 F1800
G1 X-54.77 Y45.96 E47.9471 F600
G1 E45.7266 F2400
G1 Z0.500 F420
G1 X-57.34 Y40.15 F6000
G1 Z0.300 F420
G1 E47.9720 F1800
G1 X-58.57 Y41.01 E48.0656 F600
G1 E45.8451 F2400
G1 Z0.500 F420
G1 X-60.62 Y35.00 F6000
G1 Z0.300 F420
G1 E48.1043 F1800
G1 X-63.22 Y36.50 E48.2914 F600
G1 E46.0581 F2400
G1 Z0.500 F420
G1 X-63.44 Y29.58 F6000
G1 Z0.300 F420
G1 E48.3035 F1800
G1 X-64.80 Y30.22 E48.3971 F600
G1 E46.1766 F2400
G1 Z0.500 F420
G1 X-65.78 Y23.94 F6000
G1 Z0.300 F420
G1 E48.4220 F1800
G1 X-67.19 Y24.45 E48.5155 F600
G1 E46.2950 F2400
G1 Z0.500 F420
G1 X-67.61 Y18.12 F6000
G1 Z0.300 F420
G1 E48.5404 F1800
G1 X-69.06 Y18.51 E48.6340 F600
G1 E46.4135 F2400
G1 Z0.500 F420
G1 X-68.94 Y12.16 F6000
G1 Z0.300 F420
G1 E48.6589 F1800
G1 X-70.41 Y12.42 E48.7525 F600
G1 E46.5320 F2400
G1 Z0.500 F420
G1 X-69.73 Y6.10 F6000
G1 Z0.300 F420
G1 E48.7774 F1800
G1 X-71.23 Y6.23 E48.8709 F600
G1 E46.6504 F2400
G1 Z0.500 F420
G1 X-70.00 Y0.00 F6000
G1 Z0.300 F420
G1 E48.9096 F1800
G1 X-73.00 Y0.00 E49.0967 F600
G1 E46.8634 F2400
G1 Z0.500 F420
G1 X-69.73 Y-6.10 F6000
G1 Z0.300 F420
G1 E49.1089 F1800
G1 X-71.23 Y-6.23 E49.2024 F600
G1 E46.9819 F2400
G1 Z0.500 F420
G1 X-68.94 Y-12.16 F6000
G1 Z0.300 F420
G1 E49.2273 F1800
G1 X-70.41 Y-12.42 E49.3209 F600
G1 E47.1004 F2400
G1 Z0.500 F420
G1 X-67.61 Y-18.12 F6000
G1 Z0.300 F420
G1 E49.3458 F1800
G1 X-69.06 Y-18.51 E49.4393 F600
G1 E47.2189 F2400
G1 Z0.500 F420
G1 X-65.78 Y-23.94 F6000
G1 Z0.300 F420
G1 E49.4643 F1800
G1 X-67.19 Y-24.45 E49.5578 F600
G1 E47.3373 F2400
G1 Z0.500 F420
G1 X-63.44 Y-29.58 F6000
G1 Z0.300 F420
G1 E49.5827 F1800
G1 X-64.80 Y-30.22 E49.6763 F600
G1 E47.4558 F2400
G1 Z0.500 F420
G1 X-60.62 Y-35.00 F6000
G1 Z0.300 F420
G1 E49.7150 F1800
G1 X-63.22 Y-36.50 E49.9020 F600
G1 E47.6688 F2400
G1 Z0.500 F420
G1 X-57.34 Y-40.15 F6000
G1 Z0.300 F420
G1 E49.9142 F1800
G1 X-58.57 Y-41.01 E50.0077 F600
G1 E47.7873 F2400
G1 Z0.500 F420
G1 X-53.62 Y-45.00 F6000
G1 Z0.300 F420
G1 E50.0327 F1800
G1 X-54.77 Y-45.96 E50.1262 F600
G1 E47.9057 F2400
G1 Z0.500 F420
G1 X-49.50 Y-49.50 F6000
G1 Z0.300 F420
G1 E50.1511 F1800
G1 X-50.56 Y-50.56 E50.2447 F600
G1 E48.0242 F2400
G1 Z0.500 F420
G1 X-45.00 Y-53.62 F6000
G1 Z0.300 F420
G1 E50.2696 F1800
G1 X-45.96 Y-54.77 E50.3632 F600
G1 E48.1427 F2400
G1 Z0.500 F420
G1 X-40.15 Y-57.34 F6000
G1 Z0.300 F420
G1 E50.3881 F1800
G1 X-41.01 Y-58.57 E50.4816 F600
G1 E48.2611 F2400
G1 Z0.500 F420
G1 X-35.00 Y-60.62 F6000
G1 Z0.300 F420
G1 E50.5203 F1800
G1 X-36.50 Y-63.22 E50.7074 F600
G1 E48.4741 F2400
G1 Z0.500 F420
G1 X-29.58 Y-63.44 F6000
G1 Z0.300 F420
G1 E50.7195 F1800
G1 X-30.22 Y-64.80 E50.8131 F600
G1 E48.5926 F2400
G1 Z0.500 F420
G1 X-23.94 Y-65.78 F6000
G1 Z0.300 F420
G1 E50.8380 F1800
G1 X-24.45 Y-67.19 E50.9316 F600
G1 E48.7111 F2400
G1 Z0.500 F420
G1 X-18.12 Y-67.61 F6000
G1 Z0.300 F420
G1 E50.9565 F1800
G1 X-18.51 Y-69.06 E51.0500 F600
G1 E48.8295 F2400
G1 Z0.500 F420
G1 X-12.16 Y-68.94 F6000
G1 Z0.300 F420
G1 E51.0750 F1800
G1 X-12.42 Y-70.41 E51.1685 F600
G1 E48.9480 F2400
G1 Z0.500 F420
G1 X-6.10 Y-69.73 F6000
G1 Z0.300 F420
G1 E51.1934 F1800
G1 X-6.23 Y-71.23 E51.2870 F600
G1 E49.0665 F2400
G1 Z0.500 F420
G1 X0.00 Y-70.00 F6000
G1 Z0.300 F420
G1 E51.3257 F1800
G1 X0.00 Y-73.00 E51.5127 F600
G1 E49.2794 F2400
G1 Z0.500 F420
G1 X6.10 Y-69.73 F6000
G1 Z0.300 F420
G1 E51.5249 F1800
G1 X6.23 Y-71.23 E51.6184 F600
G1 E49.3980 F2400
G1 Z0.500 F420
G1 X12.16 Y-68.94 F6000
G1 Z0.300 F420
G1 E51.6434 F1800
G1 X12.42 Y-70.41 E51.7369 F600
G1 E49.5164 F2400
G1 Z0.500 F420
G1 X18.12 Y-67.61 F6000
G1 Z0.300 F420
G1 E51.7618 F1800
G1 X18.51 Y-69.06 E51.8554 F600
G1 E49.6349 F2400
G1 Z0.500 F420
G1 X23.94 Y-65.78 F6000
G1 Z0.300 F420
G1 E51.8803 F1800
G1 X24.45 Y-67.19 E51.9738 F600
G1 E49.7534 F2400
G1 Z0.500 F420
G1 X29.58 Y-63.44 F6000
G1 Z0.300 F420
G1 E51.9988 F1800
G1 X30.22 Y-64.80 E52.0923 F600
G1 E49.8718 F2400
G1 Z0.500 F420
G1 X35.00 Y-60.62 F6000
G1 Z0.300 F420
G1 E52.1310 F1800
G1 X36.50 Y-63.22 E52.3181 F600
G1 E50.0848 F2400
G1 Z0.500 F420
G1 X40.15 Y-57.34 F6000
G1 Z0.300 F420
G1 E52.3302 F1800
G1 X41.01 Y-58.57 E52.4238 F600
G1 E50.2033 F2400
G1 Z0.500 F420
G1 X45.00 Y-53.62 F6000
G1 Z0.300 F420
G1 E52.4487 F1800
G1 X45.96 Y-54.77 E52.5423 F600
G1 E50.3218 F2400
G1 Z0.500 F420
G1 X49.50 Y-49.50 F6000
G1 Z0.300 F420
G1 E52.5672 F1800
G1 X50.56 Y-50.56 E52.6607 F600
G1 E50.4402 F2400
G1 Z0.500 F420
G1 X53.62 Y-45.00 F6000
G1 Z0.300 F420
G1 E52.6856 F1800
G1 X54.77 Y-45.96 E52.7792 F600
G1 E50.5587 F2400
G1 Z0.500 F420
G1 X57.34 Y-40.15 F6000
G1 Z0.300 F420
G1 E52.8041 F1800
G1 X58.57 Y-41.01 E52.8977 F600
G1 E50.6772 F2400
G1 Z0.500 F420
G1 X60.62 Y-35.00 F6000
G1 Z0.300 F420
G1 E52.9363 F1800
G1 X63.22 Y-36.50 E53.1234 F600
G1 E50.8901 F2400
G1 Z0.500 F420
G1 X63.44 Y-29.58 F6000
G1 Z0.300 F420
G1 E53.1356 F1800
G1 X64.80 Y-30.22 E53.2291 F600
G1 E51.0086 F2400
G1 Z0.500 F420
G1 X65.78 Y-23.94 F6000
G1 Z0.300 F420
G1 E53.2541 F1800
G1 X67.19 Y-24.45 E53.3476 F600
G1 E51.1271 F2400
G1 Z0.500 F420
G1 X67.61 Y-18.12 F6000
G1 Z0.300 F420
G1 E53.3725 F1800
G1 X69.06 Y-18.51 E53.4661 F600
G1 E51.2456 F2400
G1 Z0.500 F420
G1 X68.94 Y-12.16 F6000
G1 Z0.300 F420
G1 E53.4910 F1800
G1 X70.41 Y-12.42 E53.5845 F600
G1 E51.3641 F2400
G1 Z0.500 F420
G1 X69.73 Y-6.10 F6000
G1 Z0.300 F420
G1 E53.6095 F1800
G1 X71.23 Y-6.23 E53.7030 F600
G1 E51.4825 F2400
G1 Z0.500 F420
G1 X42.00 Y0.00 F6000
G1 Z0.300 F420
G1 E53.7551 F1800
G1 X41.84 Y3.66 E53.9836 F600
G1 X41.36 Y7.29 E54.2121
G1 X40.57 Y10.87 E54.4406
G1 X39.47 Y14.36 E54.6691
G1 X38.06 Y17.75 E54.8976
G1 X36.37 Y21.00 E55.1261
G1 X34.40 Y24.09 E55.3546
G1 X32.17 Y27.00 E55.5831
G1 X29.70 Y29.70 E55.8116
G1 X27.00 Y32.17 E56.0401
G1 X24.09 Y34.40 E56.2686
G1 X21.00 Y36.37 E56.4971
G1 X17.75 Y38.06 E56.7256
G1 X14.36 Y39.47 E56.9541
G1 X10.87 Y40.57 E57.1826
G1 X7.29 Y41.36 E57.4111
G1 X3.66 Y41.84 E57.6396
G1 X0.00 Y42.00 E57.8681
G1 X-3.66 Y41.84 E58.0966
G1 X-7.29 Y41.36 E58.3251
G1 X-10.87 Y40.57 E58.5536
G1 X-14.36 Y39.47 E58.7820
G1 X-17.75 Y38.06 E59.0105
G1 X-21.00 Y36.37 E59.2390
G1 X-24.09 Y34.40 E59.4675
G1 X-27.00 Y32.17 E59.6960
G1 X-29.70 Y29.70 E59.9245
G1 X-32.17 Y27.00 E60.1530
G1 X-34.40 Y24.09 E60.3815
G1 X-36.37 Y21.00 E60.6100
G1 X-38.06 Y17.75 E60.8385
G1 X-39.47 Y14.36 E61.0670
G1 X-40.57 Y10.87 E61.2955
G1 X-41.36 Y7.29 E61.5240
G1 X-41.84 Y3.66 E61.7525
G1 X-42.00 Y0.00 E61.9810
G1 X-41.84 Y-3.66 E62.2095
G1 X-41.36 Y-7.29 E62.4380
G1 X-40.57 Y-10.87 E62.6665
G1 X-39.47 Y-14.36 E62.8950
G1 X-38.06 Y-17.75 E63.1235
G1 X-36.37 Y-21.00 E63.3520
G1 X-34.40 Y-24.09 E63.5805
G1 X-32.17 Y-27.00 E63.8090
G1 X-29.70 Y-29.70 E64.0375
G1 X-27.00 Y-32.17 E64.2660
G1 X-24.09 Y-34.40 E64.4945
G1 X-21.00 Y-36.37 E64.7230
G1 X-17.75 Y-38.06 E64.9515
G1 X-14.36 Y-39.47 E65.1800
G1 X-10.87 Y-40.57 E65.4085
G1 X-7.29 Y-41.36 E65.6370
G1 X-3.66 Y-41.84 E65.8655
G1 X0.00 Y-42.00 E66.0940
G1 X3.66 Y-41.84 E66.3225
G1 X7.29 Y-41.36 E66.5510
G1 X10.87 Y-40.57 E66.7795
G1 X14.36 Y-39.47 E67.0080
G1 X17.75 Y-38.06 E67.2365
G1 X21.00 Y-36.37 E67.4650
G1 X24.09 Y-34.40 E67.6935
G1 X27.00 Y-32.17 E67.9220
G1 X29.70 Y-29.70 E68.1505
G1 X32.17 Y-27.00 E68.3790
G1 X34.40 Y-24.09 E68.6075
G1 X36.37 Y-21.00 E68.8360
G1 X38.06 Y-17.75 E69.0645
G1 X39.47 Y-14.36 E69.2930
G1 X40.57 Y-10.87 E69.5215
G1 X41.36 Y-7.29 E69.7500
G1 X41.84 Y-3.66 E69.9785
G1 X42.00 Y0.00 E70.2070
G1 E67.9629 F2400
G1 Z0.500 F420
G1 Z0.300
G1 E70.2221 F1800
G1 X39.00 Y0.00 E70.4092 F600
G1 E68.1567 F2400
G1 Z0.500 F420
G1 X41.84 Y3.66 F6000
G1 Z0.300 F420
G1 E70.4022 F1800
G1 X40.35 Y3.53 E70.4958 F600
G1 E68.2753 F2400
G1 Z0.500 F420
G1 X41.36 Y7.29 F6000
G1 Z0.300 F420
G1 E70.5207 F1800
G1 X39.88 Y7.03 E70.6142 F600
G1 E68.3937 F2400
G1 Z0.500 F420
G1 X40.57 Y10.87 F6000
G1 Z0.300 F420
G1 E70.6391 F1800
G1 X39.12 Y10.48 E70.7327 F600
G1 E68.5122 F2400
G1 Z0.500 F420
G1 X39.47 Y14.36 F6000
G1 Z0.300 F420
G1 E70.7576 F1800
G1 X38.06 Y13.85 E70.8512 F600
G1 E68.6307 F2400
G1 Z0.500 F420
G1 X38.06 Y17.75 F6000
G1 Z0.300 F420
G1 E70.8761 F1800
G1 X36.71 Y17.12 E70.9696 F600
G1 E68.7491 F2400
G1 Z0.500 F420
G1 X36.37 Y21.00 F6000
G1 Z0.300 F420
G1 E71.0083 F1800
G1 X33.77 Y19.50 E71.1954 F600
G1 E68.9621 F2400
G1 Z0.500 F420
G1 X34.40 Y24.09 F6000
G1 Z0.300 F420
G1 E71.2076 F1800
G1 X33.18 Y23.23 E71.3011 F600
G1 E69.0806 F2400
G1 Z0.500 F420
G1 X32.17 Y27.00 F6000
G1 Z0.300 F420
G1 E71.3260 F1800
G1 X31.02 Y26.03 E71.4196 F600
G1 E69.1991 F2400
G1 Z0.500 F420
G1 X29.70 Y29.70 F6000
G1 Z0.300 F420
G1 E71.4445 F1800
G1 X28.64 Y28.64 E71.5380 F600
G1 E69.3176 F2400
G1 Z0.500 F420
G1 X27.00 Y32.17 F6000
G1 Z0.300 F420
G1 E71.5630 F1800
G1 X26.03 Y31.02 E71.6565 F600
G1 E69.4360 F2400
G1 Z0.500 F420
G1 X24.09 Y34.40 F6000
G1 Z0.300 F420
G1 E71.6814 F1800
G1 X23.23 Y33.18 E71.7750 F600
G1 E69.5545 F2400
G1 Z0.500 F420
G1 X21.00 Y36.37 F6000
G1 Z0.300 F420
G1 E71.8137 F1800
G1 X19.50 Y33.77 E72.0007 F600
G1 E69.7675 F2400
G1 Z0.500 F420
G1 X17.75 Y38.06 F6000
G1 Z0.300 F420
G1 E72.0129 F1800
G1 X17.12 Y36.71 E72.1064 F600
G1 E69.8860 F2400
G1 Z0.500 F420
G1 X14.36 Y39.47 F6000
G1 Z0.300 F420
G1 E72.1314 F1800
G1 X13.85 Y38.06 E72.2249 F600
G1 E70.0044 F2400
G1 Z0.500 F420
G1 X10.87 Y40.57 F6000
G1 Z0.300 F420
G1 E72.2498 F1800
G1 X10.48 Y39.12 E72.3434 F600
G1 E70.1229 F2400
G1 Z0.500 F420
G1 X7.29 Y41.36 F6000
G1 Z0.300 F420
G1 E72.3683 F1800
G1 X7.03 Y39.88 E72.4619 F600
G1 E70.2414 F2400
G1 Z0.500 F420
G1 X3.66 Y41.84 F6000
G1 Z0.300 F420
G1 E72.4868 F1800
G1 X3.53 Y40.35 E72.5803 F600
G1 E70.3598 F2400
G1 Z0.500 F420
G1 X0.00 Y42.00 F6000
G1 Z0.300 F420
G1 E72.6190 F1800
G1 X0.00 Y39.00 E72.8061 F600
G1 E70.5728 F2400
G1 Z0.500 F420
G1 X-3.66 Y41.84 F6000
G1 Z0.300 F420
G1 E72.8182 F1800
G1 X-3.53 Y40.35 E72.9118 F600
G1 E70.6913 F2400
G1 Z0.500 F420
G1 X-7.29 Y41.36 F6000
G1 Z0.300 F420
G1 E72.9367 F1800
G1 X-7.03 Y39.88 E73.0303 F600
G1 E70.8098 F2400
G1 Z0.500 F420
G1 X-10.87 Y40.57 F6000
G1 Z0.300 F420
G1 E73.0552 F1800
G1 X-10.48 Y39.12 E73.1487 F600
G1 E70.9282 F2400
G1 Z0.500 F420
G1 X-14.36 Y39.47 F6000
G1 Z0.300 F420
G1 E73.1737 F1800
G1 X-13.85 Y38.06 E73.2672 F600
G1 E71.0467 F2400
G1 Z0.500 F420
G1 X-17.75 Y38.06 F6000
G1 Z0.300 F420
G1 E73.2921 F1800
G1 X-17.12 Y36.71 E73.3857 F600
G1 E71.1652 F2400
G1 Z0.500 F420
G1 X-21.00 Y36.37 F6000
G1 Z0.300 F420
G1 E73.4244 F1800
G1 X-19.50 Y33.77 E73.6114 F600
G1 E71.3781 F2400
G1 Z0.500 F420
G1 X-24.09 Y34.40 F6000
G1 Z0.300 F420
G1 E73.6236 F1800
G1 X-23.23 Y33.18 E73.7171 F600
G1 E71.4967 F2400
G1 Z0.500 F420
G1 X-27.00 Y32.17 F6000
G1 Z0.300 F420
G1 E73.7421 F1800
G1 X-26.03 Y31.02 E73.8356 F600
G1 E71.6151 F2400
G1 Z0.500 F420
G1 X-29.70 Y29.70 F6000
G1 Z0.300 F420
G1 E73.8605 F1800
G1 X-28.64 Y28.64 E73.9541 F600
G1 E71.7336 F2400
G1 Z0.500 F420
G1 X-32.17 Y27.00 F6000
G1 Z0.300 F420
G1 E73.9790 F1800
G1 X-31.02 Y26.03 E74.0725 F600
G1 E71.8521 F2400
G1 Z0.500 F420
G1 X-34.40 Y24.09 F6000
G1 Z0.300 F420
G1 E74.0975 F1800
G1 X-33.18 Y23.23 E74.1910 F600
G1 E71.9705 F2400
G1 Z0.500 F420
G1 X-36.37 Y21.00 F6000
G1 Z0.300 F420
G1 E74.2297 F1800
G1 X-33.77 Y19.50 E74.4168 F600
G1 E72.1835 F2400
G1 Z0.500 F420
G1 X-38.06 Y17.75 F6000
G1 Z0.300 F420
G1 E74.4289 F1800
G1 X-36.71 Y17.12 E74.5225 F600
G1 E72.3020 F2400
G1 Z0.500 F420
G1 X-39.47 Y14.36 F6000
G1 Z0.300 F420
G1 E74.5474 F1800
G1 X-38.06 Y13.85 E74.6410 F600
G1 E72.4205 F2400
G1 Z0.500 F420
G1 X-40.57 Y10.87 F6000
G1 Z0.300 F420
G1 E74.6659 F1800
G1 X-39.12 Y10.48 E74.7594 F600
G1 E72.5389 F2400
G1 Z0.500 F420
G1 X-41.36 Y7.29 F6000
G1 Z0.300 F420
G1 E74.7843 F1800
G1 X-39.88 Y7.03 E74.8779 F600
G1 E72.6574 F2400
G1 Z0.500 F420
G1 X-41.84 Y3.66 F6000
G1 Z0.300 F420
G1 E74.9028 F1800
G1 X-40.35 Y3.53 E74.9964 F600
G1 E72.7759 F2400
G1 Z0.500 F420
G1 X-42.00 Y0.00 F6000
G1 Z0.300 F420
G1 E75.0350 F1800
G1 X-39.00 Y0.00 E75.2221 F600
G1 E72.9888 F2400
G1 Z0.500 F420
G1 X-41.84 Y-3.66 F6000
G1 Z0.300 F420
G1 E75.2343 F1800
G1 X-40.35 Y-3.53 E75.3278 F600
G1 E73.1073 F2400
G1 Z0.500 F420
G1 X-41.36 Y-7.29 F6000
G1 Z0.300 F420
G1 E75.3528 F1800
G1 X-39.88 Y-7.03 E75.4463 F600
G1 E73.2258 F2400
G1 Z0.500 F420
G1 X-40.57 Y-10.87 F6000
G1 Z0.300 F420
G1 E75.4712 F1800
G1 X-39.12 Y-10.48 E75.5648 F600
G1 E73.3443 F2400
G1 Z0.500 F420
G1 X-39.47 Y-14.36 F6000
G1 Z0.300 F420
G1 E75.5897 F1800
G1 X-38.06 Y-13.85 E75.6832 F600
G1 E73.4628 F2400
G1 Z0.500 F420
G1 X-38.06 Y-17.75 F6000
G1 Z0.300 F420
G1 E75.7082 F1800
G1 X-36.71 Y-17.12 E75.8017 F600
G1 E73.5812 F2400
G1 Z0.500 F420
G1 X-36.37 Y-21.00 F6000
G1 Z0.300 F420
G1 E75.8404 F1800
G1 X-33.77 Y-19.50 E76.0275 F600
G1 E73.7942 F2400
G1 Z0.500 F420
G1 X-34.40 Y-24.09 F6000
G1 Z0.300 F420
G1 E76.0396 F1800
G1 X-33.18 Y-23.23 E76.1332 F600
G1 E73.9127 F2400
G1 Z0.500 F420
G1 X-32.17 Y-27.00 F6000
G1 Z0.300 F420
G1 E76.1581 F1800
G1 X-31.02 Y-26.03 E76.2516 F600
G1 E74.0312 F2400
G1 Z0.500 F420
G1 X-29.70 Y-29.70 F6000
G1 Z0.300 F420
G1 E76.2766 F1800
G1 X-28.64 Y-28.64 E76.3701 F600
G1 E74.1496 F2400
G1 Z0.500 F420
G1 X-27.00 Y-32.17 F6000
G1 Z0.300 F420
G1 E76.3950 F1800
G1 X-26.03 Y-31.02 E76.4886 F600
G1 E74.2681 F2400
G1 Z0.500 F420
G1 X-24.09 Y-34.40 F6000
G1 Z0.300 F420
G1 E76.5135 F1800
G1 X-23.23 Y-33.18 E76.6071 F600
G1 E74.3866 F2400
G1 Z0.500 F420
G1 X-21.00 Y-36.37 F6000
G1 Z0.300 F420
G1 E76.6457 F1800
G1 X-19.50 Y-33.77 E76.8328 F600
G1 E74.5995 F2400
G1 Z0.500 F420
G1 X-17.75 Y-38.06 F6000
G1 Z0.300 F420
G1 E76.8450 F1800
G1 X-17.12 Y-36.71 E76.9385 F600
G1 E74.7180 F2400
G1 Z0.500 F420
G1 X-14.36 Y-39.47 F6000
G1 Z0.300 F420
G1 E76.9634 F1800
G1 X-13.85 Y-38.06 E77.0570 F600
G1 E74.8365 F2400
G1 Z0.500 F420
G1 X-10.87 Y-40.57 F6000
G1 Z0.300 F420
G1 E77.0819 F1800
G1 X-10.48 Y-39.12 E77.1755 F600
G1 E74.9550 F2400
G1 Z0.500 F420
G1 X-7.29 Y-41.36 F6000
G1 Z0.300 F420
G1 E77.2004 F1800
G1 X-7.03 Y-39.88 E77.2939 F600
G1 E75.0734 F2400
G1 Z0.500 F420
G1 X-3.66 Y-41.84 F6000
G1 Z0.300 F420
G1 E77.3189 F1800
G1 X-3.53 Y-40.35 E77.4124 F600
G1 E75.1919 F2400
G1 Z0.500 F420
G1 X0.00 Y-42.00 F6000
G1 Z0.300 F420
G1 E77.4511 F1800
G1 X0.00 Y-39.00 E77.6382 F600
G1 E75.4049 F2400
G1 Z0.500 F420
G1 X3.66 Y-41.84 F6000
G1 Z0.300 F420
G1 E77.6503 F1800
G1 X3.53 Y-40.35 E77.7439 F600
G1 E75.5234 F2400
G1 Z0.500 F420
G1 X7.29 Y-41.36 F6000
G1 Z0.300 F420
G1 E77.7688 F1800
G1 X7.03 Y-39.88 E77.8623 F600
G1 E75.6419 F2400
G1 Z0.500 F420
G1 X10.87 Y-40.57 F6000
G1 Z0.300 F420
G1 E77.8873 F1800
G1 X10.48 Y-39.12 E77.9808 F600
G1 E75.7603 F2400
G1 Z0.500 F420
G1 X14.36 Y-39.47 F6000
G1 Z0.300 F420
G1 E78.0057 F1800
G1 X13.85 Y-38.06 E78.0993 F600
G1 E75.8788 F2400
G1 Z0.500 F420
G1 X17.75 Y-38.06 F6000
G1 Z0.300 F420
G1 E78.1242 F1800
G1 X17.12 Y-36.71 E78.2177 F600
G1 E75.9973 F2400
G1 Z0.500 F420
G1 X21.00 Y-36.37 F6000
G1 Z0.300 F420
G1 E78.2564 F1800
G1 X19.50 Y-33.77 E78.4435 F600
G1 E76.2102 F2400
G1 Z0.500 F420
G1 X24.09 Y-34.40 F6000
G1 Z0.300 F420
G1 E78.4557 F1800
G1 X23.23 Y-33.18 E78.5492 F600
G1 E76.3287 F2400
G1 Z0.500 F420
G1 X27.00 Y-32.17 F6000
G1 Z0.300 F420
G1 E78.5741 F1800
G1 X26.03 Y-31.02 E78.6677 F600
G1 E76.4472 F2400
G1 Z0.500 F420
G1 X29.70 Y-29.70 F6000
G1 Z0.300 F420
G1 E78.6926 F1800
G1 X28.64 Y-28.64 E78.7862 F600
G1 E76.5657 F2400
G1 Z0.500 F420
G1 X32.17 Y-27.00 F6000
G1 Z0.300 F420
G1 E78.8111 F1800
G1 X31.02 Y-26.03 E78.9046 F600
G1 E76.6841 F2400
G1 Z0.500 F420
G1 X34.40 Y-24.09 F6000
G1 Z0.300 F420
G1 E78.9295 F1800
G1 X33.18 Y-23.23 E79.0231 F600
G1 E76.8026 F2400
G1 Z0.500 F420
G1 X36.37 Y-21.00 F6000
G1 Z0.300 F420
G1 E79.0618 F1800
G1 X33.77 Y-19.50 E79.2489 F600
G1 E77.0156 F2400
G1 Z0.500 F420
G1 X38.06 Y-17.75 F6000
G1 Z0.300 F420
G1 E79.2610 F1800
G1 X36.71 Y-17.12 E79.3546 F600
G1 E77.1341 F2400
G1 Z0.500 F420
G1 X39.47 Y-14.36 F6000
G1 Z0.300 F420
G1 E79.3795 F1800
G1 X38.06 Y-13.85 E79.4730 F600
G1 E77.2525 F2400
G1 Z0.500 F420
G1 X40.57 Y-10.87 F6000
G1 Z0.300 F420
G1 E79.4980 F1800
G1 X39.12 Y-10.48 E79.5915 F600
G1 E77.3710 F2400
G1 Z0.500 F420
G1 X41.36 Y-7.29 F6000
G1 Z0.300 F420
G1 E79.6164 F1800
G1 X39.88 Y-7.03 E79.7100 F600
G1 E77.4895 F2400
G1 Z0.500 F420
G1 X41.84 Y-3.66 F6000
G1 Z0.300 F420
G1 E79.7349 F1800
G1 X40.35 Y-3.53 E79.8284 F600
G1 E77.6080 F2400
G1 Z0.500 F420
;structure:shell-outer
G1 X70.00 Y0.00 F6000
G1 Z0.300 F420
G1 E79.8809 F1800
G1 X42.00 Y0.00 E81.6271 F600
G1 E79.3830 F2400
G1 Z0.500 F420
;structure:shell-outer
G1 X0.50 Y21.48 F6000
G1 Z0.300 F420
G1 E81.6518 F1800
G1 X0.50 Y24.88 E81.8638 F600
G1 X1.73 Y24.88 E81.9405
G1 X2.12 Y24.78 E81.9656
G1 X2.43 Y24.58 E81.9886
G1 X2.53 Y24.45 E81.9988
G1 X2.66 Y24.04 E82.0257
G1 X2.61 Y23.80 E82.0410
G1 X2.50 Y23.56 E82.0574
G1 X2.28 Y23.36 E82.0760
G1 X1.51 Y23.18 E82.1253
G1 E79.8838 F2400
G1 Z0.500 F420
G1 X0.50 Y23.18 F6000
G1 Z0.300 F420
G1 E82.1446 F1800
G1 X1.51 Y23.18 E82.2076 F600
G1 X2.02 Y23.00 E82.2413
G1 X2.41 Y22.38 E82.2870
G1 X2.66 Y21.48 E82.3453
G1 E80.1106 F2400
G1 Z0.500 F420
G1 X3.72 Y22.69 F6000
G1 Z0.300 F420
G1 E82.3807 F1800
G1 X5.86 Y22.69 E82.5142 F600
G1 X5.78 Y23.22 E82.5476
G1 X5.57 Y23.61 E82.5752
G1 X5.23 Y23.86 E82.6015
G1 X4.79 Y23.95 E82.6296
G1 X4.36 Y23.86 E82.6570
G1 X4.02 Y23.61 E82.6833
G1 X3.80 Y23.22 E82.7112
G1 X3.72 Y22.69 E82.7446
G1 X3.80 Y22.15 E82.7787
G1 X4.03 Y21.75 E82.8074
G1 X4.38 Y21.51 E82.8339
G1 X4.84 Y21.42 E82.8631
G1 X5.18 Y21.47 E82.8846
G1 X5.47 Y21.61 E82.9047
G1 X5.68 Y21.83 E82.9236
G1 X5.80 Y22.13 E82.9438
G1 E80.7014 F2400
G1 Z0.500 F420
G1 X6.92 Y23.26 F6000
G1 Z0.300 F420
G1 E82.9498 F1800
G1 X8.61 Y23.26 E83.0552 F600
G1 E80.8319 F2400
G1 Z0.500 F420
G1 X8.61 Y22.55 F6000
G1 Z0.300 F420
G1 E83.0803 F1800
G1 X6.92 Y22.55 E83.1857 F600
G1 E80.9625 F2400
G1 Z0.500 F420
G1 X9.67 Y24.44 F6000
G1 Z0.300 F420
G1 E83.2313 F1800
G1 X9.86 Y24.65 E83.2490 F600
G1 X10.09 Y24.81 E83.2665
G1 X10.35 Y24.90 E83.2836
G1 X10.63 Y24.94 E83.3013
G1 X11.00 Y24.88 E83.3246
G1 X11.30 Y24.68 E83.3471
G1 X11.49 Y24.39 E83.3687
G1 X11.56 Y24.02 E83.3922
G1 X11.46 Y23.63 E83.4173
G1 X11.18 Y23.27 E83.4458
G1 X10.40 Y22.64 E83.5083
G1 X10.10 Y22.23 E83.5400
G1 X9.71 Y21.48 E83.5927
G1 X11.53 Y21.48 E83.7062
G1 E81.4649 F2400
G1 Z0.500 F420
G1 X12.62 Y21.71 F6000
G1 Z0.300 F420
G1 E83.5547 F1800
G1 X12.62 Y21.65 E83.5584 F600
G1 E81.4860 F2400
G1 Z0.500 F420
G1 X14.91 Y24.94 F6000
G1 Z0.300 F420
G1 E83.7561 F1800
G1 X15.42 Y24.80 E83.7890 F600
G1 X15.81 Y24.42 E83.8230
G1 X16.05 Y23.86 E83.8610
G1 X16.13 Y23.18 E83.9037
G1 X16.05 Y22.51 E83.9458
G1 X15.81 Y21.95 E83.9838
G1 X15.42 Y21.56 E84.0182
G1 X14.91 Y21.42 E84.0512
G1 X14.39 Y21.56 E84.0847
G1 X14.01 Y21.95 E84.1187
G1 X13.77 Y22.51 E84.1567
G1 X13.69 Y23.18 E84.1988
G1 X13.77 Y23.85 E84.2409
G1 X14.01 Y24.42 E84.2794
G1 X14.39 Y24.80 E84.3130
G1 X14.91 Y24.94 E84.3465
G1 E82.1039 F2400
G1 Z0.500 F420
G1 X17.19 Y22.90 F6000
G1 Z0.300 F420
G1 E84.3547 F1800
G1 X19.06 Y22.90 E84.4713 F600
G1 E82.2459 F2400
G1 Z0.500 F420
G1 X21.83 Y21.48 F6000
G1 Z0.300 F420
G1 E84.5128 F1800
G1 X21.83 Y24.88 E84.7248 F600
G1 X20.12 Y22.65 E84.9001
G1 X22.43 Y22.65 E85.0442
G1 E82.8043 F2400
G1 Z0.500 F420
G1 X23.50 Y21.71 F6000
G1 Z0.300 F420
G1 E84.8942 F1800
G1 X23.50 Y21.65 E84.8979 F600
G1 E82.8255 F2400
G1 Z0.500 F420
G1 X25.78 Y24.94 F6000
G1 Z0.300 F420
G1 E85.0955 F1800
G1 X26.29 Y24.80 E85.1285 F600
G1 X26.68 Y24.42 E85.1625
G1 X26.92 Y23.86 E85.2005
G1 X27.00 Y23.18 E85.2432
G1 X26.92 Y22.51 E85.2853
G1 X26.68 Y21.95 E85.3233
G1 X26.29 Y21.56 E85.3577
G1 X25.78 Y21.42 E85.3906
G1 X25.26 Y21.56 E85.4242
G1 X24.88 Y21.95 E85.4582
G1 X24.64 Y22.51 E85.4962
G1 X24.56 Y23.18 E85.5383
G1 X24.64 Y23.85 E85.5804
G1 X24.88 Y24.42 E85.6189
G1 X25.26 Y24.80 E85.6524
G1 X25.78 Y24.94 E85.6860
G1 E83.4434 F2400
G1 Z0.500 F420
G1 X0.50 Y18.89 F6000
G1 Z0.300 F420
G1 E85.7097 F1800
G1 X1.36 Y16.48 E85.8692 F600
G1 X2.10 Y18.89 E86.0265
G1 X2.87 Y16.48 E86.1843
G1 X3.71 Y18.89 E86.3434
G1 E84.1044 F2400
G1 Z0.500 F420
G1 X4.77 Y18.26 F6000
G1 Z0.300 F420
G1 E86.3529 F1800
G1 X6.46 Y18.26 E86.4583 F600
G1 E84.2350 F2400
G1 Z0.500 F420
G1 X6.46 Y17.55 F6000
G1 Z0.300 F420
G1 E86.4834 F1800
G1 X4.77 Y17.55 E86.5888 F600
G1 E84.3655 F2400
G1 Z0.500 F420
G1 X8.74 Y19.94 F6000
G1 Z0.300 F420
G1 E86.6359 F1800
G1 X9.25 Y19.80 E86.6689 F600
G1 X9.64 Y19.42 E86.7029
G1 X9.88 Y18.86 E86.7409
G1 X9.96 Y18.18 E86.7836
G1 X9.88 Y17.51 E86.8256
G1 X9.64 Y16.95 E86.8636
G1 X9.25 Y16.56 E86.8980
G1 X8.74 Y16.42 E86.9310
G1 X8.22 Y16.56 E86.9646
G1 X7.84 Y16.95 E86.9986
G1 X7.60 Y17.51 E87.0366
G1 X7.52 Y18.18 E87.0786
G1 X7.60 Y18.85 E87.1207
G1 X7.84 Y19.42 E87.1593
G1 X8.22 Y19.80 E87.1928
G1 X8.74 Y19.94 E87.2264
G1 E84.9838 F2400
G1 Z0.500 F420
G1 X11.02 Y16.71 F6000
G1 Z0.300 F420
G1 E87.0736 F1800
G1 X11.02 Y16.65 E87.0773 F600
G1 E85.0049 F2400
G1 Z0.500 F420
G1 X12.14 Y19.13 F6000
G1 Z0.300 F420
G1 E87.2734 F1800
G1 X12.25 Y19.47 E87.2957 F600
G1 X12.46 Y19.73 E87.3165
G1 X12.75 Y19.89 E87.3372
G1 X13.09 Y19.94 E87.3586
G1 X13.48 Y19.87 E87.3833
G1 X13.77 Y19.68 E87.4049
G1 X13.95 Y19.41 E87.4252
G1 X14.02 Y19.06 E87.4474
G1 X13.95 Y18.85 E87.4613
G1 X13.81 Y18.68 E87.4750
G1 X13.44 Y18.45 E87.5022
G1 X13.00 Y18.30 E87.5312
G1 X13.44 Y18.18 E87.5596
G1 X13.80 Y18.02 E87.5842
G1 X14.09 Y17.74 E87.6093
G1 X14.19 Y17.45 E87.6284
G1 X14.12 Y17.03 E87.6550
G1 X13.89 Y16.70 E87.6801
G1 X13.55 Y16.50 E87.7047
G1 X13.12 Y16.42 E87.7320
G1 X12.73 Y16.48 E87.7566
G1 X12.41 Y16.65 E87.7792
G1 X12.19 Y16.92 E87.8009
G1 X12.09 Y17.28 E87.8242
G1 E85.5831 F2400
G1 Z0.500 F420
;structure:shell-inner
G1 X68.00 Y0.00 F6000
G1 Z0.300 F420
G1 E88.0832 F1800
G1 X67.71 Y5.92 E88.4531 F60
G1 X66.91 Y11.80
G1 X65.60 Y17.58
G1 X63.79 Y23.22 F300
G1 E90.4531 F1800
G1 X61.50 Y28.68 E90.6746 F1604
G1 X58.75 Y33.92 E90.8961
G1 X55.54 Y38.89 E91.1175
G1 X51.92 Y43.57 E91.3388
G1 X47.91 Y47.91 E91.5600
G1 X43.53 Y51.88 E91.7811
G1 X38.83 Y55.45 E92.0021
G1 X33.83 Y58.60 E92.2230
G1 X28.59 Y61.30 E92.4439
G1 X23.12 Y63.53 E92.6646
G1 X17.49 Y65.28 E92.8853
G1 X11.73 Y66.53 E93.1059
G1 X5.89 Y67.27 E93.3263
G1 X2.53 Y67.46 E93.4522
G1 E91.4522 F2400
G1 X-3.36 Y67.40 F300
G1 X-9.22 Y66.82
G1 X-15.00 Y65.74
G1 X-17.27 Y65.17
G1 E93.4522 F1800
G1 X-22.87 Y63.39 E93.8189 F60
G1 E91.7477 F2400
G1 Z0.500 F420
G1 X66.00 Y0.00 F6000
G1 Z0.300 F420
G1 E94.2477 F1800
G1 X65.72 Y5.75 E94.6067 F60
G1 X64.94 Y11.45
G1 X63.67 Y17.06
G1 X61.92 Y22.54 F300
G1 E97.0067 F1800
G1 X59.69 Y27.83 E97.2218 F1604
G1 X57.01 Y32.92 E97.4367
G1 X53.90 Y37.74 E97.6516
G1 X50.39 Y42.28 E97.8663
G1 X46.49 Y46.49 E98.0810
G1 X42.25 Y50.35 E98.2956
G1 X37.68 Y53.81 E98.5101
G1 X32.83 Y56.87 E98.7245
G1 X27.74 Y59.49 E98.9388
G1 X22.44 Y61.65 E99.1530
G1 X16.97 Y63.35 E99.3671
G1 X11.38 Y64.56 E99.5812
G1 X5.71 Y65.28 E99.7951
G1 X0.08 Y65.50 E100.0058
G1 E97.6058 F2400
G1 X-5.62 Y65.23 F300
G1 X-11.28 Y64.47
G1 X-16.85 Y63.21
G1 X-19.59 Y62.40
G1 E100.0058 F1800
G1 X-24.95 Y60.43 E100.3616 F60
G1 E98.2855 F2400
G1 Z0.500 F420
G1 X64.00 Y0.00 F6000
G1 Z0.300 F420
G1 E100.7855 F1800
G1 X63.73 Y5.58 E101.1336 F60
G1 X62.97 Y11.10
G1 X61.74 Y16.54
G1 X60.04 Y21.85 F300
G1 E103.9336 F1800
G1 X57.88 Y26.99 E104.1421 F1604
G1 X55.28 Y31.92 E104.3505
G1 X52.27 Y36.60 E104.5588
G1 X48.86 Y41.00 E104.7671
G1 X45.08 Y45.08 E104.9752
G1 X40.96 Y48.81 E105.1833
G1 X36.53 Y52.18 E105.3912
G1 X31.83 Y55.14 E105.5991
G1 X26.89 Y57.68 E105.8069
G1 X21.76 Y59.77 E106.0146
G1 X16.46 Y61.42 E106.2222
G1 X11.04 Y62.59 E106.4297
G1 X5.54 Y63.29 E106.6371
G1 X0.00 Y63.50 E106.8444
G1 X-2.36 Y63.44 E106.9327
G1 E104.1327 F2400
G1 X-7.87 Y62.97 F300
G1 X-13.33 Y62.02
G1 X-18.67 Y60.59
G1 X-21.88 Y59.49
G1 E106.9327 F1800
G1 X-26.97 Y57.33 E107.2775 F60
G1 E105.2048 F2400
G1 Z0.500 F420
G1 X62.00 Y0.00 F6000
G1 Z0.300 F420
G1 E107.7048 F1800
G1 X61.74 Y5.40 E108.0420 F60
G1 X61.00 Y10.76
G1 X59.81 Y16.03
G1 X58.16 Y21.17 F300
G1 E111.2420 F1800
G1 X56.07 Y26.14 E111.4440 F1604
G1 X53.55 Y30.92 E111.6459
G1 X50.63 Y35.45 E111.8477
G1 X47.32 Y39.71 E112.0494
G1 X43.66 Y43.66 E112.2510
G1 X39.67 Y47.28 E112.4525
G1 X35.39 Y50.54 E112.6539
G1 X30.83 Y53.40 E112.8553
G1 X26.05 Y55.86 E113.0565
G1 X21.07 Y57.90 E113.2577
G1 X15.94 Y59.48 E113.4588
G1 X10.69 Y60.62 E113.6598
G1 X5.36 Y61.29 E113.8606
G1 X0.00 Y61.50 E114.0614
G1 X-4.80 Y61.29 E114.2411
G1 E111.0411 F2400
G1 X-10.11 Y60.61 F300
G1 X-15.35 Y59.47
G1 X-20.47 Y57.88
G1 X-24.11 Y56.44
G1 E114.2411 F1800
G1 X-28.92 Y54.10 E114.5749 F60
G1 E112.4958 F2400
G1 Z0.500 F420
G1 X60.00 Y0.00 F6000
G1 Z0.300 F420
G1 E114.9958 F1800
G1 X59.74 Y5.23 E115.3222 F60
G1 X59.03 Y10.41
G1 X57.88 Y15.51
G1 X56.28 Y20.48 F300
G1 E118.9222 F1800
G1 X54.25 Y25.30 E119.1176 F1604
G1 X51.82 Y29.92 E119.3130
G1 X48.99 Y34.30 E119.5083
G1 X45.79 Y38.42 E119.7034
G1 X42.25 Y42.25 E119.8985
G1 X38.39 Y45.75 E120.0935
G1 X34.24 Y48.90 E120.2884
G1 X29.83 Y51.67 E120.4832
G1 X25.20 Y54.05 E120.6780
G1 X20.39 Y56.02 E120.8726
G1 X15.42 Y57.55 E121.0671
G1 X10.34 Y58.65 E121.2616
G1 X5.19 Y59.30 E121.4560
G1 X-0.00 Y59.50 E121.6502
G1 X-5.18 Y59.25 E121.8444
G1 X-7.23 Y59.02 E121.9213
G1 E118.3213 F2400
G1 X-12.34 Y58.14 F300
G1 X-17.35 Y56.82
G1 X-22.22 Y55.06
G1 X-26.27 Y53.22
G1 E121.9213 F1800
G1 X-30.79 Y50.71 E122.2441 F60
G1 E120.1687 F2400
G1 Z0.500 F420
G1 X58.00 Y0.00 F6000
G1 Z0.300 F420
G1 E122.6687 F1800
G1 X57.75 Y5.05 E122.9841 F60
G1 X57.06 Y10.06
G1 X55.94 Y14.99
G1 X54.40 Y19.80 F300
G1 E126.9841 F1800
G1 X52.44 Y24.45 E127.1731 F1604
G1 X50.09 Y28.92 E127.3619
G1 X47.35 Y33.16 E127.5506
G1 X44.26 Y37.14 E127.7393
G1 X40.84 Y40.84 E127.9278
G1 X37.10 Y44.22 E128.1163
G1 X33.09 Y47.26 E128.3047
G1 X28.83 Y49.94 E128.4930
G1 X24.36 Y52.24 E128.6812
G1 X19.70 Y54.14 E128.8693
G1 X14.90 Y55.62 E129.0573
G1 X9.99 Y56.68 E129.2452
G1 X5.01 Y57.31 E129.4331
G1 X0.00 Y57.50 E129.6208
G1 X-5.01 Y57.25 E129.8085
G1 X-9.64 Y56.63 E129.9832
G1 E125.9832 F2400
G1 X-14.53 Y55.55 F300
G1 X-19.31 Y54.05
G1 X-23.93 Y52.13
G1 X-28.34 Y49.84
G1 E129.9832 F1800
G1 X-32.56 Y47.16 E130.2951 F60
G1 E128.2124 F2400
G1 Z0.500 F420
;structure:shell-outer
G1 X-29.50 Y21.48 F6000
G1 Z0.300 F420
G1 E130.4433 F1800
G1 X-29.50 Y24.88 E130.6553 F600
G1 X-28.27 Y24.88 E130.7321
G1 X-27.88 Y24.78 E130.7572
G1 X-27.57 Y24.58 E130.7802
G1 X-27.47 Y24.45 E130.7904
G1 X-27.34 Y24.04 E130.8172
G1 X-27.39 Y23.80 E130.8325
G1 X-27.50 Y23.56 E130.8490
G1 X-27.72 Y23.36 E130.8675
G1 X-28.49 Y23.18 E130.9168
G1 E128.6754 F2400
G1 Z0.500 F420
G1 X-29.50 Y23.18 F6000
G1 Z0.300 F420
G1 E130.9362 F1800
G1 X-28.49 Y23.18 E130.9991 F600
G1 X-27.98 Y23.00 E131.0329
G1 X-27.59 Y22.38 E131.0786
G1 X-27.34 Y21.48 E131.1368
G1 E128.9022 F2400
G1 Z0.500 F420
G1 X-26.28 Y22.69 F6000
G1 Z0.300 F420
G1 E131.1723 F1800
G1 X-24.14 Y22.69 E131.3057 F600
G1 X-24.22 Y23.22 E131.3392
G1 X-24.43 Y23.61 E131.3668
G1 X-24.77 Y23.86 E131.3931
G1 X-25.21 Y23.95 E131.4211
G1 X-25.64 Y23.86 E131.4485
G1 X-25.98 Y23.61 E131.4748
G1 X-26.20 Y23.22 E131.5027
G1 X-26.28 Y22.69 E131.5362
G1 X-26.20 Y22.15 E131.5702
G1 X-25.97 Y21.75 E131.5990
G1 X-25.62 Y21.51 E131.6255
G1 X-25.16 Y21.42 E131.6547
G1 X-24.82 Y21.47 E131.6761
G1 X-24.53 Y21.61 E131.6962
G1 X-24.32 Y21.83 E131.7152
G1 X-24.20 Y22.13 E131.7353
G1 E129.4929 F2400
G1 Z0.500 F420
G1 X-23.08 Y23.26 F6000
G1 Z0.300 F420
G1 E131.7414 F1800
G1 X-21.39 Y23.26 E131.8467 F600
G1 E129.6235 F2400
G1 Z0.500 F420
G1 X-21.39 Y22.55 F6000
G1 Z0.300 F420
G1 E131.8719 F1800
G1 X-23.08 Y22.55 E131.9773 F600
G1 E129.7540 F2400
G1 Z0.500 F420
G1 X-20.33 Y24.44 F6000
G1 Z0.300 F420
G1 E132.0229 F1800
G1 X-20.14 Y24.65 E132.0405 F600
G1 X-19.91 Y24.81 E132.0580
G1 X-19.65 Y24.90 E132.0752
G1 X-19.37 Y24.94 E132.0928
G1 X-19.00 Y24.88 E132.1162
G1 X-18.70 Y24.68 E132.1387
G1 X-18.51 Y24.39 E132.1603
G1 X-18.44 Y24.02 E132.1838
G1 X-18.54 Y23.63 E132.2089
G1 X-18.82 Y23.27 E132.2373
G1 X-19.60 Y22.64 E132.2999
G1 X-19.90 Y22.23 E132.3316
G1 X-20.29 Y21.48 E132.3843
G1 X-18.47 Y21.48 E132.4978
G1 E130.2564 F2400
G1 Z0.500 F420
G1 X-17.38 Y21.71 F6000
G1 Z0.300 F420
G1 E132.3462 F1800
G1 X-17.38 Y21.65 E132.3500 F600
G1 E130.2775 F2400
G1 Z0.500 F420
G1 X-15.09 Y24.94 F6000
G1 Z0.300 F420
G1 E132.5476 F1800
G1 X-14.58 Y24.80 E132.5806 F600
G1 X-14.19 Y24.42 E132.6145
G1 X-13.95 Y23.86 E132.6525
G1 X-13.87 Y23.18 E132.6952
G1 X-13.95 Y22.51 E132.7373
G1 X-14.19 Y21.95 E132.7753
G1 X-14.58 Y21.56 E132.8097
G1 X-15.09 Y21.42 E132.8427
G1 X-15.61 Y21.56 E132.8763
G1 X-15.99 Y21.95 E132.9103
G1 X-16.23 Y22.51 E132.9483
G1 X-16.31 Y23.18 E132.9903
G1 X-16.23 Y23.85 E133.0324
G1 X-15.99 Y24.42 E133.0710
G1 X-15.61 Y24.80 E133.1045
G1 X-15.09 Y24.94 E133.1381
G1 E130.8955 F2400
G1 Z0.500 F420
G1 X-12.81 Y22.90 F6000
G1 Z0.300 F420
G1 E133.1462 F1800
G1 X-10.94 Y22.90 E133.2629 F600
G1 E131.0374 F2400
G1 Z0.500 F420
G1 X-8.17 Y21.48 F6000
G1 Z0.300 F420
G1 E133.3043 F1800
G1 X-8.17 Y24.88 E133.5164 F600
G1 X-9.88 Y22.65 E133.6917
G1 X-7.57 Y22.65 E133.8357
G1 E131.5959 F2400
G1 Z0.500 F420
G1 X-6.50 Y21.71 F6000
G1 Z0.300 F420
G1 E133.6857 F1800
G1 X-6.50 Y21.65 E133.6895 F600
G1 E131.6170 F2400
G1 Z0.500 F420
G1 X-4.22 Y24.94 F6000
G1 Z0.300 F420
G1 E133.8871 F1800
G1 X-3.71 Y24.80 E133.9201 F600
G1 X-3.32 Y24.42 E133.9540
G1 X-3.08 Y23.86 E133.9920
G1 X-3.00 Y23.18 E134.0347
G1 X-3.08 Y22.51 E134.0768
G1 X-3.32 Y21.95 E134.1148
G1 X-3.71 Y21.56 E134.1492
G1 X-4.22 Y21.42 E134.1822
G1 X-4.74 Y21.56 E134.2158
G1 X-5.12 Y21.95 E134.2497
G1 X-5.36 Y22.51 E134.2877
G1 X-5.44 Y23.18 E134.3298
G1 X-5.36 Y23.85 E134.3719
G1 X-5.12 Y24.42 E134.4105
G1 X-4.74 Y24.80 E134.4440
G1 X-4.22 Y24.94 E134.4776
G1 E132.2350 F2400
G1 Z0.500 F420
G1 X-29.50 Y18.89 F6000
G1 Z0.300 F420
G1 E134.5012 F1800
G1 X-28.64 Y16.48 E134.6608 F600
G1 X-27.90 Y18.89 E134.8180
G1 X-27.13 Y16.48 E134.9758
G1 X-26.29 Y18.89 E135.1350
G1 E132.8960 F2400
G1 Z0.500 F420
G1 X-25.23 Y18.26 F6000
G1 Z0.300 F420
G1 E135.1445 F1800
G1 X-23.54 Y18.26 E135.2499 F600
G1 E133.0266 F2400
G1 Z0.500 F420
G1 X-23.54 Y17.55 F6000
G1 Z0.300 F420
G1 E135.2750 F1800
G1 X-25.23 Y17.55 E135.3804 F600
G1 E133.1571 F2400
G1 Z0.500 F420
G1 X-21.26 Y19.94 F6000
G1 Z0.300 F420
G1 E135.4275 F1800
G1 X-20.75 Y19.80 E135.4604 F600
G1 X-20.36 Y19.42 E135.4944
G1 X-20.12 Y18.86 E135.5324
G1 X-20.04 Y18.18 E135.5751
G1 X-20.12 Y17.51 E135.6172
G1 X-20.36 Y16.95 E135.6552
G1 X-20.75 Y16.56 E135.6896
G1 X-21.26 Y16.42 E135.7226
G1 X-21.78 Y16.56 E135.7562
G1 X-22.16 Y16.95 E135.7901
G1 X-22.40 Y17.51 E135.8281
G1 X-22.48 Y18.18 E135.8702
G1 X-22.40 Y18.85 E135.9123
G1 X-22.16 Y19.42 E135.9509
G1 X-21.78 Y19.80 E135.9844
G1 X-21.26 Y19.94 E136.0180
G1 E133.7753 F2400
G1 Z0.500 F420
G1 X-18.98 Y16.71 F6000
G1 Z0.300 F420
G1 E135.8651 F1800
G1 X-18.98 Y16.65 E135.8689 F600
G1 E133.7965 F2400
G1 Z0.500 F420
G1 X-16.20 Y16.48 F6000
G1 Z0.300 F420
G1 E136.0631 F1800
G1 X-16.20 Y19.88 E136.2751 F600
G1 X-17.91 Y17.65 E136.4504
G1 X-15.60 Y17.65 E136.5944
G1 E134.3546 F2400
G1 Z0.500 F420
;structure:shell-inner
G1 X56.00 Y0.00 F6000
G1 Z0.300 F420
G1 E136.8547 F1800
G1 X55.76 Y4.88 E137.1593 F60
G1 X55.09 Y9.71
G1 X54.01 Y14.47
G1 X52.52 Y19.12 F300
G1 E139.1593 F1800
G1 X50.63 Y23.61 E139.4025 F1203
G1 X48.35 Y27.92 E139.6456
G1 X45.71 Y32.01 E139.8885
G1 X42.73 Y35.85 E140.1314
G1 X39.42 Y39.42 E140.3741
G1 X35.82 Y42.69 E140.6167
G1 X31.95 Y45.62 E140.8591
G1 X27.83 Y48.21 E141.1015
G1 X23.51 Y50.43 E141.3437
G1 X19.02 Y52.26 E141.5858
G1 X14.39 Y53.69 E141.8278
G1 X9.65 Y54.71 E142.0696
G1 X7.89 Y54.98 E142.1584
G1 E140.1584 F2400
G1 X3.06 Y55.43 F300
G1 X-1.78 Y55.46
G1 X-6.60 Y55.07
G1 X-11.37 Y54.26
G1 X-11.99 Y54.12
G1 E142.1584 F1800
G1 X-16.65 Y52.84 E142.4599 F60
G1 E140.3164 F2400
G1 Z0.500 F420
G1 X54.00 Y0.00 F6000
G1 Z0.300 F420
G1 E142.8164 F1800
G1 X53.77 Y4.70 E143.1101 F60
G1 X53.12 Y9.37
G1 X52.08 Y13.95
G1 X50.64 Y18.43 F300
G1 E145.5101 F1800
G1 X48.81 Y22.76 E145.7446 F1203
G1 X46.62 Y26.92 E145.9789
G1 X44.07 Y30.86 E146.2132
G1 X41.20 Y34.57 E146.4473
G1 X38.01 Y38.01 E146.6813
G1 X34.53 Y41.15 E146.9152
G1 X30.80 Y43.98 E147.1490
G1 X26.83 Y46.48 E147.3826
G1 X22.67 Y48.61 E147.6161
G1 X18.34 Y50.38 E147.8495
G1 X13.87 Y51.76 E148.0828
G1 X9.30 Y52.74 E148.3160
G1 X5.46 Y53.25 E148.5092
G1 E146.1092 F2400
G1 X0.80 Y53.50 F300
G1 X-3.87 Y53.34
G1 X-8.50 Y52.77
G1 X-13.06 Y51.80
G1 X-14.34 Y51.45
G1 E148.5092 F1800
G1 X-18.76 Y49.98 E148.7997 F60
G1 E146.6475 F2400
G1 Z0.500 F420
G1 X52.00 Y0.00 F6000
G1 Z0.300 F420
G1 E149.1475 F1800
G1 X51.77 Y4.53 E149.4304 F60
G1 X51.16 Y9.02
G1 X50.15 Y13.44
G1 X48.76 Y17.75 F300
G1 E152.2304 F1800
G1 X47.00 Y21.92 E152.4562 F1203
G1 X44.89 Y25.92 E152.6818
G1 X42.44 Y29.71 E152.9074
G1 X39.66 Y33.28 E153.1328
G1 X36.59 Y36.59 E153.3581
G1 X33.25 Y39.62 E153.5833
G1 X29.65 Y42.35 E153.8083
G1 X25.83 Y44.74 E154.0333
G1 X21.82 Y46.80 E154.2581
G1 X17.65 Y48.50 E154.4828
G1 X13.35 Y49.83 E154.7073
G1 X8.95 Y50.77 E154.9318
G1 X4.49 Y51.33 E155.1561
G1 X3.02 Y51.43 E155.2295
G1 E152.4295 F2400
G1 X-1.47 Y51.47 F300
G1 X-5.95 Y51.12
G1 X-10.37 Y50.38
G1 X-14.72 Y49.26
G1 X-16.65 Y48.62
G1 E155.2295 F1800
G1 X-20.82 Y46.96 E155.5091 F60
G1 E153.3549 F2400
G1 Z0.500 F420
G1 X50.00 Y0.00 F6000
G1 Z0.300 F420
G1 E155.8549 F1800
G1 X49.78 Y4.36 E156.1269 F60
G1 X49.19 Y8.67
G1 X48.22 Y12.92
G1 X46.88 Y17.06 F300
G1 E159.3269 F1800
G1 X45.19 Y21.07 E159.5440 F1203
G1 X43.16 Y24.92 E159.7609
G1 X40.80 Y28.57 E159.9778
G1 X38.13 Y32.00 E160.1945
G1 X35.18 Y35.18 E160.4111
G1 X31.96 Y38.09 E160.6276
G1 X28.50 Y40.71 E160.8439
G1 X24.83 Y43.01 E161.0601
G1 X20.98 Y44.99 E161.2763
G1 X16.97 Y46.62 E161.4922
G1 X12.83 Y47.89 E161.7081
G1 X8.61 Y48.80 E161.9239
G1 X4.32 Y49.34 E162.1395
G1 X0.58 Y49.50 E162.3260
G1 E159.1260 F2400
G1 X-3.73 Y49.33 F300
G1 X-8.01 Y48.79
G1 X-12.23 Y47.88
G1 X-16.35 Y46.61
G1 X-18.90 Y45.61
G1 E162.3260 F1800
G1 X-22.79 Y43.77 E162.5946 F60
G1 E160.4308 F2400
G1 Z0.500 F420
G1 X48.00 Y0.00 F6000
G1 Z0.300 F420
G1 E162.9308 F1800
G1 X47.79 Y4.18 E163.1918 F60
G1 X47.22 Y8.33
G1 X46.28 Y12.40
G1 X45.00 Y16.38 F300
G1 E166.7918 F1800
G1 X43.38 Y20.23 E167.0002 F1203
G1 X41.42 Y23.92 E167.2085
G1 X39.16 Y27.42 E167.4166
G1 X36.60 Y30.71 E167.6246
G1 X33.76 Y33.76 E167.8325
G1 X30.68 Y36.56 E168.0403
G1 X27.36 Y39.07 E168.2479
G1 X23.83 Y41.28 E168.4554
G1 X20.13 Y43.18 E168.6628
G1 X16.28 Y44.74 E168.8701
G1 X12.32 Y45.96 E169.0773
G1 X8.26 Y46.83 E169.2843
G1 X4.14 Y47.35 E169.4913
G1 X-0.00 Y47.50 E169.6981
G1 X-1.86 Y47.45 E169.7910
G1 E166.1910 F2400
G1 X-5.99 Y47.08 F300
G1 X-10.06 Y46.35
G1 X-14.05 Y45.27
G1 X-17.94 Y43.85
G1 X-21.06 Y42.41
G1 E169.7910 F1800
G1 X-24.67 Y40.39 E170.0485 F60
G1 E167.8819 F2400
G1 Z0.500 F420
G1 X46.00 Y0.00 F6000
G1 Z0.300 F420
G1 E170.3819 F1800
G1 X45.80 Y4.01 E170.6321 F60
G1 X45.25 Y7.98
G1 X44.35 Y11.88
G1 X43.12 Y15.69 F300
G1 E174.6321 F1800
G1 X41.56 Y19.38 E174.8318 F1203
G1 X39.69 Y22.92 E175.0313
G1 X37.52 Y26.27 E175.2308
G1 X35.07 Y29.43 E175.4301
G1 X32.35 Y32.35 E175.6293
G1 X29.39 Y35.03 E175.8283
G1 X26.21 Y37.43 E176.0273
G1 X22.83 Y39.55 E176.2261
G1 X19.29 Y41.36 E176.4248
G1 X15.60 Y42.86 E176.6234
G1 X11.80 Y44.03 E176.8218
G1 X7.91 Y44.86 E177.0202
G1 X3.97 Y45.35 E177.2184
G1 X-0.00 Y45.50 E177.4165
G1 X-3.96 Y45.30 E177.6145
G1 X-4.30 Y45.27 E177.6312
G1 E173.6312 F2400
G1 X-8.22 Y44.69 F300
G1 X-12.08 Y43.78
G1 X-15.84 Y42.53
G1 X-19.47 Y40.97
G1 X-22.96 Y39.09
G1 X-23.12 Y38.99
G1 E177.6312 F1800
G1 X-26.41 Y36.81 E177.8778 F60
G1 E175.7083 F2400
G1 Z0.500 F420
;structure:shell-outer
G1 X-70.00 Y0.00 F6000
G1 Z0.300 F420
G1 E177.9381 F1800
G1 X-42.00 Y0.00 E179.6843 F600
G1 E177.4402 F2400
G1 Z0.500 F420
;structure:shell-outer
G1 X-29.50 Y-3.52 F6000
G1 Z0.300 F420
G1 E179.7090 F1800
G1 X-29.50 Y-0.12 E179.9210 F600
G1 X-28.27 Y-0.12 E179.9977
G1 X-27.88 Y-0.22 E180.0228
G1 X-27.57 Y-0.42 E180.0458
G1 X-27.47 Y-0.55 E180.0560
G1 X-27.34 Y-0.96 E180.0829
G1 X-27.39 Y-1.20 E180.0981
G1 X-27.50 Y-1.44 E180.1146
G1 X-27.72 Y-1.64 E180.1331
G1 X-28.49 Y-1.82 E180.1825
G1 E177.9410 F2400
G1 Z0.500 F420
G1 X-29.50 Y-1.82 F6000
G1 Z0.300 F420
G1 E180.2018 F1800
G1 X-28.49 Y-1.82 E180.2648 F600
G1 X-27.98 Y-2.00 E180.2985
G1 X-27.59 Y-2.62 E180.3442
G1 X-27.34 Y-3.52 E180.4024
G1 E178.1678 F2400
G1 Z0.500 F420
G1 X-26.28 Y-2.31 F6000
G1 Z0.300 F420
G1 E180.4379 F1800
G1 X-24.14 Y-2.31 E180.5714 F600
G1 X-24.22 Y-1.78 E180.6048
G1 X-24.43 Y-1.39 E180.6324
G1 X-24.77 Y-1.14 E180.6587
G1 X-25.21 Y-1.05 E180.6867
G1 X-25.64 Y-1.14 E180.7141
G1 X-25.98 Y-1.39 E180.7405
G1 X-26.20 Y-1.78 E180.7684
G1 X-26.28 Y-2.31 E180.8018
G1 X-26.20 Y-2.85 E180.8359
G1 X-25.97 Y-3.25 E180.8646
G1 X-25.62 Y-3.49 E180.8911
G1 X-25.16 Y-3.58 E180.9203
G1 X-24.82 Y-3.53 E180.9418
G1 X-24.53 Y-3.39 E180.9618
G1 X-24.32 Y-3.17 E180.9808
G1 X-24.20 Y-2.87 E181.0010
G1 E178.7586 F2400
G1 Z0.500 F420
G1 X-23.08 Y-1.74 F6000
G1 Z0.300 F420
G1 E181.0070 F1800
G1 X-21.39 Y-1.74 E181.1124 F600
G1 E178.8891 F2400
G1 Z0.500 F420
G1 X-21.39 Y-2.45 F6000
G1 Z0.300 F420
G1 E181.1375 F1800
G1 X-23.08 Y-2.45 E181.2429 F600
G1 E179.0196 F2400
G1 Z0.500 F420
G1 X-20.33 Y-0.56 F6000
G1 Z0.300 F420
G1 E181.2885 F1800
G1 X-20.14 Y-0.35 E181.3062 F600
G1 X-19.91 Y-0.19 E181.3236
G1 X-19.65 Y-0.10 E181.3408
G1 X-19.37 Y-0.06 E181.3584
G1 X-19.00 Y-0.12 E181.3818
G1 X-18.70 Y-0.32 E181.4043
G1 X-18.51 Y-0.61 E181.4259
G1 X-18.44 Y-0.98 E181.4494
G1 X-18.54 Y-1.37 E181.4745
G1 X-18.82 Y-1.73 E181.5030
G1 X-19.60 Y-2.36 E181.5655
G1 X-19.90 Y-2.77 E181.5972
G1 X-20.29 Y-3.52 E181.6499
G1 X-18.47 Y-3.52 E181.7634
G1 E179.5220 F2400
G1 Z0.500 F420
G1 X-17.38 Y-3.29 F6000
G1 Z0.300 F420
G1 E181.6119 F1800
G1 X-17.38 Y-3.35 E181.6156 F600
G1 E179.5432 F2400
G1 Z0.500 F420
G1 X-15.09 Y-0.06 F6000
G1 Z0.300 F420
G1 E181.8132 F1800
G1 X-14.58 Y-0.20 E181.8462 F600
G1 X-14.19 Y-0.58 E181.8802
G1 X-13.95 Y-1.14 E181.9182
G1 X-13.87 Y-1.82 E181.9609
G1 X-13.95 Y-2.49 E182.0030
G1 X-14.19 Y-3.05 E182.0410
G1 X-14.58 Y-3.44 E182.0754
G1 X-15.09 Y-3.58 E182.1083
G1 X-15.61 Y-3.44 E182.1419
G1 X-15.99 Y-3.05 E182.1759
G1 X-16.23 Y-2.49 E182.2139
G1 X-16.31 Y-1.82 E182.2560
G1 X-16.23 Y-1.15 E182.2981
G1 X-15.99 Y-0.58 E182.3366
G1 X-15.61 Y-0.20 E182.3701
G1 X-15.09 Y-0.06 E182.4037
G1 E180.1611 F2400
G1 Z0.500 F420
G1 X-12.81 Y-2.10 F6000
G1 Z0.300 F420
G1 E182.4119 F1800
G1 X-10.94 Y-2.10 E182.5285 F600
G1 E180.3031 F2400
G1 Z0.500 F420
G1 X-8.17 Y-3.52 F6000
G1 Z0.300 F420
G1 E182.5700 F1800
G1 X-8.17 Y-0.12 E182.7820 F600
G1 X-9.88 Y-2.35 E182.9573
G1 X-7.57 Y-2.35 E183.1014
G1 E180.8615 F2400
G1 Z0.500 F420
G1 X-6.50 Y-3.29 F6000
G1 Z0.300 F420
G1 E182.9513 F1800
G1 X-6.50 Y-3.35 E182.9551 F600
G1 E180.8827 F2400
G1 Z0.500 F420
G1 X-4.22 Y-0.06 F6000
G1 Z0.300 F420
G1 E183.1527 F1800
G1 X-3.71 Y-0.20 E183.1857 F600
G1 X-3.32 Y-0.58 E183.2197
G1 X-3.08 Y-1.14 E183.2577
G1 X-3.00 Y-1.82 E183.3004
G1 X-3.08 Y-2.49 E183.3424
G1 X-3.32 Y-3.05 E183.3804
G1 X-3.71 Y-3.44 E183.4148
G1 X-4.22 Y-3.58 E183.4478
G1 X-4.74 Y-3.44 E183.4814
G1 X-5.12 Y-3.05 E183.5154
G1 X-5.36 Y-2.49 E183.5534
G1 X-5.44 Y-1.82 E183.5955
G1 X-5.36 Y-1.15 E183.6375
G1 X-5.12 Y-0.58 E183.6761
G1 X-4.74 Y-0.20 E183.7096
G1 X-4.22 Y-0.06 E183.7432
G1 E181.5006 F2400
G1 Z0.500 F420
G1 X-29.50 Y-6.11 F6000
G1 Z0.300 F420
G1 E183.7668 F1800
G1 X-28.64 Y-8.52 E183.9264 F600
G1 X-27.90 Y-6.11 E184.0837
G1 X-27.13 Y-8.52 E184.2415
G1 X-26.29 Y-6.11 E184.4006
G1 E182.1616 F2400
G1 Z0.500 F420
G1 X-25.23 Y-6.74 F6000
G1 Z0.300 F420
G1 E184.4101 F1800
G1 X-23.54 Y-6.74 E184.5155 F600
G1 E182.2922 F2400
G1 Z0.500 F420
G1 X-23.54 Y-7.45 F6000
G1 Z0.300 F420
G1 E184.5406 F1800
G1 X-25.23 Y-7.45 E184.6460 F600
G1 E182.4227 F2400
G1 Z0.500 F420
G1 X-21.26 Y-5.06 F6000
G1 Z0.300 F420
G1 E184.6931 F1800
G1 X-20.75 Y-5.20 E184.7261 F600
G1 X-20.36 Y-5.58 E184.7600
G1 X-20.12 Y-6.14 E184.7980
G1 X-20.04 Y-6.82 E184.8407
G1 X-20.12 Y-7.49 E184.8828
G1 X-20.36 Y-8.05 E184.9208
G1 X-20.75 Y-8.44 E184.9552
G1 X-21.26 Y-8.58 E184.9882
G1 X-21.78 Y-8.44 E185.0218
G1 X-22.16 Y-8.05 E185.0558
G1 X-22.40 Y-7.49 E185.0938
G1 X-22.48 Y-6.82 E185.1358
G1 X-22.40 Y-6.15 E185.1779
G1 X-22.16 Y-5.58 E185.2165
G1 X-21.78 Y-5.20 E185.2500
G1 X-21.26 Y-5.06 E185.2836
G1 E183.0410 F2400
G1 Z0.500 F420
G1 X-18.98 Y-8.29 F6000
G1 Z0.300 F420
G1 E185.1308 F1800
G1 X-18.98 Y-8.35 E185.1345 F600
G1 E183.0621 F2400
G1 Z0.500 F420
G1 X-16.89 Y-5.08 F6000
G1 Z0.300 F420
G1 E185.3347 F1800
G1 X-16.54 Y-5.14 E185.3568 F600
G1 X-16.25 Y-5.29 E185.3772
G1 X-16.06 Y-5.54 E185.3968
G1 X-15.99 Y-5.89 E185.4190
G1 X-16.13 Y-6.34 E185.4484
G1 X-16.42 Y-6.60 E185.4727
G1 X-17.35 Y-6.88 E185.5333
G1 X-17.74 Y-7.16 E185.5632
G1 X-17.91 Y-7.65 E185.5956
G1 X-17.83 Y-8.05 E185.6210
G1 X-17.62 Y-8.34 E185.6434
G1 X-17.29 Y-8.52 E185.6668
G1 X-16.89 Y-8.58 E185.6920
G1 X-16.48 Y-8.52 E185.7179
G1 X-16.15 Y-8.34 E185.7413
G1 X-15.94 Y-8.05 E185.7636
G1 X-15.86 Y-7.65 E185.7891
G1 X-16.04 Y-7.16 E185.8216
G1 X-16.42 Y-6.88 E185.8511
G1 X-17.35 Y-6.60 E185.9117
G1 X-17.64 Y-6.34 E185.9359
G1 X-17.78 Y-5.89 E185.9653
G1 X-17.71 Y-5.54 E185.9876
G1 X-17.52 Y-5.29 E186.0072
G1 X-17.24 Y-5.14 E186.0270
G1 X-16.89 Y-5.08 E186.0491
G1 E183.8053 F2400
G1 Z0.500 F420
;structure:shell-inner
G1 X-68.00 Y0.00 F6000
G1 Z0.300 F420
G1 E186.3055 F1800
G1 X-67.71 Y-5.92 E186.6754 F60
G1 X-66.91 Y-11.80
G1 X-65.60 Y-17.58
G1 X-63.79 Y-23.22 F300
G1 E188.6754 F1800
G1 X-61.50 Y-28.68 E189.2662 F601
G1 X-58.75 Y-33.92 E189.8568
G1 X-55.54 Y-38.89 E190.4472
G1 X-51.92 Y-43.57 E191.0373
G1 X-47.91 Y-47.91 E191.6272
G1 X-47.57 Y-48.24 E191.6745
G1 E189.6745 F2400
G1 X-43.17 Y-52.18 F300
G1 X-38.44 Y-55.72
G1 X-33.42 Y-58.83
G1 X-31.42 Y-59.92
G1 E191.6745 F1800
G1 X-26.07 Y-62.40 E192.0425 F60
G1 E189.6823 F2400
G1 Z0.500 F420
G1 X-66.00 Y0.00 F6000
G1 Z0.300 F420
G1 E192.1823 F1800
G1 X-65.72 Y-5.75 E192.5413 F60
G1 X-64.94 Y-11.45
G1 X-63.67 Y-17.06
G1 X-61.92 Y-22.54 F300
G1 E194.9413 F1800
G1 X-59.69 Y-27.83 E195.5147 F601
G1 X-57.01 Y-32.92 E196.0879
G1 X-53.90 Y-37.74 E196.6609
G1 X-50.39 Y-42.28 E197.2336
G1 X-46.49 Y-46.49 E197.8060
G1 X-45.53 Y-47.43 E197.9404
G1 E195.5404 F2400
G1 X-41.20 Y-51.20 F300
G1 X-36.57 Y-54.57
G1 X-31.66 Y-57.52
G1 X-29.17 Y-58.81
G1 E197.9404 F1800
G1 X-23.92 Y-61.10 E198.2975 F60
G1 E195.9123 F2400
G1 Z0.500 F420
G1 X-64.00 Y0.00 F6000
G1 Z0.300 F420
G1 E198.4123 F1800
G1 X-63.73 Y-5.58 E198.7604 F60
G1 X-62.97 Y-11.10
G1 X-61.74 Y-16.54
G1 X-60.04 Y-21.85 F300
G1 E201.5604 F1800
G1 X-57.88 Y-26.99 E202.1165 F601
G1 X-55.28 Y-31.92 E202.6722
G1 X-52.27 Y-36.60 E203.2278
G1 X-48.86 Y-41.00 E203.7831
G1 X-45.08 Y-45.08 E204.3381
G1 X-43.47 Y-46.61 E204.5596
G1 E201.7596 F2400
G1 X-39.23 Y-50.20 F300
G1 X-34.69 Y-53.41
G1 X-29.89 Y-56.20
G1 X-26.91 Y-57.67
G1 E204.5596 F1800
G1 X-21.77 Y-59.77 E204.9057 F60
G1 E202.4955 F2400
G1 Z0.500 F420
G1 X-62.00 Y0.00 F6000
G1 Z0.300 F420
G1 E204.9955 F1800
G1 X-61.74 Y-5.40 E205.3328 F60
G1 X-61.00 Y-10.76
G1 X-59.81 Y-16.03
G1 X-58.16 Y-21.17 F300
G1 E208.5328 F1800
G1 X-56.07 Y-26.14 E209.0714 F601
G1 X-53.55 Y-30.92 E209.6098
G1 X-50.63 Y-35.45 E210.1479
G1 X-47.32 Y-39.71 E210.6858
G1 X-43.66 Y-43.66 E211.2234
G1 X-41.41 Y-45.78 E211.5319
G1 E208.3319 F2400
G1 X-37.25 Y-49.20 F300
G1 X-32.80 Y-52.23
G1 X-28.11 Y-54.87
G1 X-24.63 Y-56.50
G1 E211.5319 F1800
G1 X-19.60 Y-58.40 E211.8672 F60
G1 E209.4312 F2400
G1 Z0.500 F420
G1 X-60.00 Y0.00 F6000
G1 Z0.300 F420
G1 E211.9312 F1800
G1 X-59.74 Y-5.23 E212.2575 F60
G1 X-59.03 Y-10.41
G1 X-57.88 Y-15.51
G1 X-56.28 Y-20.48 F300
G1 E215.8575 F1800
G1 X-54.25 Y-25.30 E216.3787 F601
G1 X-51.82 Y-29.92 E216.8997
G1 X-48.99 Y-34.30 E217.4204
G1 X-45.79 Y-38.42 E217.9409
G1 X-42.25 Y-42.25 E218.4611
G1 X-39.34 Y-44.94 E218.8567
G1 E215.2567 F2400
G1 X-35.26 Y-48.18 F300
G1 X-30.91 Y-51.04
G1 X-26.33 Y-53.52
G1 X-22.33 Y-55.28
G1 E218.8567 F1800
G1 X-17.42 Y-56.99 E219.1810 F60
G1 E216.7182 F2400
G1 Z0.500 F420
G1 X-58.00 Y0.00 F6000
G1 Z0.300 F420
G1 E219.2182 F1800
G1 X-57.75 Y-5.05 E219.5337 F60
G1 X-57.06 Y-10.06
G1 X-55.94 Y-14.99
G1 X-54.40 Y-19.80 F300
G1 E223.5337 F1800
G1 X-52.44 Y-24.45 E224.0375 F601
G1 X-50.09 Y-28.92 E224.5410
G1 X-47.35 Y-33.16 E225.0443
G1 X-44.26 Y-37.14 E225.5474
G1 X-40.84 Y-40.84 E226.0502
G1 X-37.26 Y-44.09 E226.5328
G1 E222.5328 F2400
G1 X-33.26 Y-47.15 F300
G1 X-29.01 Y-49.84
G1 X-24.54 Y-52.15
G1 X-20.01 Y-54.02
G1 E226.5328 F1800
G1 X-15.22 Y-55.54 E226.8462 F60
G1 E224.3556 F2400
G1 Z0.500 F420
;structure:shell-outer
G1 X0.50 Y-3.52 F6000
G1 Z0.300 F420
G1 E226.6164 F1800
G1 X0.50 Y-0.12 E226.8284 F600
G1 X1.73 Y-0.12 E226.9051
G1 X2.12 Y-0.22 E226.9302
G1 X2.43 Y-0.42 E226.9533
G1 X2.53 Y-0.55 E226.9635
G1 X2.66 Y-0.96 E226.9903
G1 X2.61 Y-1.20 E227.0056
G1 X2.50 Y-1.44 E227.0221
G1 X2.28 Y-1.64 E227.0406
G1 X1.51 Y-1.82 E227.0899
G1 E224.8485 F2400
G1 Z0.500 F420
G1 X0.50 Y-1.82 F6000
G1 Z0.300 F420
G1 E227.1092 F1800
G1 X1.51 Y-1.82 E227.1722 F600
G1 X2.02 Y-2.00 E227.2060
G1 X2.41 Y-2.62 E227.2516
G1 X2.66 Y-3.52 E227.3099
G1 E225.0753 F2400
G1 Z0.500 F420
G1 X3.72 Y-2.31 F6000
G1 Z0.300 F420
G1 E227.3453 F1800
G1 X5.86 Y-2.31 E227.4788 F600
G1 X5.78 Y-1.78 E227.5122
G1 X5.57 Y-1.39 E227.5399
G1 X5.23 Y-1.14 E227.5662
G1 X4.79 Y-1.05 E227.5942
G1 X4.36 Y-1.14 E227.6216
G1 X4.02 Y-1.39 E227.6479
G1 X3.80 Y-1.78 E227.6758
G1 X3.72 Y-2.31 E227.7093
G1 X3.80 Y-2.85 E227.7433
G1 X4.03 Y-3.25 E227.7721
G1 X4.38 Y-3.49 E227.7985
G1 X4.84 Y-3.58 E227.8278
G1 X5.18 Y-3.53 E227.8492
G1 X5.47 Y-3.39 E227.8693
G1 X5.68 Y-3.17 E227.8883
G1 X5.80 Y-2.87 E227.9084
G1 E225.6660 F2400
G1 Z0.500 F420
G1 X6.92 Y-1.74 F6000
G1 Z0.300 F420
G1 E227.9144 F1800
G1 X8.61 Y-1.74 E228.0198 F600
G1 E225.7966 F2400
G1 Z0.500 F420
G1 X8.61 Y-2.45 F6000
G1 Z0.300 F420
G1 E228.0449 F1800
G1 X6.92 Y-2.45 E228.1503 F600
G1 E225.9271 F2400
G1 Z0.500 F420
G1 X9.67 Y-0.56 F6000
G1 Z0.300 F420
G1 E228.1960 F1800
G1 X9.86 Y-0.35 E228.2136 F600
G1 X10.09 Y-0.19 E228.2311
G1 X10.35 Y-0.10 E228.2483
G1 X10.63 Y-0.06 E228.2659
G1 X11.00 Y-0.12 E228.2893
G1 X11.30 Y-0.32 E228.3118
G1 X11.49 Y-0.61 E228.3334
G1 X11.56 Y-0.98 E228.3569
G1 X11.46 Y-1.37 E228.3820
G1 X11.18 Y-1.73 E228.4104
G1 X10.40 Y-2.36 E228.4730
G1 X10.10 Y-2.77 E228.5046
G1 X9.71 Y-3.52 E228.5574
G1 X11.53 Y-3.52 E228.6709
G1 E226.4295 F2400
G1 Z0.500 F420
G1 X12.62 Y-3.29 F6000
G1 Z0.300 F420
G1 E228.5193 F1800
G1 X12.62 Y-3.35 E228.5231 F600
G1 E226.4506 F2400
G1 Z0.500 F420
G1 X14.91 Y-0.06 F6000
G1 Z0.300 F420
G1 E228.7207 F1800
G1 X15.42 Y-0.20 E228.7537 F600
G1 X15.81 Y-0.58 E228.7876
G1 X16.05 Y-1.14 E228.8256
G1 X16.13 Y-1.82 E228.8683
G1 X16.05 Y-2.49 E228.9104
G1 X15.81 Y-3.05 E228.9484
G1 X15.42 Y-3.44 E228.9828
G1 X14.91 Y-3.58 E229.0158
G1 X14.39 Y-3.44 E229.0494
G1 X14.01 Y-3.05 E229.0833
G1 X13.77 Y-2.49 E229.1213
G1 X13.69 Y-1.82 E229.1634
G1 X13.77 Y-1.15 E229.2055
G1 X14.01 Y-0.58 E229.2441
G1 X14.39 Y-0.20 E229.2776
G1 X14.91 Y-0.06 E229.3112
G1 E227.0686 F2400
G1 Z0.500 F420
G1 X17.19 Y-2.10 F6000
G1 Z0.300 F420
G1 E229.3193 F1800
G1 X19.06 Y-2.10 E229.4360 F600
G1 E227.2105 F2400
G1 Z0.500 F420
G1 X21.83 Y-3.52 F6000
G1 Z0.300 F420
G1 E229.4774 F1800
G1 X21.83 Y-0.12 E229.6895 F600
G1 X20.12 Y-2.35 E229.8647
G1 X22.43 Y-2.35 E230.0088
G1 E227.7690 F2400
G1 Z0.500 F420
G1 X23.50 Y-3.29 F6000
G1 Z0.300 F420
G1 E229.8588 F1800
G1 X23.50 Y-3.35 E229.8625 F600
G1 E227.7901 F2400
G1 Z0.500 F420
G1 X25.78 Y-0.06 F6000
G1 Z0.300 F420
G1 E230.0602 F1800
G1 X26.29 Y-0.20 E230.0932 F600
G1 X26.68 Y-0.58 E230.1271
G1 X26.92 Y-1.14 E230.1651
G1 X27.00 Y-1.82 E230.2078
G1 X26.92 Y-2.49 E230.2499
G1 X26.68 Y-3.05 E230.2879
G1 X26.29 Y-3.44 E230.3223
G1 X25.78 Y-3.58 E230.3553
G1 X25.26 Y-3.44 E230.3889
G1 X24.88 Y-3.05 E230.4228
G1 X24.64 Y-2.49 E230.4608
G1 X24.56 Y-1.82 E230.5029
G1 X24.64 Y-1.15 E230.5450
G1 X24.88 Y-0.58 E230.5836
G1 X25.26 Y-0.20 E230.6171
G1 X25.78 Y-0.06 E230.6507
G1 E228.4080 F2400
G1 Z0.500 F420
G1 X0.50 Y-6.11 F6000
G1 Z0.300 F420
G1 E230.6743 F1800
G1 X1.36 Y-8.52 E230.8339 F600
G1 X2.10 Y-6.11 E230.9911
G1 X2.87 Y-8.52 E231.1489
G1 X3.71 Y-6.11 E231.3081
G1 E229.0691 F2400
G1 Z0.500 F420
G1 X4.77 Y-6.74 F6000
G1 Z0.300 F420
G1 E231.3176 F1800
G1 X6.46 Y-6.74 E231.4230 F600
G1 E229.1996 F2400
G1 Z0.500 F420
G1 X6.46 Y-7.45 F6000
G1 Z0.300 F420
G1 E231.4481 F1800
G1 X4.77 Y-7.45 E231.5535 F600
G1 E229.3302 F2400
G1 Z0.500 F420
G1 X7.52 Y-6.00 F6000
G1 Z0.300 F420
G1 E231.5930 F1800
G1 X7.99 Y-5.76 E231.6260 F600
G1 X8.36 Y-5.45 E231.6561
G1 X8.61 Y-5.12 E231.6819
G1 X8.61 Y-8.52 E231.8939
G1 E229.6575 F2400
G1 Z0.500 F420
G1 X9.67 Y-8.29 F6000
G1 Z0.300 F420
G1 E231.7473 F1800
G1 X9.67 Y-8.35 E231.7510 F600
G1 E229.6786 F2400
G1 Z0.500 F420
G1 X12.77 Y-5.83 F6000
G1 Z0.300 F420
G1 E231.9510 F1800
G1 X12.46 Y-5.26 E231.9915 F600
G1 X11.87 Y-5.06 E232.0303
G1 X11.36 Y-5.18 E232.0630
G1 X11.01 Y-5.53 E232.0939
G1 X10.80 Y-6.13 E232.1335
G1 X10.73 Y-6.95 E232.1848
G1 X10.80 Y-7.64 E232.2281
G1 X11.02 Y-8.16 E232.2633
G1 X11.36 Y-8.47 E232.2920
G1 X11.83 Y-8.58 E232.3221
G1 X12.28 Y-8.49 E232.3507
G1 X12.60 Y-8.24 E232.3761
G1 X12.78 Y-7.87 E232.4017
G1 X12.85 Y-7.44 E232.4289
G1 X12.78 Y-7.04 E232.4542
G1 X12.59 Y-6.69 E232.4791
G1 X12.28 Y-6.46 E232.5031
G1 X11.88 Y-6.38 E232.5286
G1 X11.42 Y-6.47 E232.5578
G1 X11.00 Y-6.72 E232.5883
G1 X10.73 Y-6.95 E232.6104
G1 E230.3667 F2400
G1 Z0.500 F420
;structure:shell-inner
G1 X-56.00 Y0.00 F6000
G1 Z0.300 F420
G1 E232.8669 F1800
G1 X-55.76 Y-4.88 E233.1714 F60
G1 X-55.09 Y-9.71
G1 X-54.01 Y-14.47
G1 X-52.52 Y-19.12 F300
G1 E235.1714 F1800
G1 X-50.63 Y-23.61 E236.1442 F301
G1 X-48.35 Y-27.92 E237.1165
G1 X-45.71 Y-32.01 E238.0883
G1 X-45.47 Y-32.34 E238.1706
G1 E236.1706 F2400
G1 X-42.46 Y-36.17 F300
G1 X-39.13 Y-39.71
G1 X-35.50 Y-42.95
G1 X-31.61 Y-45.86
G1 X-31.16 Y-46.16
G1 E238.1706 F1800
G1 X-27.00 Y-48.67 E238.4735 F60
G1 E235.6982 F2400
G1 Z0.500 F420
G1 X-54.00 Y0.00 F6000
G1 Z0.300 F420
G1 E238.1982 F1800
G1 X-53.77 Y-4.70 E238.4919 F60
G1 X-53.12 Y-9.37
G1 X-52.08 Y-13.95
G1 X-50.64 Y-18.43 F300
G1 E240.8919 F1800
G1 X-48.81 Y-22.76 E241.8299 F301
G1 X-46.62 Y-26.92 E242.7673
G1 X-44.07 Y-30.86 E243.7043
G1 X-43.53 Y-31.62 E243.8911
G1 E241.4911 F2400
G1 X-40.58 Y-35.28 F300
G1 X-37.34 Y-38.66
G1 X-33.81 Y-41.74
G1 X-30.03 Y-44.51
G1 X-28.99 Y-45.18
G1 E243.8911 F1800
G1 X-24.92 Y-47.51 E244.1831 F60
G1 E241.3441 F2400
G1 Z0.500 F420
G1 X-52.00 Y0.00 F6000
G1 Z0.300 F420
G1 E243.8441 F1800
G1 X-51.77 Y-4.53 E244.1269 F60
G1 X-51.16 Y-9.02
G1 X-50.15 Y-13.44
G1 X-48.76 Y-17.75 F300
G1 E246.9269 F1800
G1 X-47.00 Y-21.92 E247.8301 F301
G1 X-44.89 Y-25.92 E248.7327
G1 X-42.44 Y-29.71 E249.6349
G1 X-41.58 Y-30.89 E249.9261
G1 E247.1261 F2400
G1 X-38.70 Y-34.38 F300
G1 X-35.54 Y-37.60
G1 X-32.11 Y-40.54
G1 X-28.44 Y-43.16
G1 X-26.80 Y-44.18
G1 E249.9261 F1800
G1 X-22.83 Y-46.33 E250.2072 F60
G1 E247.3031 F2400
G1 Z0.500 F420
G1 X-50.00 Y0.00 F6000
G1 Z0.300 F420
G1 E249.8032 F1800
G1 X-49.78 Y-4.36 E250.0751 F60
G1 X-49.19 Y-8.67
G1 X-48.22 Y-12.92
G1 X-46.88 Y-17.06 F300
G1 E253.2751 F1800
G1 X-45.19 Y-21.07 E254.1434 F301
G1 X-43.16 Y-24.92 E255.0113
G1 X-40.80 Y-28.57 E255.8786
G1 X-39.62 Y-30.16 E256.2743
G1 E253.0743 F2400
G1 X-36.82 Y-33.48 F300
G1 X-33.74 Y-36.54
G1 X-30.41 Y-39.32
G1 X-26.85 Y-41.80
G1 X-24.59 Y-43.15
G1 E256.2743 F1800
G1 X-20.72 Y-45.10 E256.5445 F60
G1 E253.5735 F2400
G1 Z0.500 F420
G1 X-48.00 Y0.00 F6000
G1 Z0.300 F420
G1 E256.0736 F1800
G1 X-47.79 Y-4.18 E256.3346 F60
G1 X-47.22 Y-8.33
G1 X-46.28 Y-12.40
G1 X-45.00 Y-16.38 F300
G1 E259.9346 F1800
G1 X-43.38 Y-20.23 E260.7681 F301
G1 X-41.42 Y-23.92 E261.6011
G1 X-39.16 Y-27.42 E262.4337
G1 X-37.66 Y-29.42 E262.9339
G1 E259.3339 F2400
G1 X-34.93 Y-32.58 F300
G1 X-31.94 Y-35.48
G1 X-28.71 Y-38.10
G1 X-25.26 Y-40.44
G1 X-22.36 Y-42.08
G1 E262.9339 F1800
G1 X-18.60 Y-43.85 E263.1931 F60
G1 E260.1533 F2400
G1 Z0.500 F420
G1 X-46.00 Y0.00 F6000
G1 Z0.300 F420
G1 E262.6534 F1800
G1 X-45.80 Y-4.01 E262.9036 F60
G1 X-45.25 Y-7.98
G1 X-44.35 Y-11.88
G1 X-43.12 Y-15.69 F300
G1 E266.9036 F1800
G1 X-41.56 Y-19.38 E267.7022 F301
G1 X-39.69 Y-22.92 E268.5004
G1 X-37.52 Y-26.27 E269.2982
G1 X-35.69 Y-28.68 E269.9028
G1 E265.9028 F2400
G1 X-33.03 Y-31.67 F300
G1 X-30.13 Y-34.40
G1 X-27.00 Y-36.87
G1 X-23.67 Y-39.06
G1 X-20.16 Y-40.95
G1 X-20.11 Y-40.98
G1 E269.9028 F1800
G1 X-16.45 Y-42.55 E270.1510 F60
G1 E267.0406 F2400
G1 Z0.500 F420
;structure:shell-outer
G1 X0.00 Y-70.00 F6000
G1 Z0.300 F420
G1 E269.3113 F1800
G1 X0.00 Y-42.00 E271.0575 F600
G1 E268.8134 F2400
G1 Z0.500 F420
G1 E268.8143 F2400
;end gcode
M107
M104 S0 T0
M140 S0 T0
G162 Z F1800
G28 X Y
M132 X Y A B
M652
G91
M18
