;gcode_flavor: flashforge
;machine_type: Adventurer 3 Series
;filament_diameter0: 1.75
;right_extruder_temperature: 210
;platform_temperature: 50
;extruder_fan: 100%
;case_fan: 100%
;base_print_speed: 60
;travel_speed: 100
;vertical_speed: 7
;retract_speed: 40
;restore_speed: 30
;layer_height: 0.30
;line_width: 0.50
;extrusion_ratio: 1.00
;command_line: ./gcodetest.py -Te=210 -Tp=50 -Fe=1.0 -Fc=1.0 -Kf=1.6 -Kb=3.2 -Re=1.7 -R -v
;start gcode
M118 X75.00 Y75.00 Z150.00 T0
M140 S50 T0
M104 S210 T0
M104 S0 T1
M107
M900 K0.000 T0
G90
G28
M132 X Y Z A B
G1 Z50.000 F420
G161 X Y F3300
M7 T0
M6 T0
M652 S255
M108 T0
M106
;preExtrude:0.20
;00:00:00.000: layer=0 h=0.20 w=0.50 r=1.00
G1 X69.29 Y28.70 F6000                  ; move dl=75.0@100(0<100>0) de=0.000@0.0(0.0<0.0>0.0) l=0.00x0.50x0.00 r=0.00
;00:00:00.950: pe=0.0000 eb=0.0000 ve=0.0000 vn=0.0000 vl=0.000 db=0.00
G1 Z0.200 F420                          ; hopup dz=0.20@7 h=0.2 r=0.00
;00:00:00.979: pe=0.0000 eb=0.0000 ve=0.0000 vn=0.0000 vl=0.000 db=0.00
G1 E4.8398 F1800                        ; restore de=4.8398@30.0 r=2.24
;00:00:01.140: pe=4.7576 eb=0.0823 ve=30.0000 vn=1.3735 vl=0.000 db=1.12
;00:00:01.140: spiral RC0=(75.0,0.062) dRC=(0.0,0.125) dl=58.9@10 de=7.837@1.3 l=0.20x0.40x4.00
G1 X66.53 Y34.63 E5.7103 F600           ; draw dl=6.5@10(0<10>10) de=0.870@1.31(0.0<1.33>1.33) l=0.20x0.40x4.00 r=4.15
;00:00:01.804: pe=4.7253 eb=0.1684 ve=1.3304 vn=1.3533 vl=10.000 db=1.61
G1 X63.25 Y40.30 E6.5808                ; draw dl=6.5@10(10<10>10) de=0.870@1.33(1.33<1.33>1.33) l=0.20x0.40x4.00 r=4.06
;00:00:02.458: pe=4.7130 eb=0.1713 ve=1.3304 vn=1.3456 vl=10.000 db=1.62
G1 X59.50 Y45.66 E7.4512                ; draw dl=6.5@10(10<10>10) de=0.870@1.33(1.33<1.33>1.33) l=0.20x0.40x4.00 r=4.04
;00:00:03.113: pe=4.7048 eb=0.1702 ve=1.3304 vn=1.3405 vl=10.000 db=1.61
G1 X55.30 Y50.67 E8.3217                ; draw dl=6.5@10(10<10>10) de=0.870@1.33(1.33<1.33>1.33) l=0.20x0.40x4.00 r=4.02
;00:00:03.767: pe=4.6994 eb=0.1692 ve=1.3304 vn=1.3371 vl=10.000 db=1.61
G1 X50.67 Y55.30 E9.1922                ; draw dl=6.5@10(10<10>10) de=0.870@1.33(1.33<1.33>1.33) l=0.20x0.40x4.00 r=4.02
;00:00:04.421: pe=4.6958 eb=0.1685 ve=1.3304 vn=1.3349 vl=10.000 db=1.61
G1 X45.66 Y59.50 E10.0626               ; draw dl=6.5@10(10<10>10) de=0.870@1.33(1.33<1.33>1.33) l=0.20x0.40x4.00 r=4.01
;00:00:05.076: pe=4.6934 eb=0.1681 ve=1.3304 vn=1.3334 vl=10.000 db=1.60
G1 X40.30 Y63.25 E10.9331               ; draw dl=6.5@10(10<10>10) de=0.870@1.33(1.33<1.33>1.33) l=0.20x0.40x4.00 r=4.01
;00:00:05.730: pe=4.6918 eb=0.1678 ve=1.3304 vn=1.3324 vl=10.000 db=1.60
G1 X34.63 Y66.53 E11.8036               ; draw dl=6.5@10(10<10>10) de=0.870@1.33(1.33<1.33>1.33) l=0.20x0.40x4.00 r=4.00
;00:00:06.384: pe=4.6907 eb=0.1676 ve=1.3304 vn=1.3317 vl=10.000 db=1.60
G1 X28.70 Y69.29 E12.6741               ; draw dl=6.5@10(10<10>0) de=0.870@1.31(1.33<1.33>0.0) l=0.20x0.40x4.00 r=4.06
;00:00:07.048: pe=4.6769 eb=0.1805 ve=0.0042 vn=1.3230 vl=0.032 db=1.66
G1 X28.70 Y69.29                        ; move dl=0.0@10(0<0>0) de=0.000@0.0(0.0<0.0>0.0) l=0.20x0.40x0.00 r=2515.73
;00:00:07.049: pe=4.6768 eb=0.1806 ve=0.0000 vn=1.3230 vl=0.000 db=1.66
G1 E6.2973 F2400                        ; retract de=-6.3768@-40.0 r=4.53
;00:00:07.208: pe=-1.7336 eb=0.2142 ve=-40.0000 vn=0.0000 vl=0.000 db=1.81
G1 Z0.400 F420                          ; hopup dz=0.20@7 h=0.4 r=3.20
;00:00:07.237: pe=-1.7336 eb=0.2142 ve=0.0000 vn=0.0000 vl=0.000 db=1.28
;layer:0.30
;00:00:07.237: layer=1 h=0.30 w=0.50 r=1.00
;structure:shell-outer
;00:00:07.237: text [(-70, 70), (None, None)] fsize=5 angle=0 've=1.0\nh=0.3\ndynret=0'
G1 X-69.50 Y68.89 F6000                 ; move dl=98.2@100(0<100>0) de=0.000@0.0(0.0<0.0>0.0) l=0.40x0.50x0.00 r=0.00
;00:00:08.419: pe=-1.7336 eb=0.0000 ve=0.0000 vn=0.0000 vl=0.000 db=0.00
G1 Z0.300 F420                          ; hopdn dz=-0.10@7 h=0.3 r=0.00
;00:00:08.433: pe=-1.7336 eb=0.0000 ve=0.0000 vn=0.0000 vl=0.000 db=0.00
G1 E10.6098 F1800                       ; restore de=4.3125@30.0 r=1.02
;00:00:08.577: pe=2.5533 eb=0.0256 ve=30.0000 vn=0.5726 vl=0.000 db=0.51
G1 X-68.48 Y66.48 E10.7730 F600         ; draw dl=2.6@10(0<10>6) de=0.163@0.6(0.0<0.62>0.35) l=0.30x0.50x1.00 r=0.99
;00:00:08.850: pe=2.5542 eb=0.0248 ve=0.3524 vn=0.5907 vl=5.651 db=0.50
G1 X-67.46 Y68.89 E10.9362              ; draw dl=2.6@10(6<10>0) de=0.163@0.6(0.35<0.62>0.0) l=0.30x0.50x1.00 r=1.02
;00:00:09.124: pe=2.5516 eb=0.0290 ve=0.0000 vn=0.5057 vl=0.000 db=0.54
G1 E6.6846 F2400                        ; retract de=-4.2516@-40.0 r=1.16
;00:00:09.230: pe=-1.7039 eb=0.0330 ve=-40.0000 vn=0.0000 vl=0.000 db=0.58
G1 Z0.500 F420                          ; hopup dz=0.20@7 h=0.5 r=0.90
;00:00:09.259: pe=-1.7039 eb=0.0330 ve=0.0000 vn=0.0000 vl=0.000 db=0.45
G1 X-66.40 Y67.69 F6000                 ; move dl=1.6@100(0<20>0) de=0.000@0.0(0.0<0.0>0.0) l=0.50x0.50x0.00 r=0.00
;00:00:09.379: pe=-1.7039 eb=0.0000 ve=0.0000 vn=0.0000 vl=0.000 db=0.00
G1 Z0.300 F420                          ; hopdn dz=-0.20@7 h=0.3 r=0.00
;00:00:09.407: pe=-1.7039 eb=0.0000 ve=0.0000 vn=0.0000 vl=0.000 db=0.00
G1 E10.9919 F1800                       ; restore de=4.3073@30.0 r=1.03
;00:00:09.551: pe=2.5772 eb=0.0261 ve=30.0000 vn=0.5780 vl=0.000 db=0.52
G1 X-64.26 Y67.69 E11.1253 F600         ; draw dl=2.1@10(0<10>10) de=0.133@0.6(0.0<0.62>0.6) l=0.30x0.50x1.00 r=1.00
;00:00:09.775: pe=2.5775 eb=0.0241 ve=0.6039 vn=0.6186 vl=9.683 db=0.50
G1 X-64.34 Y68.22 E11.1588              ; draw dl=0.5@10(10<10>10) de=0.033@0.62(0.6<0.62>0.62) l=0.30x0.50x1.00 r=0.99
;00:00:09.828: pe=2.5778 eb=0.0241 ve=0.6236 vn=0.6188 vl=10.000 db=0.50
G1 X-64.55 Y68.61 E11.1864              ; draw dl=0.4@10(10<10>10) de=0.028@0.62(0.62<0.62>0.62) l=0.30x0.50x1.00 r=0.99
;00:00:09.873: pe=2.5780 eb=0.0241 ve=0.6236 vn=0.6189 vl=10.000 db=0.50
G1 X-64.89 Y68.86 E11.2127              ; draw dl=0.4@10(10<10>10) de=0.026@0.62(0.62<0.62>0.62) l=0.30x0.50x1.00 r=0.99
;00:00:09.915: pe=2.5782 eb=0.0241 ve=0.6236 vn=0.6190 vl=10.000 db=0.50
G1 X-65.33 Y68.95 E11.2407              ; draw dl=0.4@10(10<10>10) de=0.028@0.62(0.62<0.62>0.62) l=0.30x0.50x1.00 r=0.99
;00:00:09.960: pe=2.5784 eb=0.0241 ve=0.6237 vn=0.6190 vl=10.000 db=0.50
G1 X-65.76 Y68.86 E11.2681              ; draw dl=0.4@10(10<10>10) de=0.027@0.62(0.62<0.62>0.62) l=0.30x0.50x1.00 r=0.99
;00:00:10.004: pe=2.5786 eb=0.0241 ve=0.6236 vn=0.6191 vl=10.000 db=0.50
G1 X-66.10 Y68.61 E11.2944              ; draw dl=0.4@10(10<10>10) de=0.026@0.62(0.62<0.62>0.62) l=0.30x0.50x1.00 r=0.99
;00:00:10.046: pe=2.5788 eb=0.0241 ve=0.6236 vn=0.6191 vl=10.000 db=0.50
G1 X-66.32 Y68.22 E11.3224              ; draw dl=0.4@10(10<10>10) de=0.028@0.62(0.62<0.62>0.62) l=0.30x0.50x1.00 r=0.99
;00:00:10.091: pe=2.5790 eb=0.0241 ve=0.6236 vn=0.6192 vl=10.000 db=0.50
G1 X-66.40 Y67.69 E11.3558              ; draw dl=0.5@10(10<10>10) de=0.033@0.62(0.62<0.62>0.62) l=0.30x0.50x1.00 r=0.99
;00:00:10.144: pe=2.5792 eb=0.0241 ve=0.6237 vn=0.6192 vl=10.000 db=0.50
G1 X-66.32 Y67.15 E11.3898              ; draw dl=0.5@10(10<10>10) de=0.034@0.62(0.62<0.62>0.62) l=0.30x0.50x1.00 r=0.99
;00:00:10.199: pe=2.5795 eb=0.0241 ve=0.6237 vn=0.6193 vl=10.000 db=0.50
G1 X-66.09 Y66.75 E11.4186              ; draw dl=0.5@10(10<10>10) de=0.029@0.62(0.62<0.62>0.62) l=0.30x0.50x1.00 r=0.99
;00:00:10.245: pe=2.5797 eb=0.0241 ve=0.6237 vn=0.6193 vl=10.000 db=0.50
G1 X-65.74 Y66.51 E11.4451              ; draw dl=0.4@10(10<10>10) de=0.026@0.62(0.62<0.62>0.62) l=0.30x0.50x1.00 r=0.99
;00:00:10.287: pe=2.5798 eb=0.0242 ve=0.6237 vn=0.6194 vl=10.000 db=0.50
G1 X-65.28 Y66.42 E11.4743              ; draw dl=0.5@10(10<10>10) de=0.029@0.62(0.62<0.62>0.62) l=0.30x0.50x1.00 r=0.99
;00:00:10.334: pe=2.5800 eb=0.0242 ve=0.6237 vn=0.6194 vl=10.000 db=0.50
G1 X-64.94 Y66.47 E11.4957              ; draw dl=0.3@10(10<10>10) de=0.021@0.62(0.62<0.62>0.62) l=0.30x0.50x1.00 r=0.99
;00:00:10.369: pe=2.5802 eb=0.0242 ve=0.6236 vn=0.6194 vl=10.000 db=0.50
G1 X-64.65 Y66.61 E11.5158              ; draw dl=0.3@10(10<10>10) de=0.020@0.62(0.62<0.62>0.62) l=0.30x0.50x1.00 r=0.99
;00:00:10.401: pe=2.5803 eb=0.0242 ve=0.6236 vn=0.6195 vl=10.000 db=0.50
G1 X-64.44 Y66.83 E11.5348              ; draw dl=0.3@10(10<10>10) de=0.019@0.62(0.62<0.62>0.62) l=0.30x0.50x1.00 r=0.99
;00:00:10.431: pe=2.5804 eb=0.0242 ve=0.6236 vn=0.6195 vl=10.000 db=0.50
G1 X-64.32 Y67.13 E11.5549              ; draw dl=0.3@10(10<10>0) de=0.020@0.48(0.62<0.62>0.0) l=0.30x0.50x1.00 r=1.27
;00:00:10.474: pe=2.5751 eb=0.0295 ve=0.0000 vn=0.5111 vl=0.000 db=0.55
G1 E7.2798 F2400                        ; retract de=-4.2751@-40.0 r=1.17
;00:00:10.581: pe=-1.7040 eb=0.0336 ve=-40.0000 vn=0.0000 vl=0.000 db=0.59
G1 Z0.500 F420                          ; hopup dz=0.20@7 h=0.5 r=0.91
;00:00:10.609: pe=-1.7040 eb=0.0336 ve=0.0000 vn=0.0000 vl=0.000 db=0.45
G1 X-63.20 Y68.26 F6000                 ; move dl=1.6@100(0<20>0) de=0.000@0.0(0.0<0.0>0.0) l=0.50x0.50x0.00 r=0.00
;00:00:10.729: pe=-1.7040 eb=0.0000 ve=0.0000 vn=0.0000 vl=0.000 db=0.00
G1 Z0.300 F420                          ; hopdn dz=-0.20@7 h=0.3 r=0.00
;00:00:10.757: pe=-1.7040 eb=0.0000 ve=0.0000 vn=0.0000 vl=0.000 db=0.00
G1 E11.5006 F1800                       ; restore de=4.2207@30.0 r=1.00
;00:00:10.898: pe=2.4923 eb=0.0244 ve=30.0000 vn=0.5588 vl=0.000 db=0.50
G1 X-61.51 Y68.26 E11.6060 F600         ; draw dl=1.7@10(0<10>0) de=0.105@0.56(0.0<0.62>0.0) l=0.30x0.50x1.00 r=1.02
;00:00:11.087: pe=2.4904 eb=0.0278 ve=0.0000 vn=0.4913 vl=0.000 db=0.53
G1 E7.4156 F2400                        ; retract de=-4.1904@-40.0 r=1.13
;00:00:11.192: pe=-1.7037 eb=0.0315 ve=-40.0000 vn=0.0000 vl=0.000 db=0.57
G1 Z0.500 F420                          ; hopup dz=0.20@7 h=0.5 r=0.88
;00:00:11.220: pe=-1.7037 eb=0.0315 ve=0.0000 vn=0.0000 vl=0.000 db=0.44
G1 X-61.51 Y67.55 F6000                 ; move dl=0.7@100(0<13>0) de=0.000@0.0(0.0<0.0>0.0) l=0.50x0.50x0.00 r=0.00
;00:00:11.300: pe=-1.7037 eb=0.0000 ve=0.0000 vn=0.0000 vl=0.000 db=0.00
G1 Z0.300 F420                          ; hopdn dz=-0.20@7 h=0.3 r=0.00
;00:00:11.329: pe=-1.7037 eb=0.0000 ve=0.0000 vn=0.0000 vl=0.000 db=0.00
G1 E11.6360 F1800                       ; restore de=4.2204@30.0 r=1.00
;00:00:11.470: pe=2.4923 eb=0.0244 ve=30.0000 vn=0.5588 vl=0.000 db=0.50
G1 X-63.20 Y67.55 E11.7414 F600         ; draw dl=1.7@10(0<10>0) de=0.105@0.56(0.0<0.62>0.0) l=0.30x0.50x1.00 r=1.02
;00:00:11.659: pe=2.4904 eb=0.0278 ve=0.0000 vn=0.4913 vl=0.000 db=0.53
G1 E7.5510 F2400                        ; retract de=-4.1904@-40.0 r=1.13
;00:00:11.763: pe=-1.7037 eb=0.0315 ve=-40.0000 vn=0.0000 vl=0.000 db=0.57
G1 Z0.500 F420                          ; hopup dz=0.20@7 h=0.5 r=0.88
;00:00:11.792: pe=-1.7037 eb=0.0315 ve=0.0000 vn=0.0000 vl=0.000 db=0.44
G1 X-60.45 Y69.00 F6000                 ; move dl=3.1@100(0<28>0) de=0.000@0.0(0.0<0.0>0.0) l=0.50x0.50x0.00 r=0.00
;00:00:11.959: pe=-1.7037 eb=0.0000 ve=0.0000 vn=0.0000 vl=0.000 db=0.00
G1 Z0.300 F420                          ; hopdn dz=-0.20@7 h=0.3 r=0.00
;00:00:11.988: pe=-1.7037 eb=0.0000 ve=0.0000 vn=0.0000 vl=0.000 db=0.00
G1 E11.8292 F1800                       ; restore de=4.2782@30.0 r=1.02
;00:00:12.130: pe=2.5490 eb=0.0256 ve=30.0000 vn=0.5716 vl=0.000 db=0.51
G1 X-59.98 Y69.24 E11.8622 F600         ; draw dl=0.5@10(0<10>10) de=0.033@0.52(0.0<0.62>0.62) l=0.30x0.50x1.00 r=1.03
;00:00:12.193: pe=2.5480 eb=0.0249 ve=0.6236 vn=0.5850 vl=10.000 db=0.50
G1 X-59.61 Y69.55 E11.8923              ; draw dl=0.5@10(10<10>10) de=0.030@0.62(0.62<0.62>0.62) l=0.30x0.50x1.00 r=0.96
;00:00:12.241: pe=2.5492 eb=0.0238 ve=0.6236 vn=0.6070 vl=10.000 db=0.49
G1 X-59.36 Y69.88 E11.9181              ; draw dl=0.4@10(10<10>5) de=0.026@0.59(0.62<0.62>0.3) l=0.30x0.50x1.00 r=1.04
;00:00:12.285: pe=2.5483 eb=0.0251 ve=0.3015 vn=0.5794 vl=4.834 db=0.51
G1 X-59.36 Y66.48 E12.1301              ; draw dl=3.4@10(5<10>0) de=0.212@0.6(0.3<0.62>0.0) l=0.30x0.50x1.00 r=1.01
;00:00:12.638: pe=2.5471 eb=0.0290 ve=0.0000 vn=0.5046 vl=0.000 db=0.54
G1 E7.8830 F2400                        ; retract de=-4.2471@-40.0 r=1.16
;00:00:12.744: pe=-1.7039 eb=0.0329 ve=-40.0000 vn=0.0000 vl=0.000 db=0.58
G1 Z0.500 F420                          ; hopup dz=0.20@7 h=0.5 r=0.90
;00:00:12.773: pe=-1.7039 eb=0.0329 ve=0.0000 vn=0.0000 vl=0.000 db=0.45
G1 X-58.30 Y66.71 F6000                 ; move dl=1.1@100(0<16>0) de=0.000@0.0(0.0<0.0>0.0) l=0.50x0.50x0.00 r=0.00
;00:00:12.872: pe=-1.7039 eb=0.0000 ve=0.0000 vn=0.0000 vl=0.000 db=0.00
G1 Z0.300 F420                          ; hopdn dz=-0.20@7 h=0.3 r=0.00
;00:00:12.900: pe=-1.7039 eb=0.0000 ve=0.0000 vn=0.0000 vl=0.000 db=0.00
G1 E11.4692 F1800                       ; restore de=3.5862@30.0 r=0.75
;00:00:13.020: pe=1.8684 eb=0.0138 ve=30.0000 vn=0.4173 vl=0.000 db=0.38
G1 X-58.30 Y66.65 E11.4730 F600         ; draw dl=0.1@10(0<4>0) de=0.004@0.16(0.0<0.24>0.0) l=0.30x0.50x1.00 r=2.16
;00:00:13.043: pe=1.8641 eb=0.0188 ve=0.0000 vn=0.2887 vl=0.000 db=0.44
G1 E7.9088 F2400                        ; retract de=-3.5641@-40.0 r=0.91
;00:00:13.132: pe=-1.7013 eb=0.0201 ve=-40.0000 vn=0.0000 vl=0.000 db=0.45
G1 Z0.500 F420                          ; hopup dz=0.20@7 h=0.5 r=0.70
;00:00:13.161: pe=-1.7013 eb=0.0201 ve=0.0000 vn=0.0000 vl=0.000 db=0.35
G1 X-56.01 Y69.94 F6000                 ; move dl=4.0@100(0<32>0) de=0.000@0.0(0.0<0.0>0.0) l=0.50x0.50x0.00 r=0.00
;00:00:13.351: pe=-1.7013 eb=0.0000 ve=0.0000 vn=0.0000 vl=0.000 db=0.00
G1 Z0.300 F420                          ; hopdn dz=-0.20@7 h=0.3 r=0.00
;00:00:13.379: pe=-1.7013 eb=0.0000 ve=0.0000 vn=0.0000 vl=0.000 db=0.00
G1 E12.2149 F1800                       ; restore de=4.3060@30.0 r=1.03
;00:00:13.523: pe=2.5786 eb=0.0261 ve=30.0000 vn=0.5783 vl=0.000 db=0.52
G1 X-55.50 Y69.80 E12.2479 F600         ; draw dl=0.5@10(0<10>10) de=0.033@0.52(0.0<0.62>0.62) l=0.30x0.50x1.00 r=1.04
;00:00:13.586: pe=2.5772 eb=0.0254 ve=0.6237 vn=0.5914 vl=10.000 db=0.51
G1 X-55.11 Y69.42 E12.2818              ; draw dl=0.5@10(10<10>10) de=0.034@0.62(0.62<0.62>0.62) l=0.30x0.50x1.00 r=0.97
;00:00:13.640: pe=2.5782 eb=0.0243 ve=0.6237 vn=0.6147 vl=10.000 db=0.50
G1 X-54.88 Y68.86 E12.3196              ; draw dl=0.6@10(10<10>10) de=0.038@0.62(0.62<0.62>0.62) l=0.30x0.50x1.00 r=0.99
;00:00:13.701: pe=2.5786 eb=0.0242 ve=0.6237 vn=0.6185 vl=10.000 db=0.50
G1 X-54.79 Y68.18 E12.3624              ; draw dl=0.7@10(10<10>10) de=0.043@0.62(0.62<0.62>0.62) l=0.30x0.50x1.00 r=0.99
;00:00:13.769: pe=2.5789 eb=0.0241 ve=0.6237 vn=0.6191 vl=10.000 db=0.50
G1 X-54.88 Y67.51 E12.4045              ; draw dl=0.7@10(10<10>10) de=0.042@0.62(0.62<0.62>0.62) l=0.30x0.50x1.00 r=0.99
;00:00:13.837: pe=2.5792 eb=0.0241 ve=0.6237 vn=0.6192 vl=10.000 db=0.50
G1 X-55.11 Y66.95 E12.4423              ; draw dl=0.6@10(10<10>10) de=0.038@0.62(0.62<0.62>0.62) l=0.30x0.50x1.00 r=0.99
;00:00:13.897: pe=2.5795 eb=0.0241 ve=0.6237 vn=0.6193 vl=10.000 db=0.50
G1 X-55.50 Y66.56 E12.4767              ; draw dl=0.6@10(10<10>10) de=0.034@0.62(0.62<0.62>0.62) l=0.30x0.50x1.00 r=0.99
;00:00:13.953: pe=2.5797 eb=0.0241 ve=0.6237 vn=0.6193 vl=10.000 db=0.50
G1 X-56.01 Y66.42 E12.5097              ; draw dl=0.5@10(10<10>10) de=0.033@0.62(0.62<0.62>0.62) l=0.30x0.50x1.00 r=0.99
;00:00:14.005: pe=2.5800 eb=0.0242 ve=0.6237 vn=0.6194 vl=10.000 db=0.50
G1 X-56.54 Y66.56 E12.5439              ; draw dl=0.5@10(10<10>10) de=0.034@0.62(0.62<0.62>0.62) l=0.30x0.50x1.00 r=0.99
;00:00:14.060: pe=2.5802 eb=0.0242 ve=0.6237 vn=0.6194 vl=10.000 db=0.50
G1 X-56.91 Y66.95 E12.5774              ; draw dl=0.5@10(10<10>10) de=0.034@0.62(0.62<0.62>0.62) l=0.30x0.50x1.00 r=0.99
;00:00:14.114: pe=2.5804 eb=0.0242 ve=0.6237 vn=0.6195 vl=10.000 db=0.50
G1 X-57.15 Y67.51 E12.6154              ; draw dl=0.6@10(10<10>10) de=0.038@0.62(0.62<0.62>0.62) l=0.30x0.50x1.00 r=0.99
;00:00:14.175: pe=2.5807 eb=0.0242 ve=0.6237 vn=0.6196 vl=10.000 db=0.50
G1 X-57.23 Y68.18 E12.6575              ; draw dl=0.7@10(10<10>10) de=0.042@0.62(0.62<0.62>0.62) l=0.30x0.50x1.00 r=0.99
;00:00:14.242: pe=2.5810 eb=0.0242 ve=0.6237 vn=0.6196 vl=10.000 db=0.50
G1 X-57.15 Y68.85 E12.6996              ; draw dl=0.7@10(10<10>10) de=0.042@0.62(0.62<0.62>0.62) l=0.30x0.50x1.00 r=0.99
;00:00:14.310: pe=2.5812 eb=0.0242 ve=0.6237 vn=0.6197 vl=10.000 db=0.50
G1 X-56.91 Y69.42 E12.7381              ; draw dl=0.6@10(10<10>10) de=0.039@0.62(0.62<0.62>0.62) l=0.30x0.50x1.00 r=0.99
;00:00:14.372: pe=2.5815 eb=0.0242 ve=0.6237 vn=0.6197 vl=10.000 db=0.50
G1 X-56.54 Y69.80 E12.7712              ; draw dl=0.5@10(10<10>10) de=0.033@0.62(0.62<0.62>0.62) l=0.30x0.50x1.00 r=0.99
;00:00:14.425: pe=2.5817 eb=0.0242 ve=0.6237 vn=0.6198 vl=10.000 db=0.50
G1 X-56.01 Y69.94 E12.8054              ; draw dl=0.5@10(10<10>0) de=0.034@0.53(0.62<0.62>0.0) l=0.30x0.50x1.00 r=1.15
;00:00:14.490: pe=2.5764 eb=0.0296 ve=0.0000 vn=0.5114 vl=0.000 db=0.55
G1 E8.5290 F2400                        ; retract de=-4.2764@-40.0 r=1.17
;00:00:14.596: pe=-1.7040 eb=0.0336 ve=-40.0000 vn=0.0000 vl=0.000 db=0.59
G1 Z0.500 F420                          ; hopup dz=0.20@7 h=0.5 r=0.91
;00:00:14.625: pe=-1.7040 eb=0.0336 ve=0.0000 vn=0.0000 vl=0.000 db=0.45
G1 X-69.50 Y64.88 F6000                 ; move dl=14.4@100(0<60>0) de=0.000@0.0(0.0<0.0>0.0) l=0.50x0.50x0.00 r=0.00
;00:00:14.985: pe=-1.7040 eb=0.0000 ve=0.0000 vn=0.0000 vl=0.000 db=0.00
G1 Z0.300 F420                          ; hopdn dz=-0.20@7 h=0.3 r=0.00
;00:00:15.014: pe=-1.7040 eb=0.0000 ve=0.0000 vn=0.0000 vl=0.000 db=0.00
G1 E12.8000 F1800                       ; restore de=4.2710@30.0 r=1.02
;00:00:15.156: pe=2.5416 eb=0.0254 ve=30.0000 vn=0.5700 vl=0.000 db=0.51
G1 X-69.50 Y61.48 E13.0121 F600         ; draw dl=3.4@10(0<10>0) de=0.212@0.59(0.0<0.62>0.0) l=0.30x0.50x1.00 r=1.01
;00:00:15.516: pe=2.5399 eb=0.0288 ve=0.0000 vn=0.5030 vl=0.000 db=0.54
G1 E8.7722 F2400                        ; retract de=-4.2399@-40.0 r=1.16
;00:00:15.622: pe=-1.7039 eb=0.0327 ve=-40.0000 vn=0.0000 vl=0.000 db=0.58
G1 Z0.500 F420                          ; hopup dz=0.20@7 h=0.5 r=0.90
;00:00:15.651: pe=-1.7039 eb=0.0327 ve=0.0000 vn=0.0000 vl=0.000 db=0.45
G1 X-69.50 Y63.23 F6000                 ; move dl=1.8@100(0<21>0) de=0.000@0.0(0.0<0.0>0.0) l=0.50x0.50x0.00 r=0.00
;00:00:15.776: pe=-1.7039 eb=0.0000 ve=0.0000 vn=0.0000 vl=0.000 db=0.00
G1 Z0.300 F420                          ; hopdn dz=-0.20@7 h=0.3 r=0.00
;00:00:15.805: pe=-1.7039 eb=0.0000 ve=0.0000 vn=0.0000 vl=0.000 db=0.00
G1 E13.0576 F1800                       ; restore de=4.2854@30.0 r=1.02
;00:00:15.948: pe=2.5558 eb=0.0257 ve=30.0000 vn=0.5732 vl=0.000 db=0.51
G1 X-69.25 Y63.53 E13.0820 F600         ; draw dl=0.4@10(0<10>10) de=0.024@0.5(0.0<0.62>0.62) l=0.30x0.50x1.00 r=1.07
;00:00:15.997: pe=2.5542 eb=0.0258 ve=0.6237 vn=0.5706 vl=10.000 db=0.51
G1 X-69.02 Y63.75 E13.1018              ; draw dl=0.3@10(10<10>10) de=0.020@0.62(0.62<0.62>0.62) l=0.30x0.50x1.00 r=0.94
;00:00:16.028: pe=2.5553 eb=0.0244 ve=0.6237 vn=0.5990 vl=10.000 db=0.50
G1 X-68.80 Y63.88 E13.1178              ; draw dl=0.3@10(10<10>10) de=0.016@0.62(0.62<0.62>0.62) l=0.30x0.50x1.00 r=0.97
;00:00:16.054: pe=2.5559 eb=0.0240 ve=0.6237 vn=0.6076 vl=10.000 db=0.49
G1 X-68.60 Y63.93 E13.1306              ; draw dl=0.2@10(10<10>10) de=0.013@0.62(0.62<0.62>0.62) l=0.30x0.50x1.00 r=0.98
;00:00:16.075: pe=2.5561 eb=0.0238 ve=0.6237 vn=0.6108 vl=10.000 db=0.49
G1 X-68.41 Y63.95 E13.1425              ; draw dl=0.2@10(10<10>10) de=0.012@0.62(0.62<0.62>0.62) l=0.30x0.50x1.00 r=0.98
;00:00:16.094: pe=2.5564 eb=0.0238 ve=0.6237 vn=0.6123 vl=10.000 db=0.49
G1 X-68.09 Y63.88 E13.1630              ; draw dl=0.3@10(10<10>10) de=0.020@0.62(0.62<0.62>0.62) l=0.30x0.50x1.00 r=0.98
;00:00:16.126: pe=2.5567 eb=0.0237 ve=0.6237 vn=0.6134 vl=10.000 db=0.49
G1 X-67.86 Y63.71 E13.1808              ; draw dl=0.3@10(10<10>10) de=0.018@0.62(0.62<0.62>0.62) l=0.30x0.50x1.00 r=0.98
;00:00:16.155: pe=2.5570 eb=0.0237 ve=0.6237 vn=0.6138 vl=10.000 db=0.49
G1 X-67.76 Y63.51 E13.1948              ; draw dl=0.2@10(10<10>10) de=0.014@0.62(0.62<0.62>0.62) l=0.30x0.50x1.00 r=0.98
;00:00:16.177: pe=2.5572 eb=0.0237 ve=0.6236 vn=0.6139 vl=10.000 db=0.49
G1 X-67.67 Y63.08 E13.2222              ; draw dl=0.4@10(10<10>10) de=0.027@0.62(0.62<0.62>0.62) l=0.30x0.50x1.00 r=0.98
;00:00:16.221: pe=2.5577 eb=0.0237 ve=0.6236 vn=0.6141 vl=10.000 db=0.49
G1 X-67.67 Y61.48 E13.3219              ; draw dl=1.6@10(10<10>0) de=0.100@0.59(0.62<0.62>0.0) l=0.30x0.50x1.00 r=1.04
;00:00:16.391: pe=2.5537 eb=0.0291 ve=0.0000 vn=0.5062 vl=0.000 db=0.54
G1 E9.0682 F2400                        ; retract de=-4.2537@-40.0 r=1.16
;00:00:16.498: pe=-1.7040 eb=0.0330 ve=-40.0000 vn=0.0000 vl=0.000 db=0.58
G1 Z0.500 F420                          ; hopup dz=0.20@7 h=0.5 r=0.90
;00:00:16.526: pe=-1.7040 eb=0.0330 ve=0.0000 vn=0.0000 vl=0.000 db=0.45
G1 X-66.61 Y63.26 F6000                 ; move dl=2.1@100(0<23>0) de=0.000@0.0(0.0<0.0>0.0) l=0.50x0.50x0.00 r=0.00
;00:00:16.663: pe=-1.7040 eb=0.0000 ve=0.0000 vn=0.0000 vl=0.000 db=0.00
G1 Z0.300 F420                          ; hopdn dz=-0.20@7 h=0.3 r=0.00
;00:00:16.691: pe=-1.7040 eb=0.0000 ve=0.0000 vn=0.0000 vl=0.000 db=0.00
G1 E13.2890 F1800                       ; restore de=4.2208@30.0 r=1.00
;00:00:16.832: pe=2.4924 eb=0.0244 ve=30.0000 vn=0.5588 vl=0.000 db=0.50
G1 X-64.92 Y63.26 E13.3944 F600         ; draw dl=1.7@10(0<10>0) de=0.105@0.56(0.0<0.62>0.0) l=0.30x0.50x1.00 r=1.02
;00:00:17.021: pe=2.4905 eb=0.0278 ve=0.0000 vn=0.4913 vl=0.000 db=0.53
G1 E9.2039 F2400                        ; retract de=-4.1905@-40.0 r=1.13
;00:00:17.126: pe=-1.7037 eb=0.0315 ve=-40.0000 vn=0.0000 vl=0.000 db=0.57
G1 Z0.500 F420                          ; hopup dz=0.20@7 h=0.5 r=0.88
;00:00:17.154: pe=-1.7037 eb=0.0315 ve=0.0000 vn=0.0000 vl=0.000 db=0.44
G1 X-64.92 Y62.55 F6000                 ; move dl=0.7@100(0<13>0) de=0.000@0.0(0.0<0.0>0.0) l=0.50x0.50x0.00 r=0.00
;00:00:17.234: pe=-1.7037 eb=0.0000 ve=0.0000 vn=0.0000 vl=0.000 db=0.00
G1 Z0.300 F420                          ; hopdn dz=-0.20@7 h=0.3 r=0.00
;00:00:17.263: pe=-1.7037 eb=0.0000 ve=0.0000 vn=0.0000 vl=0.000 db=0.00
G1 E13.4244 F1800                       ; restore de=4.2205@30.0 r=1.00
;00:00:17.404: pe=2.4924 eb=0.0244 ve=30.0000 vn=0.5588 vl=0.000 db=0.50
G1 X-66.61 Y62.55 E13.5298 F600         ; draw dl=1.7@10(0<10>0) de=0.105@0.56(0.0<0.62>0.0) l=0.30x0.50x1.00 r=1.02
;00:00:17.593: pe=2.4905 eb=0.0278 ve=0.0000 vn=0.4913 vl=0.000 db=0.53
G1 E9.3393 F2400                        ; retract de=-4.1905@-40.0 r=1.13
;00:00:17.697: pe=-1.7037 eb=0.0315 ve=-40.0000 vn=0.0000 vl=0.000 db=0.57
G1 Z0.500 F420                          ; hopup dz=0.20@7 h=0.5 r=0.88
;00:00:17.726: pe=-1.7037 eb=0.0315 ve=0.0000 vn=0.0000 vl=0.000 db=0.44
G1 X-62.64 Y64.94 F6000                 ; move dl=4.6@100(0<34>0) de=0.000@0.0(0.0<0.0>0.0) l=0.50x0.50x0.00 r=0.00
;00:00:17.930: pe=-1.7037 eb=0.0000 ve=0.0000 vn=0.0000 vl=0.000 db=0.00
G1 Z0.300 F420                          ; hopdn dz=-0.20@7 h=0.3 r=0.00
;00:00:17.959: pe=-1.7037 eb=0.0000 ve=0.0000 vn=0.0000 vl=0.000 db=0.00
G1 E13.6477 F1800                       ; restore de=4.3084@30.0 r=1.03
;00:00:18.102: pe=2.5785 eb=0.0261 ve=30.0000 vn=0.5783 vl=0.000 db=0.52
G1 X-62.13 Y64.80 E13.6807 F600         ; draw dl=0.5@10(0<10>10) de=0.033@0.52(0.0<0.62>0.62) l=0.30x0.50x1.00 r=1.04
;00:00:18.165: pe=2.5772 eb=0.0254 ve=0.6237 vn=0.5914 vl=10.000 db=0.51
G1 X-61.74 Y64.42 E13.7146              ; draw dl=0.5@10(10<10>10) de=0.034@0.62(0.62<0.62>0.62) l=0.30x0.50x1.00 r=0.97
;00:00:18.220: pe=2.5781 eb=0.0243 ve=0.6237 vn=0.6147 vl=10.000 db=0.50
G1 X-61.50 Y63.86 E13.7526              ; draw dl=0.6@10(10<10>10) de=0.038@0.62(0.62<0.62>0.62) l=0.30x0.50x1.00 r=0.99
;00:00:18.281: pe=2.5785 eb=0.0242 ve=0.6237 vn=0.6185 vl=10.000 db=0.50
G1 X-61.42 Y63.18 E13.7953              ; draw dl=0.7@10(10<10>10) de=0.043@0.62(0.62<0.62>0.62) l=0.30x0.50x1.00 r=0.99
;00:00:18.349: pe=2.5789 eb=0.0241 ve=0.6237 vn=0.6191 vl=10.000 db=0.50
G1 X-61.50 Y62.51 E13.8374              ; draw dl=0.7@10(10<10>10) de=0.042@0.62(0.62<0.62>0.62) l=0.30x0.50x1.00 r=0.99
;00:00:18.417: pe=2.5792 eb=0.0241 ve=0.6237 vn=0.6192 vl=10.000 db=0.50
G1 X-61.74 Y61.95 E13.8754              ; draw dl=0.6@10(10<10>10) de=0.038@0.62(0.62<0.62>0.62) l=0.30x0.50x1.00 r=0.99
;00:00:18.477: pe=2.5794 eb=0.0241 ve=0.6237 vn=0.6193 vl=10.000 db=0.50
G1 X-62.13 Y61.56 E13.9098              ; draw dl=0.6@10(10<10>10) de=0.034@0.62(0.62<0.62>0.62) l=0.30x0.50x1.00 r=0.99
;00:00:18.533: pe=2.5797 eb=0.0241 ve=0.6237 vn=0.6193 vl=10.000 db=0.50
G1 X-62.64 Y61.42 E13.9428              ; draw dl=0.5@10(10<10>10) de=0.033@0.62(0.62<0.62>0.62) l=0.30x0.50x1.00 r=0.99
;00:00:18.586: pe=2.5799 eb=0.0242 ve=0.6237 vn=0.6194 vl=10.000 db=0.50
G1 X-63.16 Y61.56 E13.9764              ; draw dl=0.5@10(10<10>10) de=0.034@0.62(0.62<0.62>0.62) l=0.30x0.50x1.00 r=0.99
;00:00:18.639: pe=2.5801 eb=0.0242 ve=0.6237 vn=0.6194 vl=10.000 db=0.50
G1 X-63.54 Y61.95 E14.0103              ; draw dl=0.5@10(10<10>10) de=0.034@0.62(0.62<0.62>0.62) l=0.30x0.50x1.00 r=0.99
;00:00:18.694: pe=2.5804 eb=0.0242 ve=0.6237 vn=0.6195 vl=10.000 db=0.50
G1 X-63.78 Y62.51 E14.0483              ; draw dl=0.6@10(10<10>10) de=0.038@0.62(0.62<0.62>0.62) l=0.30x0.50x1.00 r=0.99
;00:00:18.755: pe=2.5806 eb=0.0242 ve=0.6237 vn=0.6195 vl=10.000 db=0.50
G1 X-63.86 Y63.18 E14.0904              ; draw dl=0.7@10(10<10>10) de=0.042@0.62(0.62<0.62>0.62) l=0.30x0.50x1.00 r=0.99
;00:00:18.822: pe=2.5809 eb=0.0242 ve=0.6237 vn=0.6196 vl=10.000 db=0.50
G1 X-63.78 Y63.85 E14.1325              ; draw dl=0.7@10(10<10>10) de=0.042@0.62(0.62<0.62>0.62) l=0.30x0.50x1.00 r=0.99
;00:00:18.890: pe=2.5812 eb=0.0242 ve=0.6237 vn=0.6197 vl=10.000 db=0.50
G1 X-63.54 Y64.42 E14.1711              ; draw dl=0.6@10(10<10>10) de=0.039@0.62(0.62<0.62>0.62) l=0.30x0.50x1.00 r=0.99
;00:00:18.952: pe=2.5814 eb=0.0242 ve=0.6237 vn=0.6197 vl=10.000 db=0.50
G1 X-63.16 Y64.80 E14.2046              ; draw dl=0.5@10(10<10>10) de=0.034@0.62(0.62<0.62>0.62) l=0.30x0.50x1.00 r=0.99
;00:00:19.005: pe=2.5816 eb=0.0242 ve=0.6236 vn=0.6198 vl=10.000 db=0.50
G1 X-62.64 Y64.94 E14.2382              ; draw dl=0.5@10(10<10>0) de=0.034@0.53(0.62<0.62>0.0) l=0.30x0.50x1.00 r=1.16
;00:00:19.069: pe=2.5763 eb=0.0296 ve=0.0000 vn=0.5114 vl=0.000 db=0.55
G1 E9.9618 F2400                        ; retract de=-4.2763@-40.0 r=1.17
;00:00:19.176: pe=-1.7040 eb=0.0336 ve=-40.0000 vn=0.0000 vl=0.000 db=0.59
G1 Z0.500 F420                          ; hopup dz=0.20@7 h=0.5 r=0.91
;00:00:19.205: pe=-1.7040 eb=0.0336 ve=0.0000 vn=0.0000 vl=0.000 db=0.45
G1 X-60.36 Y61.71 F6000                 ; move dl=4.0@100(0<31>0) de=0.000@0.0(0.0<0.0>0.0) l=0.50x0.50x0.00 r=0.00
;00:00:19.393: pe=-1.7040 eb=0.0000 ve=0.0000 vn=0.0000 vl=0.000 db=0.00
G1 Z0.300 F420                          ; hopdn dz=-0.20@7 h=0.3 r=0.00
;00:00:19.422: pe=-1.7040 eb=0.0000 ve=0.0000 vn=0.0000 vl=0.000 db=0.00
G1 E13.5481 F1800                       ; restore de=3.5863@30.0 r=0.75
;00:00:19.541: pe=1.8684 eb=0.0138 ve=30.0000 vn=0.4173 vl=0.000 db=0.38
G1 X-60.36 Y61.65 E13.5519 F600         ; draw dl=0.1@10(0<4>0) de=0.004@0.16(0.0<0.24>0.0) l=0.30x0.50x1.00 r=2.16
;00:00:19.565: pe=1.8641 eb=0.0188 ve=0.0000 vn=0.2887 vl=0.000 db=0.44
G1 E9.9878 F2400                        ; retract de=-3.5641@-40.0 r=0.91
;00:00:19.654: pe=-1.7013 eb=0.0201 ve=-40.0000 vn=0.0000 vl=0.000 db=0.45
G1 Z0.500 F420                          ; hopup dz=0.20@7 h=0.5 r=0.70
;00:00:19.682: pe=-1.7013 eb=0.0201 ve=0.0000 vn=0.0000 vl=0.000 db=0.35
G1 X-59.24 Y64.13 F6000                 ; move dl=2.7@100(0<26>0) de=0.000@0.0(0.0<0.0>0.0) l=0.50x0.50x0.00 r=0.00
;00:00:19.839: pe=-1.7013 eb=0.0000 ve=0.0000 vn=0.0000 vl=0.000 db=0.00
G1 Z0.300 F420                          ; hopdn dz=-0.20@7 h=0.3 r=0.00
;00:00:19.867: pe=-1.7013 eb=0.0000 ve=0.0000 vn=0.0000 vl=0.000 db=0.00
G1 E14.2875 F1800                       ; restore de=4.2997@30.0 r=1.03
;00:00:20.011: pe=2.5724 eb=0.0260 ve=30.0000 vn=0.5769 vl=0.000 db=0.52
G1 X-59.13 Y64.47 E14.3098 F600         ; draw dl=0.4@10(0<10>10) de=0.022@0.49(0.0<0.62>0.62) l=0.30x0.50x1.00 r=1.09
;00:00:20.056: pe=2.5704 eb=0.0264 ve=0.6237 vn=0.5691 vl=10.000 db=0.52
G1 X-58.92 Y64.73 E14.3306              ; draw dl=0.3@10(10<10>10) de=0.021@0.62(0.62<0.62>0.62) l=0.30x0.50x1.00 r=0.94
;00:00:20.090: pe=2.5716 eb=0.0248 ve=0.6237 vn=0.6017 vl=10.000 db=0.50
G1 X-58.63 Y64.89 E14.3513              ; draw dl=0.3@10(10<10>10) de=0.021@0.62(0.62<0.62>0.62) l=0.30x0.50x1.00 r=0.97
;00:00:20.123: pe=2.5721 eb=0.0243 ve=0.6237 vn=0.6125 vl=10.000 db=0.50
G1 X-58.29 Y64.94 E14.3727              ; draw dl=0.3@10(10<10>10) de=0.021@0.62(0.62<0.62>0.62) l=0.30x0.50x1.00 r=0.99
;00:00:20.157: pe=2.5724 eb=0.0241 ve=0.6237 vn=0.6160 vl=10.000 db=0.50
G1 X-57.90 Y64.87 E14.3974              ; draw dl=0.4@10(10<10>10) de=0.025@0.62(0.62<0.62>0.62) l=0.30x0.50x1.00 r=0.99
;00:00:20.197: pe=2.5727 eb=0.0240 ve=0.6237 vn=0.6173 vl=10.000 db=0.50
G1 X-57.61 Y64.68 E14.4190              ; draw dl=0.3@10(10<10>10) de=0.022@0.62(0.62<0.62>0.62) l=0.30x0.50x1.00 r=0.99
;00:00:20.232: pe=2.5729 eb=0.0240 ve=0.6237 vn=0.6176 vl=10.000 db=0.50
G1 X-57.43 Y64.41 E14.4393              ; draw dl=0.3@10(10<10>10) de=0.020@0.62(0.62<0.62>0.62) l=0.30x0.50x1.00 r=0.99
;00:00:20.264: pe=2.5731 eb=0.0240 ve=0.6237 vn=0.6177 vl=10.000 db=0.50
G1 X-57.36 Y64.06 E14.4615              ; draw dl=0.4@10(10<10>10) de=0.022@0.62(0.62<0.62>0.62) l=0.30x0.50x1.00 r=0.99
;00:00:20.300: pe=2.5733 eb=0.0240 ve=0.6237 vn=0.6178 vl=10.000 db=0.50
G1 X-57.43 Y63.85 E14.4754              ; draw dl=0.2@10(10<10>10) de=0.014@0.62(0.62<0.62>0.62) l=0.30x0.50x1.00 r=0.99
;00:00:20.322: pe=2.5735 eb=0.0240 ve=0.6237 vn=0.6178 vl=10.000 db=0.50
G1 X-57.57 Y63.68 E14.4891              ; draw dl=0.2@10(10<10>10) de=0.014@0.62(0.62<0.62>0.62) l=0.30x0.50x1.00 r=0.99
;00:00:20.344: pe=2.5736 eb=0.0240 ve=0.6237 vn=0.6179 vl=10.000 db=0.50
G1 X-57.94 Y63.45 E14.5163              ; draw dl=0.4@10(10<10>10) de=0.027@0.62(0.62<0.62>0.62) l=0.30x0.50x1.00 r=0.99
;00:00:20.387: pe=2.5738 eb=0.0240 ve=0.6237 vn=0.6179 vl=10.000 db=0.50
G1 X-58.38 Y63.30 E14.5453              ; draw dl=0.5@10(10<10>5) de=0.029@0.59(0.62<0.62>0.28) l=0.30x0.50x1.00 r=1.05
;00:00:20.437: pe=2.5724 eb=0.0257 ve=0.2839 vn=0.5829 vl=4.552 db=0.51
G1 X-57.94 Y63.18 E14.5737              ; draw dl=0.5@10(5<10>10) de=0.028@0.59(0.28<0.62>0.62) l=0.30x0.50x1.00 r=0.99
;00:00:20.486: pe=2.5726 eb=0.0248 ve=0.6237 vn=0.6019 vl=10.000 db=0.50
G1 X-57.58 Y63.02 E14.5983              ; draw dl=0.4@10(10<10>10) de=0.025@0.62(0.62<0.62>0.62) l=0.30x0.50x1.00 r=0.98
;00:00:20.525: pe=2.5732 eb=0.0242 ve=0.6237 vn=0.6137 vl=10.000 db=0.50
G1 X-57.29 Y62.74 E14.6234              ; draw dl=0.4@10(10<10>10) de=0.025@0.62(0.62<0.62>0.62) l=0.30x0.50x1.00 r=0.99
;00:00:20.565: pe=2.5735 eb=0.0241 ve=0.6236 vn=0.6168 vl=10.000 db=0.50
G1 X-57.19 Y62.45 E14.6425              ; draw dl=0.3@10(10<10>10) de=0.019@0.62(0.62<0.62>0.62) l=0.30x0.50x1.00 r=0.99
;00:00:20.596: pe=2.5737 eb=0.0241 ve=0.6237 vn=0.6175 vl=10.000 db=0.50
G1 X-57.26 Y62.03 E14.6691              ; draw dl=0.4@10(10<10>10) de=0.027@0.62(0.62<0.62>0.62) l=0.30x0.50x1.00 r=0.99
;00:00:20.638: pe=2.5739 eb=0.0240 ve=0.6237 vn=0.6179 vl=10.000 db=0.50
G1 X-57.49 Y61.70 E14.6942              ; draw dl=0.4@10(10<10>10) de=0.025@0.62(0.62<0.62>0.62) l=0.30x0.50x1.00 r=0.99
;00:00:20.679: pe=2.5742 eb=0.0240 ve=0.6237 vn=0.6180 vl=10.000 db=0.50
G1 X-57.83 Y61.50 E14.7188              ; draw dl=0.4@10(10<10>10) de=0.025@0.62(0.62<0.62>0.62) l=0.30x0.50x1.00 r=0.99
;00:00:20.718: pe=2.5744 eb=0.0240 ve=0.6237 vn=0.6181 vl=10.000 db=0.50
G1 X-58.25 Y61.42 E14.7454              ; draw dl=0.4@10(10<10>10) de=0.027@0.62(0.62<0.62>0.62) l=0.30x0.50x1.00 r=0.99
;00:00:20.761: pe=2.5746 eb=0.0241 ve=0.6237 vn=0.6181 vl=10.000 db=0.50
G1 X-58.65 Y61.48 E14.7707              ; draw dl=0.4@10(10<10>10) de=0.025@0.62(0.62<0.62>0.62) l=0.30x0.50x1.00 r=0.99
;00:00:20.801: pe=2.5749 eb=0.0241 ve=0.6237 vn=0.6182 vl=10.000 db=0.50
G1 X-58.97 Y61.65 E14.7933              ; draw dl=0.4@10(10<10>10) de=0.023@0.62(0.62<0.62>0.62) l=0.30x0.50x1.00 r=0.99
;00:00:20.838: pe=2.5751 eb=0.0241 ve=0.6237 vn=0.6182 vl=10.000 db=0.50
G1 X-59.19 Y61.92 E14.8150              ; draw dl=0.3@10(10<10>10) de=0.022@0.62(0.62<0.62>0.62) l=0.30x0.50x1.00 r=0.99
;00:00:20.872: pe=2.5752 eb=0.0241 ve=0.6237 vn=0.6183 vl=10.000 db=0.50
G1 X-59.29 Y62.28 E14.8383              ; draw dl=0.4@10(10<10>0) de=0.023@0.49(0.62<0.62>0.0) l=0.30x0.50x1.00 r=1.23
;00:00:20.920: pe=2.5700 eb=0.0294 ve=0.0000 vn=0.5099 vl=0.000 db=0.55
G1 E10.5683 F2400                       ; retract de=-4.2700@-40.0 r=1.17
;00:00:21.027: pe=-1.7040 eb=0.0334 ve=-40.0000 vn=0.0000 vl=0.000 db=0.58
G1 Z0.500 F420                          ; hopup dz=0.20@7 h=0.5 r=0.91
;00:00:21.055: pe=-1.7040 eb=0.0334 ve=0.0000 vn=0.0000 vl=0.000 db=0.45
G1 X-67.52 Y59.88 F6000                 ; move dl=8.6@100(0<46>0) de=0.000@0.0(0.0<0.0>0.0) l=0.50x0.50x0.00 r=0.00
;00:00:21.333: pe=-1.7040 eb=0.0000 ve=0.0000 vn=0.0000 vl=0.000 db=0.00
G1 Z0.300 F420                          ; hopdn dz=-0.20@7 h=0.3 r=0.00
;00:00:21.361: pe=-1.7040 eb=0.0000 ve=0.0000 vn=0.0000 vl=0.000 db=0.00
G1 E14.8393 F1800                       ; restore de=4.2710@30.0 r=1.02
;00:00:21.504: pe=2.5416 eb=0.0254 ve=30.0000 vn=0.5700 vl=0.000 db=0.51
G1 X-67.52 Y56.48 E15.0514 F600         ; draw dl=3.4@10(0<10>0) de=0.212@0.59(0.0<0.62>0.0) l=0.30x0.50x1.00 r=1.01
;00:00:21.864: pe=2.5399 eb=0.0288 ve=0.0000 vn=0.5030 vl=0.000 db=0.54
G1 E10.8115 F2400                       ; retract de=-4.2399@-40.0 r=1.16
;00:00:21.970: pe=-1.7039 eb=0.0327 ve=-40.0000 vn=0.0000 vl=0.000 db=0.58
G1 Z0.500 F420                          ; hopup dz=0.20@7 h=0.5 r=0.90
;00:00:21.998: pe=-1.7039 eb=0.0327 ve=0.0000 vn=0.0000 vl=0.000 db=0.45
G1 X-67.52 Y56.98 F6000                 ; move dl=0.5@100(0<11>0) de=0.000@0.0(0.0<0.0>0.0) l=0.50x0.50x0.00 r=0.00
;00:00:22.065: pe=-1.7039 eb=0.0026 ve=0.0000 vn=0.0000 vl=0.000 db=0.13
G1 Z0.300 F420                          ; hopdn dz=-0.20@7 h=0.3 r=0.32
;00:00:22.094: pe=-1.7039 eb=0.0026 ve=0.0000 vn=0.0000 vl=0.000 db=0.16
G1 E15.1118 F1800                       ; restore de=4.3003@30.0 r=1.03
;00:00:22.237: pe=2.5728 eb=0.0261 ve=30.0000 vn=0.5751 vl=0.000 db=0.52
G1 X-67.77 Y56.74 E15.1334 F600         ; draw dl=0.3@10(0<10>10) de=0.022@0.48(0.0<0.62>0.62) l=0.30x0.50x1.00 r=1.09
;00:00:22.282: pe=2.5708 eb=0.0265 ve=0.6237 vn=0.5669 vl=10.000 db=0.52
G1 X-68.16 Y56.49 E15.1623              ; draw dl=0.5@10(10<10>10) de=0.029@0.62(0.62<0.62>0.62) l=0.30x0.50x1.00 r=0.95
;00:00:22.328: pe=2.5723 eb=0.0245 ve=0.6237 vn=0.6070 vl=10.000 db=0.50
G1 X-68.54 Y56.42 E15.1864              ; draw dl=0.4@10(10<10>10) de=0.024@0.62(0.62<0.62>0.62) l=0.30x0.50x1.00 r=0.98
;00:00:22.367: pe=2.5728 eb=0.0242 ve=0.6237 vn=0.6149 vl=10.000 db=0.50
G1 X-68.92 Y56.51 E15.2107              ; draw dl=0.4@10(10<10>10) de=0.024@0.62(0.62<0.62>0.62) l=0.30x0.50x1.00 r=0.99
;00:00:22.406: pe=2.5731 eb=0.0241 ve=0.6237 vn=0.6170 vl=10.000 db=0.50
G1 X-69.22 Y56.77 E15.2355              ; draw dl=0.4@10(10<10>10) de=0.025@0.62(0.62<0.62>0.62) l=0.30x0.50x1.00 r=0.99
;00:00:22.446: pe=2.5733 eb=0.0240 ve=0.6237 vn=0.6176 vl=10.000 db=0.50
G1 X-69.43 Y57.18 E15.2642              ; draw dl=0.5@10(10<10>10) de=0.029@0.62(0.62<0.62>0.62) l=0.30x0.50x1.00 r=0.99
;00:00:22.492: pe=2.5736 eb=0.0240 ve=0.6237 vn=0.6178 vl=10.000 db=0.50
G1 X-69.50 Y57.71 E15.2976              ; draw dl=0.5@10(10<10>10) de=0.033@0.62(0.62<0.62>0.62) l=0.30x0.50x1.00 r=0.99
;00:00:22.545: pe=2.5739 eb=0.0240 ve=0.6237 vn=0.6179 vl=10.000 db=0.50
G1 X-69.44 Y58.22 E15.3296              ; draw dl=0.5@10(10<10>10) de=0.032@0.62(0.62<0.62>0.62) l=0.30x0.50x1.00 r=0.99
;00:00:22.597: pe=2.5742 eb=0.0240 ve=0.6237 vn=0.6180 vl=10.000 db=0.50
G1 X-69.26 Y58.61 E15.3564              ; draw dl=0.4@10(10<10>10) de=0.027@0.62(0.62<0.62>0.62) l=0.30x0.50x1.00 r=0.99
;00:00:22.640: pe=2.5744 eb=0.0240 ve=0.6237 vn=0.6181 vl=10.000 db=0.50
G1 X-68.97 Y58.86 E15.3803              ; draw dl=0.4@10(10<10>10) de=0.024@0.62(0.62<0.62>0.62) l=0.30x0.50x1.00 r=0.99
;00:00:22.678: pe=2.5746 eb=0.0241 ve=0.6237 vn=0.6181 vl=10.000 db=0.50
G1 X-68.57 Y58.95 E15.4058              ; draw dl=0.4@10(10<10>10) de=0.026@0.62(0.62<0.62>0.62) l=0.30x0.50x1.00 r=0.99
;00:00:22.719: pe=2.5749 eb=0.0241 ve=0.6237 vn=0.6182 vl=10.000 db=0.50
G1 X-68.38 Y58.93 E15.4177              ; draw dl=0.2@10(10<10>10) de=0.012@0.62(0.62<0.62>0.62) l=0.30x0.50x1.00 r=0.99
;00:00:22.738: pe=2.5750 eb=0.0241 ve=0.6237 vn=0.6182 vl=10.000 db=0.50
G1 X-68.18 Y58.85 E15.4312              ; draw dl=0.2@10(10<10>10) de=0.013@0.62(0.62<0.62>0.62) l=0.30x0.50x1.00 r=0.99
;00:00:22.759: pe=2.5751 eb=0.0241 ve=0.6237 vn=0.6182 vl=10.000 db=0.50
G1 X-67.97 Y58.72 E15.4466              ; draw dl=0.2@10(10<10>10) de=0.015@0.62(0.62<0.62>0.62) l=0.30x0.50x1.00 r=0.99
;00:00:22.784: pe=2.5752 eb=0.0241 ve=0.6236 vn=0.6183 vl=10.000 db=0.50
G1 X-67.77 Y58.50 E15.4651              ; draw dl=0.3@10(10<10>10) de=0.019@0.62(0.62<0.62>0.62) l=0.30x0.50x1.00 r=0.99
;00:00:22.814: pe=2.5754 eb=0.0241 ve=0.6236 vn=0.6183 vl=10.000 db=0.50
G1 X-67.52 Y58.03 E15.4983              ; draw dl=0.5@10(10<10>0) de=0.033@0.53(0.62<0.62>0.0) l=0.30x0.50x1.00 r=1.16
;00:00:22.877: pe=2.5702 eb=0.0294 ve=0.0000 vn=0.5099 vl=0.000 db=0.55
G1 E11.2281 F2400                       ; retract de=-4.2702@-40.0 r=1.17
;00:00:22.984: pe=-1.7040 eb=0.0335 ve=-40.0000 vn=0.0000 vl=0.000 db=0.58
G1 Z0.500 F420                          ; hopup dz=0.20@7 h=0.5 r=0.91
;00:00:23.012: pe=-1.7040 eb=0.0335 ve=0.0000 vn=0.0000 vl=0.000 db=0.45
G1 X-66.46 Y58.89 F6000                 ; move dl=1.4@100(0<18>0) de=0.000@0.0(0.0<0.0>0.0) l=0.50x0.50x0.00 r=0.00
;00:00:23.123: pe=-1.7040 eb=0.0000 ve=0.0000 vn=0.0000 vl=0.000 db=0.00
G1 Z0.300 F420                          ; hopdn dz=-0.20@7 h=0.3 r=0.00
;00:00:23.152: pe=-1.7040 eb=0.0000 ve=0.0000 vn=0.0000 vl=0.000 db=0.00
G1 E15.4860 F1800                       ; restore de=4.2579@30.0 r=1.01
;00:00:23.294: pe=2.5287 eb=0.0252 ve=30.0000 vn=0.5670 vl=0.000 db=0.51
G1 X-65.29 Y56.44 E15.6553 F600         ; draw dl=2.7@10(0<10>0) de=0.169@0.58(0.0<0.62>0.0) l=0.30x0.50x1.00 r=1.01
;00:00:23.585: pe=2.5269 eb=0.0285 ve=0.0000 vn=0.5000 vl=0.000 db=0.54
G1 E11.4284 F2400                       ; retract de=-4.2269@-40.0 r=1.15
;00:00:23.691: pe=-1.7039 eb=0.0324 ve=-40.0000 vn=0.0000 vl=0.000 db=0.57
G1 Z0.500 F420                          ; hopup dz=0.20@7 h=0.5 r=0.89
;00:00:23.720: pe=-1.7039 eb=0.0324 ve=0.0000 vn=0.0000 vl=0.000 db=0.45
G1 X-66.29 Y55.57 F6000                 ; move dl=1.3@100(0<18>0) de=0.000@0.0(0.0<0.0>0.0) l=0.50x0.50x0.00 r=0.00
;00:00:23.829: pe=-1.7039 eb=0.0000 ve=0.0000 vn=0.0000 vl=0.000 db=0.00
G1 Z0.300 F420                          ; hopdn dz=-0.20@7 h=0.3 r=0.00
;00:00:23.857: pe=-1.7039 eb=0.0000 ve=0.0000 vn=0.0000 vl=0.000 db=0.00
G1 E15.7185 F1800                       ; restore de=4.2901@30.0 r=1.03
;00:00:24.000: pe=2.5604 eb=0.0258 ve=30.0000 vn=0.5742 vl=0.000 db=0.51
G1 X-66.19 Y55.56 E15.7247 F600         ; draw dl=0.1@10(0<10>10) de=0.006@0.31(0.0<0.62>0.62) l=0.30x0.50x1.00 r=1.65
;00:00:24.020: pe=2.5563 eb=0.0293 ve=0.6236 vn=0.5046 vl=10.000 db=0.55
G1 X-66.10 Y55.56 E15.7303              ; draw dl=0.1@10(10<10>10) de=0.006@0.62(0.62<0.62>0.62) l=0.30x0.50x1.00 r=0.83
;00:00:24.029: pe=2.5573 eb=0.0279 ve=0.6236 vn=0.5318 vl=10.000 db=0.53
G1 X-65.84 Y55.62 E15.7470              ; draw dl=0.3@10(10<10>10) de=0.017@0.62(0.62<0.62>0.62) l=0.30x0.50x1.00 r=0.90
;00:00:24.056: pe=2.5590 eb=0.0254 ve=0.6236 vn=0.5802 vl=10.000 db=0.51
G1 X-65.63 Y55.78 E15.7634              ; draw dl=0.3@10(10<10>10) de=0.016@0.62(0.62<0.62>0.62) l=0.30x0.50x1.00 r=0.95
;00:00:24.082: pe=2.5599 eb=0.0245 ve=0.6236 vn=0.6006 vl=10.000 db=0.50
G1 X-65.45 Y56.06 E15.7842              ; draw dl=0.3@10(10<10>10) de=0.021@0.62(0.62<0.62>0.62) l=0.30x0.50x1.00 r=0.97
;00:00:24.116: pe=2.5605 eb=0.0240 ve=0.6236 vn=0.6103 vl=10.000 db=0.50
G1 X-65.29 Y56.44 E15.8099              ; draw dl=0.4@10(10<10>10) de=0.026@0.62(0.62<0.62>0.62) l=0.30x0.50x1.00 r=0.98
;00:00:24.157: pe=2.5609 eb=0.0238 ve=0.6236 vn=0.6138 vl=10.000 db=0.49
G1 X-64.41 Y58.89 E15.9722              ; draw dl=2.6@10(10<10>0) de=0.162@0.6(0.62<0.62>0.0) l=0.30x0.50x1.00 r=1.02
;00:00:24.427: pe=2.5577 eb=0.0292 ve=0.0000 vn=0.5071 vl=0.000 db=0.55
G1 E11.7145 F2400                       ; retract de=-4.2577@-40.0 r=1.16
;00:00:24.534: pe=-1.7040 eb=0.0331 ve=-40.0000 vn=0.0000 vl=0.000 db=0.58
G1 Z0.500 F420                          ; hopup dz=0.20@7 h=0.5 r=0.90
;00:00:24.562: pe=-1.7040 eb=0.0331 ve=0.0000 vn=0.0000 vl=0.000 db=0.45
G1 X-63.35 Y58.76 F6000                 ; move dl=1.1@100(0<16>0) de=0.000@0.0(0.0<0.0>0.0) l=0.50x0.50x0.00 r=0.00
;00:00:24.660: pe=-1.7040 eb=0.0000 ve=0.0000 vn=0.0000 vl=0.000 db=0.00
G1 Z0.300 F420                          ; hopdn dz=-0.20@7 h=0.3 r=0.00
;00:00:24.689: pe=-1.7040 eb=0.0000 ve=0.0000 vn=0.0000 vl=0.000 db=0.00
G1 E15.9601 F1800                       ; restore de=4.2456@30.0 r=1.01
;00:00:24.830: pe=2.5167 eb=0.0249 ve=30.0000 vn=0.5643 vl=0.000 db=0.50
G1 X-63.35 Y56.48 E16.1023 F600         ; draw dl=2.3@10(0<10>0) de=0.142@0.57(0.0<0.62>0.0) l=0.30x0.50x1.00 r=1.01
;00:00:25.078: pe=2.5149 eb=0.0283 ve=0.0000 vn=0.4972 vl=0.000 db=0.54
G1 E11.8874 F2400                       ; retract de=-4.2149@-40.0 r=1.14
;00:00:25.184: pe=-1.7038 eb=0.0321 ve=-40.0000 vn=0.0000 vl=0.000 db=0.57
G1 Z0.500 F420                          ; hopup dz=0.20@7 h=0.5 r=0.89
;00:00:25.212: pe=-1.7038 eb=0.0321 ve=0.0000 vn=0.0000 vl=0.000 db=0.44
G1 X-63.35 Y57.89 F6000                 ; move dl=1.4@100(0<19>0) de=0.000@0.0(0.0<0.0>0.0) l=0.50x0.50x0.00 r=0.00
;00:00:25.325: pe=-1.7038 eb=0.0000 ve=0.0000 vn=0.0000 vl=0.000 db=0.00
G1 Z0.300 F420                          ; hopdn dz=-0.20@7 h=0.3 r=0.00
;00:00:25.354: pe=-1.7038 eb=0.0000 ve=0.0000 vn=0.0000 vl=0.000 db=0.00
G1 E16.1737 F1800                       ; restore de=4.2863@30.0 r=1.02
;00:00:25.497: pe=2.5567 eb=0.0257 ve=30.0000 vn=0.5734 vl=0.000 db=0.51
G1 X-63.11 Y58.34 E16.2055 F600         ; draw dl=0.5@10(0<10>10) de=0.032@0.52(0.0<0.62>0.62) l=0.30x0.50x1.00 r=1.03
;00:00:25.558: pe=2.5556 eb=0.0251 ve=0.6236 vn=0.5850 vl=10.000 db=0.51
G1 X-62.92 Y58.67 E16.2292              ; draw dl=0.4@10(10<10>10) de=0.024@0.62(0.62<0.62>0.62) l=0.30x0.50x1.00 r=0.96
;00:00:25.596: pe=2.5566 eb=0.0241 ve=0.6236 vn=0.6060 vl=10.000 db=0.50
G1 X-62.70 Y58.86 E16.2473              ; draw dl=0.3@10(10<10>10) de=0.018@0.62(0.62<0.62>0.62) l=0.30x0.50x1.00 r=0.98
;00:00:25.625: pe=2.5570 eb=0.0239 ve=0.6236 vn=0.6111 vl=10.000 db=0.49
G1 X-62.49 Y58.93 E16.2611              ; draw dl=0.2@10(10<10>10) de=0.014@0.62(0.62<0.62>0.62) l=0.30x0.50x1.00 r=0.98
;00:00:25.647: pe=2.5573 eb=0.0238 ve=0.6236 vn=0.6127 vl=10.000 db=0.49
G1 X-62.28 Y58.95 E16.2743              ; draw dl=0.2@10(10<10>10) de=0.013@0.62(0.62<0.62>0.62) l=0.30x0.50x1.00 r=0.98
;00:00:25.668: pe=2.5575 eb=0.0238 ve=0.6236 vn=0.6134 vl=10.000 db=0.49
G1 X-61.95 Y58.88 E16.2953              ; draw dl=0.3@10(10<10>10) de=0.021@0.62(0.62<0.62>0.62) l=0.30x0.50x1.00 r=0.98
;00:00:25.702: pe=2.5579 eb=0.0237 ve=0.6236 vn=0.6139 vl=10.000 db=0.49
G1 X-61.77 Y58.73 E16.3099              ; draw dl=0.2@10(10<10>10) de=0.015@0.62(0.62<0.62>0.62) l=0.30x0.50x1.00 r=0.98
;00:00:25.725: pe=2.5581 eb=0.0237 ve=0.6236 vn=0.6141 vl=10.000 db=0.49
G1 X-61.67 Y58.40 E16.3314              ; draw dl=0.3@10(10<10>10) de=0.022@0.62(0.62<0.62>0.62) l=0.30x0.50x1.00 r=0.98
;00:00:25.760: pe=2.5584 eb=0.0237 ve=0.6236 vn=0.6142 vl=10.000 db=0.49
G1 X-61.61 Y58.08 E16.3517              ; draw dl=0.3@10(10<10>10) de=0.020@0.62(0.62<0.62>0.62) l=0.30x0.50x1.00 r=0.99
;00:00:25.792: pe=2.5587 eb=0.0238 ve=0.6236 vn=0.6143 vl=10.000 db=0.49
G1 X-61.61 Y56.48 E16.4515              ; draw dl=1.6@10(10<10>0) de=0.100@0.59(0.62<0.62>0.0) l=0.30x0.50x1.00 r=1.04
;00:00:25.962: pe=2.5547 eb=0.0291 ve=0.0000 vn=0.5064 vl=0.000 db=0.55
G1 E12.1968 F2400                       ; retract de=-4.2547@-40.0 r=1.16
;00:00:26.068: pe=-1.7040 eb=0.0331 ve=-40.0000 vn=0.0000 vl=0.000 db=0.58
G1 Z0.500 F420                          ; hopup dz=0.20@7 h=0.5 r=0.90
;00:00:26.097: pe=-1.7040 eb=0.0331 ve=0.0000 vn=0.0000 vl=0.000 db=0.45
G1 X-60.55 Y56.48 F6000                 ; move dl=1.1@100(0<16>0) de=0.000@0.0(0.0<0.0>0.0) l=0.50x0.50x0.00 r=0.00
;00:00:26.195: pe=-1.7040 eb=0.0000 ve=0.0000 vn=0.0000 vl=0.000 db=0.00
G1 Z0.300 F420                          ; hopdn dz=-0.20@7 h=0.3 r=0.00
;00:00:26.223: pe=-1.7040 eb=0.0000 ve=0.0000 vn=0.0000 vl=0.000 db=0.00
G1 E16.4466 F1800                       ; restore de=4.2498@30.0 r=1.01
;00:00:26.365: pe=2.5209 eb=0.0250 ve=30.0000 vn=0.5653 vl=0.000 db=0.51
G1 X-60.55 Y58.89 E16.5969 F600         ; draw dl=2.4@10(0<10>0) de=0.150@0.58(0.0<0.62>0.0) l=0.30x0.50x1.00 r=1.01
;00:00:26.626: pe=2.5191 eb=0.0284 ve=0.0000 vn=0.4982 vl=0.000 db=0.54
G1 E12.3778 F2400                       ; retract de=-4.2191@-40.0 r=1.15
;00:00:26.731: pe=-1.7038 eb=0.0322 ve=-40.0000 vn=0.0000 vl=0.000 db=0.57
G1 Z0.500 F420                          ; hopup dz=0.20@7 h=0.5 r=0.89
;00:00:26.760: pe=-1.7038 eb=0.0322 ve=0.0000 vn=0.0000 vl=0.000 db=0.44
G1 X-60.55 Y58.20 F6000                 ; move dl=0.7@100(0<13>0) de=0.000@0.0(0.0<0.0>0.0) l=0.50x0.50x0.00 r=0.00
;00:00:26.839: pe=-1.7038 eb=0.0000 ve=0.0000 vn=0.0000 vl=0.000 db=0.00
G1 Z0.300 F420                          ; hopdn dz=-0.20@7 h=0.3 r=0.00
;00:00:26.867: pe=-1.7038 eb=0.0000 ve=0.0000 vn=0.0000 vl=0.000 db=0.00
G1 E16.6191 F1800                       ; restore de=4.2412@30.0 r=1.01
;00:00:27.009: pe=2.5126 eb=0.0248 ve=30.0000 vn=0.5634 vl=0.000 db=0.50
G1 X-60.30 Y58.55 E16.6459 F600         ; draw dl=0.4@10(0<10>10) de=0.027@0.51(0.0<0.62>0.62) l=0.30x0.50x1.00 r=1.04
;00:00:27.062: pe=2.5116 eb=0.0246 ve=0.6236 vn=0.5668 vl=10.000 db=0.50
G1 X-60.09 Y58.76 E16.6644              ; draw dl=0.3@10(10<10>10) de=0.019@0.62(0.62<0.62>0.62) l=0.30x0.50x1.00 r=0.93
;00:00:27.091: pe=2.5129 eb=0.0235 ve=0.6236 vn=0.5904 vl=10.000 db=0.49
G1 X-59.89 Y58.88 E16.6790              ; draw dl=0.2@10(10<10>10) de=0.015@0.62(0.62<0.62>0.62) l=0.30x0.50x1.00 r=0.95
;00:00:27.115: pe=2.5136 eb=0.0232 ve=0.6237 vn=0.5978 vl=10.000 db=0.49
G1 X-59.70 Y58.94 E16.6914              ; draw dl=0.2@10(10<10>10) de=0.012@0.62(0.62<0.62>0.62) l=0.30x0.50x1.00 r=0.96
;00:00:27.135: pe=2.5141 eb=0.0231 ve=0.6236 vn=0.6009 vl=10.000 db=0.49
G1 X-59.54 Y58.95 E16.7014              ; draw dl=0.2@10(10<10>10) de=0.010@0.62(0.62<0.62>0.62) l=0.30x0.50x1.00 r=0.96
;00:00:27.151: pe=2.5144 eb=0.0230 ve=0.6237 vn=0.6022 vl=10.000 db=0.48
G1 X-59.49 Y58.95 E16.7045              ; draw dl=0.1@10(10<10>7) de=0.003@0.54(0.62<0.62>0.45) l=0.30x0.50x1.00 r=1.12
;00:00:27.157: pe=2.5140 eb=0.0235 ve=0.4453 vn=0.5923 vl=7.141 db=0.49
G1 X-59.44 Y58.94 E16.7077              ; draw dl=0.1@10(7<7>0) de=0.003@0.22(0.45<0.45>0.0) l=0.30x0.50x1.00 r=2.49
;00:00:27.171: pe=2.5093 eb=0.0282 ve=0.0000 vn=0.4951 vl=0.000 db=0.54
G1 E12.4984 F2400                       ; retract de=-4.2093@-40.0 r=1.14
;00:00:27.276: pe=-1.7038 eb=0.0320 ve=-40.0000 vn=0.0000 vl=0.000 db=0.57
G1 Z0.500 F420                          ; hopup dz=0.20@7 h=0.5 r=0.89
;00:00:27.305: pe=-1.7038 eb=0.0320 ve=0.0000 vn=0.0000 vl=0.000 db=0.44
G1 X-58.38 Y57.69 F6000                 ; move dl=1.6@100(0<20>0) de=0.000@0.0(0.0<0.0>0.0) l=0.50x0.50x0.00 r=0.00
;00:00:27.426: pe=-1.7038 eb=0.0000 ve=0.0000 vn=0.0000 vl=0.000 db=0.00
G1 Z0.300 F420                          ; hopdn dz=-0.20@7 h=0.3 r=0.00
;00:00:27.455: pe=-1.7038 eb=0.0000 ve=0.0000 vn=0.0000 vl=0.000 db=0.00
G1 E16.8055 F1800                       ; restore de=4.3071@30.0 r=1.03
;00:00:27.598: pe=2.5772 eb=0.0261 ve=30.0000 vn=0.5780 vl=0.000 db=0.52
G1 X-56.24 Y57.69 E16.9390 F600         ; draw dl=2.1@10(0<10>10) de=0.133@0.6(0.0<0.62>0.6) l=0.30x0.50x1.00 r=1.00
;00:00:27.822: pe=2.5775 eb=0.0241 ve=0.6039 vn=0.6186 vl=9.683 db=0.50
G1 X-56.32 Y58.22 E16.9724              ; draw dl=0.5@10(10<10>10) de=0.033@0.62(0.6<0.62>0.62) l=0.30x0.50x1.00 r=0.99
;00:00:27.876: pe=2.5778 eb=0.0241 ve=0.6237 vn=0.6188 vl=10.000 db=0.50
G1 X-56.53 Y58.61 E17.0000              ; draw dl=0.4@10(10<10>10) de=0.028@0.62(0.62<0.62>0.62) l=0.30x0.50x1.00 r=0.99
;00:00:27.920: pe=2.5780 eb=0.0241 ve=0.6236 vn=0.6189 vl=10.000 db=0.50
G1 X-56.87 Y58.86 E17.0263              ; draw dl=0.4@10(10<10>10) de=0.026@0.62(0.62<0.62>0.62) l=0.30x0.50x1.00 r=0.99
;00:00:27.962: pe=2.5782 eb=0.0241 ve=0.6236 vn=0.6190 vl=10.000 db=0.50
G1 X-57.31 Y58.95 E17.0544              ; draw dl=0.4@10(10<10>10) de=0.028@0.62(0.62<0.62>0.62) l=0.30x0.50x1.00 r=0.99
;00:00:28.007: pe=2.5784 eb=0.0241 ve=0.6237 vn=0.6190 vl=10.000 db=0.50
G1 X-57.74 Y58.86 E17.0818              ; draw dl=0.4@10(10<10>10) de=0.027@0.62(0.62<0.62>0.62) l=0.30x0.50x1.00 r=0.99
;00:00:28.051: pe=2.5786 eb=0.0241 ve=0.6236 vn=0.6191 vl=10.000 db=0.50
G1 X-58.08 Y58.61 E17.1081              ; draw dl=0.4@10(10<10>10) de=0.026@0.62(0.62<0.62>0.62) l=0.30x0.50x1.00 r=0.99
;00:00:28.093: pe=2.5788 eb=0.0241 ve=0.6236 vn=0.6191 vl=10.000 db=0.50
G1 X-58.30 Y58.22 E17.1360              ; draw dl=0.4@10(10<10>10) de=0.028@0.62(0.62<0.62>0.62) l=0.30x0.50x1.00 r=0.99
;00:00:28.138: pe=2.5790 eb=0.0241 ve=0.6236 vn=0.6192 vl=10.000 db=0.50
G1 X-58.38 Y57.69 E17.1694              ; draw dl=0.5@10(10<10>10) de=0.033@0.62(0.62<0.62>0.62) l=0.30x0.50x1.00 r=0.99
;00:00:28.192: pe=2.5793 eb=0.0241 ve=0.6237 vn=0.6192 vl=10.000 db=0.50
G1 X-58.30 Y57.15 E17.2035              ; draw dl=0.5@10(10<10>10) de=0.034@0.62(0.62<0.62>0.62) l=0.30x0.50x1.00 r=0.99
;00:00:28.246: pe=2.5795 eb=0.0241 ve=0.6237 vn=0.6193 vl=10.000 db=0.50
G1 X-58.07 Y56.75 E17.2322              ; draw dl=0.5@10(10<10>10) de=0.029@0.62(0.62<0.62>0.62) l=0.30x0.50x1.00 r=0.99
;00:00:28.293: pe=2.5797 eb=0.0241 ve=0.6237 vn=0.6193 vl=10.000 db=0.50
G1 X-57.72 Y56.51 E17.2587              ; draw dl=0.4@10(10<10>10) de=0.026@0.62(0.62<0.62>0.62) l=0.30x0.50x1.00 r=0.99
;00:00:28.335: pe=2.5799 eb=0.0242 ve=0.6237 vn=0.6194 vl=10.000 db=0.50
G1 X-57.26 Y56.42 E17.2879              ; draw dl=0.5@10(10<10>10) de=0.029@0.62(0.62<0.62>0.62) l=0.30x0.50x1.00 r=0.99
;00:00:28.382: pe=2.5801 eb=0.0242 ve=0.6237 vn=0.6194 vl=10.000 db=0.50
G1 X-56.92 Y56.47 E17.3094              ; draw dl=0.3@10(10<10>10) de=0.021@0.62(0.62<0.62>0.62) l=0.30x0.50x1.00 r=0.99
;00:00:28.416: pe=2.5802 eb=0.0242 ve=0.6236 vn=0.6195 vl=10.000 db=0.50
G1 X-56.63 Y56.61 E17.3295              ; draw dl=0.3@10(10<10>10) de=0.020@0.62(0.62<0.62>0.62) l=0.30x0.50x1.00 r=0.99
;00:00:28.448: pe=2.5804 eb=0.0242 ve=0.6236 vn=0.6195 vl=10.000 db=0.50
G1 X-56.42 Y56.83 E17.3484              ; draw dl=0.3@10(10<10>10) de=0.019@0.62(0.62<0.62>0.62) l=0.30x0.50x1.00 r=0.99
;00:00:28.479: pe=2.5805 eb=0.0242 ve=0.6236 vn=0.6195 vl=10.000 db=0.50
G1 X-56.30 Y57.13 E17.3686              ; draw dl=0.3@10(10<10>0) de=0.020@0.48(0.62<0.62>0.0) l=0.30x0.50x1.00 r=1.27
;00:00:28.521: pe=2.5751 eb=0.0295 ve=0.0000 vn=0.5111 vl=0.000 db=0.55
G1 E13.0935 F2400                       ; retract de=-4.2751@-40.0 r=1.17
;00:00:28.628: pe=-1.7040 eb=0.0336 ve=-40.0000 vn=0.0000 vl=0.000 db=0.59
G1 Z0.500 F420                          ; hopup dz=0.20@7 h=0.5 r=0.91
;00:00:28.657: pe=-1.7040 eb=0.0336 ve=0.0000 vn=0.0000 vl=0.000 db=0.45
G1 X-53.99 Y56.46 F6000                 ; move dl=2.4@100(0<25>0) de=0.000@0.0(0.0<0.0>0.0) l=0.50x0.50x0.00 r=0.00
;00:00:28.804: pe=-1.7040 eb=0.0000 ve=0.0000 vn=0.0000 vl=0.000 db=0.00
G1 Z0.300 F420                          ; hopdn dz=-0.20@7 h=0.3 r=0.00
;00:00:28.832: pe=-1.7040 eb=0.0000 ve=0.0000 vn=0.0000 vl=0.000 db=0.00
G1 E17.3750 F1800                       ; restore de=4.2816@30.0 r=1.02
;00:00:28.975: pe=2.5519 eb=0.0256 ve=30.0000 vn=0.5723 vl=0.000 db=0.51
G1 X-54.14 Y56.45 E17.3844 F600         ; draw dl=0.2@10(0<10>10) de=0.009@0.37(0.0<0.62>0.62) l=0.30x0.50x1.00 r=1.37
;00:00:29.000: pe=2.5485 eb=0.0282 ve=0.6236 vn=0.5188 vl=10.000 db=0.54
G1 X-54.32 Y56.50 E17.3960              ; draw dl=0.2@10(10<10>10) de=0.012@0.62(0.62<0.62>0.62) l=0.30x0.50x1.00 r=0.87
;00:00:29.019: pe=2.5500 eb=0.0261 ve=0.6236 vn=0.5615 vl=10.000 db=0.52
G1 X-54.48 Y56.62 E17.4085              ; draw dl=0.2@10(10<10>10) de=0.012@0.62(0.62<0.62>0.62) l=0.30x0.50x1.00 r=0.92
;00:00:29.039: pe=2.5510 eb=0.0249 ve=0.6236 vn=0.5865 vl=10.000 db=0.50
G1 X-54.60 Y56.81 E17.4225              ; draw dl=0.2@10(10<10>10) de=0.014@0.62(0.62<0.62>0.62) l=0.30x0.50x1.00 r=0.95
;00:00:29.061: pe=2.5516 eb=0.0242 ve=0.6236 vn=0.6006 vl=10.000 db=0.50
G1 X-54.68 Y57.19 E17.4467              ; draw dl=0.4@10(10<10>10) de=0.024@0.62(0.62<0.62>0.62) l=0.30x0.50x1.00 r=0.97
;00:00:29.100: pe=2.5523 eb=0.0238 ve=0.6236 vn=0.6097 vl=10.000 db=0.49
G1 X-54.68 Y59.52 E17.5921              ; draw dl=2.3@10(10<10>0) de=0.145@0.6(0.62<0.62>0.0) l=0.30x0.50x1.00 r=1.02
;00:00:29.343: pe=2.5494 eb=0.0290 ve=0.0000 vn=0.5052 vl=0.000 db=0.54
G1 E13.3426 F2400                       ; retract de=-4.2494@-40.0 r=1.16
;00:00:29.449: pe=-1.7039 eb=0.0329 ve=-40.0000 vn=0.0000 vl=0.000 db=0.58
G1 Z0.500 F420                          ; hopup dz=0.20@7 h=0.5 r=0.90
;00:00:29.478: pe=-1.7039 eb=0.0329 ve=0.0000 vn=0.0000 vl=0.000 db=0.45
G1 X-55.18 Y58.76 F6000                 ; move dl=0.9@100(0<15>0) de=0.000@0.0(0.0<0.0>0.0) l=0.50x0.50x0.00 r=0.00
;00:00:29.568: pe=-1.7039 eb=0.0000 ve=0.0000 vn=0.0000 vl=0.000 db=0.00
G1 Z0.300 F420                          ; hopdn dz=-0.20@7 h=0.3 r=0.00
;00:00:29.597: pe=-1.7039 eb=0.0000 ve=0.0000 vn=0.0000 vl=0.000 db=0.00
G1 E17.5129 F1800                       ; restore de=4.1703@30.0 r=0.98
;00:00:29.736: pe=2.4429 eb=0.0235 ve=30.0000 vn=0.5475 vl=0.000 db=0.49
G1 X-54.10 Y58.76 E17.5803 F600         ; draw dl=1.1@10(0<10>0) de=0.067@0.53(0.0<0.62>0.0) l=0.30x0.50x1.00 r=1.03
;00:00:29.864: pe=2.4408 eb=0.0269 ve=0.0000 vn=0.4777 vl=0.000 db=0.52
G1 E13.4394 F2400                       ; retract de=-4.1408@-40.0 r=1.11
;00:00:29.967: pe=-1.7035 eb=0.0304 ve=-40.0000 vn=0.0000 vl=0.000 db=0.56
G1 Z0.500 F420                          ; hopup dz=0.20@7 h=0.5 r=0.86
;00:00:29.996: pe=-1.7035 eb=0.0304 ve=0.0000 vn=0.0000 vl=0.000 db=0.43
G1 X-52.92 Y58.26 F6000                 ; move dl=1.3@100(0<18>0) de=0.000@0.0(0.0<0.0>0.0) l=0.50x0.50x0.00 r=0.00
;00:00:30.103: pe=-1.7035 eb=0.0000 ve=0.0000 vn=0.0000 vl=0.000 db=0.00
G1 Z0.300 F420                          ; hopdn dz=-0.20@7 h=0.3 r=0.00
;00:00:30.132: pe=-1.7035 eb=0.0000 ve=0.0000 vn=0.0000 vl=0.000 db=0.00
G1 E17.6596 F1800                       ; restore de=4.2202@30.0 r=1.00
;00:00:30.273: pe=2.4922 eb=0.0244 ve=30.0000 vn=0.5588 vl=0.000 db=0.50
G1 X-51.23 Y58.26 E17.7650 F600         ; draw dl=1.7@10(0<10>0) de=0.105@0.56(0.0<0.62>0.0) l=0.30x0.50x1.00 r=1.02
;00:00:30.462: pe=2.4904 eb=0.0278 ve=0.0000 vn=0.4913 vl=0.000 db=0.53
G1 E13.5747 F2400                       ; retract de=-4.1904@-40.0 r=1.13
;00:00:30.566: pe=-1.7037 eb=0.0315 ve=-40.0000 vn=0.0000 vl=0.000 db=0.57
G1 Z0.500 F420                          ; hopup dz=0.20@7 h=0.5 r=0.88
;00:00:30.595: pe=-1.7037 eb=0.0315 ve=0.0000 vn=0.0000 vl=0.000 db=0.44
G1 X-51.23 Y57.55 F6000                 ; move dl=0.7@100(0<13>0) de=0.000@0.0(0.0<0.0>0.0) l=0.50x0.50x0.00 r=0.00
;00:00:30.675: pe=-1.7037 eb=0.0000 ve=0.0000 vn=0.0000 vl=0.000 db=0.00
G1 Z0.300 F420                          ; hopdn dz=-0.20@7 h=0.3 r=0.00
;00:00:30.703: pe=-1.7037 eb=0.0000 ve=0.0000 vn=0.0000 vl=0.000 db=0.00
G1 E17.7951 F1800                       ; restore de=4.2204@30.0 r=1.00
;00:00:30.844: pe=2.4922 eb=0.0244 ve=30.0000 vn=0.5588 vl=0.000 db=0.50
G1 X-52.92 Y57.55 E17.9005 F600         ; draw dl=1.7@10(0<10>0) de=0.105@0.56(0.0<0.62>0.0) l=0.30x0.50x1.00 r=1.02
;00:00:31.033: pe=2.4904 eb=0.0278 ve=0.0000 vn=0.4913 vl=0.000 db=0.53
G1 E13.7101 F2400                       ; retract de=-4.1904@-40.0 r=1.13
;00:00:31.138: pe=-1.7037 eb=0.0315 ve=-40.0000 vn=0.0000 vl=0.000 db=0.57
G1 Z0.500 F420                          ; hopup dz=0.20@7 h=0.5 r=0.88
;00:00:31.166: pe=-1.7037 eb=0.0315 ve=0.0000 vn=0.0000 vl=0.000 db=0.44
G1 X-48.95 Y59.94 F6000                 ; move dl=4.6@100(0<34>0) de=0.000@0.0(0.0<0.0>0.0) l=0.50x0.50x0.00 r=0.00
;00:00:31.371: pe=-1.7037 eb=0.0000 ve=0.0000 vn=0.0000 vl=0.000 db=0.00
G1 Z0.300 F420                          ; hopdn dz=-0.20@7 h=0.3 r=0.00
;00:00:31.399: pe=-1.7037 eb=0.0000 ve=0.0000 vn=0.0000 vl=0.000 db=0.00
G1 E18.0184 F1800                       ; restore de=4.3083@30.0 r=1.03
;00:00:31.543: pe=2.5784 eb=0.0261 ve=30.0000 vn=0.5783 vl=0.000 db=0.52
G1 X-48.44 Y59.80 E18.0514 F600         ; draw dl=0.5@10(0<10>10) de=0.033@0.52(0.0<0.62>0.62) l=0.30x0.50x1.00 r=1.04
;00:00:31.606: pe=2.5771 eb=0.0254 ve=0.6236 vn=0.5914 vl=10.000 db=0.51
G1 X-48.05 Y59.42 E18.0853              ; draw dl=0.5@10(10<10>10) de=0.034@0.62(0.62<0.62>0.62) l=0.30x0.50x1.00 r=0.97
;00:00:31.660: pe=2.5780 eb=0.0243 ve=0.6236 vn=0.6146 vl=10.000 db=0.50
G1 X-47.81 Y58.86 E18.1233              ; draw dl=0.6@10(10<10>10) de=0.038@0.62(0.62<0.62>0.62) l=0.30x0.50x1.00 r=0.99
;00:00:31.721: pe=2.5784 eb=0.0241 ve=0.6236 vn=0.6185 vl=10.000 db=0.50
G1 X-47.73 Y58.18 E18.1660              ; draw dl=0.7@10(10<10>10) de=0.043@0.62(0.62<0.62>0.62) l=0.30x0.50x1.00 r=0.99
;00:00:31.790: pe=2.5788 eb=0.0241 ve=0.6236 vn=0.6191 vl=10.000 db=0.50
G1 X-47.81 Y57.51 E18.2081              ; draw dl=0.7@10(10<10>10) de=0.042@0.62(0.62<0.62>0.62) l=0.30x0.50x1.00 r=0.99
;00:00:31.857: pe=2.5791 eb=0.0241 ve=0.6236 vn=0.6192 vl=10.000 db=0.50
G1 X-48.05 Y56.95 E18.2461              ; draw dl=0.6@10(10<10>10) de=0.038@0.62(0.62<0.62>0.62) l=0.30x0.50x1.00 r=0.99
;00:00:31.918: pe=2.5793 eb=0.0241 ve=0.6236 vn=0.6192 vl=10.000 db=0.50
G1 X-48.44 Y56.56 E18.2805              ; draw dl=0.6@10(10<10>10) de=0.034@0.62(0.62<0.62>0.62) l=0.30x0.50x1.00 r=0.99
;00:00:31.973: pe=2.5796 eb=0.0241 ve=0.6236 vn=0.6193 vl=10.000 db=0.50
G1 X-48.95 Y56.42 E18.3135              ; draw dl=0.5@10(10<10>10) de=0.033@0.62(0.62<0.62>0.62) l=0.30x0.50x1.00 r=0.99
;00:00:32.026: pe=2.5798 eb=0.0241 ve=0.6236 vn=0.6194 vl=10.000 db=0.50
G1 X-49.47 Y56.56 E18.3470              ; draw dl=0.5@10(10<10>10) de=0.034@0.62(0.62<0.62>0.62) l=0.30x0.50x1.00 r=0.99
;00:00:32.080: pe=2.5800 eb=0.0242 ve=0.6236 vn=0.6194 vl=10.000 db=0.50
G1 X-49.85 Y56.95 E18.3810              ; draw dl=0.5@10(10<10>10) de=0.034@0.62(0.62<0.62>0.62) l=0.30x0.50x1.00 r=0.99
;00:00:32.134: pe=2.5803 eb=0.0242 ve=0.6236 vn=0.6195 vl=10.000 db=0.50
G1 X-50.09 Y57.51 E18.4190              ; draw dl=0.6@10(10<10>10) de=0.038@0.62(0.62<0.62>0.62) l=0.30x0.50x1.00 r=0.99
;00:00:32.195: pe=2.5805 eb=0.0242 ve=0.6236 vn=0.6195 vl=10.000 db=0.50
G1 X-50.17 Y58.18 E18.4611              ; draw dl=0.7@10(10<10>10) de=0.042@0.62(0.62<0.62>0.62) l=0.30x0.50x1.00 r=0.99
;00:00:32.263: pe=2.5808 eb=0.0242 ve=0.6236 vn=0.6196 vl=10.000 db=0.50
G1 X-50.09 Y58.85 E18.5032              ; draw dl=0.7@10(10<10>10) de=0.042@0.62(0.62<0.62>0.62) l=0.30x0.50x1.00 r=0.99
;00:00:32.330: pe=2.5811 eb=0.0242 ve=0.6236 vn=0.6197 vl=10.000 db=0.50
G1 X-49.85 Y59.42 E18.5417              ; draw dl=0.6@10(10<10>10) de=0.039@0.62(0.62<0.62>0.62) l=0.30x0.50x1.00 r=0.99
;00:00:32.392: pe=2.5813 eb=0.0242 ve=0.6236 vn=0.6197 vl=10.000 db=0.50
G1 X-49.47 Y59.80 E18.5752              ; draw dl=0.5@10(10<10>10) de=0.034@0.62(0.62<0.62>0.62) l=0.30x0.50x1.00 r=0.99
;00:00:32.446: pe=2.5815 eb=0.0242 ve=0.6236 vn=0.6198 vl=10.000 db=0.50
G1 X-48.95 Y59.94 E18.6088              ; draw dl=0.5@10(10<10>0) de=0.034@0.53(0.62<0.62>0.0) l=0.30x0.50x1.00 r=1.16
;00:00:32.510: pe=2.5762 eb=0.0296 ve=0.0000 vn=0.5113 vl=0.000 db=0.55
G1 E14.3326 F2400                       ; retract de=-4.2762@-40.0 r=1.17
;00:00:32.617: pe=-1.7040 eb=0.0336 ve=-40.0000 vn=0.0000 vl=0.000 db=0.59
G1 Z0.500 F420                          ; hopup dz=0.20@7 h=0.5 r=0.91
;00:00:32.645: pe=-1.7040 eb=0.0336 ve=0.0000 vn=0.0000 vl=0.000 db=0.45
;structure:shell-outer
G1 X70.00 Y0.00 F6000                   ; move dl=133.2@100(0<100>0) de=0.000@0.0(0.0<0.0>0.0) l=0.50x0.50x0.00 r=0.00
;00:00:34.177: pe=-1.7040 eb=0.0000 ve=0.0000 vn=0.0000 vl=0.000 db=0.00
G1 Z0.300 F420                          ; hopdn dz=-0.20@7 h=0.3 r=0.00
;00:00:34.206: pe=-1.7040 eb=0.0000 ve=0.0000 vn=0.0000 vl=0.000 db=0.00
G1 E18.6509 F1800                       ; restore de=4.3183@30.0 r=1.04
;00:00:34.350: pe=2.5879 eb=0.0263 ve=30.0000 vn=0.5804 vl=0.000 db=0.52
;00:00:34.350: spiral RC0=(70.0,0.000) dRC=(0.0,1.000) dl=439.8@10 de=27.429@0.6 l=0.30x0.50x1.00
G1 X69.73 Y6.10 E19.0317 F600           ; draw dl=6.1@10(0<10>10) de=0.381@0.61(0.0<0.62>0.62) l=0.30x0.50x1.00 r=1.00
;00:00:34.970: pe=2.5886 eb=0.0243 ve=0.6236 vn=0.6214 vl=10.000 db=0.50
G1 X68.94 Y12.16 E19.4126               ; draw dl=6.1@10(10<10>10) de=0.381@0.62(0.62<0.62>0.62) l=0.30x0.50x1.00 r=1.00
;00:00:35.581: pe=2.5898 eb=0.0243 ve=0.6236 vn=0.6217 vl=10.000 db=0.50
G1 X67.61 Y18.12 E19.7934               ; draw dl=6.1@10(10<10>10) de=0.381@0.62(0.62<0.62>0.62) l=0.30x0.50x1.00 r=1.00
;00:00:36.192: pe=2.5909 eb=0.0244 ve=0.6236 vn=0.6220 vl=10.000 db=0.50
G1 X65.78 Y23.94 E20.1742               ; draw dl=6.1@10(10<10>10) de=0.381@0.62(0.62<0.62>0.62) l=0.30x0.50x1.00 r=1.00
;00:00:36.802: pe=2.5918 eb=0.0244 ve=0.6236 vn=0.6222 vl=10.000 db=0.50
G1 X63.44 Y29.58 E20.5551               ; draw dl=6.1@10(10<10>10) de=0.381@0.62(0.62<0.62>0.62) l=0.30x0.50x1.00 r=1.00
;00:00:37.413: pe=2.5926 eb=0.0244 ve=0.6236 vn=0.6224 vl=10.000 db=0.50
G1 X60.62 Y35.00 E20.9359               ; draw dl=6.1@10(10<10>10) de=0.381@0.62(0.62<0.62>0.62) l=0.30x0.50x1.00 r=1.00
;00:00:38.024: pe=2.5933 eb=0.0244 ve=0.6236 vn=0.6226 vl=10.000 db=0.50
G1 X57.34 Y40.15 E21.3167               ; draw dl=6.1@10(10<10>10) de=0.381@0.62(0.62<0.62>0.62) l=0.30x0.50x1.00 r=1.00
;00:00:38.634: pe=2.5939 eb=0.0244 ve=0.6236 vn=0.6227 vl=10.000 db=0.50
G1 X53.62 Y45.00 E21.6976               ; draw dl=6.1@10(10<10>10) de=0.381@0.62(0.62<0.62>0.62) l=0.30x0.50x1.00 r=1.00
;00:00:39.245: pe=2.5945 eb=0.0244 ve=0.6236 vn=0.6228 vl=10.000 db=0.50
G1 X49.50 Y49.50 E22.0784               ; draw dl=6.1@10(10<10>10) de=0.381@0.62(0.62<0.62>0.62) l=0.30x0.50x1.00 r=1.00
;00:00:39.856: pe=2.5949 eb=0.0244 ve=0.6236 vn=0.6229 vl=10.000 db=0.50
G1 X45.00 Y53.62 E22.4592               ; draw dl=6.1@10(10<10>10) de=0.381@0.62(0.62<0.62>0.62) l=0.30x0.50x1.00 r=1.00
;00:00:40.466: pe=2.5953 eb=0.0244 ve=0.6236 vn=0.6230 vl=10.000 db=0.50
G1 X40.15 Y57.34 E22.8400               ; draw dl=6.1@10(10<10>10) de=0.381@0.62(0.62<0.62>0.62) l=0.30x0.50x1.00 r=1.00
;00:00:41.077: pe=2.5956 eb=0.0244 ve=0.6236 vn=0.6231 vl=10.000 db=0.50
G1 X35.00 Y60.62 E23.2209               ; draw dl=6.1@10(10<10>10) de=0.381@0.62(0.62<0.62>0.62) l=0.30x0.50x1.00 r=1.00
;00:00:41.688: pe=2.5959 eb=0.0245 ve=0.6236 vn=0.6232 vl=10.000 db=0.50
G1 X29.58 Y63.44 E23.6017               ; draw dl=6.1@10(10<10>10) de=0.381@0.62(0.62<0.62>0.62) l=0.30x0.50x1.00 r=1.00
;00:00:42.298: pe=2.5962 eb=0.0245 ve=0.6236 vn=0.6232 vl=10.000 db=0.50
G1 X23.94 Y65.78 E23.9825               ; draw dl=6.1@10(10<10>10) de=0.381@0.62(0.62<0.62>0.62) l=0.30x0.50x1.00 r=1.00
;00:00:42.909: pe=2.5964 eb=0.0245 ve=0.6236 vn=0.6233 vl=10.000 db=0.50
G1 X18.12 Y67.61 E24.3634               ; draw dl=6.1@10(10<10>10) de=0.381@0.62(0.62<0.62>0.62) l=0.30x0.50x1.00 r=1.00
;00:00:43.520: pe=2.5966 eb=0.0245 ve=0.6236 vn=0.6233 vl=10.000 db=0.50
G1 X12.16 Y68.94 E24.7442               ; draw dl=6.1@10(10<10>10) de=0.381@0.62(0.62<0.62>0.62) l=0.30x0.50x1.00 r=1.00
;00:00:44.130: pe=2.5968 eb=0.0245 ve=0.6236 vn=0.6234 vl=10.000 db=0.50
G1 X6.10 Y69.73 E25.1250                ; draw dl=6.1@10(10<10>10) de=0.381@0.62(0.62<0.62>0.62) l=0.30x0.50x1.00 r=1.00
;00:00:44.741: pe=2.5969 eb=0.0245 ve=0.6236 vn=0.6234 vl=10.000 db=0.50
G1 X0.00 Y70.00 E25.5059                ; draw dl=6.1@10(10<10>10) de=0.381@0.62(0.62<0.62>0.62) l=0.30x0.50x1.00 r=1.00
;00:00:45.352: pe=2.5970 eb=0.0245 ve=0.6236 vn=0.6234 vl=10.000 db=0.50
G1 X-6.10 Y69.73 E25.8867               ; draw dl=6.1@10(10<10>10) de=0.381@0.62(0.62<0.62>0.62) l=0.30x0.50x1.00 r=1.00
;00:00:45.962: pe=2.5971 eb=0.0245 ve=0.6236 vn=0.6235 vl=10.000 db=0.50
G1 X-12.16 Y68.94 E26.2675              ; draw dl=6.1@10(10<10>10) de=0.381@0.62(0.62<0.62>0.62) l=0.30x0.50x1.00 r=1.00
;00:00:46.573: pe=2.5972 eb=0.0245 ve=0.6236 vn=0.6235 vl=10.000 db=0.50
G1 X-18.12 Y67.61 E26.6484              ; draw dl=6.1@10(10<10>10) de=0.381@0.62(0.62<0.62>0.62) l=0.30x0.50x1.00 r=1.00
;00:00:47.184: pe=2.5973 eb=0.0245 ve=0.6236 vn=0.6235 vl=10.000 db=0.50
G1 X-23.94 Y65.78 E27.0292              ; draw dl=6.1@10(10<10>10) de=0.381@0.62(0.62<0.62>0.62) l=0.30x0.50x1.00 r=1.00
;00:00:47.794: pe=2.5974 eb=0.0245 ve=0.6236 vn=0.6235 vl=10.000 db=0.50
G1 X-29.58 Y63.44 E27.4100              ; draw dl=6.1@10(10<10>10) de=0.381@0.62(0.62<0.62>0.62) l=0.30x0.50x1.00 r=1.00
;00:00:48.405: pe=2.5974 eb=0.0245 ve=0.6236 vn=0.6235 vl=10.000 db=0.50
G1 X-35.00 Y60.62 E27.7909              ; draw dl=6.1@10(10<10>10) de=0.381@0.62(0.62<0.62>0.62) l=0.30x0.50x1.00 r=1.00
;00:00:49.016: pe=2.5975 eb=0.0245 ve=0.6236 vn=0.6236 vl=10.000 db=0.50
G1 X-40.15 Y57.34 E28.1717              ; draw dl=6.1@10(10<10>10) de=0.381@0.62(0.62<0.62>0.62) l=0.30x0.50x1.00 r=1.00
;00:00:49.626: pe=2.5975 eb=0.0245 ve=0.6236 vn=0.6236 vl=10.000 db=0.50
G1 X-45.00 Y53.62 E28.5525              ; draw dl=6.1@10(10<10>10) de=0.381@0.62(0.62<0.62>0.62) l=0.30x0.50x1.00 r=1.00
;00:00:50.237: pe=2.5976 eb=0.0245 ve=0.6236 vn=0.6236 vl=10.000 db=0.50
G1 X-49.50 Y49.50 E28.9334              ; draw dl=6.1@10(10<10>10) de=0.381@0.62(0.62<0.62>0.62) l=0.30x0.50x1.00 r=1.00
;00:00:50.848: pe=2.5976 eb=0.0245 ve=0.6236 vn=0.6236 vl=10.000 db=0.50
G1 X-53.62 Y45.00 E29.3142              ; draw dl=6.1@10(10<10>10) de=0.381@0.62(0.62<0.62>0.62) l=0.30x0.50x1.00 r=1.00
;00:00:51.458: pe=2.5976 eb=0.0245 ve=0.6236 vn=0.6236 vl=10.000 db=0.50
G1 X-57.34 Y40.15 E29.6950              ; draw dl=6.1@10(10<10>10) de=0.381@0.62(0.62<0.62>0.62) l=0.30x0.50x1.00 r=1.00
;00:00:52.069: pe=2.5976 eb=0.0245 ve=0.6236 vn=0.6236 vl=10.000 db=0.50
G1 X-60.62 Y35.00 E30.0759              ; draw dl=6.1@10(10<10>10) de=0.381@0.62(0.62<0.62>0.62) l=0.30x0.50x1.00 r=1.00
;00:00:52.680: pe=2.5977 eb=0.0245 ve=0.6236 vn=0.6236 vl=10.000 db=0.50
G1 X-63.44 Y29.58 E30.4567              ; draw dl=6.1@10(10<10>10) de=0.381@0.62(0.62<0.62>0.62) l=0.30x0.50x1.00 r=1.00
;00:00:53.290: pe=2.5977 eb=0.0245 ve=0.6236 vn=0.6236 vl=10.000 db=0.50
G1 X-65.78 Y23.94 E30.8375              ; draw dl=6.1@10(10<10>10) de=0.381@0.62(0.62<0.62>0.62) l=0.30x0.50x1.00 r=1.00
;00:00:53.901: pe=2.5977 eb=0.0245 ve=0.6236 vn=0.6236 vl=10.000 db=0.50
G1 X-67.61 Y18.12 E31.2183              ; draw dl=6.1@10(10<10>10) de=0.381@0.62(0.62<0.62>0.62) l=0.30x0.50x1.00 r=1.00
;00:00:54.512: pe=2.5977 eb=0.0245 ve=0.6236 vn=0.6236 vl=10.000 db=0.50
G1 X-68.94 Y12.16 E31.5992              ; draw dl=6.1@10(10<10>10) de=0.381@0.62(0.62<0.62>0.62) l=0.30x0.50x1.00 r=1.00
;00:00:55.122: pe=2.5977 eb=0.0245 ve=0.6236 vn=0.6236 vl=10.000 db=0.50
G1 X-69.73 Y6.10 E31.9800               ; draw dl=6.1@10(10<10>10) de=0.381@0.62(0.62<0.62>0.62) l=0.30x0.50x1.00 r=1.00
;00:00:55.733: pe=2.5977 eb=0.0245 ve=0.6236 vn=0.6236 vl=10.000 db=0.50
G1 X-70.00 Y0.00 E32.3608               ; draw dl=6.1@10(10<10>10) de=0.381@0.62(0.62<0.62>0.62) l=0.30x0.50x1.00 r=1.00
;00:00:56.344: pe=2.5977 eb=0.0245 ve=0.6236 vn=0.6236 vl=10.000 db=0.50
G1 X-69.73 Y-6.10 E32.7417              ; draw dl=6.1@10(10<10>10) de=0.381@0.62(0.62<0.62>0.62) l=0.30x0.50x1.00 r=1.00
;00:00:56.954: pe=2.5978 eb=0.0245 ve=0.6236 vn=0.6236 vl=10.000 db=0.50
G1 X-68.94 Y-12.16 E33.1225             ; draw dl=6.1@10(10<10>10) de=0.381@0.62(0.62<0.62>0.62) l=0.30x0.50x1.00 r=1.00
;00:00:57.565: pe=2.5978 eb=0.0245 ve=0.6236 vn=0.6236 vl=10.000 db=0.50
G1 X-67.61 Y-18.12 E33.5033             ; draw dl=6.1@10(10<10>10) de=0.381@0.62(0.62<0.62>0.62) l=0.30x0.50x1.00 r=1.00
;00:00:58.176: pe=2.5978 eb=0.0245 ve=0.6236 vn=0.6236 vl=10.000 db=0.50
G1 X-65.78 Y-23.94 E33.8842             ; draw dl=6.1@10(10<10>10) de=0.381@0.62(0.62<0.62>0.62) l=0.30x0.50x1.00 r=1.00
;00:00:58.786: pe=2.5978 eb=0.0245 ve=0.6236 vn=0.6236 vl=10.000 db=0.50
G1 X-63.44 Y-29.58 E34.2650             ; draw dl=6.1@10(10<10>10) de=0.381@0.62(0.62<0.62>0.62) l=0.30x0.50x1.00 r=1.00
;00:00:59.397: pe=2.5978 eb=0.0245 ve=0.6236 vn=0.6236 vl=10.000 db=0.50
G1 X-60.62 Y-35.00 E34.6458             ; draw dl=6.1@10(10<10>10) de=0.381@0.62(0.62<0.62>0.62) l=0.30x0.50x1.00 r=1.00
;00:01:00.008: pe=2.5978 eb=0.0245 ve=0.6236 vn=0.6236 vl=10.000 db=0.50
G1 X-57.34 Y-40.15 E35.0267             ; draw dl=6.1@10(10<10>10) de=0.381@0.62(0.62<0.62>0.62) l=0.30x0.50x1.00 r=1.00
;00:01:00.619: pe=2.5978 eb=0.0245 ve=0.6236 vn=0.6236 vl=10.000 db=0.50
G1 X-53.62 Y-45.00 E35.4075             ; draw dl=6.1@10(10<10>10) de=0.381@0.62(0.62<0.62>0.62) l=0.30x0.50x1.00 r=1.00
;00:01:01.229: pe=2.5978 eb=0.0245 ve=0.6236 vn=0.6236 vl=10.000 db=0.50
G1 X-49.50 Y-49.50 E35.7883             ; draw dl=6.1@10(10<10>10) de=0.381@0.62(0.62<0.62>0.62) l=0.30x0.50x1.00 r=1.00
;00:01:01.840: pe=2.5978 eb=0.0245 ve=0.6236 vn=0.6236 vl=10.000 db=0.50
G1 X-45.00 Y-53.62 E36.1692             ; draw dl=6.1@10(10<10>10) de=0.381@0.62(0.62<0.62>0.62) l=0.30x0.50x1.00 r=1.00
;00:01:02.451: pe=2.5978 eb=0.0245 ve=0.6236 vn=0.6236 vl=10.000 db=0.50
G1 X-40.15 Y-57.34 E36.5500             ; draw dl=6.1@10(10<10>10) de=0.381@0.62(0.62<0.62>0.62) l=0.30x0.50x1.00 r=1.00
;00:01:03.061: pe=2.5978 eb=0.0245 ve=0.6236 vn=0.6236 vl=10.000 db=0.50
G1 X-35.00 Y-60.62 E36.9308             ; draw dl=6.1@10(10<10>10) de=0.381@0.62(0.62<0.62>0.62) l=0.30x0.50x1.00 r=1.00
;00:01:03.672: pe=2.5978 eb=0.0245 ve=0.6236 vn=0.6236 vl=10.000 db=0.50
G1 X-29.58 Y-63.44 E37.3117             ; draw dl=6.1@10(10<10>10) de=0.381@0.62(0.62<0.62>0.62) l=0.30x0.50x1.00 r=1.00
;00:01:04.283: pe=2.5978 eb=0.0245 ve=0.6236 vn=0.6236 vl=10.000 db=0.50
G1 X-23.94 Y-65.78 E37.6925             ; draw dl=6.1@10(10<10>10) de=0.381@0.62(0.62<0.62>0.62) l=0.30x0.50x1.00 r=1.00
;00:01:04.893: pe=2.5978 eb=0.0245 ve=0.6236 vn=0.6236 vl=10.000 db=0.50
G1 X-18.12 Y-67.61 E38.0733             ; draw dl=6.1@10(10<10>10) de=0.381@0.62(0.62<0.62>0.62) l=0.30x0.50x1.00 r=1.00
;00:01:05.504: pe=2.5978 eb=0.0245 ve=0.6236 vn=0.6236 vl=10.000 db=0.50
G1 X-12.16 Y-68.94 E38.4541             ; draw dl=6.1@10(10<10>10) de=0.381@0.62(0.62<0.62>0.62) l=0.30x0.50x1.00 r=1.00
;00:01:06.115: pe=2.5978 eb=0.0245 ve=0.6236 vn=0.6236 vl=10.000 db=0.50
G1 X-6.10 Y-69.73 E38.8350              ; draw dl=6.1@10(10<10>10) de=0.381@0.62(0.62<0.62>0.62) l=0.30x0.50x1.00 r=1.00
;00:01:06.725: pe=2.5978 eb=0.0245 ve=0.6236 vn=0.6236 vl=10.000 db=0.50
G1 X0.00 Y-70.00 E39.2158               ; draw dl=6.1@10(10<10>10) de=0.381@0.62(0.62<0.62>0.62) l=0.30x0.50x1.00 r=1.00
;00:01:07.336: pe=2.5978 eb=0.0245 ve=0.6236 vn=0.6236 vl=10.000 db=0.50
G1 X6.10 Y-69.73 E39.5966               ; draw dl=6.1@10(10<10>10) de=0.381@0.62(0.62<0.62>0.62) l=0.30x0.50x1.00 r=1.00
;00:01:07.947: pe=2.5978 eb=0.0245 ve=0.6236 vn=0.6236 vl=10.000 db=0.50
G1 X12.16 Y-68.94 E39.9775              ; draw dl=6.1@10(10<10>10) de=0.381@0.62(0.62<0.62>0.62) l=0.30x0.50x1.00 r=1.00
;00:01:08.557: pe=2.5978 eb=0.0245 ve=0.6236 vn=0.6236 vl=10.000 db=0.50
G1 X18.12 Y-67.61 E40.3583              ; draw dl=6.1@10(10<10>10) de=0.381@0.62(0.62<0.62>0.62) l=0.30x0.50x1.00 r=1.00
;00:01:09.168: pe=2.5978 eb=0.0245 ve=0.6236 vn=0.6236 vl=10.000 db=0.50
G1 X23.94 Y-65.78 E40.7391              ; draw dl=6.1@10(10<10>10) de=0.381@0.62(0.62<0.62>0.62) l=0.30x0.50x1.00 r=1.00
;00:01:09.779: pe=2.5978 eb=0.0245 ve=0.6236 vn=0.6236 vl=10.000 db=0.50
G1 X29.58 Y-63.44 E41.1200              ; draw dl=6.1@10(10<10>10) de=0.381@0.62(0.62<0.62>0.62) l=0.30x0.50x1.00 r=1.00
;00:01:10.389: pe=2.5978 eb=0.0245 ve=0.6236 vn=0.6236 vl=10.000 db=0.50
G1 X35.00 Y-60.62 E41.5008              ; draw dl=6.1@10(10<10>10) de=0.381@0.62(0.62<0.62>0.62) l=0.30x0.50x1.00 r=1.00
;00:01:11.000: pe=2.5978 eb=0.0245 ve=0.6236 vn=0.6236 vl=10.000 db=0.50
G1 X40.15 Y-57.34 E41.8816              ; draw dl=6.1@10(10<10>10) de=0.381@0.62(0.62<0.62>0.62) l=0.30x0.50x1.00 r=1.00
;00:01:11.611: pe=2.5978 eb=0.0245 ve=0.6236 vn=0.6236 vl=10.000 db=0.50
G1 X45.00 Y-53.62 E42.2625              ; draw dl=6.1@10(10<10>10) de=0.381@0.62(0.62<0.62>0.62) l=0.30x0.50x1.00 r=1.00
;00:01:12.221: pe=2.5978 eb=0.0245 ve=0.6236 vn=0.6236 vl=10.000 db=0.50
G1 X49.50 Y-49.50 E42.6433              ; draw dl=6.1@10(10<10>10) de=0.381@0.62(0.62<0.62>0.62) l=0.30x0.50x1.00 r=1.00
;00:01:12.832: pe=2.5978 eb=0.0245 ve=0.6236 vn=0.6236 vl=10.000 db=0.50
G1 X53.62 Y-45.00 E43.0241              ; draw dl=6.1@10(10<10>10) de=0.381@0.62(0.62<0.62>0.62) l=0.30x0.50x1.00 r=1.00
;00:01:13.443: pe=2.5978 eb=0.0245 ve=0.6236 vn=0.6236 vl=10.000 db=0.50
G1 X57.34 Y-40.15 E43.4050              ; draw dl=6.1@10(10<10>10) de=0.381@0.62(0.62<0.62>0.62) l=0.30x0.50x1.00 r=1.00
;00:01:14.053: pe=2.5978 eb=0.0245 ve=0.6236 vn=0.6236 vl=10.000 db=0.50
G1 X60.62 Y-35.00 E43.7858              ; draw dl=6.1@10(10<10>10) de=0.381@0.62(0.62<0.62>0.62) l=0.30x0.50x1.00 r=1.00
;00:01:14.664: pe=2.5978 eb=0.0245 ve=0.6236 vn=0.6236 vl=10.000 db=0.50
G1 X63.44 Y-29.58 E44.1666              ; draw dl=6.1@10(10<10>10) de=0.381@0.62(0.62<0.62>0.62) l=0.30x0.50x1.00 r=1.00
;00:01:15.275: pe=2.5978 eb=0.0245 ve=0.6236 vn=0.6236 vl=10.000 db=0.50
G1 X65.78 Y-23.94 E44.5475              ; draw dl=6.1@10(10<10>10) de=0.381@0.62(0.62<0.62>0.62) l=0.30x0.50x1.00 r=1.00
;00:01:15.885: pe=2.5978 eb=0.0245 ve=0.6236 vn=0.6236 vl=10.000 db=0.50
G1 X67.61 Y-18.12 E44.9283              ; draw dl=6.1@10(10<10>10) de=0.381@0.62(0.62<0.62>0.62) l=0.30x0.50x1.00 r=1.00
;00:01:16.496: pe=2.5978 eb=0.0245 ve=0.6236 vn=0.6236 vl=10.000 db=0.50
G1 X68.94 Y-12.16 E45.3091              ; draw dl=6.1@10(10<10>10) de=0.381@0.62(0.62<0.62>0.62) l=0.30x0.50x1.00 r=1.00
;00:01:17.107: pe=2.5978 eb=0.0245 ve=0.6236 vn=0.6236 vl=10.000 db=0.50
G1 X69.73 Y-6.10 E45.6900               ; draw dl=6.1@10(10<10>10) de=0.381@0.62(0.62<0.62>0.62) l=0.30x0.50x1.00 r=1.00
;00:01:17.717: pe=2.5978 eb=0.0245 ve=0.6236 vn=0.6236 vl=10.000 db=0.50
G1 X70.00 Y0.00 E46.0708                ; draw dl=6.1@10(10<10>0) de=0.381@0.61(0.62<0.62>0.0) l=0.30x0.50x1.00 r=1.01
;00:01:18.338: pe=2.5923 eb=0.0299 ve=0.0000 vn=0.5150 vl=0.000 db=0.55
;00:01:18.338: skipping empty move move dl=0.0@10(0<0>0) de=0.000@0.0(0.0<0.0>0.0) l=0.30x0.50x0.00
G1 E41.7785 F2400                       ; retract de=-4.2923@-40.0 r=1.18
;00:01:18.445: pe=-1.7041 eb=0.0340 ve=-40.0000 vn=0.0000 vl=0.000 db=0.59
G1 Z0.500 F420                          ; hopup dz=0.20@7 h=0.5 r=0.91
;00:01:18.474: pe=-1.7041 eb=0.0340 ve=0.0000 vn=0.0000 vl=0.000 db=0.46
;00:01:18.474: skipping empty move move dl=0.0@7(0<0>0) de=0.000@0.0(0.0<0.0>0.0) l=0.50x0.50x0.00
G1 Z0.300                               ; hopdn dz=-0.20@7 h=0.3 r=1.18
;00:01:18.502: pe=-1.7041 eb=0.0340 ve=0.0000 vn=0.0000 vl=0.000 db=0.59
G1 E46.0425 F1800                       ; restore de=4.2640@30.0 r=1.25
;00:01:18.645: pe=2.5556 eb=0.0384 ve=30.0000 vn=0.3454 vl=0.000 db=0.63
G1 X73.00 Y0.00 E46.2296 F600           ; draw dl=3.0@10(0<10>0) de=0.187@0.58(0.0<0.62>0.0) l=0.30x0.50x1.00 r=0.97
;00:01:18.965: pe=2.5602 eb=0.0292 ve=0.0000 vn=0.5077 vl=0.000 db=0.55
G1 E41.9694 F2400                       ; retract de=-4.2602@-40.0 r=1.16
;00:01:19.071: pe=-1.7040 eb=0.0332 ve=-40.0000 vn=0.0000 vl=0.000 db=0.58
G1 Z0.500 F420                          ; hopup dz=0.20@7 h=0.5 r=0.90
;00:01:19.100: pe=-1.7040 eb=0.0332 ve=0.0000 vn=0.0000 vl=0.000 db=0.45
G1 X69.73 Y6.10 F6000                   ; move dl=6.9@100(0<42>0) de=0.000@0.0(0.0<0.0>0.0) l=0.50x0.50x0.00 r=0.00
;00:01:19.349: pe=-1.7040 eb=0.0000 ve=0.0000 vn=0.0000 vl=0.000 db=0.00
G1 Z0.300 F420                          ; hopdn dz=-0.20@7 h=0.3 r=0.00
;00:01:19.378: pe=-1.7040 eb=0.0000 ve=0.0000 vn=0.0000 vl=0.000 db=0.00
G1 E46.1783 F1800                       ; restore de=4.2089@30.0 r=0.99
;00:01:19.518: pe=2.4807 eb=0.0242 ve=30.0000 vn=0.5562 vl=0.000 db=0.50
G1 X71.23 Y6.23 E46.2718 F600           ; draw dl=1.5@10(0<10>0) de=0.094@0.55(0.0<0.62>0.0) l=0.30x0.50x1.00 r=1.02
;00:01:19.688: pe=2.4788 eb=0.0276 ve=0.0000 vn=0.4883 vl=0.000 db=0.53
G1 E42.0930 F2400                       ; retract de=-4.1788@-40.0 r=1.13
;00:01:19.793: pe=-1.7037 eb=0.0312 ve=-40.0000 vn=0.0000 vl=0.000 db=0.56
G1 Z0.500 F420                          ; hopup dz=0.20@7 h=0.5 r=0.87
;00:01:19.821: pe=-1.7037 eb=0.0312 ve=0.0000 vn=0.0000 vl=0.000 db=0.44
G1 X68.94 Y12.16 F6000                  ; move dl=6.4@100(0<40>0) de=0.000@0.0(0.0<0.0>0.0) l=0.50x0.50x0.00 r=0.00
;00:01:20.060: pe=-1.7037 eb=0.0000 ve=0.0000 vn=0.0000 vl=0.000 db=0.00
G1 Z0.300 F420                          ; hopdn dz=-0.20@7 h=0.3 r=0.00
;00:01:20.089: pe=-1.7037 eb=0.0000 ve=0.0000 vn=0.0000 vl=0.000 db=0.00
G1 E46.3016 F1800                       ; restore de=4.2086@30.0 r=0.99
;00:01:20.229: pe=2.4807 eb=0.0242 ve=30.0000 vn=0.5562 vl=0.000 db=0.50
G1 X70.41 Y12.42 E46.3951 F600          ; draw dl=1.5@10(0<10>0) de=0.094@0.55(0.0<0.62>0.0) l=0.30x0.50x1.00 r=1.02
;00:01:20.399: pe=2.4788 eb=0.0276 ve=0.0000 vn=0.4883 vl=0.000 db=0.53
G1 E42.2164 F2400                       ; retract de=-4.1788@-40.0 r=1.13
;00:01:20.504: pe=-1.7037 eb=0.0312 ve=-40.0000 vn=0.0000 vl=0.000 db=0.56
G1 Z0.500 F420                          ; hopup dz=0.20@7 h=0.5 r=0.87
;00:01:20.532: pe=-1.7037 eb=0.0312 ve=0.0000 vn=0.0000 vl=0.000 db=0.44
G1 X67.61 Y18.12 F6000                  ; move dl=6.4@100(0<40>0) de=0.000@0.0(0.0<0.0>0.0) l=0.50x0.50x0.00 r=0.00
;00:01:20.771: pe=-1.7037 eb=0.0000 ve=0.0000 vn=0.0000 vl=0.000 db=0.00
G1 Z0.300 F420                          ; hopdn dz=-0.20@7 h=0.3 r=0.00
;00:01:20.800: pe=-1.7037 eb=0.0000 ve=0.0000 vn=0.0000 vl=0.000 db=0.00
G1 E46.4249 F1800                       ; restore de=4.2086@30.0 r=0.99
;00:01:20.940: pe=2.4807 eb=0.0242 ve=30.0000 vn=0.5562 vl=0.000 db=0.50
G1 X69.06 Y18.51 E46.5185 F600          ; draw dl=1.5@10(0<10>0) de=0.094@0.55(0.0<0.62>0.0) l=0.30x0.50x1.00 r=1.02
;00:01:21.110: pe=2.4788 eb=0.0276 ve=0.0000 vn=0.4883 vl=0.000 db=0.53
G1 E42.3397 F2400                       ; retract de=-4.1788@-40.0 r=1.13
;00:01:21.215: pe=-1.7037 eb=0.0312 ve=-40.0000 vn=0.0000 vl=0.000 db=0.56
G1 Z0.500 F420                          ; hopup dz=0.20@7 h=0.5 r=0.87
;00:01:21.243: pe=-1.7037 eb=0.0312 ve=0.0000 vn=0.0000 vl=0.000 db=0.44
G1 X65.78 Y23.94 F6000                  ; move dl=6.4@100(0<40>0) de=0.000@0.0(0.0<0.0>0.0) l=0.50x0.50x0.00 r=0.00
;00:01:21.482: pe=-1.7037 eb=0.0000 ve=0.0000 vn=0.0000 vl=0.000 db=0.00
G1 Z0.300 F420                          ; hopdn dz=-0.20@7 h=0.3 r=0.00
;00:01:21.511: pe=-1.7037 eb=0.0000 ve=0.0000 vn=0.0000 vl=0.000 db=0.00
G1 E46.5483 F1800                       ; restore de=4.2086@30.0 r=0.99
;00:01:21.651: pe=2.4807 eb=0.0242 ve=30.0000 vn=0.5562 vl=0.000 db=0.50
G1 X67.19 Y24.45 E46.6418 F600          ; draw dl=1.5@10(0<10>0) de=0.094@0.55(0.0<0.62>0.0) l=0.30x0.50x1.00 r=1.02
;00:01:21.821: pe=2.4788 eb=0.0276 ve=0.0000 vn=0.4883 vl=0.000 db=0.53
G1 E42.4631 F2400                       ; retract de=-4.1788@-40.0 r=1.13
;00:01:21.925: pe=-1.7037 eb=0.0312 ve=-40.0000 vn=0.0000 vl=0.000 db=0.56
G1 Z0.500 F420                          ; hopup dz=0.20@7 h=0.5 r=0.87
;00:01:21.954: pe=-1.7037 eb=0.0312 ve=0.0000 vn=0.0000 vl=0.000 db=0.44
G1 X63.44 Y29.58 F6000                  ; move dl=6.4@100(0<40>0) de=0.000@0.0(0.0<0.0>0.0) l=0.50x0.50x0.00 r=0.00
;00:01:22.193: pe=-1.7037 eb=0.0000 ve=0.0000 vn=0.0000 vl=0.000 db=0.00
G1 Z0.300 F420                          ; hopdn dz=-0.20@7 h=0.3 r=0.00
;00:01:22.222: pe=-1.7037 eb=0.0000 ve=0.0000 vn=0.0000 vl=0.000 db=0.00
G1 E46.6716 F1800                       ; restore de=4.2086@30.0 r=0.99
;00:01:22.362: pe=2.4807 eb=0.0242 ve=30.0000 vn=0.5562 vl=0.000 db=0.50
G1 X64.80 Y30.22 E46.7652 F600          ; draw dl=1.5@10(0<10>0) de=0.094@0.55(0.0<0.62>0.0) l=0.30x0.50x1.00 r=1.02
;00:01:22.532: pe=2.4788 eb=0.0276 ve=0.0000 vn=0.4883 vl=0.000 db=0.53
G1 E42.5864 F2400                       ; retract de=-4.1788@-40.0 r=1.13
;00:01:22.636: pe=-1.7037 eb=0.0312 ve=-40.0000 vn=0.0000 vl=0.000 db=0.56
G1 Z0.500 F420                          ; hopup dz=0.20@7 h=0.5 r=0.87
;00:01:22.665: pe=-1.7037 eb=0.0312 ve=0.0000 vn=0.0000 vl=0.000 db=0.44
G1 X60.62 Y35.00 F6000                  ; move dl=6.4@100(0<40>0) de=0.000@0.0(0.0<0.0>0.0) l=0.50x0.50x0.00 r=0.00
;00:01:22.904: pe=-1.7037 eb=0.0000 ve=0.0000 vn=0.0000 vl=0.000 db=0.00
G1 Z0.300 F420                          ; hopdn dz=-0.20@7 h=0.3 r=0.00
;00:01:22.933: pe=-1.7037 eb=0.0000 ve=0.0000 vn=0.0000 vl=0.000 db=0.00
G1 E46.8500 F1800                       ; restore de=4.2636@30.0 r=1.02
;00:01:23.075: pe=2.5347 eb=0.0253 ve=30.0000 vn=0.5684 vl=0.000 db=0.51
G1 X63.22 Y36.50 E47.0371 F600          ; draw dl=3.0@10(0<10>0) de=0.187@0.58(0.0<0.62>0.0) l=0.30x0.50x1.00 r=1.01
;00:01:23.395: pe=2.5329 eb=0.0287 ve=0.0000 vn=0.5014 vl=0.000 db=0.54
G1 E42.8042 F2400                       ; retract de=-4.2329@-40.0 r=1.15
;00:01:23.501: pe=-1.7039 eb=0.0325 ve=-40.0000 vn=0.0000 vl=0.000 db=0.58
G1 Z0.500 F420                          ; hopup dz=0.20@7 h=0.5 r=0.89
;00:01:23.529: pe=-1.7039 eb=0.0325 ve=0.0000 vn=0.0000 vl=0.000 db=0.45
G1 X57.34 Y40.15 F6000                  ; move dl=6.9@100(0<42>0) de=0.000@0.0(0.0<0.0>0.0) l=0.50x0.50x0.00 r=0.00
;00:01:23.779: pe=-1.7039 eb=0.0000 ve=0.0000 vn=0.0000 vl=0.000 db=0.00
G1 Z0.300 F420                          ; hopdn dz=-0.20@7 h=0.3 r=0.00
;00:01:23.807: pe=-1.7039 eb=0.0000 ve=0.0000 vn=0.0000 vl=0.000 db=0.00
G1 E47.0130 F1800                       ; restore de=4.2088@30.0 r=0.99
;00:01:23.948: pe=2.4807 eb=0.0242 ve=30.0000 vn=0.5562 vl=0.000 db=0.50
G1 X58.57 Y41.01 E47.1065 F600          ; draw dl=1.5@10(0<10>0) de=0.094@0.55(0.0<0.62>0.0) l=0.30x0.50x1.00 r=1.02
;00:01:24.118: pe=2.4788 eb=0.0276 ve=0.0000 vn=0.4883 vl=0.000 db=0.53
G1 E42.9277 F2400                       ; retract de=-4.1788@-40.0 r=1.13
;00:01:24.222: pe=-1.7037 eb=0.0312 ve=-40.0000 vn=0.0000 vl=0.000 db=0.56
G1 Z0.500 F420                          ; hopup dz=0.20@7 h=0.5 r=0.87
;00:01:24.251: pe=-1.7037 eb=0.0312 ve=0.0000 vn=0.0000 vl=0.000 db=0.44
G1 X53.62 Y45.00 F6000                  ; move dl=6.4@100(0<40>0) de=0.000@0.0(0.0<0.0>0.0) l=0.50x0.50x0.00 r=0.00
;00:01:24.490: pe=-1.7037 eb=0.0000 ve=0.0000 vn=0.0000 vl=0.000 db=0.00
G1 Z0.300 F420                          ; hopdn dz=-0.20@7 h=0.3 r=0.00
;00:01:24.518: pe=-1.7037 eb=0.0000 ve=0.0000 vn=0.0000 vl=0.000 db=0.00
G1 E47.1363 F1800                       ; restore de=4.2086@30.0 r=0.99
;00:01:24.659: pe=2.4807 eb=0.0242 ve=30.0000 vn=0.5562 vl=0.000 db=0.50
G1 X54.77 Y45.96 E47.2299 F600          ; draw dl=1.5@10(0<10>0) de=0.094@0.55(0.0<0.62>0.0) l=0.30x0.50x1.00 r=1.02
;00:01:24.829: pe=2.4788 eb=0.0276 ve=0.0000 vn=0.4883 vl=0.000 db=0.53
G1 E43.0511 F2400                       ; retract de=-4.1788@-40.0 r=1.13
;00:01:24.933: pe=-1.7037 eb=0.0312 ve=-40.0000 vn=0.0000 vl=0.000 db=0.56
G1 Z0.500 F420                          ; hopup dz=0.20@7 h=0.5 r=0.87
;00:01:24.962: pe=-1.7037 eb=0.0312 ve=0.0000 vn=0.0000 vl=0.000 db=0.44
G1 X49.50 Y49.50 F6000                  ; move dl=6.4@100(0<40>0) de=0.000@0.0(0.0<0.0>0.0) l=0.50x0.50x0.00 r=0.00
;00:01:25.201: pe=-1.7037 eb=0.0000 ve=0.0000 vn=0.0000 vl=0.000 db=0.00
G1 Z0.300 F420                          ; hopdn dz=-0.20@7 h=0.3 r=0.00
;00:01:25.229: pe=-1.7037 eb=0.0000 ve=0.0000 vn=0.0000 vl=0.000 db=0.00
G1 E47.2597 F1800                       ; restore de=4.2086@30.0 r=0.99
;00:01:25.370: pe=2.4807 eb=0.0242 ve=30.0000 vn=0.5562 vl=0.000 db=0.50
G1 X50.56 Y50.56 E47.3532 F600          ; draw dl=1.5@10(0<10>0) de=0.094@0.55(0.0<0.62>0.0) l=0.30x0.50x1.00 r=1.02
;00:01:25.540: pe=2.4788 eb=0.0276 ve=0.0000 vn=0.4883 vl=0.000 db=0.53
G1 E43.1744 F2400                       ; retract de=-4.1788@-40.0 r=1.13
;00:01:25.644: pe=-1.7037 eb=0.0312 ve=-40.0000 vn=0.0000 vl=0.000 db=0.56
G1 Z0.500 F420                          ; hopup dz=0.20@7 h=0.5 r=0.87
;00:01:25.673: pe=-1.7037 eb=0.0312 ve=0.0000 vn=0.0000 vl=0.000 db=0.44
G1 X45.00 Y53.62 F6000                  ; move dl=6.4@100(0<40>0) de=0.000@0.0(0.0<0.0>0.0) l=0.50x0.50x0.00 r=0.00
;00:01:25.912: pe=-1.7037 eb=0.0000 ve=0.0000 vn=0.0000 vl=0.000 db=0.00
G1 Z0.300 F420                          ; hopdn dz=-0.20@7 h=0.3 r=0.00
;00:01:25.940: pe=-1.7037 eb=0.0000 ve=0.0000 vn=0.0000 vl=0.000 db=0.00
G1 E47.3830 F1800                       ; restore de=4.2086@30.0 r=0.99
;00:01:26.081: pe=2.4807 eb=0.0242 ve=30.0000 vn=0.5562 vl=0.000 db=0.50
G1 X45.96 Y54.77 E47.4766 F600          ; draw dl=1.5@10(0<10>0) de=0.094@0.55(0.0<0.62>0.0) l=0.30x0.50x1.00 r=1.02
;00:01:26.251: pe=2.4788 eb=0.0276 ve=0.0000 vn=0.4883 vl=0.000 db=0.53
G1 E43.2978 F2400                       ; retract de=-4.1788@-40.0 r=1.13
;00:01:26.355: pe=-1.7037 eb=0.0312 ve=-40.0000 vn=0.0000 vl=0.000 db=0.56
G1 Z0.500 F420                          ; hopup dz=0.20@7 h=0.5 r=0.87
;00:01:26.384: pe=-1.7037 eb=0.0312 ve=0.0000 vn=0.0000 vl=0.000 db=0.44
G1 X40.15 Y57.34 F6000                  ; move dl=6.4@100(0<40>0) de=0.000@0.0(0.0<0.0>0.0) l=0.50x0.50x0.00 r=0.00
;00:01:26.623: pe=-1.7037 eb=0.0000 ve=0.0000 vn=0.0000 vl=0.000 db=0.00
G1 Z0.300 F420                          ; hopdn dz=-0.20@7 h=0.3 r=0.00
;00:01:26.651: pe=-1.7037 eb=0.0000 ve=0.0000 vn=0.0000 vl=0.000 db=0.00
G1 E47.5064 F1800                       ; restore de=4.2086@30.0 r=0.99
;00:01:26.792: pe=2.4807 eb=0.0242 ve=30.0000 vn=0.5562 vl=0.000 db=0.50
G1 X41.01 Y58.57 E47.5999 F600          ; draw dl=1.5@10(0<10>0) de=0.094@0.55(0.0<0.62>0.0) l=0.30x0.50x1.00 r=1.02
;00:01:26.962: pe=2.4788 eb=0.0276 ve=0.0000 vn=0.4883 vl=0.000 db=0.53
G1 E43.4211 F2400                       ; retract de=-4.1788@-40.0 r=1.13
;00:01:27.066: pe=-1.7037 eb=0.0312 ve=-40.0000 vn=0.0000 vl=0.000 db=0.56
G1 Z0.500 F420                          ; hopup dz=0.20@7 h=0.5 r=0.87
;00:01:27.095: pe=-1.7037 eb=0.0312 ve=0.0000 vn=0.0000 vl=0.000 db=0.44
G1 X35.00 Y60.62 F6000                  ; move dl=6.4@100(0<40>0) de=0.000@0.0(0.0<0.0>0.0) l=0.50x0.50x0.00 r=0.00
;00:01:27.334: pe=-1.7037 eb=0.0000 ve=0.0000 vn=0.0000 vl=0.000 db=0.00
G1 Z0.300 F420                          ; hopdn dz=-0.20@7 h=0.3 r=0.00
;00:01:27.362: pe=-1.7037 eb=0.0000 ve=0.0000 vn=0.0000 vl=0.000 db=0.00
G1 E47.6847 F1800                       ; restore de=4.2636@30.0 r=1.02
;00:01:27.504: pe=2.5347 eb=0.0253 ve=30.0000 vn=0.5684 vl=0.000 db=0.51
G1 X36.50 Y63.22 E47.8718 F600          ; draw dl=3.0@10(0<10>0) de=0.187@0.58(0.0<0.62>0.0) l=0.30x0.50x1.00 r=1.01
;00:01:27.824: pe=2.5329 eb=0.0287 ve=0.0000 vn=0.5014 vl=0.000 db=0.54
G1 E43.6389 F2400                       ; retract de=-4.2329@-40.0 r=1.15
;00:01:27.930: pe=-1.7039 eb=0.0325 ve=-40.0000 vn=0.0000 vl=0.000 db=0.58
G1 Z0.500 F420                          ; hopup dz=0.20@7 h=0.5 r=0.89
;00:01:27.959: pe=-1.7039 eb=0.0325 ve=0.0000 vn=0.0000 vl=0.000 db=0.45
G1 X29.58 Y63.44 F6000                  ; move dl=6.9@100(0<42>0) de=0.000@0.0(0.0<0.0>0.0) l=0.50x0.50x0.00 r=0.00
;00:01:28.208: pe=-1.7039 eb=0.0000 ve=0.0000 vn=0.0000 vl=0.000 db=0.00
G1 Z0.300 F420                          ; hopdn dz=-0.20@7 h=0.3 r=0.00
;00:01:28.237: pe=-1.7039 eb=0.0000 ve=0.0000 vn=0.0000 vl=0.000 db=0.00
G1 E47.8477 F1800                       ; restore de=4.2088@30.0 r=0.99
;00:01:28.377: pe=2.4807 eb=0.0242 ve=30.0000 vn=0.5562 vl=0.000 db=0.50
G1 X30.22 Y64.80 E47.9412 F600          ; draw dl=1.5@10(0<10>0) de=0.094@0.55(0.0<0.62>0.0) l=0.30x0.50x1.00 r=1.02
;00:01:28.547: pe=2.4788 eb=0.0276 ve=0.0000 vn=0.4883 vl=0.000 db=0.53
G1 E43.7625 F2400                       ; retract de=-4.1788@-40.0 r=1.13
;00:01:28.652: pe=-1.7037 eb=0.0312 ve=-40.0000 vn=0.0000 vl=0.000 db=0.56
G1 Z0.500 F420                          ; hopup dz=0.20@7 h=0.5 r=0.87
;00:01:28.680: pe=-1.7037 eb=0.0312 ve=0.0000 vn=0.0000 vl=0.000 db=0.44
G1 X23.94 Y65.78 F6000                  ; move dl=6.4@100(0<40>0) de=0.000@0.0(0.0<0.0>0.0) l=0.50x0.50x0.00 r=0.00
;00:01:28.919: pe=-1.7037 eb=0.0000 ve=0.0000 vn=0.0000 vl=0.000 db=0.00
G1 Z0.300 F420                          ; hopdn dz=-0.20@7 h=0.3 r=0.00
;00:01:28.948: pe=-1.7037 eb=0.0000 ve=0.0000 vn=0.0000 vl=0.000 db=0.00
G1 E47.9710 F1800                       ; restore de=4.2086@30.0 r=0.99
;00:01:29.088: pe=2.4807 eb=0.0242 ve=30.0000 vn=0.5562 vl=0.000 db=0.50
G1 X24.45 Y67.19 E48.0646 F600          ; draw dl=1.5@10(0<10>0) de=0.094@0.55(0.0<0.62>0.0) l=0.30x0.50x1.00 r=1.02
;00:01:29.258: pe=2.4788 eb=0.0276 ve=0.0000 vn=0.4883 vl=0.000 db=0.53
G1 E43.8858 F2400                       ; retract de=-4.1788@-40.0 r=1.13
;00:01:29.363: pe=-1.7037 eb=0.0312 ve=-40.0000 vn=0.0000 vl=0.000 db=0.56
G1 Z0.500 F420                          ; hopup dz=0.20@7 h=0.5 r=0.87
;00:01:29.391: pe=-1.7037 eb=0.0312 ve=0.0000 vn=0.0000 vl=0.000 db=0.44
G1 X18.12 Y67.61 F6000                  ; move dl=6.4@100(0<40>0) de=0.000@0.0(0.0<0.0>0.0) l=0.50x0.50x0.00 r=0.00
;00:01:29.630: pe=-1.7037 eb=0.0000 ve=0.0000 vn=0.0000 vl=0.000 db=0.00
G1 Z0.300 F420                          ; hopdn dz=-0.20@7 h=0.3 r=0.00
;00:01:29.659: pe=-1.7037 eb=0.0000 ve=0.0000 vn=0.0000 vl=0.000 db=0.00
G1 E48.0944 F1800                       ; restore de=4.2086@30.0 r=0.99
;00:01:29.799: pe=2.4807 eb=0.0242 ve=30.0000 vn=0.5562 vl=0.000 db=0.50
G1 X18.51 Y69.06 E48.1879 F600          ; draw dl=1.5@10(0<10>0) de=0.094@0.55(0.0<0.62>0.0) l=0.30x0.50x1.00 r=1.02
;00:01:29.969: pe=2.4788 eb=0.0276 ve=0.0000 vn=0.4883 vl=0.000 db=0.53
G1 E44.0091 F2400                       ; retract de=-4.1788@-40.0 r=1.13
;00:01:30.074: pe=-1.7037 eb=0.0312 ve=-40.0000 vn=0.0000 vl=0.000 db=0.56
G1 Z0.500 F420                          ; hopup dz=0.20@7 h=0.5 r=0.87
;00:01:30.102: pe=-1.7037 eb=0.0312 ve=0.0000 vn=0.0000 vl=0.000 db=0.44
G1 X12.16 Y68.94 F6000                  ; move dl=6.4@100(0<40>0) de=0.000@0.0(0.0<0.0>0.0) l=0.50x0.50x0.00 r=0.00
;00:01:30.341: pe=-1.7037 eb=0.0000 ve=0.0000 vn=0.0000 vl=0.000 db=0.00
G1 Z0.300 F420                          ; hopdn dz=-0.20@7 h=0.3 r=0.00
;00:01:30.370: pe=-1.7037 eb=0.0000 ve=0.0000 vn=0.0000 vl=0.000 db=0.00
G1 E48.2177 F1800                       ; restore de=4.2086@30.0 r=0.99
;00:01:30.510: pe=2.4807 eb=0.0242 ve=30.0000 vn=0.5562 vl=0.000 db=0.50
G1 X12.42 Y70.41 E48.3113 F600          ; draw dl=1.5@10(0<10>0) de=0.094@0.55(0.0<0.62>0.0) l=0.30x0.50x1.00 r=1.02
;00:01:30.680: pe=2.4788 eb=0.0276 ve=0.0000 vn=0.4883 vl=0.000 db=0.53
G1 E44.1325 F2400                       ; retract de=-4.1788@-40.0 r=1.13
;00:01:30.785: pe=-1.7037 eb=0.0312 ve=-40.0000 vn=0.0000 vl=0.000 db=0.56
G1 Z0.500 F420                          ; hopup dz=0.20@7 h=0.5 r=0.87
;00:01:30.813: pe=-1.7037 eb=0.0312 ve=0.0000 vn=0.0000 vl=0.000 db=0.44
G1 X6.10 Y69.73 F6000                   ; move dl=6.4@100(0<40>0) de=0.000@0.0(0.0<0.0>0.0) l=0.50x0.50x0.00 r=0.00
;00:01:31.052: pe=-1.7037 eb=0.0000 ve=0.0000 vn=0.0000 vl=0.000 db=0.00
G1 Z0.300 F420                          ; hopdn dz=-0.20@7 h=0.3 r=0.00
;00:01:31.081: pe=-1.7037 eb=0.0000 ve=0.0000 vn=0.0000 vl=0.000 db=0.00
G1 E48.3411 F1800                       ; restore de=4.2086@30.0 r=0.99
;00:01:31.221: pe=2.4807 eb=0.0242 ve=30.0000 vn=0.5562 vl=0.000 db=0.50
G1 X6.23 Y71.23 E48.4346 F600           ; draw dl=1.5@10(0<10>0) de=0.094@0.55(0.0<0.62>0.0) l=0.30x0.50x1.00 r=1.02
;00:01:31.391: pe=2.4788 eb=0.0276 ve=0.0000 vn=0.4883 vl=0.000 db=0.53
G1 E44.2558 F2400                       ; retract de=-4.1788@-40.0 r=1.13
;00:01:31.496: pe=-1.7037 eb=0.0312 ve=-40.0000 vn=0.0000 vl=0.000 db=0.56
G1 Z0.500 F420                          ; hopup dz=0.20@7 h=0.5 r=0.87
;00:01:31.524: pe=-1.7037 eb=0.0312 ve=0.0000 vn=0.0000 vl=0.000 db=0.44
G1 X0.00 Y70.00 F6000                   ; move dl=6.4@100(0<40>0) de=0.000@0.0(0.0<0.0>0.0) l=0.50x0.50x0.00 r=0.00
;00:01:31.763: pe=-1.7037 eb=0.0000 ve=0.0000 vn=0.0000 vl=0.000 db=0.00
G1 Z0.300 F420                          ; hopdn dz=-0.20@7 h=0.3 r=0.00
;00:01:31.792: pe=-1.7037 eb=0.0000 ve=0.0000 vn=0.0000 vl=0.000 db=0.00
G1 E48.5194 F1800                       ; restore de=4.2636@30.0 r=1.02
;00:01:31.934: pe=2.5347 eb=0.0253 ve=30.0000 vn=0.5684 vl=0.000 db=0.51
G1 X0.00 Y73.00 E48.7065 F600           ; draw dl=3.0@10(0<10>0) de=0.187@0.58(0.0<0.62>0.0) l=0.30x0.50x1.00 r=1.01
;00:01:32.254: pe=2.5329 eb=0.0287 ve=0.0000 vn=0.5014 vl=0.000 db=0.54
G1 E44.4736 F2400                       ; retract de=-4.2329@-40.0 r=1.15
;00:01:32.360: pe=-1.7039 eb=0.0325 ve=-40.0000 vn=0.0000 vl=0.000 db=0.58
G1 Z0.500 F420                          ; hopup dz=0.20@7 h=0.5 r=0.89
;00:01:32.388: pe=-1.7039 eb=0.0325 ve=0.0000 vn=0.0000 vl=0.000 db=0.45
G1 X-6.10 Y69.73 F6000                  ; move dl=6.9@100(0<42>0) de=0.000@0.0(0.0<0.0>0.0) l=0.50x0.50x0.00 r=0.00
;00:01:32.638: pe=-1.7039 eb=0.0000 ve=0.0000 vn=0.0000 vl=0.000 db=0.00
G1 Z0.300 F420                          ; hopdn dz=-0.20@7 h=0.3 r=0.00
;00:01:32.667: pe=-1.7039 eb=0.0000 ve=0.0000 vn=0.0000 vl=0.000 db=0.00
G1 E48.6824 F1800                       ; restore de=4.2088@30.0 r=0.99
;00:01:32.807: pe=2.4807 eb=0.0242 ve=30.0000 vn=0.5562 vl=0.000 db=0.50
G1 X-6.23 Y71.23 E48.7760 F600          ; draw dl=1.5@10(0<10>0) de=0.094@0.55(0.0<0.62>0.0) l=0.30x0.50x1.00 r=1.02
;00:01:32.977: pe=2.4788 eb=0.0276 ve=0.0000 vn=0.4883 vl=0.000 db=0.53
G1 E44.5972 F2400                       ; retract de=-4.1788@-40.0 r=1.13
;00:01:33.081: pe=-1.7037 eb=0.0312 ve=-40.0000 vn=0.0000 vl=0.000 db=0.56
G1 Z0.500 F420                          ; hopup dz=0.20@7 h=0.5 r=0.87
;00:01:33.110: pe=-1.7037 eb=0.0312 ve=0.0000 vn=0.0000 vl=0.000 db=0.44
G1 X-12.16 Y68.94 F6000                 ; move dl=6.4@100(0<40>0) de=0.000@0.0(0.0<0.0>0.0) l=0.50x0.50x0.00 r=0.00
;00:01:33.349: pe=-1.7037 eb=0.0000 ve=0.0000 vn=0.0000 vl=0.000 db=0.00
G1 Z0.300 F420                          ; hopdn dz=-0.20@7 h=0.3 r=0.00
;00:01:33.378: pe=-1.7037 eb=0.0000 ve=0.0000 vn=0.0000 vl=0.000 db=0.00
G1 E48.8058 F1800                       ; restore de=4.2086@30.0 r=0.99
;00:01:33.518: pe=2.4807 eb=0.0242 ve=30.0000 vn=0.5562 vl=0.000 db=0.50
G1 X-12.42 Y70.41 E48.8993 F600         ; draw dl=1.5@10(0<10>0) de=0.094@0.55(0.0<0.62>0.0) l=0.30x0.50x1.00 r=1.02
;00:01:33.688: pe=2.4788 eb=0.0276 ve=0.0000 vn=0.4883 vl=0.000 db=0.53
G1 E44.7205 F2400                       ; retract de=-4.1788@-40.0 r=1.13
;00:01:33.792: pe=-1.7037 eb=0.0312 ve=-40.0000 vn=0.0000 vl=0.000 db=0.56
G1 Z0.500 F420                          ; hopup dz=0.20@7 h=0.5 r=0.87
;00:01:33.821: pe=-1.7037 eb=0.0312 ve=0.0000 vn=0.0000 vl=0.000 db=0.44
G1 X-18.12 Y67.61 F6000                 ; move dl=6.4@100(0<40>0) de=0.000@0.0(0.0<0.0>0.0) l=0.50x0.50x0.00 r=0.00
;00:01:34.060: pe=-1.7037 eb=0.0000 ve=0.0000 vn=0.0000 vl=0.000 db=0.00
G1 Z0.300 F420                          ; hopdn dz=-0.20@7 h=0.3 r=0.00
;00:01:34.089: pe=-1.7037 eb=0.0000 ve=0.0000 vn=0.0000 vl=0.000 db=0.00
G1 E48.9291 F1800                       ; restore de=4.2086@30.0 r=0.99
;00:01:34.229: pe=2.4807 eb=0.0242 ve=30.0000 vn=0.5562 vl=0.000 db=0.50
G1 X-18.51 Y69.06 E49.0226 F600         ; draw dl=1.5@10(0<10>0) de=0.094@0.55(0.0<0.62>0.0) l=0.30x0.50x1.00 r=1.02
;00:01:34.399: pe=2.4788 eb=0.0276 ve=0.0000 vn=0.4883 vl=0.000 db=0.53
G1 E44.8439 F2400                       ; retract de=-4.1788@-40.0 r=1.13
;00:01:34.503: pe=-1.7037 eb=0.0312 ve=-40.0000 vn=0.0000 vl=0.000 db=0.56
G1 Z0.500 F420                          ; hopup dz=0.20@7 h=0.5 r=0.87
;00:01:34.532: pe=-1.7037 eb=0.0312 ve=0.0000 vn=0.0000 vl=0.000 db=0.44
G1 X-23.94 Y65.78 F6000                 ; move dl=6.4@100(0<40>0) de=0.000@0.0(0.0<0.0>0.0) l=0.50x0.50x0.00 r=0.00
;00:01:34.771: pe=-1.7037 eb=0.0000 ve=0.0000 vn=0.0000 vl=0.000 db=0.00
G1 Z0.300 F420                          ; hopdn dz=-0.20@7 h=0.3 r=0.00
;00:01:34.800: pe=-1.7037 eb=0.0000 ve=0.0000 vn=0.0000 vl=0.000 db=0.00
G1 E49.0524 F1800                       ; restore de=4.2086@30.0 r=0.99
;00:01:34.940: pe=2.4807 eb=0.0242 ve=30.0000 vn=0.5562 vl=0.000 db=0.50
G1 X-24.45 Y67.19 E49.1460 F600         ; draw dl=1.5@10(0<10>0) de=0.094@0.55(0.0<0.62>0.0) l=0.30x0.50x1.00 r=1.02
;00:01:35.110: pe=2.4788 eb=0.0276 ve=0.0000 vn=0.4883 vl=0.000 db=0.53
G1 E44.9672 F2400                       ; retract de=-4.1788@-40.0 r=1.13
;00:01:35.214: pe=-1.7037 eb=0.0312 ve=-40.0000 vn=0.0000 vl=0.000 db=0.56
G1 Z0.500 F420                          ; hopup dz=0.20@7 h=0.5 r=0.87
;00:01:35.243: pe=-1.7037 eb=0.0312 ve=0.0000 vn=0.0000 vl=0.000 db=0.44
G1 X-29.58 Y63.44 F6000                 ; move dl=6.4@100(0<40>0) de=0.000@0.0(0.0<0.0>0.0) l=0.50x0.50x0.00 r=0.00
;00:01:35.482: pe=-1.7037 eb=0.0000 ve=0.0000 vn=0.0000 vl=0.000 db=0.00
G1 Z0.300 F420                          ; hopdn dz=-0.20@7 h=0.3 r=0.00
;00:01:35.510: pe=-1.7037 eb=0.0000 ve=0.0000 vn=0.0000 vl=0.000 db=0.00
G1 E49.1758 F1800                       ; restore de=4.2086@30.0 r=0.99
;00:01:35.651: pe=2.4807 eb=0.0242 ve=30.0000 vn=0.5562 vl=0.000 db=0.50
G1 X-30.22 Y64.80 E49.2693 F600         ; draw dl=1.5@10(0<10>0) de=0.094@0.55(0.0<0.62>0.0) l=0.30x0.50x1.00 r=1.02
;00:01:35.821: pe=2.4788 eb=0.0276 ve=0.0000 vn=0.4883 vl=0.000 db=0.53
G1 E45.0906 F2400                       ; retract de=-4.1788@-40.0 r=1.13
;00:01:35.925: pe=-1.7037 eb=0.0312 ve=-40.0000 vn=0.0000 vl=0.000 db=0.56
G1 Z0.500 F420                          ; hopup dz=0.20@7 h=0.5 r=0.87
;00:01:35.954: pe=-1.7037 eb=0.0312 ve=0.0000 vn=0.0000 vl=0.000 db=0.44
G1 X-35.00 Y60.62 F6000                 ; move dl=6.4@100(0<40>0) de=0.000@0.0(0.0<0.0>0.0) l=0.50x0.50x0.00 r=0.00
;00:01:36.193: pe=-1.7037 eb=0.0000 ve=0.0000 vn=0.0000 vl=0.000 db=0.00
G1 Z0.300 F420                          ; hopdn dz=-0.20@7 h=0.3 r=0.00
;00:01:36.221: pe=-1.7037 eb=0.0000 ve=0.0000 vn=0.0000 vl=0.000 db=0.00
G1 E49.3542 F1800                       ; restore de=4.2636@30.0 r=1.02
;00:01:36.364: pe=2.5347 eb=0.0253 ve=30.0000 vn=0.5684 vl=0.000 db=0.51
G1 X-36.50 Y63.22 E49.5412 F600         ; draw dl=3.0@10(0<10>0) de=0.187@0.58(0.0<0.62>0.0) l=0.30x0.50x1.00 r=1.01
;00:01:36.684: pe=2.5329 eb=0.0287 ve=0.0000 vn=0.5014 vl=0.000 db=0.54
G1 E45.3083 F2400                       ; retract de=-4.2329@-40.0 r=1.15
;00:01:36.789: pe=-1.7039 eb=0.0325 ve=-40.0000 vn=0.0000 vl=0.000 db=0.58
G1 Z0.500 F420                          ; hopup dz=0.20@7 h=0.5 r=0.89
;00:01:36.818: pe=-1.7039 eb=0.0325 ve=0.0000 vn=0.0000 vl=0.000 db=0.45
G1 X-40.15 Y57.34 F6000                 ; move dl=6.9@100(0<42>0) de=0.000@0.0(0.0<0.0>0.0) l=0.50x0.50x0.00 r=0.00
;00:01:37.068: pe=-1.7039 eb=0.0000 ve=0.0000 vn=0.0000 vl=0.000 db=0.00
G1 Z0.300 F420                          ; hopdn dz=-0.20@7 h=0.3 r=0.00
;00:01:37.096: pe=-1.7039 eb=0.0000 ve=0.0000 vn=0.0000 vl=0.000 db=0.00
G1 E49.5171 F1800                       ; restore de=4.2088@30.0 r=0.99
;00:01:37.236: pe=2.4807 eb=0.0242 ve=30.0000 vn=0.5562 vl=0.000 db=0.50
G1 X-41.01 Y58.57 E49.6107 F600         ; draw dl=1.5@10(0<10>0) de=0.094@0.55(0.0<0.62>0.0) l=0.30x0.50x1.00 r=1.02
;00:01:37.406: pe=2.4788 eb=0.0276 ve=0.0000 vn=0.4883 vl=0.000 db=0.53
