;gcode_flavor: flashforge
;machine_type: Adventurer 3 Series
;filament_diameter0: 1.75
;right_extruder_temperature: 210
;platform_temperature: 50
;extruder_fan: 100%
;case_fan: 100%
;base_print_speed: 60
;travel_speed: 100
;vertical_speed: 7
;retract_speed: 40
;restore_speed: 30
;layer_height: 0.30
;line_width: 0.50
;extrusion_ratio: 1.00
;start gcode
M118 X75.00 Y75.00 Z150.00 T0
M140 S50 T0
M104 S210 T0
M104 S0 T1
M107
M900 K1.000 T0
G90
G28
M132 X Y Z A B
G1 Z50.000 F420
G161 X Y F3300
M7 T0
M6 T0
M652 S255
M108 T0
M106
;preExtrude:0.30
;structure:pre-extrude
G1 X-55.00 Y-65.00 F6000                ; move dl=85.15@0<100>0 de=0.0000 h=0.00
;00:00:01.051: pe=0.0000 eb=0.0000 ve=0.0000 vn=0.0000 vl=0.000 db=0.00
G1 Z0.300 F420                          ; hopup dz=0.30@7 h=0.3
;00:00:01.094: pe=0.0000 eb=0.0000 ve=0.0000 vn=0.0000 vl=0.000 db=0.00
G1 E9.3602 F1800                        ; restore de=9.3602@30
;00:00:01.406: pe=8.7487 eb=0.6114 ve=30.0000 vn=3.7520 vl=0.000 db=2.50
G1 X-55.00 Y55.00 E39.2943 F1200        ; draw dl=120.00@0<20>10 l=0.30x0.50x4.00
;00:00:07.431: pe=8.9581 eb=0.4146 ve=2.4945 vn=4.8434 vl=10.000 db=2.06
G1 X-55.00 Y65.00 F600                  ; move dl=10.00@10<10>10 de=0.0000 h=0.30
;00:00:08.431: pe=6.1393 eb=0.3830 ve=0.0000 vn=2.1848 vl=10.000 db=1.98
G1 X35.00 Y65.00                        ; move dl=90.00@10<10>1 de=0.0000 h=0.30
;00:00:17.439: pe=0.2079 eb=0.0007 ve=0.0000 vn=0.0378 vl=1.000 db=0.09
G1 X45.00 Y65.00 F60                    ; move dl=10.00@1<1>0 de=0.0000 h=0.30
;00:00:27.440: pe=0.1159 eb=0.0003 ve=0.0000 vn=0.0056 vl=0.000 db=0.06
G1 E37.6784 F2400                       ; retract de=-1.6159@40
;00:00:27.481: pe=-1.5000 eb=0.0003 ve=-40.0000 vn=0.0000 vl=0.000 db=0.06
G1 Z0.700 F420                          ; hopup dz=0.40@7 h=0.7
;00:00:27.538: pe=-1.5000 eb=0.0003 ve=0.0000 vn=0.0000 vl=0.000 db=0.04
;layer:0.30
;00:00:27.538: layer=1 h=0.30 w=0.50 r=1.00
;structure:brim
G1 X-45.00 Y60.00 F6000                 ; move dl=90.14@0<100>0 de=0.0000 h=0.70
;00:00:28.639: pe=-1.5000 eb=0.0000 ve=0.0000 vn=0.0000 vl=0.000 db=0.00
G1 Z0.300 F420                          ; hopdn dz=-0.40@7 h=0.3
;00:00:28.697: pe=-1.5000 eb=0.0000 ve=0.0000 vn=0.0000 vl=0.000 db=0.00
G1 E40.8260 F1800                       ; restore de=3.1476@30
;00:00:28.801: pe=1.6270 eb=0.0206 ve=30.0000 vn=0.7108 vl=0.000 db=0.46
G1 X-45.00 Y-61.00 E48.3719 F600        ; draw dl=121.00@0<10>10 l=0.30x0.50x1.00
;00:00:40.911: pe=1.6236 eb=0.0245 ve=0.6236 vn=0.6236 vl=10.000 db=0.50
G1 X-45.50 Y-61.00 E48.4030             ; draw dl=0.50@10<10>10 l=0.30x0.50x1.00
;00:00:40.961: pe=1.6236 eb=0.0245 ve=0.6236 vn=0.6236 vl=10.000 db=0.50
G1 X-45.50 Y60.00 E55.9489              ; draw dl=121.00@10<10>0 l=0.30x0.50x1.00
;00:00:53.071: pe=1.6181 eb=0.0299 ve=0.0000 vn=0.5132 vl=0.000 db=0.55
G1 E52.8308 F2400                       ; retract de=-3.1181@40
;00:00:53.149: pe=-1.5027 eb=0.0326 ve=-40.0000 vn=0.0000 vl=0.000 db=0.58
G1 Z0.700 F420                          ; hopup dz=0.40@7 h=0.7
;00:00:53.207: pe=-1.5027 eb=0.0326 ve=0.0000 vn=0.0000 vl=0.000 db=0.38
G1 X45.00 Y60.00 F6000                  ; move dl=90.50@0<100>0 de=0.0000 h=0.70
;00:00:54.312: pe=-1.5027 eb=0.0000 ve=0.0000 vn=0.0000 vl=0.000 db=0.00
G1 Z0.300 F420                          ; hopdn dz=-0.40@7 h=0.3
;00:00:54.369: pe=-1.5027 eb=0.0000 ve=0.0000 vn=0.0000 vl=0.000 db=0.00
G1 E55.9811 F1800                       ; restore de=3.1503@30
;00:00:54.474: pe=1.6270 eb=0.0206 ve=30.0000 vn=0.7107 vl=0.000 db=0.46
G1 X45.00 Y-61.00 E63.5270 F600         ; draw dl=121.00@0<10>10 l=0.30x0.50x1.00
;00:01:06.584: pe=1.6236 eb=0.0245 ve=0.6236 vn=0.6236 vl=10.000 db=0.50
G1 X45.50 Y-61.00 E63.5581              ; draw dl=0.50@10<10>10 l=0.30x0.50x1.00
;00:01:06.634: pe=1.6236 eb=0.0245 ve=0.6236 vn=0.6236 vl=10.000 db=0.50
G1 X45.50 Y60.00 E71.1040               ; draw dl=121.00@10<10>0 l=0.30x0.50x1.00
;00:01:18.744: pe=1.6181 eb=0.0299 ve=0.0000 vn=0.5132 vl=0.000 db=0.55
G1 E67.9859 F2400                       ; retract de=-3.1181@40
;00:01:18.822: pe=-1.5027 eb=0.0326 ve=-40.0000 vn=0.0000 vl=0.000 db=0.58
G1 Z0.700 F420                          ; hopup dz=0.40@7 h=0.7
;00:01:18.879: pe=-1.5027 eb=0.0326 ve=0.0000 vn=0.0000 vl=0.000 db=0.38
;00:01:18.879: Test StartStop Kf=0.0-2.0 Kb=2.0 Re=1.5 vx=60 re=0.0
;structure:shell-outer
G1 X-45.00 Y55.00 F6000                 ; move dl=90.64@0<100>0 de=0.0000 h=0.70
;00:01:19.985: pe=-1.5027 eb=0.0000 ve=0.0000 vn=0.0000 vl=0.000 db=0.00
G1 Z0.300 F420                          ; hopdn dz=-0.40@7 h=0.3
;00:01:20.042: pe=-1.5027 eb=0.0000 ve=0.0000 vn=0.0000 vl=0.000 db=0.00
G1 E71.1353 F1800                       ; restore de=3.1494@30
;00:01:20.147: pe=1.6262 eb=0.0205 ve=30.0000 vn=0.7104 vl=0.000 db=0.46
G1 X45.00 Y55.00 E76.7480 F600          ; draw dl=90.00@0<10>0 l=0.30x0.50x1.00
;00:01:29.167: pe=1.6180 eb=0.0299 ve=0.0000 vn=0.5132 vl=0.000 db=0.55
G1 E73.6299 F2400                       ; retract de=-3.1180@40
;00:01:29.245: pe=-1.5027 eb=0.0325 ve=-40.0000 vn=0.0000 vl=0.000 db=0.58
G1 Z0.700 F420                          ; hopup dz=0.40@7 h=0.7
;00:01:29.302: pe=-1.5027 eb=0.0325 ve=0.0000 vn=0.0000 vl=0.000 db=0.38
G1 X-42.00 Y55.00 F6000                 ; move dl=87.00@0<100>0 de=0.0000 h=0.70
;00:01:30.372: pe=-1.5027 eb=0.0000 ve=0.0000 vn=0.0000 vl=0.000 db=0.00
G1 X-40.00 Y55.00 F1342                 ; move dl=2.00@0<22>0 de=0.0000 h=0.70
;00:01:30.507: pe=-1.5027 eb=0.0000 ve=0.0000 vn=0.0000 vl=0.000 db=0.00
G1 Z0.300 F420                          ; hopdn dz=-0.40@7 h=0.3
;00:01:30.564: pe=-1.5027 eb=0.0000 ve=0.0000 vn=0.0000 vl=0.000 db=0.00
G1 E76.7417 F1800                       ; restore de=3.1118@30
;00:01:30.667: pe=1.5895 eb=0.0196 ve=30.0000 vn=0.6943 vl=0.000 db=0.45
G1 X-40.00 Y52.00 E76.9288 F600         ; draw dl=3.00@0<10>0 l=0.30x0.50x1.00
;00:01:30.987: pe=1.5836 eb=0.0287 ve=0.0000 vn=0.5006 vl=0.000 db=0.54
G1 E73.8452 F2400                       ; retract de=-3.0836@40
;00:01:31.064: pe=-1.5025 eb=0.0312 ve=-40.0000 vn=0.0000 vl=0.000 db=0.56
G1 Z0.700 F420                          ; hopup dz=0.40@7 h=0.7
;00:01:31.122: pe=-1.5025 eb=0.0312 ve=0.0000 vn=0.0000 vl=0.000 db=0.37
G1 X-38.00 Y55.00 F1801                 ; move dl=3.61@0<30>0 de=0.0000 h=0.70
;00:01:31.302: pe=-1.5025 eb=0.0000 ve=0.0000 vn=0.0000 vl=0.000 db=0.00
G1 Z0.300 F420                          ; hopdn dz=-0.40@7 h=0.3
;00:01:31.359: pe=-1.5025 eb=0.0000 ve=0.0000 vn=0.0000 vl=0.000 db=0.00
G1 E76.9225 F1800                       ; restore de=3.0773@30
;00:01:31.461: pe=1.5559 eb=0.0188 ve=30.0000 vn=0.6795 vl=0.000 db=0.44
G1 X-38.00 Y53.50 E77.0160 F600         ; draw dl=1.50@0<10>0 l=0.30x0.50x1.00
;00:01:31.631: pe=1.5501 eb=0.0276 ve=0.0000 vn=0.4882 vl=0.000 db=0.53
G1 E73.9659 F2400                       ; retract de=-3.0501@40
;00:01:31.708: pe=-1.5024 eb=0.0300 ve=-40.0000 vn=0.0000 vl=0.000 db=0.55
G1 Z0.700 F420                          ; hopup dz=0.40@7 h=0.7
;00:01:31.765: pe=-1.5024 eb=0.0300 ve=0.0000 vn=0.0000 vl=0.000 db=0.36
G1 X-36.00 Y55.00 F1500                 ; move dl=2.50@0<25>0 de=0.0000 h=0.70
;00:01:31.915: pe=-1.5024 eb=0.0000 ve=0.0000 vn=0.0000 vl=0.000 db=0.00
G1 Z0.300 F420                          ; hopdn dz=-0.40@7 h=0.3
;00:01:31.972: pe=-1.5024 eb=0.0000 ve=0.0000 vn=0.0000 vl=0.000 db=0.00
G1 E77.0430 F1800                       ; restore de=3.0771@30
;00:01:32.075: pe=1.5559 eb=0.0188 ve=30.0000 vn=0.6795 vl=0.000 db=0.44
G1 X-36.00 Y53.50 E77.1365 F600         ; draw dl=1.50@0<10>0 l=0.30x0.50x1.00
;00:01:32.245: pe=1.5501 eb=0.0276 ve=0.0000 vn=0.4882 vl=0.000 db=0.53
G1 E74.0864 F2400                       ; retract de=-3.0501@40
;00:01:32.321: pe=-1.5024 eb=0.0300 ve=-40.0000 vn=0.0000 vl=0.000 db=0.55
G1 Z0.700 F420                          ; hopup dz=0.40@7 h=0.7
;00:01:32.378: pe=-1.5024 eb=0.0300 ve=0.0000 vn=0.0000 vl=0.000 db=0.36
G1 X-34.00 Y55.00 F1500                 ; move dl=2.50@0<25>0 de=0.0000 h=0.70
;00:01:32.528: pe=-1.5024 eb=0.0000 ve=0.0000 vn=0.0000 vl=0.000 db=0.00
G1 Z0.300 F420                          ; hopdn dz=-0.40@7 h=0.3
;00:01:32.585: pe=-1.5024 eb=0.0000 ve=0.0000 vn=0.0000 vl=0.000 db=0.00
G1 E77.1635 F1800                       ; restore de=3.0771@30
;00:01:32.688: pe=1.5559 eb=0.0188 ve=30.0000 vn=0.6795 vl=0.000 db=0.44
G1 X-34.00 Y53.50 E77.2571 F600         ; draw dl=1.50@0<10>0 l=0.30x0.50x1.00
;00:01:32.858: pe=1.5501 eb=0.0276 ve=0.0000 vn=0.4882 vl=0.000 db=0.53
G1 E74.2069 F2400                       ; retract de=-3.0501@40
;00:01:32.934: pe=-1.5024 eb=0.0300 ve=-40.0000 vn=0.0000 vl=0.000 db=0.55
G1 Z0.700 F420                          ; hopup dz=0.40@7 h=0.7
;00:01:32.991: pe=-1.5024 eb=0.0300 ve=0.0000 vn=0.0000 vl=0.000 db=0.36
G1 X-32.00 Y55.00 F1500                 ; move dl=2.50@0<25>0 de=0.0000 h=0.70
;00:01:33.141: pe=-1.5024 eb=0.0000 ve=0.0000 vn=0.0000 vl=0.000 db=0.00
G1 Z0.300 F420                          ; hopdn dz=-0.40@7 h=0.3
;00:01:33.198: pe=-1.5024 eb=0.0000 ve=0.0000 vn=0.0000 vl=0.000 db=0.00
G1 E77.2841 F1800                       ; restore de=3.0771@30
;00:01:33.301: pe=1.5559 eb=0.0188 ve=30.0000 vn=0.6795 vl=0.000 db=0.44
G1 X-32.00 Y53.50 E77.3776 F600         ; draw dl=1.50@0<10>0 l=0.30x0.50x1.00
;00:01:33.471: pe=1.5501 eb=0.0276 ve=0.0000 vn=0.4882 vl=0.000 db=0.53
G1 E74.3275 F2400                       ; retract de=-3.0501@40
;00:01:33.547: pe=-1.5024 eb=0.0300 ve=-40.0000 vn=0.0000 vl=0.000 db=0.55
G1 Z0.700 F420                          ; hopup dz=0.40@7 h=0.7
;00:01:33.604: pe=-1.5024 eb=0.0300 ve=0.0000 vn=0.0000 vl=0.000 db=0.36
G1 X-30.00 Y55.00 F1500                 ; move dl=2.50@0<25>0 de=0.0000 h=0.70
;00:01:33.754: pe=-1.5024 eb=0.0000 ve=0.0000 vn=0.0000 vl=0.000 db=0.00
G1 Z0.300 F420                          ; hopdn dz=-0.40@7 h=0.3
;00:01:33.811: pe=-1.5024 eb=0.0000 ve=0.0000 vn=0.0000 vl=0.000 db=0.00
G1 E77.4390 F1800                       ; restore de=3.1115@30
;00:01:33.915: pe=1.5895 eb=0.0196 ve=30.0000 vn=0.6943 vl=0.000 db=0.45
G1 X-30.00 Y52.00 E77.6261 F600         ; draw dl=3.00@0<10>0 l=0.30x0.50x1.00
;00:01:34.235: pe=1.5836 eb=0.0287 ve=0.0000 vn=0.5006 vl=0.000 db=0.54
G1 E74.5425 F2400                       ; retract de=-3.0836@40
;00:01:34.312: pe=-1.5025 eb=0.0312 ve=-40.0000 vn=0.0000 vl=0.000 db=0.56
G1 Z0.700 F420                          ; hopup dz=0.40@7 h=0.7
;00:01:34.369: pe=-1.5025 eb=0.0312 ve=0.0000 vn=0.0000 vl=0.000 db=0.37
G1 X-28.00 Y55.00 F1801                 ; move dl=3.61@0<30>0 de=0.0000 h=0.70
;00:01:34.549: pe=-1.5025 eb=0.0000 ve=0.0000 vn=0.0000 vl=0.000 db=0.00
G1 Z0.300 F420                          ; hopdn dz=-0.40@7 h=0.3
;00:01:34.607: pe=-1.5025 eb=0.0000 ve=0.0000 vn=0.0000 vl=0.000 db=0.00
G1 E77.6198 F1800                       ; restore de=3.0773@30
;00:01:34.709: pe=1.5559 eb=0.0188 ve=30.0000 vn=0.6795 vl=0.000 db=0.44
G1 X-28.00 Y53.50 E77.7133 F600         ; draw dl=1.50@0<10>0 l=0.30x0.50x1.00
;00:01:34.879: pe=1.5501 eb=0.0276 ve=0.0000 vn=0.4882 vl=0.000 db=0.53
G1 E74.6632 F2400                       ; retract de=-3.0501@40
;00:01:34.955: pe=-1.5024 eb=0.0300 ve=-40.0000 vn=0.0000 vl=0.000 db=0.55
G1 Z0.700 F420                          ; hopup dz=0.40@7 h=0.7
;00:01:35.013: pe=-1.5024 eb=0.0300 ve=0.0000 vn=0.0000 vl=0.000 db=0.36
G1 X-26.00 Y55.00 F1500                 ; move dl=2.50@0<25>0 de=0.0000 h=0.70
;00:01:35.163: pe=-1.5024 eb=0.0000 ve=0.0000 vn=0.0000 vl=0.000 db=0.00
G1 Z0.300 F420                          ; hopdn dz=-0.40@7 h=0.3
;00:01:35.220: pe=-1.5024 eb=0.0000 ve=0.0000 vn=0.0000 vl=0.000 db=0.00
G1 E77.7403 F1800                       ; restore de=3.0771@30
;00:01:35.322: pe=1.5559 eb=0.0188 ve=30.0000 vn=0.6795 vl=0.000 db=0.44
G1 X-26.00 Y53.50 E77.8338 F600         ; draw dl=1.50@0<10>0 l=0.30x0.50x1.00
;00:01:35.492: pe=1.5501 eb=0.0276 ve=0.0000 vn=0.4882 vl=0.000 db=0.53
G1 E74.7837 F2400                       ; retract de=-3.0501@40
;00:01:35.569: pe=-1.5024 eb=0.0300 ve=-40.0000 vn=0.0000 vl=0.000 db=0.55
G1 Z0.700 F420                          ; hopup dz=0.40@7 h=0.7
;00:01:35.626: pe=-1.5024 eb=0.0300 ve=0.0000 vn=0.0000 vl=0.000 db=0.36
G1 X-24.00 Y55.00 F1500                 ; move dl=2.50@0<25>0 de=0.0000 h=0.70
;00:01:35.776: pe=-1.5024 eb=0.0000 ve=0.0000 vn=0.0000 vl=0.000 db=0.00
G1 Z0.300 F420                          ; hopdn dz=-0.40@7 h=0.3
;00:01:35.833: pe=-1.5024 eb=0.0000 ve=0.0000 vn=0.0000 vl=0.000 db=0.00
G1 E77.8608 F1800                       ; restore de=3.0771@30
;00:01:35.935: pe=1.5559 eb=0.0188 ve=30.0000 vn=0.6795 vl=0.000 db=0.44
G1 X-24.00 Y53.50 E77.9544 F600         ; draw dl=1.50@0<10>0 l=0.30x0.50x1.00
;00:01:36.105: pe=1.5501 eb=0.0276 ve=0.0000 vn=0.4882 vl=0.000 db=0.53
G1 E74.9042 F2400                       ; retract de=-3.0501@40
;00:01:36.182: pe=-1.5024 eb=0.0300 ve=-40.0000 vn=0.0000 vl=0.000 db=0.55
G1 Z0.700 F420                          ; hopup dz=0.40@7 h=0.7
;00:01:36.239: pe=-1.5024 eb=0.0300 ve=0.0000 vn=0.0000 vl=0.000 db=0.36
G1 X-22.00 Y55.00 F1500                 ; move dl=2.50@0<25>0 de=0.0000 h=0.70
;00:01:36.389: pe=-1.5024 eb=0.0000 ve=0.0000 vn=0.0000 vl=0.000 db=0.00
G1 Z0.300 F420                          ; hopdn dz=-0.40@7 h=0.3
;00:01:36.446: pe=-1.5024 eb=0.0000 ve=0.0000 vn=0.0000 vl=0.000 db=0.00
G1 E77.9814 F1800                       ; restore de=3.0771@30
;00:01:36.548: pe=1.5559 eb=0.0188 ve=30.0000 vn=0.6795 vl=0.000 db=0.44
G1 X-22.00 Y53.50 E78.0749 F600         ; draw dl=1.50@0<10>0 l=0.30x0.50x1.00
;00:01:36.718: pe=1.5501 eb=0.0276 ve=0.0000 vn=0.4882 vl=0.000 db=0.53
G1 E75.0248 F2400                       ; retract de=-3.0501@40
;00:01:36.795: pe=-1.5024 eb=0.0300 ve=-40.0000 vn=0.0000 vl=0.000 db=0.55
G1 Z0.700 F420                          ; hopup dz=0.40@7 h=0.7
;00:01:36.852: pe=-1.5024 eb=0.0300 ve=0.0000 vn=0.0000 vl=0.000 db=0.36
G1 X-20.00 Y55.00 F1500                 ; move dl=2.50@0<25>0 de=0.0000 h=0.70
;00:01:37.002: pe=-1.5024 eb=0.0000 ve=0.0000 vn=0.0000 vl=0.000 db=0.00
G1 Z0.300 F420                          ; hopdn dz=-0.40@7 h=0.3
;00:01:37.059: pe=-1.5024 eb=0.0000 ve=0.0000 vn=0.0000 vl=0.000 db=0.00
G1 E78.1363 F1800                       ; restore de=3.1115@30
;00:01:37.163: pe=1.5895 eb=0.0196 ve=30.0000 vn=0.6943 vl=0.000 db=0.45
G1 X-20.00 Y52.00 E78.3234 F600         ; draw dl=3.00@0<10>0 l=0.30x0.50x1.00
;00:01:37.483: pe=1.5836 eb=0.0287 ve=0.0000 vn=0.5006 vl=0.000 db=0.54
G1 E75.2398 F2400                       ; retract de=-3.0836@40
;00:01:37.560: pe=-1.5025 eb=0.0312 ve=-40.0000 vn=0.0000 vl=0.000 db=0.56
G1 Z0.700 F420                          ; hopup dz=0.40@7 h=0.7
;00:01:37.617: pe=-1.5025 eb=0.0312 ve=0.0000 vn=0.0000 vl=0.000 db=0.37
G1 X-18.00 Y55.00 F1801                 ; move dl=3.61@0<30>0 de=0.0000 h=0.70
;00:01:37.797: pe=-1.5025 eb=0.0000 ve=0.0000 vn=0.0000 vl=0.000 db=0.00
G1 Z0.300 F420                          ; hopdn dz=-0.40@7 h=0.3
;00:01:37.854: pe=-1.5025 eb=0.0000 ve=0.0000 vn=0.0000 vl=0.000 db=0.00
G1 E78.3171 F1800                       ; restore de=3.0773@30
;00:01:37.957: pe=1.5559 eb=0.0188 ve=30.0000 vn=0.6795 vl=0.000 db=0.44
G1 X-18.00 Y53.50 E78.4106 F600         ; draw dl=1.50@0<10>0 l=0.30x0.50x1.00
;00:01:38.127: pe=1.5501 eb=0.0276 ve=0.0000 vn=0.4882 vl=0.000 db=0.53
G1 E75.3605 F2400                       ; retract de=-3.0501@40
;00:01:38.203: pe=-1.5024 eb=0.0300 ve=-40.0000 vn=0.0000 vl=0.000 db=0.55
G1 Z0.700 F420                          ; hopup dz=0.40@7 h=0.7
;00:01:38.260: pe=-1.5024 eb=0.0300 ve=0.0000 vn=0.0000 vl=0.000 db=0.36
G1 X-16.00 Y55.00 F1500                 ; move dl=2.50@0<25>0 de=0.0000 h=0.70
;00:01:38.410: pe=-1.5024 eb=0.0000 ve=0.0000 vn=0.0000 vl=0.000 db=0.00
G1 Z0.300 F420                          ; hopdn dz=-0.40@7 h=0.3
;00:01:38.467: pe=-1.5024 eb=0.0000 ve=0.0000 vn=0.0000 vl=0.000 db=0.00
G1 E78.4376 F1800                       ; restore de=3.0771@30
;00:01:38.570: pe=1.5559 eb=0.0188 ve=30.0000 vn=0.6795 vl=0.000 db=0.44
G1 X-16.00 Y53.50 E78.5311 F600         ; draw dl=1.50@0<10>0 l=0.30x0.50x1.00
;00:01:38.740: pe=1.5501 eb=0.0276 ve=0.0000 vn=0.4882 vl=0.000 db=0.53
G1 E75.4810 F2400                       ; retract de=-3.0501@40
;00:01:38.816: pe=-1.5024 eb=0.0300 ve=-40.0000 vn=0.0000 vl=0.000 db=0.55
G1 Z0.700 F420                          ; hopup dz=0.40@7 h=0.7
;00:01:38.873: pe=-1.5024 eb=0.0300 ve=0.0000 vn=0.0000 vl=0.000 db=0.36
G1 X-14.00 Y55.00 F1500                 ; move dl=2.50@0<25>0 de=0.0000 h=0.70
;00:01:39.023: pe=-1.5024 eb=0.0000 ve=0.0000 vn=0.0000 vl=0.000 db=0.00
G1 Z0.300 F420                          ; hopdn dz=-0.40@7 h=0.3
;00:01:39.080: pe=-1.5024 eb=0.0000 ve=0.0000 vn=0.0000 vl=0.000 db=0.00
G1 E78.5581 F1800                       ; restore de=3.0771@30
;00:01:39.183: pe=1.5559 eb=0.0188 ve=30.0000 vn=0.6795 vl=0.000 db=0.44
G1 X-14.00 Y53.50 E78.6517 F600         ; draw dl=1.50@0<10>0 l=0.30x0.50x1.00
;00:01:39.353: pe=1.5501 eb=0.0276 ve=0.0000 vn=0.4882 vl=0.000 db=0.53
G1 E75.6016 F2400                       ; retract de=-3.0501@40
;00:01:39.429: pe=-1.5024 eb=0.0300 ve=-40.0000 vn=0.0000 vl=0.000 db=0.55
G1 Z0.700 F420                          ; hopup dz=0.40@7 h=0.7
;00:01:39.486: pe=-1.5024 eb=0.0300 ve=0.0000 vn=0.0000 vl=0.000 db=0.36
G1 X-12.00 Y55.00 F1500                 ; move dl=2.50@0<25>0 de=0.0000 h=0.70
;00:01:39.636: pe=-1.5024 eb=0.0000 ve=0.0000 vn=0.0000 vl=0.000 db=0.00
G1 Z0.300 F420                          ; hopdn dz=-0.40@7 h=0.3
;00:01:39.694: pe=-1.5024 eb=0.0000 ve=0.0000 vn=0.0000 vl=0.000 db=0.00
G1 E78.6787 F1800                       ; restore de=3.0771@30
;00:01:39.796: pe=1.5559 eb=0.0188 ve=30.0000 vn=0.6795 vl=0.000 db=0.44
G1 X-12.00 Y53.50 E78.7722 F600         ; draw dl=1.50@0<10>0 l=0.30x0.50x1.00
;00:01:39.966: pe=1.5501 eb=0.0276 ve=0.0000 vn=0.4882 vl=0.000 db=0.53
G1 E75.7221 F2400                       ; retract de=-3.0501@40
;00:01:40.042: pe=-1.5024 eb=0.0300 ve=-40.0000 vn=0.0000 vl=0.000 db=0.55
G1 Z0.700 F420                          ; hopup dz=0.40@7 h=0.7
;00:01:40.100: pe=-1.5024 eb=0.0300 ve=0.0000 vn=0.0000 vl=0.000 db=0.36
G1 X-10.00 Y55.00 F1500                 ; move dl=2.50@0<25>0 de=0.0000 h=0.70
;00:01:40.250: pe=-1.5024 eb=0.0000 ve=0.0000 vn=0.0000 vl=0.000 db=0.00
G1 Z0.300 F420                          ; hopdn dz=-0.40@7 h=0.3
;00:01:40.307: pe=-1.5024 eb=0.0000 ve=0.0000 vn=0.0000 vl=0.000 db=0.00
G1 E78.8336 F1800                       ; restore de=3.1115@30
;00:01:40.410: pe=1.5895 eb=0.0196 ve=30.0000 vn=0.6943 vl=0.000 db=0.45
G1 X-10.00 Y52.00 E79.0207 F600         ; draw dl=3.00@0<10>0 l=0.30x0.50x1.00
;00:01:40.730: pe=1.5836 eb=0.0287 ve=0.0000 vn=0.5006 vl=0.000 db=0.54
G1 E75.9371 F2400                       ; retract de=-3.0836@40
;00:01:40.808: pe=-1.5025 eb=0.0312 ve=-40.0000 vn=0.0000 vl=0.000 db=0.56
G1 Z0.700 F420                          ; hopup dz=0.40@7 h=0.7
;00:01:40.865: pe=-1.5025 eb=0.0312 ve=0.0000 vn=0.0000 vl=0.000 db=0.37
G1 X-8.00 Y55.00 F1801                  ; move dl=3.61@0<30>0 de=0.0000 h=0.70
;00:01:41.045: pe=-1.5025 eb=0.0000 ve=0.0000 vn=0.0000 vl=0.000 db=0.00
G1 Z0.300 F420                          ; hopdn dz=-0.40@7 h=0.3
;00:01:41.102: pe=-1.5025 eb=0.0000 ve=0.0000 vn=0.0000 vl=0.000 db=0.00
G1 E79.0144 F1800                       ; restore de=3.0773@30
;00:01:41.205: pe=1.5559 eb=0.0188 ve=30.0000 vn=0.6795 vl=0.000 db=0.44
G1 X-8.00 Y53.50 E79.1079 F600          ; draw dl=1.50@0<10>0 l=0.30x0.50x1.00
;00:01:41.375: pe=1.5501 eb=0.0276 ve=0.0000 vn=0.4882 vl=0.000 db=0.53
G1 E76.0578 F2400                       ; retract de=-3.0501@40
;00:01:41.451: pe=-1.5024 eb=0.0300 ve=-40.0000 vn=0.0000 vl=0.000 db=0.55
G1 Z0.700 F420                          ; hopup dz=0.40@7 h=0.7
;00:01:41.508: pe=-1.5024 eb=0.0300 ve=0.0000 vn=0.0000 vl=0.000 db=0.36
G1 X-6.00 Y55.00 F1500                  ; move dl=2.50@0<25>0 de=0.0000 h=0.70
;00:01:41.658: pe=-1.5024 eb=0.0000 ve=0.0000 vn=0.0000 vl=0.000 db=0.00
G1 Z0.300 F420                          ; hopdn dz=-0.40@7 h=0.3
;00:01:41.715: pe=-1.5024 eb=0.0000 ve=0.0000 vn=0.0000 vl=0.000 db=0.00
G1 E79.1349 F1800                       ; restore de=3.0771@30
;00:01:41.818: pe=1.5559 eb=0.0188 ve=30.0000 vn=0.6795 vl=0.000 db=0.44
G1 X-6.00 Y53.50 E79.2285 F600          ; draw dl=1.50@0<10>0 l=0.30x0.50x1.00
;00:01:41.988: pe=1.5501 eb=0.0276 ve=0.0000 vn=0.4882 vl=0.000 db=0.53
G1 E76.1783 F2400                       ; retract de=-3.0501@40
;00:01:42.064: pe=-1.5024 eb=0.0300 ve=-40.0000 vn=0.0000 vl=0.000 db=0.55
G1 Z0.700 F420                          ; hopup dz=0.40@7 h=0.7
;00:01:42.121: pe=-1.5024 eb=0.0300 ve=0.0000 vn=0.0000 vl=0.000 db=0.36
G1 X-4.00 Y55.00 F1500                  ; move dl=2.50@0<25>0 de=0.0000 h=0.70
;00:01:42.271: pe=-1.5024 eb=0.0000 ve=0.0000 vn=0.0000 vl=0.000 db=0.00
G1 Z0.300 F420                          ; hopdn dz=-0.40@7 h=0.3
;00:01:42.328: pe=-1.5024 eb=0.0000 ve=0.0000 vn=0.0000 vl=0.000 db=0.00
G1 E79.2555 F1800                       ; restore de=3.0771@30
;00:01:42.431: pe=1.5559 eb=0.0188 ve=30.0000 vn=0.6795 vl=0.000 db=0.44
G1 X-4.00 Y53.50 E79.3490 F600          ; draw dl=1.50@0<10>0 l=0.30x0.50x1.00
;00:01:42.601: pe=1.5501 eb=0.0276 ve=0.0000 vn=0.4882 vl=0.000 db=0.53
G1 E76.2989 F2400                       ; retract de=-3.0501@40
;00:01:42.677: pe=-1.5024 eb=0.0300 ve=-40.0000 vn=0.0000 vl=0.000 db=0.55
G1 Z0.700 F420                          ; hopup dz=0.40@7 h=0.7
;00:01:42.734: pe=-1.5024 eb=0.0300 ve=0.0000 vn=0.0000 vl=0.000 db=0.36
G1 X-2.00 Y55.00 F1500                  ; move dl=2.50@0<25>0 de=0.0000 h=0.70
;00:01:42.884: pe=-1.5024 eb=0.0000 ve=0.0000 vn=0.0000 vl=0.000 db=0.00
G1 Z0.300 F420                          ; hopdn dz=-0.40@7 h=0.3
;00:01:42.941: pe=-1.5024 eb=0.0000 ve=0.0000 vn=0.0000 vl=0.000 db=0.00
G1 E79.3760 F1800                       ; restore de=3.0771@30
;00:01:43.044: pe=1.5559 eb=0.0188 ve=30.0000 vn=0.6795 vl=0.000 db=0.44
G1 X-2.00 Y53.50 E79.4695 F600          ; draw dl=1.50@0<10>0 l=0.30x0.50x1.00
;00:01:43.214: pe=1.5501 eb=0.0276 ve=0.0000 vn=0.4882 vl=0.000 db=0.53
G1 E76.4194 F2400                       ; retract de=-3.0501@40
;00:01:43.290: pe=-1.5024 eb=0.0300 ve=-40.0000 vn=0.0000 vl=0.000 db=0.55
G1 Z0.700 F420                          ; hopup dz=0.40@7 h=0.7
;00:01:43.347: pe=-1.5024 eb=0.0300 ve=0.0000 vn=0.0000 vl=0.000 db=0.36
G1 X0.00 Y55.00 F1500                   ; move dl=2.50@0<25>0 de=0.0000 h=0.70
;00:01:43.497: pe=-1.5024 eb=0.0000 ve=0.0000 vn=0.0000 vl=0.000 db=0.00
G1 Z0.300 F420                          ; hopdn dz=-0.40@7 h=0.3
;00:01:43.554: pe=-1.5024 eb=0.0000 ve=0.0000 vn=0.0000 vl=0.000 db=0.00
G1 E79.5309 F1800                       ; restore de=3.1115@30
;00:01:43.658: pe=1.5895 eb=0.0196 ve=30.0000 vn=0.6943 vl=0.000 db=0.45
G1 X0.00 Y52.00 E79.7180 F600           ; draw dl=3.00@0<10>0 l=0.30x0.50x1.00
;00:01:43.978: pe=1.5836 eb=0.0287 ve=0.0000 vn=0.5006 vl=0.000 db=0.54
G1 E76.6344 F2400                       ; retract de=-3.0836@40
;00:01:44.055: pe=-1.5025 eb=0.0312 ve=-40.0000 vn=0.0000 vl=0.000 db=0.56
G1 Z0.700 F420                          ; hopup dz=0.40@7 h=0.7
;00:01:44.112: pe=-1.5025 eb=0.0312 ve=0.0000 vn=0.0000 vl=0.000 db=0.37
G1 X2.00 Y55.00 F1801                   ; move dl=3.61@0<30>0 de=0.0000 h=0.70
;00:01:44.292: pe=-1.5025 eb=0.0000 ve=0.0000 vn=0.0000 vl=0.000 db=0.00
G1 Z0.300 F420                          ; hopdn dz=-0.40@7 h=0.3
;00:01:44.350: pe=-1.5025 eb=0.0000 ve=0.0000 vn=0.0000 vl=0.000 db=0.00
G1 E79.7117 F1800                       ; restore de=3.0773@30
;00:01:44.452: pe=1.5559 eb=0.0188 ve=30.0000 vn=0.6795 vl=0.000 db=0.44
G1 X2.00 Y53.50 E79.8052 F600           ; draw dl=1.50@0<10>0 l=0.30x0.50x1.00
;00:01:44.622: pe=1.5501 eb=0.0276 ve=0.0000 vn=0.4882 vl=0.000 db=0.53
G1 E76.7551 F2400                       ; retract de=-3.0501@40
;00:01:44.698: pe=-1.5024 eb=0.0300 ve=-40.0000 vn=0.0000 vl=0.000 db=0.55
G1 Z0.700 F420                          ; hopup dz=0.40@7 h=0.7
;00:01:44.756: pe=-1.5024 eb=0.0300 ve=0.0000 vn=0.0000 vl=0.000 db=0.36
G1 X4.00 Y55.00 F1500                   ; move dl=2.50@0<25>0 de=0.0000 h=0.70
;00:01:44.906: pe=-1.5024 eb=0.0000 ve=0.0000 vn=0.0000 vl=0.000 db=0.00
G1 Z0.300 F420                          ; hopdn dz=-0.40@7 h=0.3
;00:01:44.963: pe=-1.5024 eb=0.0000 ve=0.0000 vn=0.0000 vl=0.000 db=0.00
G1 E79.8322 F1800                       ; restore de=3.0771@30
;00:01:45.065: pe=1.5559 eb=0.0188 ve=30.0000 vn=0.6795 vl=0.000 db=0.44
G1 X4.00 Y53.50 E79.9258 F600           ; draw dl=1.50@0<10>0 l=0.30x0.50x1.00
;00:01:45.235: pe=1.5501 eb=0.0276 ve=0.0000 vn=0.4882 vl=0.000 db=0.53
G1 E76.8756 F2400                       ; retract de=-3.0501@40
;00:01:45.312: pe=-1.5024 eb=0.0300 ve=-40.0000 vn=0.0000 vl=0.000 db=0.55
G1 Z0.700 F420                          ; hopup dz=0.40@7 h=0.7
;00:01:45.369: pe=-1.5024 eb=0.0300 ve=0.0000 vn=0.0000 vl=0.000 db=0.36
G1 X6.00 Y55.00 F1500                   ; move dl=2.50@0<25>0 de=0.0000 h=0.70
;00:01:45.519: pe=-1.5024 eb=0.0000 ve=0.0000 vn=0.0000 vl=0.000 db=0.00
G1 Z0.300 F420                          ; hopdn dz=-0.40@7 h=0.3
;00:01:45.576: pe=-1.5024 eb=0.0000 ve=0.0000 vn=0.0000 vl=0.000 db=0.00
G1 E79.9528 F1800                       ; restore de=3.0771@30
;00:01:45.678: pe=1.5559 eb=0.0188 ve=30.0000 vn=0.6795 vl=0.000 db=0.44
G1 X6.00 Y53.50 E80.0463 F600           ; draw dl=1.50@0<10>0 l=0.30x0.50x1.00
;00:01:45.848: pe=1.5501 eb=0.0276 ve=0.0000 vn=0.4882 vl=0.000 db=0.53
G1 E76.9962 F2400                       ; retract de=-3.0501@40
;00:01:45.925: pe=-1.5024 eb=0.0300 ve=-40.0000 vn=0.0000 vl=0.000 db=0.55
G1 Z0.700 F420                          ; hopup dz=0.40@7 h=0.7
;00:01:45.982: pe=-1.5024 eb=0.0300 ve=0.0000 vn=0.0000 vl=0.000 db=0.36
G1 X8.00 Y55.00 F1500                   ; move dl=2.50@0<25>0 de=0.0000 h=0.70
;00:01:46.132: pe=-1.5024 eb=0.0000 ve=0.0000 vn=0.0000 vl=0.000 db=0.00
G1 Z0.300 F420                          ; hopdn dz=-0.40@7 h=0.3
;00:01:46.189: pe=-1.5024 eb=0.0000 ve=0.0000 vn=0.0000 vl=0.000 db=0.00
G1 E80.0733 F1800                       ; restore de=3.0771@30
;00:01:46.292: pe=1.5559 eb=0.0188 ve=30.0000 vn=0.6795 vl=0.000 db=0.44
G1 X8.00 Y53.50 E80.1668 F600           ; draw dl=1.50@0<10>0 l=0.30x0.50x1.00
;00:01:46.462: pe=1.5501 eb=0.0276 ve=0.0000 vn=0.4882 vl=0.000 db=0.53
G1 E77.1167 F2400                       ; retract de=-3.0501@40
;00:01:46.538: pe=-1.5024 eb=0.0300 ve=-40.0000 vn=0.0000 vl=0.000 db=0.55
G1 Z0.700 F420                          ; hopup dz=0.40@7 h=0.7
;00:01:46.595: pe=-1.5024 eb=0.0300 ve=0.0000 vn=0.0000 vl=0.000 db=0.36
G1 X10.00 Y55.00 F1500                  ; move dl=2.50@0<25>0 de=0.0000 h=0.70
;00:01:46.745: pe=-1.5024 eb=0.0000 ve=0.0000 vn=0.0000 vl=0.000 db=0.00
G1 Z0.300 F420                          ; hopdn dz=-0.40@7 h=0.3
;00:01:46.802: pe=-1.5024 eb=0.0000 ve=0.0000 vn=0.0000 vl=0.000 db=0.00
G1 E80.2282 F1800                       ; restore de=3.1115@30
;00:01:46.906: pe=1.5895 eb=0.0196 ve=30.0000 vn=0.6943 vl=0.000 db=0.45
G1 X10.00 Y52.00 E80.4153 F600          ; draw dl=3.00@0<10>0 l=0.30x0.50x1.00
;00:01:47.226: pe=1.5836 eb=0.0287 ve=0.0000 vn=0.5006 vl=0.000 db=0.54
G1 E77.3317 F2400                       ; retract de=-3.0836@40
;00:01:47.303: pe=-1.5025 eb=0.0312 ve=-40.0000 vn=0.0000 vl=0.000 db=0.56
G1 Z0.700 F420                          ; hopup dz=0.40@7 h=0.7
;00:01:47.360: pe=-1.5025 eb=0.0312 ve=0.0000 vn=0.0000 vl=0.000 db=0.37
G1 X12.00 Y55.00 F1801                  ; move dl=3.61@0<30>0 de=0.0000 h=0.70
;00:01:47.540: pe=-1.5025 eb=0.0000 ve=0.0000 vn=0.0000 vl=0.000 db=0.00
G1 Z0.300 F420                          ; hopdn dz=-0.40@7 h=0.3
;00:01:47.597: pe=-1.5025 eb=0.0000 ve=0.0000 vn=0.0000 vl=0.000 db=0.00
G1 E80.4090 F1800                       ; restore de=3.0773@30
;00:01:47.700: pe=1.5559 eb=0.0188 ve=30.0000 vn=0.6795 vl=0.000 db=0.44
G1 X12.00 Y53.50 E80.5025 F600          ; draw dl=1.50@0<10>0 l=0.30x0.50x1.00
;00:01:47.870: pe=1.5501 eb=0.0276 ve=0.0000 vn=0.4882 vl=0.000 db=0.53
G1 E77.4524 F2400                       ; retract de=-3.0501@40
;00:01:47.946: pe=-1.5024 eb=0.0300 ve=-40.0000 vn=0.0000 vl=0.000 db=0.55
G1 Z0.700 F420                          ; hopup dz=0.40@7 h=0.7
;00:01:48.003: pe=-1.5024 eb=0.0300 ve=0.0000 vn=0.0000 vl=0.000 db=0.36
G1 X14.00 Y55.00 F1500                  ; move dl=2.50@0<25>0 de=0.0000 h=0.70
;00:01:48.153: pe=-1.5024 eb=0.0000 ve=0.0000 vn=0.0000 vl=0.000 db=0.00
G1 Z0.300 F420                          ; hopdn dz=-0.40@7 h=0.3
;00:01:48.210: pe=-1.5024 eb=0.0000 ve=0.0000 vn=0.0000 vl=0.000 db=0.00
G1 E80.5295 F1800                       ; restore de=3.0771@30
;00:01:48.313: pe=1.5559 eb=0.0188 ve=30.0000 vn=0.6795 vl=0.000 db=0.44
G1 X14.00 Y53.50 E80.6231 F600          ; draw dl=1.50@0<10>0 l=0.30x0.50x1.00
;00:01:48.483: pe=1.5501 eb=0.0276 ve=0.0000 vn=0.4882 vl=0.000 db=0.53
G1 E77.5729 F2400                       ; retract de=-3.0501@40
;00:01:48.559: pe=-1.5024 eb=0.0300 ve=-40.0000 vn=0.0000 vl=0.000 db=0.55
G1 Z0.700 F420                          ; hopup dz=0.40@7 h=0.7
;00:01:48.616: pe=-1.5024 eb=0.0300 ve=0.0000 vn=0.0000 vl=0.000 db=0.36
G1 X16.00 Y55.00 F1500                  ; move dl=2.50@0<25>0 de=0.0000 h=0.70
;00:01:48.766: pe=-1.5024 eb=0.0000 ve=0.0000 vn=0.0000 vl=0.000 db=0.00
G1 Z0.300 F420                          ; hopdn dz=-0.40@7 h=0.3
;00:01:48.824: pe=-1.5024 eb=0.0000 ve=0.0000 vn=0.0000 vl=0.000 db=0.00
G1 E80.6501 F1800                       ; restore de=3.0771@30
;00:01:48.926: pe=1.5559 eb=0.0188 ve=30.0000 vn=0.6795 vl=0.000 db=0.44
G1 X16.00 Y53.50 E80.7436 F600          ; draw dl=1.50@0<10>0 l=0.30x0.50x1.00
;00:01:49.096: pe=1.5501 eb=0.0276 ve=0.0000 vn=0.4882 vl=0.000 db=0.53
G1 E77.6935 F2400                       ; retract de=-3.0501@40
;00:01:49.172: pe=-1.5024 eb=0.0300 ve=-40.0000 vn=0.0000 vl=0.000 db=0.55
G1 Z0.700 F420                          ; hopup dz=0.40@7 h=0.7
;00:01:49.229: pe=-1.5024 eb=0.0300 ve=0.0000 vn=0.0000 vl=0.000 db=0.36
G1 X18.00 Y55.00 F1500                  ; move dl=2.50@0<25>0 de=0.0000 h=0.70
;00:01:49.379: pe=-1.5024 eb=0.0000 ve=0.0000 vn=0.0000 vl=0.000 db=0.00
G1 Z0.300 F420                          ; hopdn dz=-0.40@7 h=0.3
;00:01:49.437: pe=-1.5024 eb=0.0000 ve=0.0000 vn=0.0000 vl=0.000 db=0.00
G1 E80.7706 F1800                       ; restore de=3.0771@30
;00:01:49.539: pe=1.5559 eb=0.0188 ve=30.0000 vn=0.6795 vl=0.000 db=0.44
G1 X18.00 Y53.50 E80.8642 F600          ; draw dl=1.50@0<10>0 l=0.30x0.50x1.00
;00:01:49.709: pe=1.5501 eb=0.0276 ve=0.0000 vn=0.4882 vl=0.000 db=0.53
G1 E77.8140 F2400                       ; retract de=-3.0501@40
;00:01:49.785: pe=-1.5024 eb=0.0300 ve=-40.0000 vn=0.0000 vl=0.000 db=0.55
G1 Z0.700 F420                          ; hopup dz=0.40@7 h=0.7
;00:01:49.843: pe=-1.5024 eb=0.0300 ve=0.0000 vn=0.0000 vl=0.000 db=0.36
G1 X20.00 Y55.00 F1500                  ; move dl=2.50@0<25>0 de=0.0000 h=0.70
;00:01:49.993: pe=-1.5024 eb=0.0000 ve=0.0000 vn=0.0000 vl=0.000 db=0.00
G1 Z0.300 F420                          ; hopdn dz=-0.40@7 h=0.3
;00:01:50.050: pe=-1.5024 eb=0.0000 ve=0.0000 vn=0.0000 vl=0.000 db=0.00
G1 E80.9255 F1800                       ; restore de=3.1115@30
;00:01:50.153: pe=1.5895 eb=0.0196 ve=30.0000 vn=0.6943 vl=0.000 db=0.45
G1 X20.00 Y52.00 E81.1126 F600          ; draw dl=3.00@0<10>0 l=0.30x0.50x1.00
;00:01:50.473: pe=1.5836 eb=0.0287 ve=0.0000 vn=0.5006 vl=0.000 db=0.54
G1 E78.0290 F2400                       ; retract de=-3.0836@40
;00:01:50.551: pe=-1.5025 eb=0.0312 ve=-40.0000 vn=0.0000 vl=0.000 db=0.56
G1 Z0.700 F420                          ; hopup dz=0.40@7 h=0.7
;00:01:50.608: pe=-1.5025 eb=0.0312 ve=0.0000 vn=0.0000 vl=0.000 db=0.37
G1 X22.00 Y55.00 F1801                  ; move dl=3.61@0<30>0 de=0.0000 h=0.70
;00:01:50.788: pe=-1.5025 eb=0.0000 ve=0.0000 vn=0.0000 vl=0.000 db=0.00
G1 Z0.300 F420                          ; hopdn dz=-0.40@7 h=0.3
;00:01:50.845: pe=-1.5025 eb=0.0000 ve=0.0000 vn=0.0000 vl=0.000 db=0.00
G1 E81.1063 F1800                       ; restore de=3.0773@30
;00:01:50.948: pe=1.5559 eb=0.0188 ve=30.0000 vn=0.6795 vl=0.000 db=0.44
G1 X22.00 Y53.50 E81.1998 F600          ; draw dl=1.50@0<10>0 l=0.30x0.50x1.00
;00:01:51.118: pe=1.5501 eb=0.0276 ve=0.0000 vn=0.4882 vl=0.000 db=0.53
G1 E78.1497 F2400                       ; retract de=-3.0501@40
;00:01:51.194: pe=-1.5024 eb=0.0300 ve=-40.0000 vn=0.0000 vl=0.000 db=0.55
G1 Z0.700 F420                          ; hopup dz=0.40@7 h=0.7
;00:01:51.251: pe=-1.5024 eb=0.0300 ve=0.0000 vn=0.0000 vl=0.000 db=0.36
G1 X24.00 Y55.00 F1500                  ; move dl=2.50@0<25>0 de=0.0000 h=0.70
;00:01:51.401: pe=-1.5024 eb=0.0000 ve=0.0000 vn=0.0000 vl=0.000 db=0.00
G1 Z0.300 F420                          ; hopdn dz=-0.40@7 h=0.3
;00:01:51.458: pe=-1.5024 eb=0.0000 ve=0.0000 vn=0.0000 vl=0.000 db=0.00
G1 E81.2268 F1800                       ; restore de=3.0771@30
;00:01:51.561: pe=1.5559 eb=0.0188 ve=30.0000 vn=0.6795 vl=0.000 db=0.44
G1 X24.00 Y53.50 E81.3204 F600          ; draw dl=1.50@0<10>0 l=0.30x0.50x1.00
;00:01:51.731: pe=1.5501 eb=0.0276 ve=0.0000 vn=0.4882 vl=0.000 db=0.53
G1 E78.2702 F2400                       ; retract de=-3.0501@40
;00:01:51.807: pe=-1.5024 eb=0.0300 ve=-40.0000 vn=0.0000 vl=0.000 db=0.55
G1 Z0.700 F420                          ; hopup dz=0.40@7 h=0.7
;00:01:51.864: pe=-1.5024 eb=0.0300 ve=0.0000 vn=0.0000 vl=0.000 db=0.36
G1 X26.00 Y55.00 F1500                  ; move dl=2.50@0<25>0 de=0.0000 h=0.70
;00:01:52.014: pe=-1.5024 eb=0.0000 ve=0.0000 vn=0.0000 vl=0.000 db=0.00
G1 Z0.300 F420                          ; hopdn dz=-0.40@7 h=0.3
;00:01:52.071: pe=-1.5024 eb=0.0000 ve=0.0000 vn=0.0000 vl=0.000 db=0.00
G1 E81.3474 F1800                       ; restore de=3.0771@30
;00:01:52.174: pe=1.5559 eb=0.0188 ve=30.0000 vn=0.6795 vl=0.000 db=0.44
G1 X26.00 Y53.50 E81.4409 F600          ; draw dl=1.50@0<10>0 l=0.30x0.50x1.00
;00:01:52.344: pe=1.5501 eb=0.0276 ve=0.0000 vn=0.4882 vl=0.000 db=0.53
G1 E78.3908 F2400                       ; retract de=-3.0501@40
;00:01:52.420: pe=-1.5024 eb=0.0300 ve=-40.0000 vn=0.0000 vl=0.000 db=0.55
G1 Z0.700 F420                          ; hopup dz=0.40@7 h=0.7
;00:01:52.477: pe=-1.5024 eb=0.0300 ve=0.0000 vn=0.0000 vl=0.000 db=0.36
G1 X28.00 Y55.00 F1500                  ; move dl=2.50@0<25>0 de=0.0000 h=0.70
;00:01:52.627: pe=-1.5024 eb=0.0000 ve=0.0000 vn=0.0000 vl=0.000 db=0.00
G1 Z0.300 F420                          ; hopdn dz=-0.40@7 h=0.3
;00:01:52.684: pe=-1.5024 eb=0.0000 ve=0.0000 vn=0.0000 vl=0.000 db=0.00
G1 E81.4679 F1800                       ; restore de=3.0771@30
;00:01:52.787: pe=1.5559 eb=0.0188 ve=30.0000 vn=0.6795 vl=0.000 db=0.44
G1 X28.00 Y53.50 E81.5615 F600          ; draw dl=1.50@0<10>0 l=0.30x0.50x1.00
;00:01:52.957: pe=1.5501 eb=0.0276 ve=0.0000 vn=0.4882 vl=0.000 db=0.53
G1 E78.5113 F2400                       ; retract de=-3.0501@40
;00:01:53.033: pe=-1.5024 eb=0.0300 ve=-40.0000 vn=0.0000 vl=0.000 db=0.55
G1 Z0.700 F420                          ; hopup dz=0.40@7 h=0.7
;00:01:53.090: pe=-1.5024 eb=0.0300 ve=0.0000 vn=0.0000 vl=0.000 db=0.36
G1 X30.00 Y55.00 F1500                  ; move dl=2.50@0<25>0 de=0.0000 h=0.70
;00:01:53.240: pe=-1.5024 eb=0.0000 ve=0.0000 vn=0.0000 vl=0.000 db=0.00
G1 Z0.300 F420                          ; hopdn dz=-0.40@7 h=0.3
;00:01:53.297: pe=-1.5024 eb=0.0000 ve=0.0000 vn=0.0000 vl=0.000 db=0.00
G1 E81.6229 F1800                       ; restore de=3.1115@30
;00:01:53.401: pe=1.5895 eb=0.0196 ve=30.0000 vn=0.6943 vl=0.000 db=0.45
G1 X30.00 Y52.00 E81.8099 F600          ; draw dl=3.00@0<10>0 l=0.30x0.50x1.00
;00:01:53.721: pe=1.5836 eb=0.0287 ve=0.0000 vn=0.5006 vl=0.000 db=0.54
G1 E78.7263 F2400                       ; retract de=-3.0836@40
;00:01:53.798: pe=-1.5025 eb=0.0312 ve=-40.0000 vn=0.0000 vl=0.000 db=0.56
G1 Z0.700 F420                          ; hopup dz=0.40@7 h=0.7
;00:01:53.855: pe=-1.5025 eb=0.0312 ve=0.0000 vn=0.0000 vl=0.000 db=0.37
G1 X32.00 Y55.00 F1801                  ; move dl=3.61@0<30>0 de=0.0000 h=0.70
;00:01:54.036: pe=-1.5025 eb=0.0000 ve=0.0000 vn=0.0000 vl=0.000 db=0.00
G1 Z0.300 F420                          ; hopdn dz=-0.40@7 h=0.3
;00:01:54.093: pe=-1.5025 eb=0.0000 ve=0.0000 vn=0.0000 vl=0.000 db=0.00
G1 E81.8036 F1800                       ; restore de=3.0773@30
;00:01:54.195: pe=1.5559 eb=0.0188 ve=30.0000 vn=0.6795 vl=0.000 db=0.44
G1 X32.00 Y53.50 E81.8971 F600          ; draw dl=1.50@0<10>0 l=0.30x0.50x1.00
;00:01:54.365: pe=1.5501 eb=0.0276 ve=0.0000 vn=0.4882 vl=0.000 db=0.53
G1 E78.8470 F2400                       ; retract de=-3.0501@40
;00:01:54.441: pe=-1.5024 eb=0.0300 ve=-40.0000 vn=0.0000 vl=0.000 db=0.55
G1 Z0.700 F420                          ; hopup dz=0.40@7 h=0.7
;00:01:54.499: pe=-1.5024 eb=0.0300 ve=0.0000 vn=0.0000 vl=0.000 db=0.36
G1 X34.00 Y55.00 F1500                  ; move dl=2.50@0<25>0 de=0.0000 h=0.70
;00:01:54.649: pe=-1.5024 eb=0.0000 ve=0.0000 vn=0.0000 vl=0.000 db=0.00
G1 Z0.300 F420                          ; hopdn dz=-0.40@7 h=0.3
;00:01:54.706: pe=-1.5024 eb=0.0000 ve=0.0000 vn=0.0000 vl=0.000 db=0.00
G1 E81.9241 F1800                       ; restore de=3.0771@30
;00:01:54.808: pe=1.5559 eb=0.0188 ve=30.0000 vn=0.6795 vl=0.000 db=0.44
G1 X34.00 Y53.50 E82.0177 F600          ; draw dl=1.50@0<10>0 l=0.30x0.50x1.00
;00:01:54.978: pe=1.5501 eb=0.0276 ve=0.0000 vn=0.4882 vl=0.000 db=0.53
G1 E78.9675 F2400                       ; retract de=-3.0501@40
;00:01:55.055: pe=-1.5024 eb=0.0300 ve=-40.0000 vn=0.0000 vl=0.000 db=0.55
G1 Z0.700 F420                          ; hopup dz=0.40@7 h=0.7
;00:01:55.112: pe=-1.5024 eb=0.0300 ve=0.0000 vn=0.0000 vl=0.000 db=0.36
G1 X36.00 Y55.00 F1500                  ; move dl=2.50@0<25>0 de=0.0000 h=0.70
;00:01:55.262: pe=-1.5024 eb=0.0000 ve=0.0000 vn=0.0000 vl=0.000 db=0.00
G1 Z0.300 F420                          ; hopdn dz=-0.40@7 h=0.3
;00:01:55.319: pe=-1.5024 eb=0.0000 ve=0.0000 vn=0.0000 vl=0.000 db=0.00
G1 E82.0447 F1800                       ; restore de=3.0771@30
;00:01:55.421: pe=1.5559 eb=0.0188 ve=30.0000 vn=0.6795 vl=0.000 db=0.44
G1 X36.00 Y53.50 E82.1382 F600          ; draw dl=1.50@0<10>0 l=0.30x0.50x1.00
;00:01:55.591: pe=1.5501 eb=0.0276 ve=0.0000 vn=0.4882 vl=0.000 db=0.53
G1 E79.0881 F2400                       ; retract de=-3.0501@40
;00:01:55.668: pe=-1.5024 eb=0.0300 ve=-40.0000 vn=0.0000 vl=0.000 db=0.55
G1 Z0.700 F420                          ; hopup dz=0.40@7 h=0.7
;00:01:55.725: pe=-1.5024 eb=0.0300 ve=0.0000 vn=0.0000 vl=0.000 db=0.36
G1 X38.00 Y55.00 F1500                  ; move dl=2.50@0<25>0 de=0.0000 h=0.70
;00:01:55.875: pe=-1.5024 eb=0.0000 ve=0.0000 vn=0.0000 vl=0.000 db=0.00
G1 Z0.300 F420                          ; hopdn dz=-0.40@7 h=0.3
;00:01:55.932: pe=-1.5024 eb=0.0000 ve=0.0000 vn=0.0000 vl=0.000 db=0.00
G1 E82.1652 F1800                       ; restore de=3.0771@30
;00:01:56.035: pe=1.5559 eb=0.0188 ve=30.0000 vn=0.6795 vl=0.000 db=0.44
G1 X38.00 Y53.50 E82.2588 F600          ; draw dl=1.50@0<10>0 l=0.30x0.50x1.00
;00:01:56.205: pe=1.5501 eb=0.0276 ve=0.0000 vn=0.4882 vl=0.000 db=0.53
G1 E79.2086 F2400                       ; retract de=-3.0501@40
;00:01:56.281: pe=-1.5024 eb=0.0300 ve=-40.0000 vn=0.0000 vl=0.000 db=0.55
G1 Z0.700 F420                          ; hopup dz=0.40@7 h=0.7
;00:01:56.338: pe=-1.5024 eb=0.0300 ve=0.0000 vn=0.0000 vl=0.000 db=0.36
G1 X40.00 Y55.00 F1500                  ; move dl=2.50@0<25>0 de=0.0000 h=0.70
;00:01:56.488: pe=-1.5024 eb=0.0000 ve=0.0000 vn=0.0000 vl=0.000 db=0.00
G1 Z0.300 F420                          ; hopdn dz=-0.40@7 h=0.3
;00:01:56.545: pe=-1.5024 eb=0.0000 ve=0.0000 vn=0.0000 vl=0.000 db=0.00
G1 E82.3202 F1800                       ; restore de=3.1115@30
;00:01:56.649: pe=1.5895 eb=0.0196 ve=30.0000 vn=0.6943 vl=0.000 db=0.45
G1 X40.00 Y52.00 E82.5072 F600          ; draw dl=3.00@0<10>0 l=0.30x0.50x1.00
;00:01:56.969: pe=1.5836 eb=0.0287 ve=0.0000 vn=0.5006 vl=0.000 db=0.54
G1 E79.4236 F2400                       ; retract de=-3.0836@40
;00:01:57.046: pe=-1.5025 eb=0.0312 ve=-40.0000 vn=0.0000 vl=0.000 db=0.56
G1 Z0.700 F420                          ; hopup dz=0.40@7 h=0.7
;00:01:57.103: pe=-1.5025 eb=0.0312 ve=0.0000 vn=0.0000 vl=0.000 db=0.37
;structure:infill-solid
;00:01:57.103: Test Line StartStop Kf=0.0 Kb=2.0 Re=1.5 vx=60 re=0.0
;00:01:57.103: setting config Kf=0.0 Kb=2.0 Re=1.5
G1 X-45.00 Y51.00 F6000                 ; move dl=85.01@0<100>0 de=0.0000 h=0.70
;00:01:58.153: pe=-1.5025 eb=0.0000 ve=0.0000 vn=0.0000 vl=0.000 db=0.00
G1 Z0.300 F420                          ; hopdn dz=-0.40@7 h=0.3
;00:01:58.210: pe=-1.5025 eb=0.0000 ve=0.0000 vn=0.0000 vl=0.000 db=0.00
G1 E81.9506 F1800                       ; restore de=2.5270@30
;00:01:58.294: pe=0.9970 eb=0.0275 ve=30.0000 vn=0.0000 vl=0.000 db=0.53
G1 X-40.00 Y51.00 E82.2625 F60          ; draw dl=5.00@0<1>1 l=0.30x0.50x1.00
;00:02:03.295: pe=0.9973 eb=0.0250 ve=0.0624 vn=0.0000 vl=1.000 db=0.51
G1 X-30.00 Y51.00                       ; move dl=10.00@1<1>0 de=0.0000 h=0.30
;00:02:13.296: pe=0.5419 eb=0.0075 ve=0.0000 vn=0.0000 vl=0.000 db=0.28
G1 E82.7451 F1800                       ; restore de=0.4826@30
;00:02:13.313: pe=1.0050 eb=0.0270 ve=30.0000 vn=0.0000 vl=0.000 db=0.52
G1 X20.00 Y51.00 E85.8632 F3600         ; draw dl=50.00@0<60>0 l=0.30x0.50x1.00
;00:02:14.266: pe=0.6338 eb=0.0132 ve=0.0000 vn=0.0000 vl=0.000 db=0.37
G1 E83.7295 F2400                       ; retract de=-2.1338@40
;00:02:14.319: pe=-1.5000 eb=0.0132 ve=-40.0000 vn=0.0000 vl=0.000 db=0.37
G1 X30.00 Y51.00 F60                    ; move dl=10.00@0<1>1 de=0.0000 h=0.30
;00:02:24.320: pe=-1.5000 eb=0.0000 ve=0.0000 vn=0.0000 vl=1.000 db=0.00
G1 X31.00 Y51.00 E83.8539               ; draw dl=1.00@1<1>1 l=0.30x0.50x2.00
;00:02:25.320: pe=-1.3755 eb=0.0000 ve=0.1245 vn=0.0000 vl=1.000 db=0.00
G1 X45.00 Y51.00 E85.2539               ; draw dl=14.00@1<1>0 l=0.30x0.50x1.60
;00:02:39.321: pe=0.0226 eb=0.0006 ve=0.0000 vn=0.0000 vl=0.000 db=0.08
G1 E83.7313 F2400                       ; retract de=-1.5226@40
;00:02:39.359: pe=-1.5000 eb=0.0006 ve=-40.0000 vn=0.0000 vl=0.000 db=0.08
G1 Z0.700 F420                          ; hopup dz=0.40@7 h=0.7
;00:02:39.416: pe=-1.5000 eb=0.0006 ve=0.0000 vn=0.0000 vl=0.000 db=0.05
;00:02:39.416: restoring config Kf=1.0 Kb=2.0 Re=1.5
;00:02:39.416: Test Line StartStop Kf=0.2 Kb=2.0 Re=1.5 vx=60 re=0.0
;00:02:39.416: setting config Kf=0.2 Kb=2.0 Re=1.5
G1 X-45.00 Y49.00 F6000                 ; move dl=90.02@0<100>0 de=0.0000 h=0.70
;00:02:40.517: pe=-1.5000 eb=0.0000 ve=0.0000 vn=0.0000 vl=0.000 db=0.00
G1 Z0.300 F420                          ; hopdn dz=-0.40@7 h=0.3
;00:02:40.574: pe=-1.5000 eb=0.0000 ve=0.0000 vn=0.0000 vl=0.000 db=0.00
G1 E86.2683 F1800                       ; restore de=2.5370@30
;00:02:40.658: pe=1.0193 eb=0.0176 ve=30.0000 vn=0.8558 vl=0.000 db=0.42
G1 X-40.00 Y49.00 E86.5801 F60          ; draw dl=5.00@0<1>1 l=0.30x0.50x1.00
;00:02:45.659: pe=1.0125 eb=0.0245 ve=0.0624 vn=0.0624 vl=1.000 db=0.50
G1 X-30.00 Y49.00                       ; move dl=10.00@1<1>0 de=0.0000 h=0.30
;00:02:55.660: pe=0.5587 eb=0.0075 ve=0.0000 vn=0.0276 vl=0.000 db=0.28
G1 E87.7000 F1800                       ; restore de=1.1199@30
;00:02:55.698: pe=1.6411 eb=0.0451 ve=30.0000 vn=1.4213 vl=0.000 db=0.68
G1 X20.00 Y49.00 E90.8182 F3600         ; draw dl=50.00@0<60>0 l=0.30x0.50x1.00
;00:02:56.651: pe=1.6597 eb=0.0588 ve=0.0000 vn=0.5505 vl=0.000 db=0.77
G1 E87.6584 F2400                       ; retract de=-3.1597@40
;00:02:56.730: pe=-1.5005 eb=0.0593 ve=-40.0000 vn=0.0000 vl=0.000 db=0.78
G1 X30.00 Y49.00 F60                    ; move dl=10.00@0<1>1 de=0.0000 h=0.30
;00:03:06.731: pe=-1.5005 eb=0.0000 ve=0.0000 vn=0.0000 vl=1.000 db=0.00
G1 X31.00 Y49.00 E87.7829               ; draw dl=1.00@1<1>1 l=0.30x0.50x2.00
;00:03:07.731: pe=-1.3760 eb=0.0000 ve=0.1245 vn=0.0000 vl=1.000 db=0.00
G1 X45.00 Y49.00 E89.1829               ; draw dl=14.00@1<1>0 l=0.30x0.50x1.60
;00:03:21.732: pe=0.0238 eb=0.0000 ve=0.0000 vn=0.0000 vl=0.000 db=0.01
G1 E87.6592 F2400                       ; retract de=-1.5238@40
;00:03:21.770: pe=-1.5000 eb=0.0000 ve=-40.0000 vn=0.0000 vl=0.000 db=0.01
G1 Z0.700 F420                          ; hopup dz=0.40@7 h=0.7
;00:03:21.827: pe=-1.5000 eb=0.0000 ve=0.0000 vn=0.0000 vl=0.000 db=0.01
;00:03:21.827: restoring config Kf=1.0 Kb=2.0 Re=1.5
;00:03:21.827: Test Line StartStop Kf=0.4 Kb=2.0 Re=1.5 vx=60 re=0.0
;00:03:21.827: setting config Kf=0.4 Kb=2.0 Re=1.5
G1 X-45.00 Y47.00 F6000                 ; move dl=90.02@0<100>0 de=0.0000 h=0.70
;00:03:22.928: pe=-1.5000 eb=0.0000 ve=0.0000 vn=0.0000 vl=0.000 db=0.00
G1 Z0.300 F420                          ; hopdn dz=-0.40@7 h=0.3
;00:03:22.985: pe=-1.5000 eb=0.0000 ve=0.0000 vn=0.0000 vl=0.000 db=0.00
G1 E90.2086 F1800                       ; restore de=2.5494@30
;00:03:23.070: pe=1.0355 eb=0.0139 ve=30.0000 vn=0.7063 vl=0.000 db=0.38
G1 X-40.00 Y47.00 E90.5204 F60          ; draw dl=5.00@0<1>1 l=0.30x0.50x1.00
;00:03:28.071: pe=1.0251 eb=0.0245 ve=0.0624 vn=0.0624 vl=1.000 db=0.50
G1 X-30.00 Y47.00                       ; move dl=10.00@1<1>0 de=0.0000 h=0.30
;00:03:38.072: pe=0.5695 eb=0.0076 ve=0.0000 vn=0.0308 vl=0.000 db=0.28
G1 E92.2837 F1800                       ; restore de=1.7633@30
;00:03:38.130: pe=2.2743 eb=0.0661 ve=30.0000 vn=1.5798 vl=0.000 db=0.82
G1 X20.00 Y47.00 E95.4018 F3600         ; draw dl=50.00@0<60>0 l=0.30x0.50x1.00
;00:03:39.084: pe=2.3167 eb=0.0836 ve=0.0000 vn=1.1728 vl=0.000 db=0.92
G1 E91.5851 F2400                       ; retract de=-3.8167@40
;00:03:39.179: pe=-1.5052 eb=0.0888 ve=-40.0000 vn=0.0000 vl=0.000 db=0.95
G1 X30.00 Y47.00 F60                    ; move dl=10.00@0<1>1 de=0.0000 h=0.30
;00:03:49.180: pe=-1.5052 eb=0.0000 ve=0.0000 vn=0.0000 vl=1.000 db=0.00
G1 X31.00 Y47.00 E91.7096               ; draw dl=1.00@1<1>1 l=0.30x0.50x2.00
;00:03:50.180: pe=-1.3807 eb=0.0000 ve=0.1245 vn=0.0000 vl=1.000 db=0.00
G1 X45.00 Y47.00 E93.1096               ; draw dl=14.00@1<1>0 l=0.30x0.50x1.60
;00:04:04.181: pe=0.0191 eb=0.0000 ve=0.0000 vn=0.0000 vl=0.000 db=0.01
G1 E91.5905 F2400                       ; retract de=-1.5191@40
;00:04:04.219: pe=-1.5000 eb=0.0000 ve=-40.0000 vn=0.0000 vl=0.000 db=0.01
G1 Z0.700 F420                          ; hopup dz=0.40@7 h=0.7
;00:04:04.276: pe=-1.5000 eb=0.0000 ve=0.0000 vn=0.0000 vl=0.000 db=0.01
;00:04:04.276: restoring config Kf=1.0 Kb=2.0 Re=1.5
;00:04:04.276: Test Line StartStop Kf=0.6 Kb=2.0 Re=1.5 vx=60 re=0.0
;00:04:04.276: setting config Kf=0.6 Kb=2.0 Re=1.5
G1 X-45.00 Y45.00 F6000                 ; move dl=90.02@0<100>0 de=0.0000 h=0.70
;00:04:05.377: pe=-1.5000 eb=0.0000 ve=0.0000 vn=0.0000 vl=0.000 db=0.00
G1 Z0.300 F420                          ; hopdn dz=-0.40@7 h=0.3
;00:04:05.434: pe=-1.5000 eb=0.0000 ve=0.0000 vn=0.0000 vl=0.000 db=0.00
G1 E94.1524 F1800                       ; restore de=2.5619@30
;00:04:05.519: pe=1.0502 eb=0.0117 ve=30.0000 vn=0.6005 vl=0.000 db=0.34
G1 X-40.00 Y45.00 E94.4642 F60          ; draw dl=5.00@0<1>1 l=0.30x0.50x1.00
;00:04:10.520: pe=1.0377 eb=0.0245 ve=0.0624 vn=0.0624 vl=1.000 db=0.50
G1 X-30.00 Y45.00                       ; move dl=10.00@1<1>0 de=0.0000 h=0.30
;00:04:20.521: pe=0.5804 eb=0.0077 ve=0.0000 vn=0.0320 vl=0.000 db=0.28
G1 E96.8708 F1800                       ; restore de=2.4066@30
;00:04:20.601: pe=2.9063 eb=0.0883 ve=30.0000 vn=1.6786 vl=0.000 db=0.95
G1 X20.00 Y45.00 E99.9889 F3600         ; draw dl=50.00@0<60>0 l=0.30x0.50x1.00
;00:04:21.555: pe=2.9693 eb=0.0986 ve=0.0000 vn=1.6054 vl=0.000 db=1.00
G1 E95.5196 F2400                       ; retract de=-4.4693@40
;00:04:21.666: pe=-1.5146 eb=0.1132 ve=-40.0000 vn=0.0000 vl=0.000 db=1.07
G1 X30.00 Y45.00 F60                    ; move dl=10.00@0<1>1 de=0.0000 h=0.30
;00:04:31.667: pe=-1.5146 eb=0.0000 ve=0.0000 vn=0.0000 vl=1.000 db=0.00
G1 X31.00 Y45.00 E95.6441               ; draw dl=1.00@1<1>1 l=0.30x0.50x2.00
;00:04:32.667: pe=-1.3901 eb=0.0000 ve=0.1245 vn=0.0000 vl=1.000 db=0.00
G1 X45.00 Y45.00 E97.0441               ; draw dl=14.00@1<1>0 l=0.30x0.50x1.60
;00:04:46.668: pe=0.0098 eb=0.0000 ve=0.0000 vn=0.0003 vl=0.000 db=0.00
G1 E95.5342 F2400                       ; retract de=-1.5098@40
;00:04:46.706: pe=-1.5000 eb=0.0000 ve=-40.0000 vn=0.0000 vl=0.000 db=0.00
G1 Z0.700 F420                          ; hopup dz=0.40@7 h=0.7
;00:04:46.763: pe=-1.5000 eb=0.0000 ve=0.0000 vn=0.0000 vl=0.000 db=0.00
;00:04:46.763: restoring config Kf=1.0 Kb=2.0 Re=1.5
;00:04:46.763: Test Line StartStop Kf=0.8 Kb=2.0 Re=1.5 vx=60 re=0.0
;00:04:46.763: setting config Kf=0.8 Kb=2.0 Re=1.5
G1 X-45.00 Y43.00 F6000                 ; move dl=90.02@0<100>0 de=0.0000 h=0.70
;00:04:47.863: pe=-1.5000 eb=0.0000 ve=0.0000 vn=0.0000 vl=0.000 db=0.00
G1 Z0.300 F420                          ; hopdn dz=-0.40@7 h=0.3
;00:04:47.921: pe=-1.5000 eb=0.0000 ve=0.0000 vn=0.0000 vl=0.000 db=0.00
G1 E98.1086 F1800                       ; restore de=2.5744@30
;00:04:48.006: pe=1.0642 eb=0.0102 ve=30.0000 vn=0.5244 vl=0.000 db=0.32
G1 X-40.00 Y43.00 E98.4204 F60          ; draw dl=5.00@0<1>1 l=0.30x0.50x1.00
;00:04:53.007: pe=1.0503 eb=0.0245 ve=0.0624 vn=0.0624 vl=1.000 db=0.50
G1 X-30.00 Y43.00                       ; move dl=10.00@1<1>0 de=0.0000 h=0.30
;00:05:03.008: pe=0.5913 eb=0.0078 ve=0.0000 vn=0.0327 vl=0.000 db=0.28
G1 E101.4703 F1800                      ; restore de=3.0498@30
;00:05:03.110: pe=3.5374 eb=0.1115 ve=30.0000 vn=1.7541 vl=0.000 db=1.07
G1 X20.00 Y43.00 E104.5884 F3600        ; draw dl=50.00@0<60>0 l=0.30x0.50x1.00
;00:05:04.063: pe=3.6173 eb=0.1079 ve=0.0000 vn=1.8975 vl=0.000 db=1.05
G1 E99.4711 F2400                       ; retract de=-5.1173@40
;00:05:04.191: pe=-1.5269 eb=0.1348 ve=-40.0000 vn=0.0000 vl=0.000 db=1.17
G1 X30.00 Y43.00 F60                    ; move dl=10.00@0<1>1 de=0.0000 h=0.30
;00:05:14.192: pe=-1.5269 eb=0.0000 ve=0.0000 vn=0.0000 vl=1.000 db=0.00
G1 X31.00 Y43.00 E99.5956               ; draw dl=1.00@1<1>1 l=0.30x0.50x2.00
;00:05:15.192: pe=-1.4024 eb=0.0000 ve=0.1245 vn=0.0000 vl=1.000 db=0.00
G1 X45.00 Y43.00 E100.9956              ; draw dl=14.00@1<1>0 l=0.30x0.50x1.60
;00:05:29.193: pe=-0.0024 eb=0.0000 ve=0.0000 vn=0.0000 vl=0.000 db=0.00
G1 E99.4980 F2400                       ; retract de=-1.4976@40
;00:05:29.231: pe=-1.5000 eb=0.0000 ve=-40.0000 vn=0.0000 vl=0.000 db=0.00
G1 Z0.700 F420                          ; hopup dz=0.40@7 h=0.7
;00:05:29.288: pe=-1.5000 eb=0.0000 ve=0.0000 vn=0.0000 vl=0.000 db=0.00
;00:05:29.288: restoring config Kf=1.0 Kb=2.0 Re=1.5
;00:05:29.288: Test Line StartStop Kf=1.0 Kb=2.0 Re=1.5 vx=60 re=0.0
;00:05:29.288: setting config Kf=1.0 Kb=2.0 Re=1.5
G1 X-45.00 Y41.00 F6000                 ; move dl=90.02@0<100>0 de=0.0000 h=0.70
;00:05:30.388: pe=-1.5000 eb=0.0000 ve=0.0000 vn=0.0000 vl=0.000 db=0.00
G1 Z0.300 F420                          ; hopdn dz=-0.40@7 h=0.3
;00:05:30.445: pe=-1.5000 eb=0.0000 ve=0.0000 vn=0.0000 vl=0.000 db=0.00
G1 E102.0848 F1800                      ; restore de=2.5868@30
;00:05:30.532: pe=1.0777 eb=0.0091 ve=30.0000 vn=0.4677 vl=0.000 db=0.30
G1 X-40.00 Y41.00 E102.3966 F60         ; draw dl=5.00@0<1>1 l=0.30x0.50x1.00
;00:05:35.533: pe=1.0630 eb=0.0245 ve=0.0624 vn=0.0624 vl=1.000 db=0.50
G1 X-30.00 Y41.00                       ; move dl=10.00@1<1>0 de=0.0000 h=0.30
;00:05:45.534: pe=0.6022 eb=0.0079 ve=0.0000 vn=0.0333 vl=0.000 db=0.28
G1 E106.0897 F1800                      ; restore de=3.6931@30
;00:05:45.657: pe=4.1677 eb=0.1355 ve=30.0000 vn=1.8156 vl=0.000 db=1.18
G1 X20.00 Y41.00 E109.2078 F3600        ; draw dl=50.00@0<60>0 l=0.30x0.50x1.00
;00:05:46.610: pe=4.2614 eb=0.1142 ve=0.0000 vn=2.1023 vl=0.000 db=1.08
G1 E103.4465 F2400                      ; retract de=-5.7614@40
;00:05:46.754: pe=-1.5409 eb=0.1550 ve=-40.0000 vn=0.0000 vl=0.000 db=1.26
G1 X30.00 Y41.00 F60                    ; move dl=10.00@0<1>1 de=0.0000 h=0.30
;00:05:56.755: pe=-1.5409 eb=0.0000 ve=0.0000 vn=0.0000 vl=1.000 db=0.00
G1 X31.00 Y41.00 E103.5709              ; draw dl=1.00@1<1>1 l=0.30x0.50x2.00
;00:05:57.755: pe=-1.4164 eb=0.0000 ve=0.1245 vn=0.0000 vl=1.000 db=0.00
G1 X45.00 Y41.00 E104.9709              ; draw dl=14.00@1<1>0 l=0.30x0.50x1.60
;00:06:11.756: pe=-0.0164 eb=0.0000 ve=0.0000 vn=0.0000 vl=0.000 db=0.00
G1 E103.4873 F2400                      ; retract de=-1.4836@40
;00:06:11.793: pe=-1.5000 eb=0.0000 ve=-40.0000 vn=0.0000 vl=0.000 db=0.00
G1 Z0.700 F420                          ; hopup dz=0.40@7 h=0.7
;00:06:11.850: pe=-1.5000 eb=0.0000 ve=0.0000 vn=0.0000 vl=0.000 db=0.00
;00:06:11.850: restoring config Kf=1.0 Kb=2.0 Re=1.5
;00:06:11.850: Test Line StartStop Kf=1.2 Kb=2.0 Re=1.5 vx=60 re=0.0
;00:06:11.850: setting config Kf=1.2 Kb=2.0 Re=1.5
G1 X-45.00 Y39.00 F6000                 ; move dl=90.02@0<100>0 de=0.0000 h=0.70
;00:06:12.950: pe=-1.5000 eb=0.0000 ve=0.0000 vn=0.0000 vl=0.000 db=0.00
G1 Z0.300 F420                          ; hopdn dz=-0.40@7 h=0.3
;00:06:13.008: pe=-1.5000 eb=0.0000 ve=0.0000 vn=0.0000 vl=0.000 db=0.00
G1 E106.0866 F1800                      ; restore de=2.5993@30
;00:06:13.094: pe=1.0910 eb=0.0083 ve=30.0000 vn=0.4239 vl=0.000 db=0.29
G1 X-40.00 Y39.00 E106.3984 F60         ; draw dl=5.00@0<1>1 l=0.30x0.50x1.00
;00:06:18.095: pe=1.0756 eb=0.0245 ve=0.0624 vn=0.0624 vl=1.000 db=0.50
G1 X-30.00 Y39.00                       ; move dl=10.00@1<1>0 de=0.0000 h=0.30
;00:06:28.096: pe=0.6132 eb=0.0080 ve=0.0000 vn=0.0337 vl=0.000 db=0.29
G1 E110.7347 F1800                      ; restore de=4.3363@30
;00:06:28.241: pe=4.7974 eb=0.1600 ve=30.0000 vn=1.8676 vl=0.000 db=1.28
G1 X20.00 Y39.00 E113.8528 F3600        ; draw dl=50.00@0<60>0 l=0.30x0.50x1.00
;00:06:29.194: pe=4.9023 eb=0.1185 ve=0.0000 vn=2.2519 vl=0.000 db=1.10
G1 E107.4505 F2400                      ; retract de=-6.4023@40
;00:06:29.354: pe=-1.5560 eb=0.1745 ve=-40.0000 vn=0.0000 vl=0.000 db=1.33
G1 X30.00 Y39.00 F60                    ; move dl=10.00@0<1>1 de=0.0000 h=0.30
;00:06:39.355: pe=-1.5560 eb=0.0000 ve=0.0000 vn=0.0000 vl=1.000 db=0.00
G1 X31.00 Y39.00 E107.5750              ; draw dl=1.00@1<1>1 l=0.30x0.50x2.00
;00:06:40.355: pe=-1.4315 eb=0.0000 ve=0.1245 vn=0.0000 vl=1.000 db=0.00
G1 X45.00 Y39.00 E108.9750              ; draw dl=14.00@1<1>0 l=0.30x0.50x1.60
;00:06:54.356: pe=-0.0315 eb=0.0000 ve=0.0000 vn=0.0000 vl=0.000 db=0.00
G1 E107.5065 F2400                      ; retract de=-1.4685@40
;00:06:54.393: pe=-1.5000 eb=0.0000 ve=-40.0000 vn=0.0000 vl=0.000 db=0.00
G1 Z0.700 F420                          ; hopup dz=0.40@7 h=0.7
;00:06:54.450: pe=-1.5000 eb=0.0000 ve=0.0000 vn=0.0000 vl=0.000 db=0.00
;00:06:54.450: restoring config Kf=1.0 Kb=2.0 Re=1.5
;00:06:54.450: Test Line StartStop Kf=1.4 Kb=2.0 Re=1.5 vx=60 re=0.0
;00:06:54.450: setting config Kf=1.4 Kb=2.0 Re=1.5
G1 X-45.00 Y37.00 F6000                 ; move dl=90.02@0<100>0 de=0.0000 h=0.70
;00:06:55.550: pe=-1.5000 eb=0.0000 ve=0.0000 vn=0.0000 vl=0.000 db=0.00
G1 Z0.300 F420                          ; hopdn dz=-0.40@7 h=0.3
;00:06:55.607: pe=-1.5000 eb=0.0000 ve=0.0000 vn=0.0000 vl=0.000 db=0.00
G1 E110.1183 F1800                      ; restore de=2.6118@30
;00:06:55.694: pe=1.1041 eb=0.0077 ve=30.0000 vn=0.3888 vl=0.000 db=0.28
G1 X-40.00 Y37.00 E110.4301 F60         ; draw dl=5.00@0<1>1 l=0.30x0.50x1.00
;00:07:00.695: pe=1.0882 eb=0.0245 ve=0.0624 vn=0.0624 vl=1.000 db=0.50
G1 X-30.00 Y37.00                       ; move dl=10.00@1<1>0 de=0.0000 h=0.30
;00:07:10.696: pe=0.6242 eb=0.0081 ve=0.0000 vn=0.0341 vl=0.000 db=0.29
G1 E115.4095 F1800                      ; restore de=4.9794@30
;00:07:10.862: pe=5.4266 eb=0.1851 ve=30.0000 vn=1.9126 vl=0.000 db=1.37
G1 X20.00 Y37.00 E118.5276 F3600        ; draw dl=50.00@0<60>0 l=0.30x0.50x1.00
;00:07:11.816: pe=5.5408 eb=0.1217 ve=0.0000 vn=2.3652 vl=0.000 db=1.11
G1 E111.4868 F2400                      ; retract de=-7.0408@40
;00:07:11.992: pe=-1.5718 eb=0.1935 ve=-40.0000 vn=0.0000 vl=0.000 db=1.41
G1 X30.00 Y37.00 F60                    ; move dl=10.00@0<1>1 de=0.0000 h=0.30
;00:07:21.993: pe=-1.5718 eb=0.0000 ve=0.0000 vn=0.0000 vl=1.000 db=0.00
G1 X31.00 Y37.00 E111.6113              ; draw dl=1.00@1<1>1 l=0.30x0.50x2.00
;00:07:22.993: pe=-1.4473 eb=0.0000 ve=0.1245 vn=0.0000 vl=1.000 db=0.00
G1 X45.00 Y37.00 E113.0113              ; draw dl=14.00@1<1>0 l=0.30x0.50x1.60
;00:07:36.994: pe=-0.0473 eb=0.0000 ve=0.0000 vn=0.0000 vl=0.000 db=0.00
G1 E111.5586 F2400                      ; retract de=-1.4527@40
;00:07:37.030: pe=-1.5000 eb=0.0000 ve=-40.0000 vn=0.0000 vl=0.000 db=0.00
G1 Z0.700 F420                          ; hopup dz=0.40@7 h=0.7
;00:07:37.087: pe=-1.5000 eb=0.0000 ve=0.0000 vn=0.0000 vl=0.000 db=0.00
;00:07:37.087: restoring config Kf=1.0 Kb=2.0 Re=1.5
;00:07:37.087: Test Line StartStop Kf=1.6 Kb=2.0 Re=1.5 vx=60 re=0.0
;00:07:37.087: setting config Kf=1.6 Kb=2.0 Re=1.5
G1 X-45.00 Y35.00 F6000                 ; move dl=90.02@0<100>0 de=0.0000 h=0.70
;00:07:38.187: pe=-1.5000 eb=0.0000 ve=0.0000 vn=0.0000 vl=0.000 db=0.00
G1 Z0.300 F420                          ; hopdn dz=-0.40@7 h=0.3
;00:07:38.245: pe=-1.5000 eb=0.0000 ve=0.0000 vn=0.0000 vl=0.000 db=0.00
G1 E114.1828 F1800                      ; restore de=2.6243@30
;00:07:38.332: pe=1.1171 eb=0.0072 ve=30.0000 vn=0.3602 vl=0.000 db=0.27
G1 X-40.00 Y35.00 E114.4946 F60         ; draw dl=5.00@0<1>1 l=0.30x0.50x1.00
;00:07:43.333: pe=1.1009 eb=0.0245 ve=0.0624 vn=0.0624 vl=1.000 db=0.50
G1 X-30.00 Y35.00                       ; move dl=10.00@1<1>0 de=0.0000 h=0.30
;00:07:53.334: pe=0.6352 eb=0.0082 ve=0.0000 vn=0.0344 vl=0.000 db=0.29
G1 E120.1172 F1800                      ; restore de=5.6226@30
;00:07:53.521: pe=6.0554 eb=0.2105 ve=30.0000 vn=1.9521 vl=0.000 db=1.47
G1 X20.00 Y35.00 E123.2353 F3600        ; draw dl=50.00@0<60>0 l=0.30x0.50x1.00
;00:07:54.475: pe=6.1775 eb=0.1242 ve=0.0000 vn=2.4536 vl=0.000 db=1.13
G1 E115.5579 F2400                      ; retract de=-7.6775@40
;00:07:54.667: pe=-1.5881 eb=0.2123 ve=-40.0000 vn=0.0000 vl=0.000 db=1.47
G1 X30.00 Y35.00 F60                    ; move dl=10.00@0<1>1 de=0.0000 h=0.30
;00:08:04.668: pe=-1.5881 eb=0.0000 ve=0.0000 vn=0.0000 vl=1.000 db=0.00
G1 X31.00 Y35.00 E115.6824              ; draw dl=1.00@1<1>1 l=0.30x0.50x2.00
;00:08:05.668: pe=-1.4636 eb=0.0000 ve=0.1245 vn=0.0000 vl=1.000 db=0.00
G1 X45.00 Y35.00 E117.0824              ; draw dl=14.00@1<1>0 l=0.30x0.50x1.60
;00:08:19.669: pe=-0.0636 eb=0.0000 ve=0.0000 vn=0.0000 vl=0.000 db=0.00
G1 E115.6460 F2400                      ; retract de=-1.4364@40
;00:08:19.705: pe=-1.5000 eb=0.0000 ve=-40.0000 vn=0.0000 vl=0.000 db=0.00
G1 Z0.700 F420                          ; hopup dz=0.40@7 h=0.7
;00:08:19.762: pe=-1.5000 eb=0.0000 ve=0.0000 vn=0.0000 vl=0.000 db=0.00
;00:08:19.762: restoring config Kf=1.0 Kb=2.0 Re=1.5
;00:08:19.762: Test Line StartStop Kf=1.8 Kb=2.0 Re=1.5 vx=60 re=0.0
;00:08:19.762: setting config Kf=1.8 Kb=2.0 Re=1.5
G1 X-45.00 Y33.00 F6000                 ; move dl=90.02@0<100>0 de=0.0000 h=0.70
;00:08:20.862: pe=-1.5000 eb=0.0000 ve=0.0000 vn=0.0000 vl=0.000 db=0.00
G1 Z0.300 F420                          ; hopdn dz=-0.40@7 h=0.3
;00:08:20.919: pe=-1.5000 eb=0.0000 ve=0.0000 vn=0.0000 vl=0.000 db=0.00
G1 E118.2827 F1800                      ; restore de=2.6367@30
;00:08:21.007: pe=1.1300 eb=0.0067 ve=30.0000 vn=0.3363 vl=0.000 db=0.26
G1 X-40.00 Y33.00 E118.5946 F60         ; draw dl=5.00@0<1>1 l=0.30x0.50x1.00
;00:08:26.008: pe=1.1135 eb=0.0245 ve=0.0624 vn=0.0624 vl=1.000 db=0.50
G1 X-30.00 Y33.00                       ; move dl=10.00@1<1>0 de=0.0000 h=0.30
;00:08:36.009: pe=0.6462 eb=0.0083 ve=0.0000 vn=0.0347 vl=0.000 db=0.29
G1 E124.8602 F1800                      ; restore de=6.2657@30
;00:08:36.218: pe=6.6838 eb=0.2364 ve=30.0000 vn=1.9873 vl=0.000 db=1.55
G1 X20.00 Y33.00 E127.9783 F3600        ; draw dl=50.00@0<60>0 l=0.30x0.50x1.00
;00:08:37.171: pe=6.8125 eb=0.1261 ve=0.0000 vn=2.5243 vl=0.000 db=1.13
G1 E119.6658 F2400                      ; retract de=-8.3125@40
;00:08:37.379: pe=-1.6049 eb=0.2309 ve=-40.0000 vn=0.0000 vl=0.000 db=1.54
G1 X30.00 Y33.00 F60                    ; move dl=10.00@0<1>1 de=0.0000 h=0.30
;00:08:47.380: pe=-1.6049 eb=0.0000 ve=0.0000 vn=0.0000 vl=1.000 db=0.00
G1 X31.00 Y33.00 E119.7903              ; draw dl=1.00@1<1>1 l=0.30x0.50x2.00
;00:08:48.380: pe=-1.4804 eb=0.0000 ve=0.1245 vn=0.0000 vl=1.000 db=0.00
G1 X45.00 Y33.00 E121.1903              ; draw dl=14.00@1<1>0 l=0.30x0.50x1.60
;00:09:02.381: pe=-0.0804 eb=0.0000 ve=0.0000 vn=0.0000 vl=0.000 db=0.00
G1 E119.7707 F2400                      ; retract de=-1.4196@40
;00:09:02.417: pe=-1.5000 eb=0.0000 ve=-40.0000 vn=0.0000 vl=0.000 db=0.00
G1 Z0.700 F420                          ; hopup dz=0.40@7 h=0.7
;00:09:02.474: pe=-1.5000 eb=0.0000 ve=0.0000 vn=0.0000 vl=0.000 db=0.00
;00:09:02.474: restoring config Kf=1.0 Kb=2.0 Re=1.5
;00:09:02.474: Test Line StartStop Kf=2.0 Kb=2.0 Re=1.5 vx=60 re=0.0
;00:09:02.474: setting config Kf=2.0 Kb=2.0 Re=1.5
G1 X-45.00 Y31.00 F6000                 ; move dl=90.02@0<100>0 de=0.0000 h=0.70
;00:09:03.574: pe=-1.5000 eb=0.0000 ve=0.0000 vn=0.0000 vl=0.000 db=0.00
G1 Z0.300 F420                          ; hopdn dz=-0.40@7 h=0.3
;00:09:03.631: pe=-1.5000 eb=0.0000 ve=0.0000 vn=0.0000 vl=0.000 db=0.00
G1 E122.4199 F1800                      ; restore de=2.6492@30
;00:09:03.719: pe=1.1428 eb=0.0064 ve=30.0000 vn=0.3160 vl=0.000 db=0.26
G1 X-40.00 Y31.00 E122.7317 F60         ; draw dl=5.00@0<1>1 l=0.30x0.50x1.00
;00:09:08.720: pe=1.1261 eb=0.0246 ve=0.0624 vn=0.0624 vl=1.000 db=0.50
G1 X-30.00 Y31.00                       ; move dl=10.00@1<1>0 de=0.0000 h=0.30
;00:09:18.721: pe=0.6573 eb=0.0084 ve=0.0000 vn=0.0350 vl=0.000 db=0.29
G1 E129.6405 F1800                      ; restore de=6.9087@30
;00:09:18.952: pe=7.3119 eb=0.2625 ve=30.0000 vn=2.0189 vl=0.000 db=1.64
G1 X20.00 Y31.00 E132.7586 F3600        ; draw dl=50.00@0<60>0 l=0.30x0.50x1.00
;00:09:19.905: pe=7.4463 eb=0.1276 ve=0.0000 vn=2.5820 vl=0.000 db=1.14
G1 E123.8123 F2400                      ; retract de=-8.9463@40
;00:09:20.129: pe=-1.6219 eb=0.2495 ve=-40.0000 vn=0.0000 vl=0.000 db=1.60
G1 X30.00 Y31.00 F60                    ; move dl=10.00@0<1>1 de=0.0000 h=0.30
;00:09:30.130: pe=-1.6219 eb=0.0000 ve=0.0000 vn=0.0000 vl=1.000 db=0.00
G1 X31.00 Y31.00 E123.9368              ; draw dl=1.00@1<1>1 l=0.30x0.50x2.00
;00:09:31.130: pe=-1.4974 eb=0.0000 ve=0.1245 vn=0.0000 vl=1.000 db=0.00
G1 X45.00 Y31.00 E125.3368              ; draw dl=14.00@1<1>0 l=0.30x0.50x1.60
;00:09:45.131: pe=-0.0974 eb=0.0000 ve=0.0000 vn=0.0000 vl=0.000 db=0.00
G1 E123.9342 F2400                      ; retract de=-1.4026@40
;00:09:45.166: pe=-1.5000 eb=0.0000 ve=-40.0000 vn=0.0000 vl=0.000 db=0.00
G1 Z0.700 F420                          ; hopup dz=0.40@7 h=0.7
;00:09:45.223: pe=-1.5000 eb=0.0000 ve=0.0000 vn=0.0000 vl=0.000 db=0.00
;00:09:45.223: restoring config Kf=1.0 Kb=2.0 Re=1.5
;structure:brim
;00:09:45.223: text x0=46.0 y0=55 fsize=5 angle=0 'Kf=0.0-2.0\nKb=2.0\nRe=1.5\nvx=60\nre=0.0'
G1 X46.50 Y54.88 F4641                  ; move dl=23.93@0<77>0 de=0.0000 h=0.70
;00:09:45.687: pe=-1.5000 eb=0.0000 ve=0.0000 vn=0.0000 vl=0.000 db=0.00
G1 Z0.300 F420                          ; hopdn dz=-0.40@7 h=0.3
;00:09:45.744: pe=-1.5000 eb=0.0000 ve=0.0000 vn=0.0000 vl=0.000 db=0.00
G1 E127.0477 F1800                      ; restore de=3.1135@30
;00:09:45.848: pe=1.5937 eb=0.0197 ve=30.0000 vn=0.6961 vl=0.000 db=0.45
G1 X46.50 Y51.48 E127.2597 F600         ; draw dl=3.40@0<10>0 l=0.30x0.50x1.00
;00:09:46.208: pe=1.5878 eb=0.0289 ve=0.0000 vn=0.5022 vl=0.000 db=0.54
G1 E124.1719 F2400                      ; retract de=-3.0878@40
;00:09:46.285: pe=-1.5025 eb=0.0314 ve=-40.0000 vn=0.0000 vl=0.000 db=0.57
G1 Z0.700 F420                          ; hopup dz=0.40@7 h=0.7
;00:09:46.342: pe=-1.5025 eb=0.0314 ve=0.0000 vn=0.0000 vl=0.000 db=0.37
G1 X48.96 Y51.48 F1488                  ; move dl=2.46@0<25>0 de=0.0000 h=0.70
;00:09:46.491: pe=-1.5025 eb=0.0000 ve=0.0000 vn=0.0000 vl=0.000 db=0.00
G1 Z0.300 F420                          ; hopdn dz=-0.40@7 h=0.3
;00:09:46.548: pe=-1.5025 eb=0.0000 ve=0.0000 vn=0.0000 vl=0.000 db=0.00
G1 E127.2767 F1800                      ; restore de=3.1048@30
;00:09:46.652: pe=1.5828 eb=0.0195 ve=30.0000 vn=0.6913 vl=0.000 db=0.45
G1 X47.47 Y53.51 E127.4337 F600         ; draw dl=2.52@0<10>0 l=0.30x0.50x1.00
;00:09:46.923: pe=1.5769 eb=0.0285 ve=0.0000 vn=0.4982 vl=0.000 db=0.54
G1 E124.3568 F2400                      ; retract de=-3.0769@40
;00:09:47.000: pe=-1.5025 eb=0.0310 ve=-40.0000 vn=0.0000 vl=0.000 db=0.56
G1 Z0.700 F420                          ; hopup dz=0.40@7 h=0.7
;00:09:47.057: pe=-1.5025 eb=0.0310 ve=0.0000 vn=0.0000 vl=0.000 db=0.37
G1 X46.50 Y52.67 F1075                  ; move dl=1.28@0<18>0 de=0.0000 h=0.70
;00:09:47.165: pe=-1.5025 eb=0.0000 ve=0.0000 vn=0.0000 vl=0.000 db=0.00
G1 Z0.300 F420                          ; hopdn dz=-0.40@7 h=0.3
;00:09:47.222: pe=-1.5025 eb=0.0000 ve=0.0000 vn=0.0000 vl=0.000 db=0.00
G1 E127.4723 F1800                      ; restore de=3.1155@30
;00:09:47.326: pe=1.5933 eb=0.0197 ve=30.0000 vn=0.6959 vl=0.000 db=0.45
G1 X49.02 Y54.88 E127.6813 F600         ; draw dl=3.35@0<10>0 l=0.30x0.50x1.00
;00:09:47.681: pe=1.5874 eb=0.0288 ve=0.0000 vn=0.5020 vl=0.000 db=0.54
G1 E124.5940 F2400                      ; retract de=-3.0874@40
;00:09:47.758: pe=-1.5025 eb=0.0314 ve=-40.0000 vn=0.0000 vl=0.000 db=0.57
G1 Z0.700 F420                          ; hopup dz=0.40@7 h=0.7
;00:09:47.815: pe=-1.5025 eb=0.0314 ve=0.0000 vn=0.0000 vl=0.000 db=0.37
G1 X51.27 Y54.90 F1423                  ; move dl=2.25@0<24>0 de=0.0000 h=0.70
;00:09:47.958: pe=-1.5025 eb=0.0000 ve=0.0000 vn=0.0000 vl=0.000 db=0.00
G1 Z0.300 F420                          ; hopdn dz=-0.40@7 h=0.3
;00:09:48.015: pe=-1.5025 eb=0.0000 ve=0.0000 vn=0.0000 vl=0.000 db=0.00
G1 E127.4951 F1800                      ; restore de=2.9011@30
;00:09:48.112: pe=1.3837 eb=0.0149 ve=30.0000 vn=0.6033 vl=0.000 db=0.39
G1 X51.12 Y54.90 E127.5045 F600         ; draw dl=0.15@0<10>10 l=0.30x0.50x1.00
;00:09:48.137: pe=1.3803 eb=0.0194 ve=0.6236 vn=0.4913 vl=10.000 db=0.44
G1 X50.94 Y54.86 E127.5160              ; draw dl=0.18@10<10>10 l=0.30x0.50x1.00
;00:09:48.155: pe=1.3825 eb=0.0185 ve=0.6236 vn=0.5129 vl=10.000 db=0.43
G1 X50.78 Y54.73 E127.5288              ; draw dl=0.21@10<10>10 l=0.30x0.50x1.00
;00:09:48.176: pe=1.3847 eb=0.0181 ve=0.6236 vn=0.5246 vl=10.000 db=0.43
G1 X50.66 Y54.54 E127.5428              ; draw dl=0.22@10<10>10 l=0.30x0.50x1.00
;00:09:48.198: pe=1.3868 eb=0.0180 ve=0.6236 vn=0.5306 vl=10.000 db=0.43
G1 X50.58 Y54.17 E127.5664              ; draw dl=0.38@10<10>10 l=0.30x0.50x1.00
;00:09:48.236: pe=1.3903 eb=0.0179 ve=0.6236 vn=0.5346 vl=10.000 db=0.43
G1 X50.58 Y51.48 E127.7342              ; draw dl=2.69@10<10>0 l=0.30x0.50x1.00
;00:09:48.515: pe=1.4081 eb=0.0231 ve=0.0000 vn=0.4365 vl=0.000 db=0.49
G1 E124.8261 F2400                      ; retract de=-2.9081@40
;00:09:48.588: pe=-1.5019 eb=0.0250 ve=-40.0000 vn=0.0000 vl=0.000 db=0.51
G1 Z0.700 F420                          ; hopup dz=0.40@7 h=0.7
;00:09:48.645: pe=-1.5019 eb=0.0250 ve=0.0000 vn=0.0000 vl=0.000 db=0.33
G1 X50.08 Y53.76 F1449                  ; move dl=2.33@0<24>0 de=0.0000 h=0.70
;00:09:48.790: pe=-1.5019 eb=0.0000 ve=0.0000 vn=0.0000 vl=0.000 db=0.00
G1 Z0.300 F420                          ; hopdn dz=-0.40@7 h=0.3
;00:09:48.847: pe=-1.5019 eb=0.0000 ve=0.0000 vn=0.0000 vl=0.000 db=0.00
G1 E127.8787 F1800                      ; restore de=3.0526@30
;00:09:48.949: pe=1.5324 eb=0.0183 ve=30.0000 vn=0.6691 vl=0.000 db=0.43
G1 X51.16 Y53.76 E127.9460 F600         ; draw dl=1.08@0<10>0 l=0.30x0.50x1.00
;00:09:49.077: pe=1.5267 eb=0.0269 ve=0.0000 vn=0.4788 vl=0.000 db=0.52
G1 E124.9194 F2400                      ; retract de=-3.0267@40
;00:09:49.152: pe=-1.5023 eb=0.0292 ve=-40.0000 vn=0.0000 vl=0.000 db=0.55
G1 Z0.700 F420                          ; hopup dz=0.40@7 h=0.7
;00:09:49.209: pe=-1.5023 eb=0.0292 ve=0.0000 vn=0.0000 vl=0.000 db=0.36
G1 X52.34 Y53.26 F1074                  ; move dl=1.28@0<18>0 de=0.0000 h=0.70
;00:09:49.317: pe=-1.5023 eb=0.0000 ve=0.0000 vn=0.0000 vl=0.000 db=0.00
G1 Z0.300 F420                          ; hopdn dz=-0.40@7 h=0.3
;00:09:49.374: pe=-1.5023 eb=0.0000 ve=0.0000 vn=0.0000 vl=0.000 db=0.00
G1 E128.0038 F1800                      ; restore de=3.0844@30
;00:09:49.477: pe=1.5631 eb=0.0190 ve=30.0000 vn=0.6826 vl=0.000 db=0.44
G1 X54.03 Y53.26 E128.1092 F600         ; draw dl=1.69@0<10>0 l=0.30x0.50x1.00
;00:09:49.666: pe=1.5573 eb=0.0279 ve=0.0000 vn=0.4909 vl=0.000 db=0.53
G1 E125.0519 F2400                      ; retract de=-3.0573@40
;00:09:49.742: pe=-1.5024 eb=0.0303 ve=-40.0000 vn=0.0000 vl=0.000 db=0.56
G1 Z0.700 F420                          ; hopup dz=0.40@7 h=0.7
;00:09:49.799: pe=-1.5024 eb=0.0303 ve=0.0000 vn=0.0000 vl=0.000 db=0.36
G1 X54.03 Y52.55 F799                   ; move dl=0.71@0<13>0 de=0.0000 h=0.70
;00:09:49.879: pe=-1.5024 eb=0.0000 ve=0.0000 vn=0.0000 vl=0.000 db=0.00
G1 Z0.300 F420                          ; hopdn dz=-0.40@7 h=0.3
;00:09:49.936: pe=-1.5024 eb=0.0000 ve=0.0000 vn=0.0000 vl=0.000 db=0.00
G1 E128.1364 F1800                      ; restore de=3.0845@30
;00:09:50.039: pe=1.5631 eb=0.0190 ve=30.0000 vn=0.6826 vl=0.000 db=0.44
G1 X52.34 Y52.55 E128.2418 F600         ; draw dl=1.69@0<10>0 l=0.30x0.50x1.00
;00:09:50.228: pe=1.5573 eb=0.0279 ve=0.0000 vn=0.4909 vl=0.000 db=0.53
G1 E125.1845 F2400                      ; retract de=-3.0573@40
;00:09:50.305: pe=-1.5024 eb=0.0303 ve=-40.0000 vn=0.0000 vl=0.000 db=0.56
G1 Z0.700 F420                          ; hopup dz=0.40@7 h=0.7
;00:09:50.362: pe=-1.5024 eb=0.0303 ve=0.0000 vn=0.0000 vl=0.000 db=0.36
G1 X56.31 Y54.94 F2042                  ; move dl=4.63@0<34>0 de=0.0000 h=0.70
;00:09:50.566: pe=-1.5024 eb=0.0000 ve=0.0000 vn=0.0000 vl=0.000 db=0.00
G1 Z0.300 F420                          ; hopdn dz=-0.40@7 h=0.3
;00:09:50.623: pe=-1.5024 eb=0.0000 ve=0.0000 vn=0.0000 vl=0.000 db=0.00
G1 E128.2359 F1800                      ; restore de=3.0514@30
;00:09:50.725: pe=1.5308 eb=0.0182 ve=30.0000 vn=0.6683 vl=0.000 db=0.43
G1 X56.82 Y54.80 E128.2688 F600         ; draw dl=0.53@0<10>10 l=0.30x0.50x1.00
;00:09:50.788: pe=1.5280 eb=0.0221 ve=0.6236 vn=0.5777 vl=10.000 db=0.48
G1 X57.21 Y54.42 E128.3028              ; draw dl=0.54@10<10>10 l=0.30x0.50x1.00
;00:09:50.842: pe=1.5302 eb=0.0218 ve=0.6236 vn=0.5870 vl=10.000 db=0.47
G1 X57.45 Y53.86 E128.3408              ; draw dl=0.61@10<10>10 l=0.30x0.50x1.00
;00:09:50.903: pe=1.5324 eb=0.0218 ve=0.6236 vn=0.5890 vl=10.000 db=0.47
G1 X57.53 Y53.18 E128.3835              ; draw dl=0.68@10<10>10 l=0.30x0.50x1.00
;00:09:50.972: pe=1.5347 eb=0.0219 ve=0.6236 vn=0.5900 vl=10.000 db=0.47
G1 X57.45 Y52.51 E128.4256              ; draw dl=0.67@10<10>10 l=0.30x0.50x1.00
;00:09:51.039: pe=1.5369 eb=0.0219 ve=0.6236 vn=0.5909 vl=10.000 db=0.47
G1 X57.21 Y51.95 E128.4636              ; draw dl=0.61@10<10>10 l=0.30x0.50x1.00
;00:09:51.100: pe=1.5389 eb=0.0220 ve=0.6236 vn=0.5916 vl=10.000 db=0.47
G1 X56.82 Y51.56 E128.4980              ; draw dl=0.55@10<10>10 l=0.30x0.50x1.00
;00:09:51.155: pe=1.5406 eb=0.0220 ve=0.6236 vn=0.5923 vl=10.000 db=0.47
G1 X56.31 Y51.42 E128.5309              ; draw dl=0.53@10<10>10 l=0.30x0.50x1.00
;00:09:51.208: pe=1.5423 eb=0.0221 ve=0.6236 vn=0.5929 vl=10.000 db=0.47
G1 X55.79 Y51.56 E128.5645              ; draw dl=0.54@10<10>10 l=0.30x0.50x1.00
;00:09:51.262: pe=1.5439 eb=0.0221 ve=0.6236 vn=0.5935 vl=10.000 db=0.48
G1 X55.41 Y51.95 E128.5985              ; draw dl=0.54@10<10>10 l=0.30x0.50x1.00
;00:09:51.316: pe=1.5455 eb=0.0222 ve=0.6236 vn=0.5941 vl=10.000 db=0.48
G1 X55.17 Y52.51 E128.6365              ; draw dl=0.61@10<10>10 l=0.30x0.50x1.00
;00:09:51.377: pe=1.5473 eb=0.0222 ve=0.6236 vn=0.5948 vl=10.000 db=0.48
G1 X55.09 Y53.18 E128.6786              ; draw dl=0.67@10<10>10 l=0.30x0.50x1.00
;00:09:51.445: pe=1.5492 eb=0.0223 ve=0.6236 vn=0.5955 vl=10.000 db=0.48
G1 X55.17 Y53.85 E128.7206              ; draw dl=0.67@10<10>10 l=0.30x0.50x1.00
;00:09:51.512: pe=1.5511 eb=0.0223 ve=0.6236 vn=0.5962 vl=10.000 db=0.48
G1 X55.41 Y54.42 E128.7592              ; draw dl=0.62@10<10>10 l=0.30x0.50x1.00
;00:09:51.574: pe=1.5528 eb=0.0224 ve=0.6236 vn=0.5969 vl=10.000 db=0.48
G1 X55.79 Y54.80 E128.7927              ; draw dl=0.54@10<10>10 l=0.30x0.50x1.00
;00:09:51.628: pe=1.5542 eb=0.0224 ve=0.6236 vn=0.5974 vl=10.000 db=0.48
G1 X56.31 Y54.94 E128.8263              ; draw dl=0.54@10<10>0 l=0.30x0.50x1.00
;00:09:51.692: pe=1.5503 eb=0.0276 ve=0.0000 vn=0.4885 vl=0.000 db=0.53
G1 E125.7760 F2400                      ; retract de=-3.0503@40
;00:09:51.768: pe=-1.5024 eb=0.0300 ve=-40.0000 vn=0.0000 vl=0.000 db=0.55
G1 Z0.700 F420                          ; hopup dz=0.40@7 h=0.7
;00:09:51.825: pe=-1.5024 eb=0.0300 ve=0.0000 vn=0.0000 vl=0.000 db=0.36
G1 X58.59 Y51.71 F1886                  ; move dl=3.95@0<31>0 de=0.0000 h=0.70
;00:09:52.014: pe=-1.5024 eb=0.0000 ve=0.0000 vn=0.0000 vl=0.000 db=0.00
G1 Z0.300 F420                          ; hopdn dz=-0.40@7 h=0.3
;00:09:52.071: pe=-1.5024 eb=0.0000 ve=0.0000 vn=0.0000 vl=0.000 db=0.00
G1 E128.4640 F1800                      ; restore de=2.6880@30
;00:09:52.161: pe=1.1748 eb=0.0108 ve=30.0000 vn=0.5108 vl=0.000 db=0.33
G1 X58.59 Y51.65 E128.4677 F232         ; draw dl=0.06@0<4>0 l=0.30x0.50x1.00
;00:09:52.184: pe=1.1690 eb=0.0174 ve=0.0000 vn=0.3257 vl=0.000 db=0.42
G1 E125.7987 F2400                      ; retract de=-2.6690@40
;00:09:52.250: pe=-1.5010 eb=0.0185 ve=-40.0000 vn=0.0000 vl=0.000 db=0.43
G1 Z0.700 F420                          ; hopup dz=0.40@7 h=0.7
;00:09:52.308: pe=-1.5010 eb=0.0185 ve=0.0000 vn=0.0000 vl=0.000 db=0.28
G1 X60.87 Y54.94 F1898                  ; move dl=4.00@0<32>0 de=0.0000 h=0.70
;00:09:52.497: pe=-1.5010 eb=0.0000 ve=0.0000 vn=0.0000 vl=0.000 db=0.00
G1 Z0.300 F420                          ; hopdn dz=-0.40@7 h=0.3
;00:09:52.555: pe=-1.5010 eb=0.0000 ve=0.0000 vn=0.0000 vl=0.000 db=0.00
G1 E128.8487 F1800                      ; restore de=3.0500@30
;00:09:52.656: pe=1.5308 eb=0.0182 ve=30.0000 vn=0.6683 vl=0.000 db=0.43
G1 X61.38 Y54.80 E128.8817 F600         ; draw dl=0.53@0<10>10 l=0.30x0.50x1.00
;00:09:52.719: pe=1.5280 eb=0.0221 ve=0.6236 vn=0.5777 vl=10.000 db=0.48
G1 X61.77 Y54.42 E128.9156              ; draw dl=0.54@10<10>10 l=0.30x0.50x1.00
;00:09:52.774: pe=1.5302 eb=0.0218 ve=0.6236 vn=0.5870 vl=10.000 db=0.47
G1 X62.01 Y53.86 E128.9536              ; draw dl=0.61@10<10>10 l=0.30x0.50x1.00
;00:09:52.835: pe=1.5324 eb=0.0218 ve=0.6236 vn=0.5890 vl=10.000 db=0.47
G1 X62.09 Y53.18 E128.9963              ; draw dl=0.68@10<10>10 l=0.30x0.50x1.00
;00:09:52.903: pe=1.5347 eb=0.0219 ve=0.6236 vn=0.5900 vl=10.000 db=0.47
G1 X62.01 Y52.51 E129.0384              ; draw dl=0.67@10<10>10 l=0.30x0.50x1.00
;00:09:52.970: pe=1.5369 eb=0.0219 ve=0.6236 vn=0.5909 vl=10.000 db=0.47
G1 X61.77 Y51.95 E129.0764              ; draw dl=0.61@10<10>10 l=0.30x0.50x1.00
;00:09:53.031: pe=1.5389 eb=0.0220 ve=0.6236 vn=0.5916 vl=10.000 db=0.47
G1 X61.38 Y51.56 E129.1108              ; draw dl=0.55@10<10>10 l=0.30x0.50x1.00
;00:09:53.087: pe=1.5406 eb=0.0220 ve=0.6236 vn=0.5923 vl=10.000 db=0.47
G1 X60.87 Y51.42 E129.1438              ; draw dl=0.53@10<10>10 l=0.30x0.50x1.00
;00:09:53.139: pe=1.5423 eb=0.0221 ve=0.6236 vn=0.5929 vl=10.000 db=0.47
G1 X60.35 Y51.56 E129.1774              ; draw dl=0.54@10<10>10 l=0.30x0.50x1.00
;00:09:53.193: pe=1.5439 eb=0.0221 ve=0.6236 vn=0.5935 vl=10.000 db=0.48
G1 X59.97 Y51.95 E129.2113              ; draw dl=0.54@10<10>10 l=0.30x0.50x1.00
;00:09:53.248: pe=1.5455 eb=0.0222 ve=0.6236 vn=0.5941 vl=10.000 db=0.48
G1 X59.73 Y52.51 E129.2493              ; draw dl=0.61@10<10>10 l=0.30x0.50x1.00
;00:09:53.309: pe=1.5473 eb=0.0222 ve=0.6236 vn=0.5948 vl=10.000 db=0.48
G1 X59.65 Y53.18 E129.2914              ; draw dl=0.67@10<10>10 l=0.30x0.50x1.00
;00:09:53.376: pe=1.5492 eb=0.0223 ve=0.6236 vn=0.5955 vl=10.000 db=0.48
G1 X59.73 Y53.85 E129.3335              ; draw dl=0.67@10<10>10 l=0.30x0.50x1.00
;00:09:53.444: pe=1.5511 eb=0.0223 ve=0.6236 vn=0.5962 vl=10.000 db=0.48
G1 X59.97 Y54.42 E129.3720              ; draw dl=0.62@10<10>10 l=0.30x0.50x1.00
;00:09:53.505: pe=1.5528 eb=0.0224 ve=0.6236 vn=0.5969 vl=10.000 db=0.48
G1 X60.35 Y54.80 E129.4056              ; draw dl=0.54@10<10>10 l=0.30x0.50x1.00
;00:09:53.559: pe=1.5542 eb=0.0224 ve=0.6236 vn=0.5974 vl=10.000 db=0.48
G1 X60.87 Y54.94 E129.4391              ; draw dl=0.54@10<10>0 l=0.30x0.50x1.00
;00:09:53.623: pe=1.5503 eb=0.0276 ve=0.0000 vn=0.4885 vl=0.000 db=0.53
G1 E126.3888 F2400                      ; retract de=-3.0503@40
;00:09:53.699: pe=-1.5024 eb=0.0300 ve=-40.0000 vn=0.0000 vl=0.000 db=0.55
G1 Z0.700 F420                          ; hopup dz=0.40@7 h=0.7
;00:09:53.756: pe=-1.5024 eb=0.0300 ve=0.0000 vn=0.0000 vl=0.000 db=0.36
G1 X63.16 Y52.90 F1661                  ; move dl=3.07@0<28>0 de=0.0000 h=0.70
;00:09:53.923: pe=-1.5024 eb=0.0000 ve=0.0000 vn=0.0000 vl=0.000 db=0.00
G1 Z0.300 F420                          ; hopdn dz=-0.40@7 h=0.3
;00:09:53.980: pe=-1.5024 eb=0.0000 ve=0.0000 vn=0.0000 vl=0.000 db=0.00
G1 E129.4791 F1800                      ; restore de=3.0903@30
;00:09:54.083: pe=1.5687 eb=0.0191 ve=30.0000 vn=0.6850 vl=0.000 db=0.44
G1 X65.03 Y52.90 E129.5957 F600         ; draw dl=1.87@0<10>0 l=0.30x0.50x1.00
;00:09:54.290: pe=1.5629 eb=0.0280 ve=0.0000 vn=0.4930 vl=0.000 db=0.53
G1 E126.5328 F2400                      ; retract de=-3.0629@40
;00:09:54.366: pe=-1.5024 eb=0.0305 ve=-40.0000 vn=0.0000 vl=0.000 db=0.56
G1 Z0.700 F420                          ; hopup dz=0.40@7 h=0.7
;00:09:54.423: pe=-1.5024 eb=0.0305 ve=0.0000 vn=0.0000 vl=0.000 db=0.37
G1 X66.09 Y54.44 F1297                  ; move dl=1.87@0<22>0 de=0.0000 h=0.70
;00:09:54.553: pe=-1.5024 eb=0.0000 ve=0.0000 vn=0.0000 vl=0.000 db=0.00
G1 Z0.300 F420                          ; hopdn dz=-0.40@7 h=0.3
;00:09:54.610: pe=-1.5024 eb=0.0000 ve=0.0000 vn=0.0000 vl=0.000 db=0.00
G1 E129.5206 F1800                      ; restore de=2.9878@30
;00:09:54.710: pe=1.4686 eb=0.0168 ve=30.0000 vn=0.6409 vl=0.000 db=0.41
G1 X66.28 Y54.65 E129.5382 F600         ; draw dl=0.28@0<10>10 l=0.30x0.50x1.00
;00:09:54.748: pe=1.4655 eb=0.0210 ve=0.6236 vn=0.5400 vl=10.000 db=0.46
G1 X66.51 Y54.81 E129.5557              ; draw dl=0.28@10<10>10 l=0.30x0.50x1.00
;00:09:54.776: pe=1.4676 eb=0.0203 ve=0.6236 vn=0.5563 vl=10.000 db=0.46
G1 X66.77 Y54.90 E129.5729              ; draw dl=0.28@10<10>10 l=0.30x0.50x1.00
;00:09:54.804: pe=1.4694 eb=0.0201 ve=0.6236 vn=0.5624 vl=10.000 db=0.45
G1 X67.05 Y54.94 E129.5905              ; draw dl=0.28@10<10>10 l=0.30x0.50x1.00
;00:09:54.832: pe=1.4711 eb=0.0201 ve=0.6236 vn=0.5650 vl=10.000 db=0.45
G1 X67.42 Y54.88 E129.6139              ; draw dl=0.37@10<10>10 l=0.30x0.50x1.00
;00:09:54.870: pe=1.4732 eb=0.0201 ve=0.6236 vn=0.5666 vl=10.000 db=0.45
G1 X67.72 Y54.68 E129.6364              ; draw dl=0.36@10<10>10 l=0.30x0.50x1.00
;00:09:54.906: pe=1.4753 eb=0.0202 ve=0.6236 vn=0.5675 vl=10.000 db=0.45
G1 X67.91 Y54.39 E129.6580              ; draw dl=0.35@10<10>10 l=0.30x0.50x1.00
;00:09:54.940: pe=1.4772 eb=0.0202 ve=0.6236 vn=0.5683 vl=10.000 db=0.45
G1 X67.98 Y54.02 E129.6815              ; draw dl=0.38@10<10>10 l=0.30x0.50x1.00
;00:09:54.978: pe=1.4793 eb=0.0203 ve=0.6236 vn=0.5691 vl=10.000 db=0.46
G1 X67.88 Y53.63 E129.7066              ; draw dl=0.40@10<10>10 l=0.30x0.50x1.00
;00:09:55.018: pe=1.4815 eb=0.0203 ve=0.6236 vn=0.5699 vl=10.000 db=0.46
G1 X67.60 Y53.27 E129.7350              ; draw dl=0.46@10<10>10 l=0.30x0.50x1.00
;00:09:55.064: pe=1.4839 eb=0.0204 ve=0.6236 vn=0.5708 vl=10.000 db=0.46
G1 X66.82 Y52.64 E129.7976              ; draw dl=1.00@10<10>10 l=0.30x0.50x1.00
;00:09:55.164: pe=1.4891 eb=0.0206 ve=0.6236 vn=0.5728 vl=10.000 db=0.46
G1 X66.52 Y52.23 E129.8292              ; draw dl=0.51@10<10>10 l=0.30x0.50x1.00
;00:09:55.215: pe=1.4916 eb=0.0206 ve=0.6236 vn=0.5738 vl=10.000 db=0.46
G1 X66.13 Y51.48 E129.8820              ; draw dl=0.85@10<10>7 l=0.30x0.50x1.00
;00:09:55.300: pe=1.4954 eb=0.0211 ve=0.4580 vn=0.5664 vl=7.345 db=0.46
G1 X67.95 Y51.48 E129.9955              ; draw dl=1.82@7<10>0 l=0.30x0.50x1.00
;00:09:55.493: pe=1.4989 eb=0.0259 ve=0.0000 vn=0.4697 vl=0.000 db=0.51
G1 E126.9965 F2400                      ; retract de=-2.9989@40
;00:09:55.568: pe=-1.5022 eb=0.0282 ve=-40.0000 vn=0.0000 vl=0.000 db=0.54
G1 Z0.700 F420                          ; hopup dz=0.40@7 h=0.7
;00:09:55.625: pe=-1.5022 eb=0.0282 ve=0.0000 vn=0.0000 vl=0.000 db=0.35
G1 X69.04 Y51.71 F1001                  ; move dl=1.11@0<17>0 de=0.0000 h=0.70
;00:09:55.725: pe=-1.5022 eb=0.0000 ve=0.0000 vn=0.0000 vl=0.000 db=0.00
G1 Z0.300 F420                          ; hopdn dz=-0.40@7 h=0.3
;00:09:55.782: pe=-1.5022 eb=0.0000 ve=0.0000 vn=0.0000 vl=0.000 db=0.00
G1 E129.6843 F1800                      ; restore de=2.6878@30
;00:09:55.872: pe=1.1748 eb=0.0108 ve=30.0000 vn=0.5108 vl=0.000 db=0.33
G1 X69.04 Y51.65 E129.6881 F232         ; draw dl=0.06@0<4>0 l=0.30x0.50x1.00
;00:09:55.895: pe=1.1690 eb=0.0174 ve=0.0000 vn=0.3257 vl=0.000 db=0.42
G1 E127.0190 F2400                      ; retract de=-2.6690@40
;00:09:55.962: pe=-1.5010 eb=0.0185 ve=-40.0000 vn=0.0000 vl=0.000 db=0.43
G1 Z0.700 F420                          ; hopup dz=0.40@7 h=0.7
;00:09:56.019: pe=-1.5010 eb=0.0185 ve=0.0000 vn=0.0000 vl=0.000 db=0.28
G1 X71.32 Y54.94 F1898                  ; move dl=4.00@0<32>0 de=0.0000 h=0.70
;00:09:56.209: pe=-1.5010 eb=0.0000 ve=0.0000 vn=0.0000 vl=0.000 db=0.00
G1 Z0.300 F420                          ; hopdn dz=-0.40@7 h=0.3
;00:09:56.266: pe=-1.5010 eb=0.0000 ve=0.0000 vn=0.0000 vl=0.000 db=0.00
G1 E130.0691 F1800                      ; restore de=3.0500@30
;00:09:56.367: pe=1.5308 eb=0.0182 ve=30.0000 vn=0.6683 vl=0.000 db=0.43
G1 X71.83 Y54.80 E130.1020 F600         ; draw dl=0.53@0<10>10 l=0.30x0.50x1.00
;00:09:56.430: pe=1.5280 eb=0.0221 ve=0.6236 vn=0.5777 vl=10.000 db=0.48
G1 X72.22 Y54.42 E130.1360              ; draw dl=0.54@10<10>10 l=0.30x0.50x1.00
;00:09:56.485: pe=1.5302 eb=0.0218 ve=0.6236 vn=0.5870 vl=10.000 db=0.47
G1 X72.46 Y53.86 E130.1740              ; draw dl=0.61@10<10>10 l=0.30x0.50x1.00
;00:09:56.546: pe=1.5324 eb=0.0218 ve=0.6236 vn=0.5890 vl=10.000 db=0.47
G1 X72.54 Y53.18 E130.2167              ; draw dl=0.68@10<10>10 l=0.30x0.50x1.00
;00:09:56.614: pe=1.5347 eb=0.0219 ve=0.6236 vn=0.5900 vl=10.000 db=0.47
G1 X72.46 Y52.51 E130.2588              ; draw dl=0.67@10<10>10 l=0.30x0.50x1.00
;00:09:56.682: pe=1.5369 eb=0.0219 ve=0.6236 vn=0.5909 vl=10.000 db=0.47
G1 X72.22 Y51.95 E130.2968              ; draw dl=0.61@10<10>10 l=0.30x0.50x1.00
;00:09:56.743: pe=1.5389 eb=0.0220 ve=0.6236 vn=0.5916 vl=10.000 db=0.47
G1 X71.83 Y51.56 E130.3312              ; draw dl=0.55@10<10>10 l=0.30x0.50x1.00
;00:09:56.798: pe=1.5406 eb=0.0220 ve=0.6236 vn=0.5923 vl=10.000 db=0.47
G1 X71.32 Y51.42 E130.3641              ; draw dl=0.53@10<10>10 l=0.30x0.50x1.00
;00:09:56.851: pe=1.5423 eb=0.0221 ve=0.6236 vn=0.5929 vl=10.000 db=0.47
G1 X70.80 Y51.56 E130.3977              ; draw dl=0.54@10<10>10 l=0.30x0.50x1.00
;00:09:56.905: pe=1.5439 eb=0.0221 ve=0.6236 vn=0.5935 vl=10.000 db=0.48
G1 X70.42 Y51.95 E130.4317              ; draw dl=0.54@10<10>10 l=0.30x0.50x1.00
;00:09:56.959: pe=1.5455 eb=0.0222 ve=0.6236 vn=0.5941 vl=10.000 db=0.48
G1 X70.18 Y52.51 E130.4697              ; draw dl=0.61@10<10>10 l=0.30x0.50x1.00
;00:09:57.020: pe=1.5473 eb=0.0222 ve=0.6236 vn=0.5948 vl=10.000 db=0.48
G1 X70.10 Y53.18 E130.5118              ; draw dl=0.67@10<10>10 l=0.30x0.50x1.00
;00:09:57.087: pe=1.5492 eb=0.0223 ve=0.6236 vn=0.5955 vl=10.000 db=0.48
G1 X70.18 Y53.85 E130.5538              ; draw dl=0.67@10<10>10 l=0.30x0.50x1.00
;00:09:57.155: pe=1.5511 eb=0.0223 ve=0.6236 vn=0.5962 vl=10.000 db=0.48
G1 X70.42 Y54.42 E130.5924              ; draw dl=0.62@10<10>10 l=0.30x0.50x1.00
;00:09:57.217: pe=1.5528 eb=0.0224 ve=0.6236 vn=0.5969 vl=10.000 db=0.48
G1 X70.80 Y54.80 E130.6259              ; draw dl=0.54@10<10>10 l=0.30x0.50x1.00
;00:09:57.270: pe=1.5542 eb=0.0224 ve=0.6236 vn=0.5974 vl=10.000 db=0.48
G1 X71.32 Y54.94 E130.6595              ; draw dl=0.54@10<10>0 l=0.30x0.50x1.00
;00:09:57.334: pe=1.5503 eb=0.0276 ve=0.0000 vn=0.4885 vl=0.000 db=0.53
G1 E127.6092 F2400                      ; retract de=-3.0503@40
;00:09:57.411: pe=-1.5024 eb=0.0300 ve=-40.0000 vn=0.0000 vl=0.000 db=0.55
G1 Z0.700 F420                          ; hopup dz=0.40@7 h=0.7
;00:09:57.468: pe=-1.5024 eb=0.0300 ve=0.0000 vn=0.0000 vl=0.000 db=0.36
G1 X46.50 Y49.88 F4775                  ; move dl=25.33@0<80>0 de=0.0000 h=0.70
;00:09:57.945: pe=-1.5024 eb=0.0000 ve=0.0000 vn=0.0000 vl=0.000 db=0.00
G1 Z0.300 F420                          ; hopdn dz=-0.40@7 h=0.3
;00:09:58.002: pe=-1.5024 eb=0.0000 ve=0.0000 vn=0.0000 vl=0.000 db=0.00
G1 E130.7250 F1800                      ; restore de=3.1159@30
;00:09:58.106: pe=1.5937 eb=0.0197 ve=30.0000 vn=0.6961 vl=0.000 db=0.45
G1 X46.50 Y46.48 E130.9371 F600         ; draw dl=3.40@0<10>0 l=0.30x0.50x1.00
;00:09:58.466: pe=1.5878 eb=0.0289 ve=0.0000 vn=0.5022 vl=0.000 db=0.54
G1 E127.8493 F2400                      ; retract de=-3.0878@40
;00:09:58.543: pe=-1.5025 eb=0.0314 ve=-40.0000 vn=0.0000 vl=0.000 db=0.57
G1 Z0.700 F420                          ; hopup dz=0.40@7 h=0.7
;00:09:58.600: pe=-1.5025 eb=0.0314 ve=0.0000 vn=0.0000 vl=0.000 db=0.37
G1 X48.96 Y46.48 F1488                  ; move dl=2.46@0<25>0 de=0.0000 h=0.70
;00:09:58.749: pe=-1.5025 eb=0.0000 ve=0.0000 vn=0.0000 vl=0.000 db=0.00
G1 Z0.300 F420                          ; hopdn dz=-0.40@7 h=0.3
;00:09:58.806: pe=-1.5025 eb=0.0000 ve=0.0000 vn=0.0000 vl=0.000 db=0.00
G1 E130.9540 F1800                      ; restore de=3.1048@30
;00:09:58.910: pe=1.5828 eb=0.0195 ve=30.0000 vn=0.6913 vl=0.000 db=0.45
G1 X47.47 Y48.51 E131.1111 F600         ; draw dl=2.52@0<10>0 l=0.30x0.50x1.00
;00:09:59.182: pe=1.5769 eb=0.0285 ve=0.0000 vn=0.4982 vl=0.000 db=0.54
G1 E128.0342 F2400                      ; retract de=-3.0769@40
;00:09:59.259: pe=-1.5025 eb=0.0310 ve=-40.0000 vn=0.0000 vl=0.000 db=0.56
G1 Z0.700 F420                          ; hopup dz=0.40@7 h=0.7
;00:09:59.316: pe=-1.5025 eb=0.0310 ve=0.0000 vn=0.0000 vl=0.000 db=0.37
G1 X46.50 Y47.67 F1075                  ; move dl=1.28@0<18>0 de=0.0000 h=0.70
;00:09:59.423: pe=-1.5025 eb=0.0000 ve=0.0000 vn=0.0000 vl=0.000 db=0.00
G1 Z0.300 F420                          ; hopdn dz=-0.40@7 h=0.3
;00:09:59.480: pe=-1.5025 eb=0.0000 ve=0.0000 vn=0.0000 vl=0.000 db=0.00
G1 E131.1497 F1800                      ; restore de=3.1155@30
;00:09:59.584: pe=1.5933 eb=0.0197 ve=30.0000 vn=0.6959 vl=0.000 db=0.45
G1 X49.02 Y49.88 E131.3587 F600         ; draw dl=3.35@0<10>0 l=0.30x0.50x1.00
;00:09:59.939: pe=1.5874 eb=0.0288 ve=0.0000 vn=0.5020 vl=0.000 db=0.54
G1 E128.2713 F2400                      ; retract de=-3.0874@40
;00:10:00.017: pe=-1.5025 eb=0.0314 ve=-40.0000 vn=0.0000 vl=0.000 db=0.57
G1 Z0.700 F420                          ; hopup dz=0.40@7 h=0.7
;00:10:00.074: pe=-1.5025 eb=0.0314 ve=0.0000 vn=0.0000 vl=0.000 db=0.37
G1 X50.08 Y49.88 F977                   ; move dl=1.06@0<16>0 de=0.0000 h=0.70
;00:10:00.171: pe=-1.5025 eb=0.0000 ve=0.0000 vn=0.0000 vl=0.000 db=0.00
G1 Z0.300 F420                          ; hopdn dz=-0.40@7 h=0.3
;00:10:00.229: pe=-1.5025 eb=0.0000 ve=0.0000 vn=0.0000 vl=0.000 db=0.00
G1 E131.3873 F1800                      ; restore de=3.1160@30
;00:10:00.332: pe=1.5937 eb=0.0197 ve=30.0000 vn=0.6961 vl=0.000 db=0.45
G1 X50.08 Y46.48 E131.5994 F600         ; draw dl=3.40@0<10>0 l=0.30x0.50x1.00
;00:10:00.692: pe=1.5878 eb=0.0289 ve=0.0000 vn=0.5022 vl=0.000 db=0.54
G1 E128.5116 F2400                      ; retract de=-3.0878@40
;00:10:00.770: pe=-1.5025 eb=0.0314 ve=-40.0000 vn=0.0000 vl=0.000 db=0.57
G1 Z0.700 F420                          ; hopup dz=0.40@7 h=0.7
;00:10:00.827: pe=-1.5025 eb=0.0314 ve=0.0000 vn=0.0000 vl=0.000 db=0.37
G1 X50.08 Y46.98 F671                   ; move dl=0.50@0<11>0 de=0.0000 h=0.70
;00:10:00.894: pe=-1.5025 eb=0.0005 ve=0.0000 vn=0.0000 vl=0.000 db=0.05
G1 Z0.300 F420                          ; hopdn dz=-0.40@7 h=0.3
;00:10:00.951: pe=-1.5025 eb=0.0005 ve=0.0000 vn=0.0000 vl=0.000 db=0.07
G1 E131.5225 F1800                      ; restore de=3.0110@30
;00:10:01.051: pe=1.4916 eb=0.0173 ve=30.0000 vn=0.6506 vl=0.000 db=0.42
G1 X50.33 Y46.74 E131.5442 F600         ; draw dl=0.35@0<10>10 l=0.30x0.50x1.00
;00:10:01.096: pe=1.4887 eb=0.0214 ve=0.6236 vn=0.5536 vl=10.000 db=0.47
G1 X50.72 Y46.49 E131.5730              ; draw dl=0.46@10<10>10 l=0.30x0.50x1.00
;00:10:01.142: pe=1.4915 eb=0.0208 ve=0.6236 vn=0.5703 vl=10.000 db=0.46
G1 X51.10 Y46.42 E131.5971              ; draw dl=0.39@10<10>10 l=0.30x0.50x1.00
;00:10:01.181: pe=1.4934 eb=0.0207 ve=0.6236 vn=0.5736 vl=10.000 db=0.46
G1 X51.48 Y46.51 E131.6215              ; draw dl=0.39@10<10>10 l=0.30x0.50x1.00
;00:10:01.220: pe=1.4954 eb=0.0207 ve=0.6236 vn=0.5750 vl=10.000 db=0.46
G1 X51.79 Y46.77 E131.6467              ; draw dl=0.40@10<10>10 l=0.30x0.50x1.00
;00:10:01.261: pe=1.4973 eb=0.0208 ve=0.6236 vn=0.5759 vl=10.000 db=0.46
G1 X51.99 Y47.18 E131.6752              ; draw dl=0.46@10<10>10 l=0.30x0.50x1.00
;00:10:01.306: pe=1.4995 eb=0.0209 ve=0.6236 vn=0.5767 vl=10.000 db=0.46
G1 X52.06 Y47.71 E131.7085              ; draw dl=0.53@10<10>10 l=0.30x0.50x1.00
;00:10:01.360: pe=1.5019 eb=0.0209 ve=0.6236 vn=0.5777 vl=10.000 db=0.46
G1 X52.00 Y48.22 E131.7405              ; draw dl=0.51@10<10>10 l=0.30x0.50x1.00
;00:10:01.411: pe=1.5043 eb=0.0210 ve=0.6236 vn=0.5785 vl=10.000 db=0.46
G1 X51.82 Y48.61 E131.7673              ; draw dl=0.43@10<10>10 l=0.30x0.50x1.00
;00:10:01.454: pe=1.5062 eb=0.0210 ve=0.6236 vn=0.5793 vl=10.000 db=0.46
G1 X51.53 Y48.86 E131.7912              ; draw dl=0.38@10<10>10 l=0.30x0.50x1.00
;00:10:01.492: pe=1.5079 eb=0.0211 ve=0.6236 vn=0.5799 vl=10.000 db=0.46
G1 X51.13 Y48.95 E131.8168              ; draw dl=0.41@10<10>10 l=0.30x0.50x1.00
;00:10:01.533: pe=1.5097 eb=0.0211 ve=0.6236 vn=0.5806 vl=10.000 db=0.46
G1 X50.94 Y48.93 E131.8287              ; draw dl=0.19@10<10>10 l=0.30x0.50x1.00
;00:10:01.552: pe=1.5105 eb=0.0212 ve=0.6236 vn=0.5809 vl=10.000 db=0.46
G1 X50.74 Y48.85 E131.8421              ; draw dl=0.22@10<10>10 l=0.30x0.50x1.00
;00:10:01.574: pe=1.5114 eb=0.0212 ve=0.6236 vn=0.5812 vl=10.000 db=0.47
G1 X50.53 Y48.72 E131.8575              ; draw dl=0.25@10<10>10 l=0.30x0.50x1.00
;00:10:01.599: pe=1.5124 eb=0.0212 ve=0.6236 vn=0.5816 vl=10.000 db=0.47
G1 X50.33 Y48.50 E131.8761              ; draw dl=0.30@10<10>10 l=0.30x0.50x1.00
;00:10:01.628: pe=1.5137 eb=0.0213 ve=0.6236 vn=0.5821 vl=10.000 db=0.47
G1 X50.08 Y48.03 E131.9093              ; draw dl=0.53@10<10>0 l=0.30x0.50x1.00
;00:10:01.691: pe=1.5108 eb=0.0263 ve=0.0000 vn=0.4740 vl=0.000 db=0.52
G1 E128.8985 F2400                      ; retract de=-3.0108@40
;00:10:01.767: pe=-1.5023 eb=0.0286 ve=-40.0000 vn=0.0000 vl=0.000 db=0.54
G1 Z0.700 F420                          ; hopup dz=0.40@7 h=0.7
;00:10:01.824: pe=-1.5023 eb=0.0286 ve=0.0000 vn=0.0000 vl=0.000 db=0.35
G1 X53.12 Y48.26 F1656                  ; move dl=3.05@0<28>0 de=0.0000 h=0.70
;00:10:01.990: pe=-1.5023 eb=0.0000 ve=0.0000 vn=0.0000 vl=0.000 db=0.00
G1 Z0.300 F420                          ; hopdn dz=-0.40@7 h=0.3
;00:10:02.047: pe=-1.5023 eb=0.0000 ve=0.0000 vn=0.0000 vl=0.000 db=0.00
G1 E131.9829 F1800                      ; restore de=3.0844@30
;00:10:02.149: pe=1.5631 eb=0.0190 ve=30.0000 vn=0.6826 vl=0.000 db=0.44
G1 X54.81 Y48.26 E132.0883 F600         ; draw dl=1.69@0<10>0 l=0.30x0.50x1.00
;00:10:02.338: pe=1.5573 eb=0.0279 ve=0.0000 vn=0.4909 vl=0.000 db=0.53
G1 E129.0310 F2400                      ; retract de=-3.0573@40
;00:10:02.415: pe=-1.5024 eb=0.0303 ve=-40.0000 vn=0.0000 vl=0.000 db=0.56
G1 Z0.700 F420                          ; hopup dz=0.40@7 h=0.7
;00:10:02.472: pe=-1.5024 eb=0.0303 ve=0.0000 vn=0.0000 vl=0.000 db=0.36
G1 X54.81 Y47.55 F799                   ; move dl=0.71@0<13>0 de=0.0000 h=0.70
;00:10:02.552: pe=-1.5024 eb=0.0000 ve=0.0000 vn=0.0000 vl=0.000 db=0.00
G1 Z0.300 F420                          ; hopdn dz=-0.40@7 h=0.3
;00:10:02.609: pe=-1.5024 eb=0.0000 ve=0.0000 vn=0.0000 vl=0.000 db=0.00
G1 E132.1155 F1800                      ; restore de=3.0845@30
;00:10:02.712: pe=1.5631 eb=0.0190 ve=30.0000 vn=0.6826 vl=0.000 db=0.44
G1 X53.12 Y47.55 E132.2209 F600         ; draw dl=1.69@0<10>0 l=0.30x0.50x1.00
;00:10:02.901: pe=1.5573 eb=0.0279 ve=0.0000 vn=0.4909 vl=0.000 db=0.53
G1 E129.1636 F2400                      ; retract de=-3.0573@40
;00:10:02.977: pe=-1.5024 eb=0.0303 ve=-40.0000 vn=0.0000 vl=0.000 db=0.56
G1 Z0.700 F420                          ; hopup dz=0.40@7 h=0.7
;00:10:03.035: pe=-1.5024 eb=0.0303 ve=0.0000 vn=0.0000 vl=0.000 db=0.36
G1 X55.88 Y49.44 F1735                  ; move dl=3.35@0<29>0 de=0.0000 h=0.70
;00:10:03.208: pe=-1.5024 eb=0.0000 ve=0.0000 vn=0.0000 vl=0.000 db=0.00
G1 Z0.300 F420                          ; hopdn dz=-0.40@7 h=0.3
;00:10:03.265: pe=-1.5024 eb=0.0000 ve=0.0000 vn=0.0000 vl=0.000 db=0.00
G1 E132.1485 F1800                      ; restore de=2.9850@30
;00:10:03.365: pe=1.4658 eb=0.0167 ve=30.0000 vn=0.6397 vl=0.000 db=0.41
G1 X56.06 Y49.65 E132.1658 F600         ; draw dl=0.28@0<10>10 l=0.30x0.50x1.00
;00:10:03.402: pe=1.4628 eb=0.0209 ve=0.6236 vn=0.5383 vl=10.000 db=0.46
G1 X56.29 Y49.81 E132.1832              ; draw dl=0.28@10<10>10 l=0.30x0.50x1.00
;00:10:03.430: pe=1.4649 eb=0.0203 ve=0.6236 vn=0.5551 vl=10.000 db=0.45
G1 X56.55 Y49.90 E132.2004              ; draw dl=0.28@10<10>10 l=0.30x0.50x1.00
;00:10:03.458: pe=1.4667 eb=0.0201 ve=0.6236 vn=0.5613 vl=10.000 db=0.45
G1 X56.84 Y49.94 E132.2187              ; draw dl=0.29@10<10>10 l=0.30x0.50x1.00
;00:10:03.487: pe=1.4684 eb=0.0200 ve=0.6236 vn=0.5640 vl=10.000 db=0.45
G1 X57.21 Y49.88 E132.2420              ; draw dl=0.37@10<10>10 l=0.30x0.50x1.00
;00:10:03.525: pe=1.4707 eb=0.0201 ve=0.6236 vn=0.5656 vl=10.000 db=0.45
G1 X57.50 Y49.68 E132.2640              ; draw dl=0.35@10<10>10 l=0.30x0.50x1.00
;00:10:03.560: pe=1.4727 eb=0.0201 ve=0.6236 vn=0.5665 vl=10.000 db=0.45
G1 X57.70 Y49.39 E132.2860              ; draw dl=0.35@10<10>10 l=0.30x0.50x1.00
;00:10:03.595: pe=1.4747 eb=0.0202 ve=0.6236 vn=0.5673 vl=10.000 db=0.45
G1 X57.77 Y49.02 E132.3095              ; draw dl=0.38@10<10>10 l=0.30x0.50x1.00
;00:10:03.633: pe=1.4768 eb=0.0202 ve=0.6236 vn=0.5681 vl=10.000 db=0.45
G1 X57.66 Y48.63 E132.3347              ; draw dl=0.41@10<10>10 l=0.30x0.50x1.00
;00:10:03.673: pe=1.4790 eb=0.0203 ve=0.6236 vn=0.5690 vl=10.000 db=0.46
G1 X57.38 Y48.27 E132.3632              ; draw dl=0.46@10<10>10 l=0.30x0.50x1.00
;00:10:03.719: pe=1.4815 eb=0.0203 ve=0.6236 vn=0.5699 vl=10.000 db=0.46
G1 X56.61 Y47.64 E132.4252              ; draw dl=0.99@10<10>10 l=0.30x0.50x1.00
;00:10:03.818: pe=1.4867 eb=0.0205 ve=0.6236 vn=0.5719 vl=10.000 db=0.46
G1 X56.30 Y47.23 E132.4573              ; draw dl=0.51@10<10>10 l=0.30x0.50x1.00
;00:10:03.870: pe=1.4893 eb=0.0206 ve=0.6236 vn=0.5729 vl=10.000 db=0.46
G1 X55.91 Y46.48 E132.5100              ; draw dl=0.85@10<10>7 l=0.30x0.50x1.00
;00:10:03.955: pe=1.4932 eb=0.0211 ve=0.4580 vn=0.5655 vl=7.345 db=0.46
G1 X57.73 Y46.48 E132.6235              ; draw dl=1.82@7<10>0 l=0.30x0.50x1.00
;00:10:04.148: pe=1.4969 eb=0.0259 ve=0.0000 vn=0.4689 vl=0.000 db=0.51
G1 E129.6266 F2400                      ; retract de=-2.9969@40
;00:10:04.223: pe=-1.5022 eb=0.0281 ve=-40.0000 vn=0.0000 vl=0.000 db=0.54
G1 Z0.700 F420                          ; hopup dz=0.40@7 h=0.7
;00:10:04.280: pe=-1.5022 eb=0.0281 ve=0.0000 vn=0.0000 vl=0.000 db=0.35
G1 X58.83 Y46.71 F1006                  ; move dl=1.12@0<17>0 de=0.0000 h=0.70
;00:10:04.380: pe=-1.5022 eb=0.0000 ve=0.0000 vn=0.0000 vl=0.000 db=0.00
G1 Z0.300 F420                          ; hopdn dz=-0.40@7 h=0.3
;00:10:04.437: pe=-1.5022 eb=0.0000 ve=0.0000 vn=0.0000 vl=0.000 db=0.00
G1 E132.3144 F1800                      ; restore de=2.6878@30
;00:10:04.527: pe=1.1748 eb=0.0108 ve=30.0000 vn=0.5108 vl=0.000 db=0.33
G1 X58.83 Y46.65 E132.3182 F232         ; draw dl=0.06@0<4>0 l=0.30x0.50x1.00
;00:10:04.550: pe=1.1690 eb=0.0174 ve=0.0000 vn=0.3257 vl=0.000 db=0.42
G1 E129.6491 F2400                      ; retract de=-2.6690@40
;00:10:04.617: pe=-1.5010 eb=0.0185 ve=-40.0000 vn=0.0000 vl=0.000 db=0.43
G1 Z0.700 F420                          ; hopup dz=0.40@7 h=0.7
;00:10:04.674: pe=-1.5010 eb=0.0185 ve=0.0000 vn=0.0000 vl=0.000 db=0.28
G1 X61.11 Y49.94 F1898                  ; move dl=4.00@0<32>0 de=0.0000 h=0.70
;00:10:04.864: pe=-1.5010 eb=0.0000 ve=0.0000 vn=0.0000 vl=0.000 db=0.00
G1 Z0.300 F420                          ; hopdn dz=-0.40@7 h=0.3
;00:10:04.921: pe=-1.5010 eb=0.0000 ve=0.0000 vn=0.0000 vl=0.000 db=0.00
G1 E132.6991 F1800                      ; restore de=3.0500@30
;00:10:05.023: pe=1.5308 eb=0.0182 ve=30.0000 vn=0.6683 vl=0.000 db=0.43
G1 X61.62 Y49.80 E132.7321 F600         ; draw dl=0.53@0<10>10 l=0.30x0.50x1.00
;00:10:05.086: pe=1.5280 eb=0.0221 ve=0.6236 vn=0.5777 vl=10.000 db=0.48
G1 X62.01 Y49.42 E132.7661              ; draw dl=0.54@10<10>10 l=0.30x0.50x1.00
;00:10:05.140: pe=1.5302 eb=0.0218 ve=0.6236 vn=0.5870 vl=10.000 db=0.47
G1 X62.25 Y48.86 E132.8041              ; draw dl=0.61@10<10>10 l=0.30x0.50x1.00
;00:10:05.201: pe=1.5324 eb=0.0218 ve=0.6236 vn=0.5890 vl=10.000 db=0.47
G1 X62.33 Y48.18 E132.8468              ; draw dl=0.68@10<10>10 l=0.30x0.50x1.00
;00:10:05.270: pe=1.5347 eb=0.0219 ve=0.6236 vn=0.5900 vl=10.000 db=0.47
G1 X62.25 Y47.51 E132.8889              ; draw dl=0.67@10<10>10 l=0.30x0.50x1.00
;00:10:05.337: pe=1.5369 eb=0.0219 ve=0.6236 vn=0.5909 vl=10.000 db=0.47
G1 X62.01 Y46.95 E132.9268              ; draw dl=0.61@10<10>10 l=0.30x0.50x1.00
;00:10:05.398: pe=1.5389 eb=0.0220 ve=0.6236 vn=0.5916 vl=10.000 db=0.47
G1 X61.62 Y46.56 E132.9612              ; draw dl=0.55@10<10>10 l=0.30x0.50x1.00
;00:10:05.453: pe=1.5406 eb=0.0220 ve=0.6236 vn=0.5923 vl=10.000 db=0.47
G1 X61.11 Y46.42 E132.9942              ; draw dl=0.53@10<10>10 l=0.30x0.50x1.00
;00:10:05.506: pe=1.5423 eb=0.0221 ve=0.6236 vn=0.5929 vl=10.000 db=0.47
G1 X60.59 Y46.56 E133.0278              ; draw dl=0.54@10<10>10 l=0.30x0.50x1.00
;00:10:05.560: pe=1.5439 eb=0.0221 ve=0.6236 vn=0.5935 vl=10.000 db=0.48
G1 X60.21 Y46.95 E133.0618              ; draw dl=0.54@10<10>10 l=0.30x0.50x1.00
;00:10:05.614: pe=1.5455 eb=0.0222 ve=0.6236 vn=0.5941 vl=10.000 db=0.48
G1 X59.97 Y47.51 E133.0998              ; draw dl=0.61@10<10>10 l=0.30x0.50x1.00
;00:10:05.675: pe=1.5473 eb=0.0222 ve=0.6236 vn=0.5948 vl=10.000 db=0.48
G1 X59.89 Y48.18 E133.1418              ; draw dl=0.67@10<10>10 l=0.30x0.50x1.00
;00:10:05.743: pe=1.5492 eb=0.0223 ve=0.6236 vn=0.5955 vl=10.000 db=0.48
G1 X59.97 Y48.85 E133.1839              ; draw dl=0.67@10<10>10 l=0.30x0.50x1.00
;00:10:05.810: pe=1.5511 eb=0.0223 ve=0.6236 vn=0.5962 vl=10.000 db=0.48
G1 X60.21 Y49.42 E133.2225              ; draw dl=0.62@10<10>10 l=0.30x0.50x1.00
;00:10:05.872: pe=1.5528 eb=0.0224 ve=0.6236 vn=0.5969 vl=10.000 db=0.48
G1 X60.59 Y49.80 E133.2560              ; draw dl=0.54@10<10>10 l=0.30x0.50x1.00
;00:10:05.926: pe=1.5542 eb=0.0224 ve=0.6236 vn=0.5974 vl=10.000 db=0.48
G1 X61.11 Y49.94 E133.2896              ; draw dl=0.54@10<10>0 l=0.30x0.50x1.00
;00:10:05.990: pe=1.5503 eb=0.0276 ve=0.0000 vn=0.4885 vl=0.000 db=0.53
G1 E130.2393 F2400                      ; retract de=-3.0503@40
;00:10:06.066: pe=-1.5024 eb=0.0300 ve=-40.0000 vn=0.0000 vl=0.000 db=0.55
G1 Z0.700 F420                          ; hopup dz=0.40@7 h=0.7
;00:10:06.123: pe=-1.5024 eb=0.0300 ve=0.0000 vn=0.0000 vl=0.000 db=0.36
