;gcode_flavor: flashforge
;machine_type: Adventurer 3 Series
;filament_diameter0: 1.75
;right_extruder_temperature: 210
;platform_temperature: 50
;extruder_fan: 100%
;case_fan: 100%
;base_print_speed: 60
;travel_speed: 100
;vertical_speed: 7
;retract_speed: 40
;restore_speed: 30
;layer_height: 0.30
;line_width: 0.50
;extrusion_ratio: 1.00
;start gcode
M118 X75.00 Y75.00 Z150.00 T0
M140 S50 T0
M104 S210 T0
M104 S0 T1
M107
M900 K1.000 T0
G90
G28
M132 X Y Z A B
G1 Z50.000 F420
G161 X Y F3300
M7 T0
M6 T0
M652 S255
M108 T0
M106
;preExtrude:0.30
;structure:pre-extrude
G1 X-55.00 Y-65.00 F6000                ; move dl=85.15@0<100>0 de=0.0000 h=0.00
;00:00:01.051: pe=0.0000 eb=0.0000 ve=0.0000 vn=0.0000 vl=0.000 db=0.00
G1 Z0.300 F420                          ; hopup dz=0.30@7 h=0.3
;00:00:01.094: pe=0.0000 eb=0.0000 ve=0.0000 vn=0.0000 vl=0.000 db=0.00
G1 E9.3602 F1800                        ; restore de=9.3602@30
;00:00:01.406: pe=8.7487 eb=0.6114 ve=30.0000 vn=3.7520 vl=0.000 db=2.50
G1 X-55.00 Y55.00 E39.5139 F1200        ; draw dl=120.00@0<20>10 l=0.30x0.50x4.03
;00:00:07.431: pe=9.0212 eb=0.4203 ve=2.5128 vn=4.8783 vl=10.000 db=2.07
G1 X-55.00 Y65.00 F600                  ; move dl=10.00@10<10>10 de=0.0000 h=0.30
;00:00:08.431: pe=6.1826 eb=0.3887 ve=0.0000 vn=2.1989 vl=10.000 db=1.99
G1 X35.00 Y65.00                        ; move dl=90.00@10<10>1 de=0.0000 h=0.30
;00:00:17.439: pe=0.2095 eb=0.0007 ve=0.0000 vn=0.0382 vl=1.000 db=0.09
G1 X45.00 Y65.00 F60                    ; move dl=10.00@1<1>0 de=0.0000 h=0.30
;00:00:27.440: pe=0.1168 eb=0.0003 ve=0.0000 vn=0.0056 vl=0.000 db=0.06
G1 E38.3971 F2400                       ; retract de=-1.1168@40
;00:00:27.468: pe=-1.0000 eb=0.0003 ve=-40.0000 vn=0.0000 vl=0.000 db=0.06
G1 Z0.700 F420                          ; hopup dz=0.40@7 h=0.7
;00:00:27.525: pe=-1.0000 eb=0.0003 ve=0.0000 vn=0.0000 vl=0.000 db=0.04
;layer:0.30
;00:00:27.525: layer=1 h=0.30 w=0.50 r=1.00
;structure:brim
G1 X-45.00 Y60.00 F6000                 ; move dl=90.14@0<100>0 de=0.0000 h=0.70
;00:00:28.627: pe=-1.0000 eb=0.0000 ve=0.0000 vn=0.0000 vl=0.000 db=0.00
G1 Z0.300 F420                          ; hopdn dz=-0.40@7 h=0.3
;00:00:28.684: pe=-1.0000 eb=0.0000 ve=0.0000 vn=0.0000 vl=0.000 db=0.00
G1 E41.0447 F1800                       ; restore de=2.6476@30
;00:00:28.772: pe=1.6270 eb=0.0206 ve=30.0000 vn=0.7108 vl=0.000 db=0.46
G1 X-45.00 Y-61.00 E48.5866 F600        ; draw dl=121.00@0<10>10 l=0.30x0.50x1.00
;00:00:40.882: pe=1.6228 eb=0.0245 ve=0.6233 vn=0.6233 vl=10.000 db=0.50
G1 X-45.50 Y-61.00 E48.6186             ; draw dl=0.50@10<10>10 l=0.30x0.50x1.03
;00:00:40.932: pe=1.6236 eb=0.0245 ve=0.6403 vn=0.6239 vl=10.000 db=0.50
G1 X-45.50 Y60.00 E56.1640              ; draw dl=121.00@10<10>0 l=0.30x0.50x1.00
;00:00:53.042: pe=1.6180 eb=0.0299 ve=0.0000 vn=0.5132 vl=0.000 db=0.55
G1 E53.5460 F2400                       ; retract de=-2.6180@40
;00:00:53.108: pe=-1.0027 eb=0.0325 ve=-40.0000 vn=0.0000 vl=0.000 db=0.58
G1 Z0.700 F420                          ; hopup dz=0.40@7 h=0.7
;00:00:53.165: pe=-1.0027 eb=0.0325 ve=0.0000 vn=0.0000 vl=0.000 db=0.38
G1 X45.00 Y60.00 F6000                  ; move dl=90.50@0<100>0 de=0.0000 h=0.70
;00:00:54.270: pe=-1.0027 eb=0.0000 ve=0.0000 vn=0.0000 vl=0.000 db=0.00
G1 Z0.300 F420                          ; hopdn dz=-0.40@7 h=0.3
;00:00:54.327: pe=-1.0027 eb=0.0000 ve=0.0000 vn=0.0000 vl=0.000 db=0.00
G1 E56.1963 F1800                       ; restore de=2.6503@30
;00:00:54.415: pe=1.6270 eb=0.0206 ve=30.0000 vn=0.7109 vl=0.000 db=0.46
G1 X45.00 Y-61.00 E63.7383 F600         ; draw dl=121.00@0<10>10 l=0.30x0.50x1.00
;00:01:06.525: pe=1.6228 eb=0.0245 ve=0.6233 vn=0.6233 vl=10.000 db=0.50
G1 X45.50 Y-61.00 E63.7703              ; draw dl=0.50@10<10>10 l=0.30x0.50x1.03
;00:01:06.575: pe=1.6236 eb=0.0245 ve=0.6403 vn=0.6239 vl=10.000 db=0.50
G1 X45.50 Y60.00 E71.3157               ; draw dl=121.00@10<10>0 l=0.30x0.50x1.00
;00:01:18.685: pe=1.6180 eb=0.0299 ve=0.0000 vn=0.5132 vl=0.000 db=0.55
G1 E68.6977 F2400                       ; retract de=-2.6180@40
;00:01:18.751: pe=-1.0027 eb=0.0325 ve=-40.0000 vn=0.0000 vl=0.000 db=0.58
G1 Z0.700 F420                          ; hopup dz=0.40@7 h=0.7
;00:01:18.808: pe=-1.0027 eb=0.0325 ve=0.0000 vn=0.0000 vl=0.000 db=0.38
;00:01:18.808: Test StartStop Kf=0.0-2.0 Kb=2.0 Re=1.0 vx=60 re=0.0
;structure:shell-outer
G1 X-45.00 Y55.00 F6000                 ; move dl=90.64@0<100>0 de=0.0000 h=0.70
;00:01:19.914: pe=-1.0027 eb=0.0000 ve=0.0000 vn=0.0000 vl=0.000 db=0.00
G1 Z0.300 F420                          ; hopdn dz=-0.40@7 h=0.3
;00:01:19.971: pe=-1.0027 eb=0.0000 ve=0.0000 vn=0.0000 vl=0.000 db=0.00
G1 E71.3470 F1800                       ; restore de=2.6494@30
;00:01:20.060: pe=1.6262 eb=0.0205 ve=30.0000 vn=0.7105 vl=0.000 db=0.46
G1 X45.00 Y55.00 E76.9557 F600          ; draw dl=90.00@0<10>0 l=0.30x0.50x1.00
;00:01:29.080: pe=1.6169 eb=0.0299 ve=0.0000 vn=0.5128 vl=0.000 db=0.55
G1 E74.3388 F2400                       ; retract de=-2.6169@40
;00:01:29.145: pe=-1.0026 eb=0.0325 ve=-40.0000 vn=0.0000 vl=0.000 db=0.58
G1 Z0.700 F420                          ; hopup dz=0.40@7 h=0.7
;00:01:29.202: pe=-1.0026 eb=0.0325 ve=0.0000 vn=0.0000 vl=0.000 db=0.38
G1 X-42.00 Y55.00 F6000                 ; move dl=87.00@0<100>0 de=0.0000 h=0.70
;00:01:30.272: pe=-1.0026 eb=0.0000 ve=0.0000 vn=0.0000 vl=0.000 db=0.00
G1 X-40.00 Y55.00 F1342                 ; move dl=2.00@0<22>0 de=0.0000 h=0.70
;00:01:30.407: pe=-1.0026 eb=0.0000 ve=0.0000 vn=0.0000 vl=0.000 db=0.00
G1 Z0.300 F420                          ; hopdn dz=-0.40@7 h=0.3
;00:01:30.464: pe=-1.0026 eb=0.0000 ve=0.0000 vn=0.0000 vl=0.000 db=0.00
G1 E76.9506 F1800                       ; restore de=2.6118@30
;00:01:30.551: pe=1.5895 eb=0.0196 ve=30.0000 vn=0.6942 vl=0.000 db=0.45
G1 X-40.00 Y52.00 E77.1328 F600         ; draw dl=3.00@0<10>0 l=0.30x0.50x0.97
;00:01:30.871: pe=1.5791 eb=0.0286 ve=0.0000 vn=0.4988 vl=0.000 db=0.54
G1 E74.5537 F2400                       ; retract de=-2.5791@40
;00:01:30.935: pe=-1.0025 eb=0.0311 ve=-40.0000 vn=0.0000 vl=0.000 db=0.56
G1 Z0.700 F420                          ; hopup dz=0.40@7 h=0.7
;00:01:30.992: pe=-1.0025 eb=0.0311 ve=0.0000 vn=0.0000 vl=0.000 db=0.37
G1 X-38.00 Y55.00 F1801                 ; move dl=3.61@0<30>0 de=0.0000 h=0.70
;00:01:31.172: pe=-1.0025 eb=0.0000 ve=0.0000 vn=0.0000 vl=0.000 db=0.00
G1 Z0.300 F420                          ; hopdn dz=-0.40@7 h=0.3
;00:01:31.230: pe=-1.0025 eb=0.0000 ve=0.0000 vn=0.0000 vl=0.000 db=0.00
G1 E77.1310 F1800                       ; restore de=2.5772@30
;00:01:31.316: pe=1.5559 eb=0.0188 ve=30.0000 vn=0.6794 vl=0.000 db=0.44
G1 X-38.00 Y53.50 E77.2188 F600         ; draw dl=1.50@0<10>0 l=0.30x0.50x0.94
;00:01:31.486: pe=1.5447 eb=0.0275 ve=0.0000 vn=0.4857 vl=0.000 db=0.53
G1 E74.6741 F2400                       ; retract de=-2.5447@40
;00:01:31.549: pe=-1.0024 eb=0.0298 ve=-40.0000 vn=0.0000 vl=0.000 db=0.55
G1 Z0.700 F420                          ; hopup dz=0.40@7 h=0.7
;00:01:31.606: pe=-1.0024 eb=0.0298 ve=0.0000 vn=0.0000 vl=0.000 db=0.36
G1 X-36.00 Y55.00 F1500                 ; move dl=2.50@0<25>0 de=0.0000 h=0.70
;00:01:31.756: pe=-1.0024 eb=0.0000 ve=0.0000 vn=0.0000 vl=0.000 db=0.00
G1 Z0.300 F420                          ; hopdn dz=-0.40@7 h=0.3
;00:01:31.813: pe=-1.0024 eb=0.0000 ve=0.0000 vn=0.0000 vl=0.000 db=0.00
G1 E77.2512 F1800                       ; restore de=2.5771@30
;00:01:31.899: pe=1.5559 eb=0.0188 ve=30.0000 vn=0.6794 vl=0.000 db=0.44
G1 X-36.00 Y53.50 E77.3391 F600         ; draw dl=1.50@0<10>0 l=0.30x0.50x0.94
;00:01:32.069: pe=1.5447 eb=0.0275 ve=0.0000 vn=0.4857 vl=0.000 db=0.53
G1 E74.7943 F2400                       ; retract de=-2.5447@40
;00:01:32.133: pe=-1.0024 eb=0.0298 ve=-40.0000 vn=0.0000 vl=0.000 db=0.55
G1 Z0.700 F420                          ; hopup dz=0.40@7 h=0.7
;00:01:32.190: pe=-1.0024 eb=0.0298 ve=0.0000 vn=0.0000 vl=0.000 db=0.36
G1 X-34.00 Y55.00 F1500                 ; move dl=2.50@0<25>0 de=0.0000 h=0.70
;00:01:32.340: pe=-1.0024 eb=0.0000 ve=0.0000 vn=0.0000 vl=0.000 db=0.00
G1 Z0.300 F420                          ; hopdn dz=-0.40@7 h=0.3
;00:01:32.397: pe=-1.0024 eb=0.0000 ve=0.0000 vn=0.0000 vl=0.000 db=0.00
G1 E77.3715 F1800                       ; restore de=2.5771@30
;00:01:32.483: pe=1.5559 eb=0.0188 ve=30.0000 vn=0.6794 vl=0.000 db=0.44
G1 X-34.00 Y53.50 E77.4593 F600         ; draw dl=1.50@0<10>0 l=0.30x0.50x0.94
;00:01:32.653: pe=1.5447 eb=0.0275 ve=0.0000 vn=0.4857 vl=0.000 db=0.53
G1 E74.9146 F2400                       ; retract de=-2.5447@40
;00:01:32.717: pe=-1.0024 eb=0.0298 ve=-40.0000 vn=0.0000 vl=0.000 db=0.55
G1 Z0.700 F420                          ; hopup dz=0.40@7 h=0.7
;00:01:32.774: pe=-1.0024 eb=0.0298 ve=0.0000 vn=0.0000 vl=0.000 db=0.36
G1 X-32.00 Y55.00 F1500                 ; move dl=2.50@0<25>0 de=0.0000 h=0.70
;00:01:32.924: pe=-1.0024 eb=0.0000 ve=0.0000 vn=0.0000 vl=0.000 db=0.00
G1 Z0.300 F420                          ; hopdn dz=-0.40@7 h=0.3
;00:01:32.981: pe=-1.0024 eb=0.0000 ve=0.0000 vn=0.0000 vl=0.000 db=0.00
G1 E77.4917 F1800                       ; restore de=2.5771@30
;00:01:33.067: pe=1.5559 eb=0.0188 ve=30.0000 vn=0.6794 vl=0.000 db=0.44
G1 X-32.00 Y53.50 E77.5796 F600         ; draw dl=1.50@0<10>0 l=0.30x0.50x0.94
;00:01:33.237: pe=1.5447 eb=0.0275 ve=0.0000 vn=0.4857 vl=0.000 db=0.53
G1 E75.0349 F2400                       ; retract de=-2.5447@40
;00:01:33.301: pe=-1.0024 eb=0.0298 ve=-40.0000 vn=0.0000 vl=0.000 db=0.55
G1 Z0.700 F420                          ; hopup dz=0.40@7 h=0.7
;00:01:33.358: pe=-1.0024 eb=0.0298 ve=0.0000 vn=0.0000 vl=0.000 db=0.36
G1 X-30.00 Y55.00 F1500                 ; move dl=2.50@0<25>0 de=0.0000 h=0.70
;00:01:33.508: pe=-1.0024 eb=0.0000 ve=0.0000 vn=0.0000 vl=0.000 db=0.00
G1 Z0.300 F420                          ; hopdn dz=-0.40@7 h=0.3
;00:01:33.565: pe=-1.0024 eb=0.0000 ve=0.0000 vn=0.0000 vl=0.000 db=0.00
G1 E77.6464 F1800                       ; restore de=2.6115@30
;00:01:33.652: pe=1.5895 eb=0.0196 ve=30.0000 vn=0.6942 vl=0.000 db=0.45
G1 X-30.00 Y52.00 E77.8286 F600         ; draw dl=3.00@0<10>0 l=0.30x0.50x0.97
;00:01:33.972: pe=1.5791 eb=0.0286 ve=0.0000 vn=0.4988 vl=0.000 db=0.54
G1 E75.2495 F2400                       ; retract de=-2.5791@40
;00:01:34.036: pe=-1.0025 eb=0.0311 ve=-40.0000 vn=0.0000 vl=0.000 db=0.56
G1 Z0.700 F420                          ; hopup dz=0.40@7 h=0.7
;00:01:34.094: pe=-1.0025 eb=0.0311 ve=0.0000 vn=0.0000 vl=0.000 db=0.37
G1 X-28.00 Y55.00 F1801                 ; move dl=3.61@0<30>0 de=0.0000 h=0.70
;00:01:34.274: pe=-1.0025 eb=0.0000 ve=0.0000 vn=0.0000 vl=0.000 db=0.00
G1 Z0.300 F420                          ; hopdn dz=-0.40@7 h=0.3
;00:01:34.331: pe=-1.0025 eb=0.0000 ve=0.0000 vn=0.0000 vl=0.000 db=0.00
G1 E77.8267 F1800                       ; restore de=2.5772@30
;00:01:34.417: pe=1.5559 eb=0.0188 ve=30.0000 vn=0.6794 vl=0.000 db=0.44
G1 X-28.00 Y53.50 E77.9146 F600         ; draw dl=1.50@0<10>0 l=0.30x0.50x0.94
;00:01:34.587: pe=1.5447 eb=0.0275 ve=0.0000 vn=0.4857 vl=0.000 db=0.53
G1 E75.3699 F2400                       ; retract de=-2.5447@40
;00:01:34.650: pe=-1.0024 eb=0.0298 ve=-40.0000 vn=0.0000 vl=0.000 db=0.55
G1 Z0.700 F420                          ; hopup dz=0.40@7 h=0.7
;00:01:34.707: pe=-1.0024 eb=0.0298 ve=0.0000 vn=0.0000 vl=0.000 db=0.36
G1 X-26.00 Y55.00 F1500                 ; move dl=2.50@0<25>0 de=0.0000 h=0.70
;00:01:34.857: pe=-1.0024 eb=0.0000 ve=0.0000 vn=0.0000 vl=0.000 db=0.00
G1 Z0.300 F420                          ; hopdn dz=-0.40@7 h=0.3
;00:01:34.915: pe=-1.0024 eb=0.0000 ve=0.0000 vn=0.0000 vl=0.000 db=0.00
G1 E77.9470 F1800                       ; restore de=2.5771@30
;00:01:35.001: pe=1.5559 eb=0.0188 ve=30.0000 vn=0.6794 vl=0.000 db=0.44
G1 X-26.00 Y53.50 E78.0349 F600         ; draw dl=1.50@0<10>0 l=0.30x0.50x0.94
;00:01:35.171: pe=1.5447 eb=0.0275 ve=0.0000 vn=0.4857 vl=0.000 db=0.53
G1 E75.4901 F2400                       ; retract de=-2.5447@40
;00:01:35.234: pe=-1.0024 eb=0.0298 ve=-40.0000 vn=0.0000 vl=0.000 db=0.55
G1 Z0.700 F420                          ; hopup dz=0.40@7 h=0.7
;00:01:35.291: pe=-1.0024 eb=0.0298 ve=0.0000 vn=0.0000 vl=0.000 db=0.36
G1 X-24.00 Y55.00 F1500                 ; move dl=2.50@0<25>0 de=0.0000 h=0.70
;00:01:35.441: pe=-1.0024 eb=0.0000 ve=0.0000 vn=0.0000 vl=0.000 db=0.00
G1 Z0.300 F420                          ; hopdn dz=-0.40@7 h=0.3
;00:01:35.498: pe=-1.0024 eb=0.0000 ve=0.0000 vn=0.0000 vl=0.000 db=0.00
G1 E78.0672 F1800                       ; restore de=2.5771@30
;00:01:35.584: pe=1.5559 eb=0.0188 ve=30.0000 vn=0.6794 vl=0.000 db=0.44
G1 X-24.00 Y53.50 E78.1551 F600         ; draw dl=1.50@0<10>0 l=0.30x0.50x0.94
;00:01:35.754: pe=1.5447 eb=0.0275 ve=0.0000 vn=0.4857 vl=0.000 db=0.53
G1 E75.6104 F2400                       ; retract de=-2.5447@40
;00:01:35.818: pe=-1.0024 eb=0.0298 ve=-40.0000 vn=0.0000 vl=0.000 db=0.55
G1 Z0.700 F420                          ; hopup dz=0.40@7 h=0.7
;00:01:35.875: pe=-1.0024 eb=0.0298 ve=0.0000 vn=0.0000 vl=0.000 db=0.36
G1 X-22.00 Y55.00 F1500                 ; move dl=2.50@0<25>0 de=0.0000 h=0.70
;00:01:36.025: pe=-1.0024 eb=0.0000 ve=0.0000 vn=0.0000 vl=0.000 db=0.00
G1 Z0.300 F420                          ; hopdn dz=-0.40@7 h=0.3
;00:01:36.082: pe=-1.0024 eb=0.0000 ve=0.0000 vn=0.0000 vl=0.000 db=0.00
G1 E78.1875 F1800                       ; restore de=2.5771@30
;00:01:36.168: pe=1.5559 eb=0.0188 ve=30.0000 vn=0.6794 vl=0.000 db=0.44
G1 X-22.00 Y53.50 E78.2754 F600         ; draw dl=1.50@0<10>0 l=0.30x0.50x0.94
;00:01:36.338: pe=1.5447 eb=0.0275 ve=0.0000 vn=0.4857 vl=0.000 db=0.53
G1 E75.7306 F2400                       ; retract de=-2.5447@40
;00:01:36.402: pe=-1.0024 eb=0.0298 ve=-40.0000 vn=0.0000 vl=0.000 db=0.55
G1 Z0.700 F420                          ; hopup dz=0.40@7 h=0.7
;00:01:36.459: pe=-1.0024 eb=0.0298 ve=0.0000 vn=0.0000 vl=0.000 db=0.36
G1 X-20.00 Y55.00 F1500                 ; move dl=2.50@0<25>0 de=0.0000 h=0.70
;00:01:36.609: pe=-1.0024 eb=0.0000 ve=0.0000 vn=0.0000 vl=0.000 db=0.00
G1 Z0.300 F420                          ; hopdn dz=-0.40@7 h=0.3
;00:01:36.666: pe=-1.0024 eb=0.0000 ve=0.0000 vn=0.0000 vl=0.000 db=0.00
G1 E78.3421 F1800                       ; restore de=2.6115@30
;00:01:36.753: pe=1.5895 eb=0.0196 ve=30.0000 vn=0.6942 vl=0.000 db=0.45
G1 X-20.00 Y52.00 E78.5244 F600         ; draw dl=3.00@0<10>0 l=0.30x0.50x0.97
;00:01:37.073: pe=1.5791 eb=0.0286 ve=0.0000 vn=0.4988 vl=0.000 db=0.54
G1 E75.9453 F2400                       ; retract de=-2.5791@40
;00:01:37.138: pe=-1.0025 eb=0.0311 ve=-40.0000 vn=0.0000 vl=0.000 db=0.56
G1 Z0.700 F420                          ; hopup dz=0.40@7 h=0.7
;00:01:37.195: pe=-1.0025 eb=0.0311 ve=0.0000 vn=0.0000 vl=0.000 db=0.37
G1 X-18.00 Y55.00 F1801                 ; move dl=3.61@0<30>0 de=0.0000 h=0.70
;00:01:37.375: pe=-1.0025 eb=0.0000 ve=0.0000 vn=0.0000 vl=0.000 db=0.00
G1 Z0.300 F420                          ; hopdn dz=-0.40@7 h=0.3
;00:01:37.432: pe=-1.0025 eb=0.0000 ve=0.0000 vn=0.0000 vl=0.000 db=0.00
G1 E78.5225 F1800                       ; restore de=2.5772@30
;00:01:37.518: pe=1.5559 eb=0.0188 ve=30.0000 vn=0.6794 vl=0.000 db=0.44
G1 X-18.00 Y53.50 E78.6104 F600         ; draw dl=1.50@0<10>0 l=0.30x0.50x0.94
;00:01:37.688: pe=1.5447 eb=0.0275 ve=0.0000 vn=0.4857 vl=0.000 db=0.53
G1 E76.0657 F2400                       ; retract de=-2.5447@40
;00:01:37.752: pe=-1.0024 eb=0.0298 ve=-40.0000 vn=0.0000 vl=0.000 db=0.55
G1 Z0.700 F420                          ; hopup dz=0.40@7 h=0.7
;00:01:37.809: pe=-1.0024 eb=0.0298 ve=0.0000 vn=0.0000 vl=0.000 db=0.36
G1 X-16.00 Y55.00 F1500                 ; move dl=2.50@0<25>0 de=0.0000 h=0.70
;00:01:37.959: pe=-1.0024 eb=0.0000 ve=0.0000 vn=0.0000 vl=0.000 db=0.00
G1 Z0.300 F420                          ; hopdn dz=-0.40@7 h=0.3
;00:01:38.016: pe=-1.0024 eb=0.0000 ve=0.0000 vn=0.0000 vl=0.000 db=0.00
G1 E78.6428 F1800                       ; restore de=2.5771@30
;00:01:38.102: pe=1.5559 eb=0.0188 ve=30.0000 vn=0.6794 vl=0.000 db=0.44
G1 X-16.00 Y53.50 E78.7306 F600         ; draw dl=1.50@0<10>0 l=0.30x0.50x0.94
;00:01:38.272: pe=1.5447 eb=0.0275 ve=0.0000 vn=0.4857 vl=0.000 db=0.53
G1 E76.1859 F2400                       ; retract de=-2.5447@40
;00:01:38.335: pe=-1.0024 eb=0.0298 ve=-40.0000 vn=0.0000 vl=0.000 db=0.55
G1 Z0.700 F420                          ; hopup dz=0.40@7 h=0.7
;00:01:38.392: pe=-1.0024 eb=0.0298 ve=0.0000 vn=0.0000 vl=0.000 db=0.36
G1 X-14.00 Y55.00 F1500                 ; move dl=2.50@0<25>0 de=0.0000 h=0.70
;00:01:38.542: pe=-1.0024 eb=0.0000 ve=0.0000 vn=0.0000 vl=0.000 db=0.00
G1 Z0.300 F420                          ; hopdn dz=-0.40@7 h=0.3
;00:01:38.600: pe=-1.0024 eb=0.0000 ve=0.0000 vn=0.0000 vl=0.000 db=0.00
G1 E78.7630 F1800                       ; restore de=2.5771@30
;00:01:38.686: pe=1.5559 eb=0.0188 ve=30.0000 vn=0.6794 vl=0.000 db=0.44
G1 X-14.00 Y53.50 E78.8509 F600         ; draw dl=1.50@0<10>0 l=0.30x0.50x0.94
;00:01:38.856: pe=1.5447 eb=0.0275 ve=0.0000 vn=0.4857 vl=0.000 db=0.53
G1 E76.3062 F2400                       ; retract de=-2.5447@40
;00:01:38.919: pe=-1.0024 eb=0.0298 ve=-40.0000 vn=0.0000 vl=0.000 db=0.55
G1 Z0.700 F420                          ; hopup dz=0.40@7 h=0.7
;00:01:38.976: pe=-1.0024 eb=0.0298 ve=0.0000 vn=0.0000 vl=0.000 db=0.36
G1 X-12.00 Y55.00 F1500                 ; move dl=2.50@0<25>0 de=0.0000 h=0.70
;00:01:39.126: pe=-1.0024 eb=0.0000 ve=0.0000 vn=0.0000 vl=0.000 db=0.00
G1 Z0.300 F420                          ; hopdn dz=-0.40@7 h=0.3
;00:01:39.183: pe=-1.0024 eb=0.0000 ve=0.0000 vn=0.0000 vl=0.000 db=0.00
G1 E78.8833 F1800                       ; restore de=2.5771@30
;00:01:39.269: pe=1.5559 eb=0.0188 ve=30.0000 vn=0.6794 vl=0.000 db=0.44
G1 X-12.00 Y53.50 E78.9712 F600         ; draw dl=1.50@0<10>0 l=0.30x0.50x0.94
;00:01:39.439: pe=1.5447 eb=0.0275 ve=0.0000 vn=0.4857 vl=0.000 db=0.53
G1 E76.4264 F2400                       ; retract de=-2.5447@40
;00:01:39.503: pe=-1.0024 eb=0.0298 ve=-40.0000 vn=0.0000 vl=0.000 db=0.55
G1 Z0.700 F420                          ; hopup dz=0.40@7 h=0.7
;00:01:39.560: pe=-1.0024 eb=0.0298 ve=0.0000 vn=0.0000 vl=0.000 db=0.36
G1 X-10.00 Y55.00 F1500                 ; move dl=2.50@0<25>0 de=0.0000 h=0.70
;00:01:39.710: pe=-1.0024 eb=0.0000 ve=0.0000 vn=0.0000 vl=0.000 db=0.00
G1 Z0.300 F420                          ; hopdn dz=-0.40@7 h=0.3
;00:01:39.767: pe=-1.0024 eb=0.0000 ve=0.0000 vn=0.0000 vl=0.000 db=0.00
G1 E79.0379 F1800                       ; restore de=2.6115@30
;00:01:39.854: pe=1.5895 eb=0.0196 ve=30.0000 vn=0.6942 vl=0.000 db=0.45
G1 X-10.00 Y52.00 E79.2202 F600         ; draw dl=3.00@0<10>0 l=0.30x0.50x0.97
;00:01:40.174: pe=1.5791 eb=0.0286 ve=0.0000 vn=0.4988 vl=0.000 db=0.54
G1 E76.6410 F2400                       ; retract de=-2.5791@40
;00:01:40.239: pe=-1.0025 eb=0.0311 ve=-40.0000 vn=0.0000 vl=0.000 db=0.56
G1 Z0.700 F420                          ; hopup dz=0.40@7 h=0.7
;00:01:40.296: pe=-1.0025 eb=0.0311 ve=0.0000 vn=0.0000 vl=0.000 db=0.37
G1 X-8.00 Y55.00 F1801                  ; move dl=3.61@0<30>0 de=0.0000 h=0.70
;00:01:40.476: pe=-1.0025 eb=0.0000 ve=0.0000 vn=0.0000 vl=0.000 db=0.00
G1 Z0.300 F420                          ; hopdn dz=-0.40@7 h=0.3
;00:01:40.533: pe=-1.0025 eb=0.0000 ve=0.0000 vn=0.0000 vl=0.000 db=0.00
G1 E79.2183 F1800                       ; restore de=2.5772@30
;00:01:40.619: pe=1.5559 eb=0.0188 ve=30.0000 vn=0.6794 vl=0.000 db=0.44
G1 X-8.00 Y53.50 E79.3062 F600          ; draw dl=1.50@0<10>0 l=0.30x0.50x0.94
;00:01:40.789: pe=1.5447 eb=0.0275 ve=0.0000 vn=0.4857 vl=0.000 db=0.53
G1 E76.7614 F2400                       ; retract de=-2.5447@40
;00:01:40.853: pe=-1.0024 eb=0.0298 ve=-40.0000 vn=0.0000 vl=0.000 db=0.55
G1 Z0.700 F420                          ; hopup dz=0.40@7 h=0.7
;00:01:40.910: pe=-1.0024 eb=0.0298 ve=0.0000 vn=0.0000 vl=0.000 db=0.36
G1 X-6.00 Y55.00 F1500                  ; move dl=2.50@0<25>0 de=0.0000 h=0.70
;00:01:41.060: pe=-1.0024 eb=0.0000 ve=0.0000 vn=0.0000 vl=0.000 db=0.00
G1 Z0.300 F420                          ; hopdn dz=-0.40@7 h=0.3
;00:01:41.117: pe=-1.0024 eb=0.0000 ve=0.0000 vn=0.0000 vl=0.000 db=0.00
G1 E79.3385 F1800                       ; restore de=2.5771@30
;00:01:41.203: pe=1.5559 eb=0.0188 ve=30.0000 vn=0.6794 vl=0.000 db=0.44
G1 X-6.00 Y53.50 E79.4264 F600          ; draw dl=1.50@0<10>0 l=0.30x0.50x0.94
;00:01:41.373: pe=1.5447 eb=0.0275 ve=0.0000 vn=0.4857 vl=0.000 db=0.53
G1 E76.8817 F2400                       ; retract de=-2.5447@40
;00:01:41.437: pe=-1.0024 eb=0.0298 ve=-40.0000 vn=0.0000 vl=0.000 db=0.55
G1 Z0.700 F420                          ; hopup dz=0.40@7 h=0.7
;00:01:41.494: pe=-1.0024 eb=0.0298 ve=0.0000 vn=0.0000 vl=0.000 db=0.36
G1 X-4.00 Y55.00 F1500                  ; move dl=2.50@0<25>0 de=0.0000 h=0.70
;00:01:41.644: pe=-1.0024 eb=0.0000 ve=0.0000 vn=0.0000 vl=0.000 db=0.00
G1 Z0.300 F420                          ; hopdn dz=-0.40@7 h=0.3
;00:01:41.701: pe=-1.0024 eb=0.0000 ve=0.0000 vn=0.0000 vl=0.000 db=0.00
G1 E79.4588 F1800                       ; restore de=2.5771@30
;00:01:41.787: pe=1.5559 eb=0.0188 ve=30.0000 vn=0.6794 vl=0.000 db=0.44
G1 X-4.00 Y53.50 E79.5467 F600          ; draw dl=1.50@0<10>0 l=0.30x0.50x0.94
;00:01:41.957: pe=1.5447 eb=0.0275 ve=0.0000 vn=0.4857 vl=0.000 db=0.53
G1 E77.0019 F2400                       ; retract de=-2.5447@40
;00:01:42.020: pe=-1.0024 eb=0.0298 ve=-40.0000 vn=0.0000 vl=0.000 db=0.55
G1 Z0.700 F420                          ; hopup dz=0.40@7 h=0.7
;00:01:42.077: pe=-1.0024 eb=0.0298 ve=0.0000 vn=0.0000 vl=0.000 db=0.36
G1 X-2.00 Y55.00 F1500                  ; move dl=2.50@0<25>0 de=0.0000 h=0.70
;00:01:42.227: pe=-1.0024 eb=0.0000 ve=0.0000 vn=0.0000 vl=0.000 db=0.00
G1 Z0.300 F420                          ; hopdn dz=-0.40@7 h=0.3
;00:01:42.285: pe=-1.0024 eb=0.0000 ve=0.0000 vn=0.0000 vl=0.000 db=0.00
G1 E79.5791 F1800                       ; restore de=2.5771@30
;00:01:42.371: pe=1.5559 eb=0.0188 ve=30.0000 vn=0.6794 vl=0.000 db=0.44
G1 X-2.00 Y53.50 E79.6669 F600          ; draw dl=1.50@0<10>0 l=0.30x0.50x0.94
;00:01:42.541: pe=1.5447 eb=0.0275 ve=0.0000 vn=0.4857 vl=0.000 db=0.53
G1 E77.1222 F2400                       ; retract de=-2.5447@40
;00:01:42.604: pe=-1.0024 eb=0.0298 ve=-40.0000 vn=0.0000 vl=0.000 db=0.55
G1 Z0.700 F420                          ; hopup dz=0.40@7 h=0.7
;00:01:42.661: pe=-1.0024 eb=0.0298 ve=0.0000 vn=0.0000 vl=0.000 db=0.36
G1 X0.00 Y55.00 F1500                   ; move dl=2.50@0<25>0 de=0.0000 h=0.70
;00:01:42.811: pe=-1.0024 eb=0.0000 ve=0.0000 vn=0.0000 vl=0.000 db=0.00
G1 Z0.300 F420                          ; hopdn dz=-0.40@7 h=0.3
;00:01:42.868: pe=-1.0024 eb=0.0000 ve=0.0000 vn=0.0000 vl=0.000 db=0.00
G1 E79.7337 F1800                       ; restore de=2.6115@30
;00:01:42.955: pe=1.5895 eb=0.0196 ve=30.0000 vn=0.6942 vl=0.000 db=0.45
G1 X0.00 Y52.00 E79.9159 F600           ; draw dl=3.00@0<10>0 l=0.30x0.50x0.97
;00:01:43.275: pe=1.5791 eb=0.0286 ve=0.0000 vn=0.4988 vl=0.000 db=0.54
G1 E77.3368 F2400                       ; retract de=-2.5791@40
;00:01:43.340: pe=-1.0025 eb=0.0311 ve=-40.0000 vn=0.0000 vl=0.000 db=0.56
G1 Z0.700 F420                          ; hopup dz=0.40@7 h=0.7
;00:01:43.397: pe=-1.0025 eb=0.0311 ve=0.0000 vn=0.0000 vl=0.000 db=0.37
G1 X2.00 Y55.00 F1801                   ; move dl=3.61@0<30>0 de=0.0000 h=0.70
;00:01:43.577: pe=-1.0025 eb=0.0000 ve=0.0000 vn=0.0000 vl=0.000 db=0.00
G1 Z0.300 F420                          ; hopdn dz=-0.40@7 h=0.3
;00:01:43.634: pe=-1.0025 eb=0.0000 ve=0.0000 vn=0.0000 vl=0.000 db=0.00
G1 E79.9141 F1800                       ; restore de=2.5772@30
;00:01:43.720: pe=1.5559 eb=0.0188 ve=30.0000 vn=0.6794 vl=0.000 db=0.44
G1 X2.00 Y53.50 E80.0019 F600           ; draw dl=1.50@0<10>0 l=0.30x0.50x0.94
;00:01:43.890: pe=1.5447 eb=0.0275 ve=0.0000 vn=0.4857 vl=0.000 db=0.53
G1 E77.4572 F2400                       ; retract de=-2.5447@40
;00:01:43.954: pe=-1.0024 eb=0.0298 ve=-40.0000 vn=0.0000 vl=0.000 db=0.55
G1 Z0.700 F420                          ; hopup dz=0.40@7 h=0.7
;00:01:44.011: pe=-1.0024 eb=0.0298 ve=0.0000 vn=0.0000 vl=0.000 db=0.36
G1 X4.00 Y55.00 F1500                   ; move dl=2.50@0<25>0 de=0.0000 h=0.70
;00:01:44.161: pe=-1.0024 eb=0.0000 ve=0.0000 vn=0.0000 vl=0.000 db=0.00
G1 Z0.300 F420                          ; hopdn dz=-0.40@7 h=0.3
;00:01:44.218: pe=-1.0024 eb=0.0000 ve=0.0000 vn=0.0000 vl=0.000 db=0.00
G1 E80.0343 F1800                       ; restore de=2.5771@30
;00:01:44.304: pe=1.5559 eb=0.0188 ve=30.0000 vn=0.6794 vl=0.000 db=0.44
G1 X4.00 Y53.50 E80.1222 F600           ; draw dl=1.50@0<10>0 l=0.30x0.50x0.94
;00:01:44.474: pe=1.5447 eb=0.0275 ve=0.0000 vn=0.4857 vl=0.000 db=0.53
G1 E77.5775 F2400                       ; retract de=-2.5447@40
;00:01:44.538: pe=-1.0024 eb=0.0298 ve=-40.0000 vn=0.0000 vl=0.000 db=0.55
G1 Z0.700 F420                          ; hopup dz=0.40@7 h=0.7
;00:01:44.595: pe=-1.0024 eb=0.0298 ve=0.0000 vn=0.0000 vl=0.000 db=0.36
G1 X6.00 Y55.00 F1500                   ; move dl=2.50@0<25>0 de=0.0000 h=0.70
;00:01:44.745: pe=-1.0024 eb=0.0000 ve=0.0000 vn=0.0000 vl=0.000 db=0.00
G1 Z0.300 F420                          ; hopdn dz=-0.40@7 h=0.3
;00:01:44.802: pe=-1.0024 eb=0.0000 ve=0.0000 vn=0.0000 vl=0.000 db=0.00
G1 E80.1546 F1800                       ; restore de=2.5771@30
;00:01:44.888: pe=1.5559 eb=0.0188 ve=30.0000 vn=0.6794 vl=0.000 db=0.44
G1 X6.00 Y53.50 E80.2425 F600           ; draw dl=1.50@0<10>0 l=0.30x0.50x0.94
;00:01:45.058: pe=1.5447 eb=0.0275 ve=0.0000 vn=0.4857 vl=0.000 db=0.53
G1 E77.6977 F2400                       ; retract de=-2.5447@40
;00:01:45.122: pe=-1.0024 eb=0.0298 ve=-40.0000 vn=0.0000 vl=0.000 db=0.55
G1 Z0.700 F420                          ; hopup dz=0.40@7 h=0.7
;00:01:45.179: pe=-1.0024 eb=0.0298 ve=0.0000 vn=0.0000 vl=0.000 db=0.36
G1 X8.00 Y55.00 F1500                   ; move dl=2.50@0<25>0 de=0.0000 h=0.70
;00:01:45.329: pe=-1.0024 eb=0.0000 ve=0.0000 vn=0.0000 vl=0.000 db=0.00
G1 Z0.300 F420                          ; hopdn dz=-0.40@7 h=0.3
;00:01:45.386: pe=-1.0024 eb=0.0000 ve=0.0000 vn=0.0000 vl=0.000 db=0.00
G1 E80.2748 F1800                       ; restore de=2.5771@30
;00:01:45.472: pe=1.5559 eb=0.0188 ve=30.0000 vn=0.6794 vl=0.000 db=0.44
G1 X8.00 Y53.50 E80.3627 F600           ; draw dl=1.50@0<10>0 l=0.30x0.50x0.94
;00:01:45.642: pe=1.5447 eb=0.0275 ve=0.0000 vn=0.4857 vl=0.000 db=0.53
G1 E77.8180 F2400                       ; retract de=-2.5447@40
;00:01:45.705: pe=-1.0024 eb=0.0298 ve=-40.0000 vn=0.0000 vl=0.000 db=0.55
G1 Z0.700 F420                          ; hopup dz=0.40@7 h=0.7
;00:01:45.762: pe=-1.0024 eb=0.0298 ve=0.0000 vn=0.0000 vl=0.000 db=0.36
G1 X10.00 Y55.00 F1500                  ; move dl=2.50@0<25>0 de=0.0000 h=0.70
;00:01:45.912: pe=-1.0024 eb=0.0000 ve=0.0000 vn=0.0000 vl=0.000 db=0.00
G1 Z0.300 F420                          ; hopdn dz=-0.40@7 h=0.3
;00:01:45.970: pe=-1.0024 eb=0.0000 ve=0.0000 vn=0.0000 vl=0.000 db=0.00
G1 E80.4295 F1800                       ; restore de=2.6115@30
;00:01:46.057: pe=1.5895 eb=0.0196 ve=30.0000 vn=0.6942 vl=0.000 db=0.45
G1 X10.00 Y52.00 E80.6117 F600          ; draw dl=3.00@0<10>0 l=0.30x0.50x0.97
;00:01:46.377: pe=1.5791 eb=0.0286 ve=0.0000 vn=0.4988 vl=0.000 db=0.54
G1 E78.0326 F2400                       ; retract de=-2.5791@40
;00:01:46.441: pe=-1.0025 eb=0.0311 ve=-40.0000 vn=0.0000 vl=0.000 db=0.56
G1 Z0.700 F420                          ; hopup dz=0.40@7 h=0.7
;00:01:46.498: pe=-1.0025 eb=0.0311 ve=0.0000 vn=0.0000 vl=0.000 db=0.37
G1 X12.00 Y55.00 F1801                  ; move dl=3.61@0<30>0 de=0.0000 h=0.70
;00:01:46.678: pe=-1.0025 eb=0.0000 ve=0.0000 vn=0.0000 vl=0.000 db=0.00
G1 Z0.300 F420                          ; hopdn dz=-0.40@7 h=0.3
;00:01:46.736: pe=-1.0025 eb=0.0000 ve=0.0000 vn=0.0000 vl=0.000 db=0.00
G1 E80.6099 F1800                       ; restore de=2.5772@30
;00:01:46.821: pe=1.5559 eb=0.0188 ve=30.0000 vn=0.6794 vl=0.000 db=0.44
G1 X12.00 Y53.50 E80.6977 F600          ; draw dl=1.50@0<10>0 l=0.30x0.50x0.94
;00:01:46.991: pe=1.5447 eb=0.0275 ve=0.0000 vn=0.4857 vl=0.000 db=0.53
G1 E78.1530 F2400                       ; retract de=-2.5447@40
;00:01:47.055: pe=-1.0024 eb=0.0298 ve=-40.0000 vn=0.0000 vl=0.000 db=0.55
G1 Z0.700 F420                          ; hopup dz=0.40@7 h=0.7
;00:01:47.112: pe=-1.0024 eb=0.0298 ve=0.0000 vn=0.0000 vl=0.000 db=0.36
G1 X14.00 Y55.00 F1500                  ; move dl=2.50@0<25>0 de=0.0000 h=0.70
;00:01:47.262: pe=-1.0024 eb=0.0000 ve=0.0000 vn=0.0000 vl=0.000 db=0.00
G1 Z0.300 F420                          ; hopdn dz=-0.40@7 h=0.3
;00:01:47.319: pe=-1.0024 eb=0.0000 ve=0.0000 vn=0.0000 vl=0.000 db=0.00
G1 E80.7301 F1800                       ; restore de=2.5771@30
;00:01:47.405: pe=1.5559 eb=0.0188 ve=30.0000 vn=0.6794 vl=0.000 db=0.44
G1 X14.00 Y53.50 E80.8180 F600          ; draw dl=1.50@0<10>0 l=0.30x0.50x0.94
;00:01:47.575: pe=1.5447 eb=0.0275 ve=0.0000 vn=0.4857 vl=0.000 db=0.53
G1 E78.2732 F2400                       ; retract de=-2.5447@40
;00:01:47.639: pe=-1.0024 eb=0.0298 ve=-40.0000 vn=0.0000 vl=0.000 db=0.55
G1 Z0.700 F420                          ; hopup dz=0.40@7 h=0.7
;00:01:47.696: pe=-1.0024 eb=0.0298 ve=0.0000 vn=0.0000 vl=0.000 db=0.36
G1 X16.00 Y55.00 F1500                  ; move dl=2.50@0<25>0 de=0.0000 h=0.70
;00:01:47.846: pe=-1.0024 eb=0.0000 ve=0.0000 vn=0.0000 vl=0.000 db=0.00
G1 Z0.300 F420                          ; hopdn dz=-0.40@7 h=0.3
;00:01:47.903: pe=-1.0024 eb=0.0000 ve=0.0000 vn=0.0000 vl=0.000 db=0.00
G1 E80.8504 F1800                       ; restore de=2.5771@30
;00:01:47.989: pe=1.5559 eb=0.0188 ve=30.0000 vn=0.6794 vl=0.000 db=0.44
G1 X16.00 Y53.50 E80.9382 F600          ; draw dl=1.50@0<10>0 l=0.30x0.50x0.94
;00:01:48.159: pe=1.5447 eb=0.0275 ve=0.0000 vn=0.4857 vl=0.000 db=0.53
G1 E78.3935 F2400                       ; retract de=-2.5447@40
;00:01:48.223: pe=-1.0024 eb=0.0298 ve=-40.0000 vn=0.0000 vl=0.000 db=0.55
G1 Z0.700 F420                          ; hopup dz=0.40@7 h=0.7
;00:01:48.280: pe=-1.0024 eb=0.0298 ve=0.0000 vn=0.0000 vl=0.000 db=0.36
G1 X18.00 Y55.00 F1500                  ; move dl=2.50@0<25>0 de=0.0000 h=0.70
;00:01:48.430: pe=-1.0024 eb=0.0000 ve=0.0000 vn=0.0000 vl=0.000 db=0.00
G1 Z0.300 F420                          ; hopdn dz=-0.40@7 h=0.3
;00:01:48.487: pe=-1.0024 eb=0.0000 ve=0.0000 vn=0.0000 vl=0.000 db=0.00
G1 E80.9706 F1800                       ; restore de=2.5771@30
;00:01:48.573: pe=1.5559 eb=0.0188 ve=30.0000 vn=0.6794 vl=0.000 db=0.44
G1 X18.00 Y53.50 E81.0585 F600          ; draw dl=1.50@0<10>0 l=0.30x0.50x0.94
;00:01:48.743: pe=1.5447 eb=0.0275 ve=0.0000 vn=0.4857 vl=0.000 db=0.53
G1 E78.5138 F2400                       ; retract de=-2.5447@40
;00:01:48.807: pe=-1.0024 eb=0.0298 ve=-40.0000 vn=0.0000 vl=0.000 db=0.55
G1 Z0.700 F420                          ; hopup dz=0.40@7 h=0.7
;00:01:48.864: pe=-1.0024 eb=0.0298 ve=0.0000 vn=0.0000 vl=0.000 db=0.36
G1 X20.00 Y55.00 F1500                  ; move dl=2.50@0<25>0 de=0.0000 h=0.70
;00:01:49.014: pe=-1.0024 eb=0.0000 ve=0.0000 vn=0.0000 vl=0.000 db=0.00
G1 Z0.300 F420                          ; hopdn dz=-0.40@7 h=0.3
;00:01:49.071: pe=-1.0024 eb=0.0000 ve=0.0000 vn=0.0000 vl=0.000 db=0.00
G1 E81.1253 F1800                       ; restore de=2.6115@30
;00:01:49.158: pe=1.5895 eb=0.0196 ve=30.0000 vn=0.6942 vl=0.000 db=0.45
G1 X20.00 Y52.00 E81.3075 F600          ; draw dl=3.00@0<10>0 l=0.30x0.50x0.97
;00:01:49.478: pe=1.5791 eb=0.0286 ve=0.0000 vn=0.4988 vl=0.000 db=0.54
G1 E78.7284 F2400                       ; retract de=-2.5791@40
;00:01:49.542: pe=-1.0025 eb=0.0311 ve=-40.0000 vn=0.0000 vl=0.000 db=0.56
G1 Z0.700 F420                          ; hopup dz=0.40@7 h=0.7
;00:01:49.599: pe=-1.0025 eb=0.0311 ve=0.0000 vn=0.0000 vl=0.000 db=0.37
G1 X22.00 Y55.00 F1801                  ; move dl=3.61@0<30>0 de=0.0000 h=0.70
;00:01:49.780: pe=-1.0025 eb=0.0000 ve=0.0000 vn=0.0000 vl=0.000 db=0.00
G1 Z0.300 F420                          ; hopdn dz=-0.40@7 h=0.3
;00:01:49.837: pe=-1.0025 eb=0.0000 ve=0.0000 vn=0.0000 vl=0.000 db=0.00
G1 E81.3056 F1800                       ; restore de=2.5772@30
;00:01:49.923: pe=1.5559 eb=0.0188 ve=30.0000 vn=0.6794 vl=0.000 db=0.44
G1 X22.00 Y53.50 E81.3935 F600          ; draw dl=1.50@0<10>0 l=0.30x0.50x0.94
;00:01:50.093: pe=1.5447 eb=0.0275 ve=0.0000 vn=0.4857 vl=0.000 db=0.53
G1 E78.8488 F2400                       ; retract de=-2.5447@40
;00:01:50.156: pe=-1.0024 eb=0.0298 ve=-40.0000 vn=0.0000 vl=0.000 db=0.55
G1 Z0.700 F420                          ; hopup dz=0.40@7 h=0.7
;00:01:50.213: pe=-1.0024 eb=0.0298 ve=0.0000 vn=0.0000 vl=0.000 db=0.36
G1 X24.00 Y55.00 F1500                  ; move dl=2.50@0<25>0 de=0.0000 h=0.70
;00:01:50.363: pe=-1.0024 eb=0.0000 ve=0.0000 vn=0.0000 vl=0.000 db=0.00
G1 Z0.300 F420                          ; hopdn dz=-0.40@7 h=0.3
;00:01:50.421: pe=-1.0024 eb=0.0000 ve=0.0000 vn=0.0000 vl=0.000 db=0.00
G1 E81.4259 F1800                       ; restore de=2.5771@30
;00:01:50.506: pe=1.5559 eb=0.0188 ve=30.0000 vn=0.6794 vl=0.000 db=0.44
G1 X24.00 Y53.50 E81.5138 F600          ; draw dl=1.50@0<10>0 l=0.30x0.50x0.94
;00:01:50.676: pe=1.5447 eb=0.0275 ve=0.0000 vn=0.4857 vl=0.000 db=0.53
G1 E78.9690 F2400                       ; retract de=-2.5447@40
;00:01:50.740: pe=-1.0024 eb=0.0298 ve=-40.0000 vn=0.0000 vl=0.000 db=0.55
G1 Z0.700 F420                          ; hopup dz=0.40@7 h=0.7
;00:01:50.797: pe=-1.0024 eb=0.0298 ve=0.0000 vn=0.0000 vl=0.000 db=0.36
G1 X26.00 Y55.00 F1500                  ; move dl=2.50@0<25>0 de=0.0000 h=0.70
;00:01:50.947: pe=-1.0024 eb=0.0000 ve=0.0000 vn=0.0000 vl=0.000 db=0.00
G1 Z0.300 F420                          ; hopdn dz=-0.40@7 h=0.3
;00:01:51.004: pe=-1.0024 eb=0.0000 ve=0.0000 vn=0.0000 vl=0.000 db=0.00
G1 E81.5461 F1800                       ; restore de=2.5771@30
;00:01:51.090: pe=1.5559 eb=0.0188 ve=30.0000 vn=0.6794 vl=0.000 db=0.44
G1 X26.00 Y53.50 E81.6340 F600          ; draw dl=1.50@0<10>0 l=0.30x0.50x0.94
;00:01:51.260: pe=1.5447 eb=0.0275 ve=0.0000 vn=0.4857 vl=0.000 db=0.53
G1 E79.0893 F2400                       ; retract de=-2.5447@40
;00:01:51.324: pe=-1.0024 eb=0.0298 ve=-40.0000 vn=0.0000 vl=0.000 db=0.55
G1 Z0.700 F420                          ; hopup dz=0.40@7 h=0.7
;00:01:51.381: pe=-1.0024 eb=0.0298 ve=0.0000 vn=0.0000 vl=0.000 db=0.36
G1 X28.00 Y55.00 F1500                  ; move dl=2.50@0<25>0 de=0.0000 h=0.70
;00:01:51.531: pe=-1.0024 eb=0.0000 ve=0.0000 vn=0.0000 vl=0.000 db=0.00
G1 Z0.300 F420                          ; hopdn dz=-0.40@7 h=0.3
;00:01:51.588: pe=-1.0024 eb=0.0000 ve=0.0000 vn=0.0000 vl=0.000 db=0.00
G1 E81.6664 F1800                       ; restore de=2.5771@30
;00:01:51.674: pe=1.5559 eb=0.0188 ve=30.0000 vn=0.6794 vl=0.000 db=0.44
G1 X28.00 Y53.50 E81.7543 F600          ; draw dl=1.50@0<10>0 l=0.30x0.50x0.94
;00:01:51.844: pe=1.5447 eb=0.0275 ve=0.0000 vn=0.4857 vl=0.000 db=0.53
G1 E79.2095 F2400                       ; retract de=-2.5447@40
;00:01:51.908: pe=-1.0024 eb=0.0298 ve=-40.0000 vn=0.0000 vl=0.000 db=0.55
G1 Z0.700 F420                          ; hopup dz=0.40@7 h=0.7
;00:01:51.965: pe=-1.0024 eb=0.0298 ve=0.0000 vn=0.0000 vl=0.000 db=0.36
G1 X30.00 Y55.00 F1500                  ; move dl=2.50@0<25>0 de=0.0000 h=0.70
;00:01:52.115: pe=-1.0024 eb=0.0000 ve=0.0000 vn=0.0000 vl=0.000 db=0.00
G1 Z0.300 F420                          ; hopdn dz=-0.40@7 h=0.3
;00:01:52.172: pe=-1.0024 eb=0.0000 ve=0.0000 vn=0.0000 vl=0.000 db=0.00
G1 E81.8210 F1800                       ; restore de=2.6115@30
;00:01:52.259: pe=1.5895 eb=0.0196 ve=30.0000 vn=0.6942 vl=0.000 db=0.45
G1 X30.00 Y52.00 E82.0033 F600          ; draw dl=3.00@0<10>0 l=0.30x0.50x0.97
;00:01:52.579: pe=1.5791 eb=0.0286 ve=0.0000 vn=0.4988 vl=0.000 db=0.54
G1 E79.4242 F2400                       ; retract de=-2.5791@40
;00:01:52.644: pe=-1.0025 eb=0.0311 ve=-40.0000 vn=0.0000 vl=0.000 db=0.56
G1 Z0.700 F420                          ; hopup dz=0.40@7 h=0.7
;00:01:52.701: pe=-1.0025 eb=0.0311 ve=0.0000 vn=0.0000 vl=0.000 db=0.37
G1 X32.00 Y55.00 F1801                  ; move dl=3.61@0<30>0 de=0.0000 h=0.70
;00:01:52.881: pe=-1.0025 eb=0.0000 ve=0.0000 vn=0.0000 vl=0.000 db=0.00
G1 Z0.300 F420                          ; hopdn dz=-0.40@7 h=0.3
;00:01:52.938: pe=-1.0025 eb=0.0000 ve=0.0000 vn=0.0000 vl=0.000 db=0.00
G1 E82.0014 F1800                       ; restore de=2.5772@30
;00:01:53.024: pe=1.5559 eb=0.0188 ve=30.0000 vn=0.6794 vl=0.000 db=0.44
G1 X32.00 Y53.50 E82.0893 F600          ; draw dl=1.50@0<10>0 l=0.30x0.50x0.94
;00:01:53.194: pe=1.5447 eb=0.0275 ve=0.0000 vn=0.4857 vl=0.000 db=0.53
G1 E79.5446 F2400                       ; retract de=-2.5447@40
;00:01:53.257: pe=-1.0024 eb=0.0298 ve=-40.0000 vn=0.0000 vl=0.000 db=0.55
G1 Z0.700 F420                          ; hopup dz=0.40@7 h=0.7
;00:01:53.315: pe=-1.0024 eb=0.0298 ve=0.0000 vn=0.0000 vl=0.000 db=0.36
G1 X34.00 Y55.00 F1500                  ; move dl=2.50@0<25>0 de=0.0000 h=0.70
;00:01:53.465: pe=-1.0024 eb=0.0000 ve=0.0000 vn=0.0000 vl=0.000 db=0.00
G1 Z0.300 F420                          ; hopdn dz=-0.40@7 h=0.3
;00:01:53.522: pe=-1.0024 eb=0.0000 ve=0.0000 vn=0.0000 vl=0.000 db=0.00
G1 E82.1217 F1800                       ; restore de=2.5771@30
;00:01:53.608: pe=1.5559 eb=0.0188 ve=30.0000 vn=0.6794 vl=0.000 db=0.44
G1 X34.00 Y53.50 E82.2095 F600          ; draw dl=1.50@0<10>0 l=0.30x0.50x0.94
;00:01:53.778: pe=1.5447 eb=0.0275 ve=0.0000 vn=0.4857 vl=0.000 db=0.53
G1 E79.6648 F2400                       ; retract de=-2.5447@40
;00:01:53.841: pe=-1.0024 eb=0.0298 ve=-40.0000 vn=0.0000 vl=0.000 db=0.55
G1 Z0.700 F420                          ; hopup dz=0.40@7 h=0.7
;00:01:53.898: pe=-1.0024 eb=0.0298 ve=0.0000 vn=0.0000 vl=0.000 db=0.36
G1 X36.00 Y55.00 F1500                  ; move dl=2.50@0<25>0 de=0.0000 h=0.70
;00:01:54.048: pe=-1.0024 eb=0.0000 ve=0.0000 vn=0.0000 vl=0.000 db=0.00
G1 Z0.300 F420                          ; hopdn dz=-0.40@7 h=0.3
;00:01:54.106: pe=-1.0024 eb=0.0000 ve=0.0000 vn=0.0000 vl=0.000 db=0.00
G1 E82.2419 F1800                       ; restore de=2.5771@30
;00:01:54.191: pe=1.5559 eb=0.0188 ve=30.0000 vn=0.6794 vl=0.000 db=0.44
G1 X36.00 Y53.50 E82.3298 F600          ; draw dl=1.50@0<10>0 l=0.30x0.50x0.94
;00:01:54.361: pe=1.5447 eb=0.0275 ve=0.0000 vn=0.4857 vl=0.000 db=0.53
G1 E79.7851 F2400                       ; retract de=-2.5447@40
;00:01:54.425: pe=-1.0024 eb=0.0298 ve=-40.0000 vn=0.0000 vl=0.000 db=0.55
G1 Z0.700 F420                          ; hopup dz=0.40@7 h=0.7
;00:01:54.482: pe=-1.0024 eb=0.0298 ve=0.0000 vn=0.0000 vl=0.000 db=0.36
G1 X38.00 Y55.00 F1500                  ; move dl=2.50@0<25>0 de=0.0000 h=0.70
;00:01:54.632: pe=-1.0024 eb=0.0000 ve=0.0000 vn=0.0000 vl=0.000 db=0.00
G1 Z0.300 F420                          ; hopdn dz=-0.40@7 h=0.3
;00:01:54.689: pe=-1.0024 eb=0.0000 ve=0.0000 vn=0.0000 vl=0.000 db=0.00
G1 E82.3622 F1800                       ; restore de=2.5771@30
;00:01:54.775: pe=1.5559 eb=0.0188 ve=30.0000 vn=0.6794 vl=0.000 db=0.44
G1 X38.00 Y53.50 E82.4501 F600          ; draw dl=1.50@0<10>0 l=0.30x0.50x0.94
;00:01:54.945: pe=1.5447 eb=0.0275 ve=0.0000 vn=0.4857 vl=0.000 db=0.53
G1 E79.9053 F2400                       ; retract de=-2.5447@40
;00:01:55.009: pe=-1.0024 eb=0.0298 ve=-40.0000 vn=0.0000 vl=0.000 db=0.55
G1 Z0.700 F420                          ; hopup dz=0.40@7 h=0.7
;00:01:55.066: pe=-1.0024 eb=0.0298 ve=0.0000 vn=0.0000 vl=0.000 db=0.36
G1 X40.00 Y55.00 F1500                  ; move dl=2.50@0<25>0 de=0.0000 h=0.70
;00:01:55.216: pe=-1.0024 eb=0.0000 ve=0.0000 vn=0.0000 vl=0.000 db=0.00
G1 Z0.300 F420                          ; hopdn dz=-0.40@7 h=0.3
;00:01:55.273: pe=-1.0024 eb=0.0000 ve=0.0000 vn=0.0000 vl=0.000 db=0.00
G1 E82.5168 F1800                       ; restore de=2.6115@30
;00:01:55.360: pe=1.5895 eb=0.0196 ve=30.0000 vn=0.6942 vl=0.000 db=0.45
G1 X40.00 Y52.00 E82.6991 F600          ; draw dl=3.00@0<10>0 l=0.30x0.50x0.97
;00:01:55.680: pe=1.5791 eb=0.0286 ve=0.0000 vn=0.4988 vl=0.000 db=0.54
G1 E80.1199 F2400                       ; retract de=-2.5791@40
;00:01:55.745: pe=-1.0025 eb=0.0311 ve=-40.0000 vn=0.0000 vl=0.000 db=0.56
G1 Z0.700 F420                          ; hopup dz=0.40@7 h=0.7
;00:01:55.802: pe=-1.0025 eb=0.0311 ve=0.0000 vn=0.0000 vl=0.000 db=0.37
;structure:infill-solid
;00:01:55.802: Test Line StartStop Kf=0.0 Kb=2.0 Re=1.0 vx=60 re=0.0
;00:01:55.802: setting config Kf=0.0 Kb=2.0 Re=1.0
G1 X-45.00 Y51.00 F6000                 ; move dl=85.01@0<100>0 de=0.0000 h=0.70
;00:01:56.852: pe=-1.0025 eb=0.0000 ve=0.0000 vn=0.0000 vl=0.000 db=0.00
G1 Z0.300 F420                          ; hopdn dz=-0.40@7 h=0.3
;00:01:56.909: pe=-1.0025 eb=0.0000 ve=0.0000 vn=0.0000 vl=0.000 db=0.00
G1 E82.1469 F1800                       ; restore de=2.0270@30
;00:01:56.977: pe=0.9823 eb=0.0422 ve=30.0000 vn=0.0000 vl=0.000 db=0.66
G1 X-40.00 Y51.00 E82.4765 F60          ; draw dl=5.00@0<1>1 l=0.30x0.50x1.06
;00:02:01.978: pe=1.0099 eb=0.0261 ve=0.0659 vn=0.0000 vl=1.000 db=0.52
G1 X-30.00 Y51.00                       ; move dl=10.00@1<1>0 de=0.0000 h=0.30
;00:02:11.979: pe=0.5484 eb=0.0083 ve=0.0000 vn=0.0000 vl=0.000 db=0.29
G1 E82.9525 F1800                       ; restore de=0.4760@30
;00:02:11.994: pe=0.9980 eb=0.0348 ve=30.0000 vn=0.0000 vl=0.000 db=0.60
G1 X-26.40 Y51.00 E83.1790 F3600        ; draw dl=3.60@0<60>60 l=0.30x0.50x1.01
;00:02:12.114: pe=0.9463 eb=0.0365 ve=3.7748 vn=0.0000 vl=60.000 db=0.61
G1 X16.40 Y51.00 E85.9019               ; draw dl=42.80@60<60>60 l=0.30x0.50x1.02
;00:02:12.828: pe=0.6132 eb=0.0484 ve=3.8171 vn=0.0000 vl=60.000 db=0.70
G1 X20.00 Y51.00 E86.5132               ; draw dl=3.60@60<60>0 l=0.30x0.50x2.72
;00:02:12.948: pe=0.9856 eb=0.0289 ve=0.0000 vn=0.0000 vl=0.000 db=0.54
G1 E84.5275 F2400                       ; retract de=-1.9856@40
;00:02:12.997: pe=-1.0000 eb=0.0289 ve=-40.0000 vn=0.0000 vl=0.000 db=0.54
G1 X30.00 Y51.00 F60                    ; move dl=10.00@0<1>1 de=0.0000 h=0.30
;00:02:22.998: pe=-1.0000 eb=0.0000 ve=0.0000 vn=0.0000 vl=1.000 db=0.00
G1 X31.00 Y51.00 E87.6483               ; draw dl=1.00@1<1>1 l=0.30x0.50x50.04
;00:02:23.998: pe=1.9798 eb=0.0962 ve=3.1207 vn=0.0000 vl=1.000 db=0.99
G1 X45.00 Y51.00 E88.6720               ; draw dl=14.00@1<1>0 l=0.30x0.50x1.17
;00:02:37.999: pe=1.5310 eb=0.0577 ve=0.0000 vn=0.0000 vl=0.000 db=0.77
G1 E86.1410 F2400                       ; retract de=-2.5310@40
;00:02:38.063: pe=-1.0000 eb=0.0577 ve=-40.0000 vn=0.0000 vl=0.000 db=0.77
G1 Z0.700 F420                          ; hopup dz=0.40@7 h=0.7
;00:02:38.120: pe=-1.0000 eb=0.0577 ve=0.0000 vn=0.0000 vl=0.000 db=0.50
;00:02:38.120: restoring config Kf=1.0 Kb=2.0 Re=1.0
;00:02:38.120: Test Line StartStop Kf=0.2 Kb=2.0 Re=1.0 vx=60 re=0.0
;00:02:38.120: setting config Kf=0.2 Kb=2.0 Re=1.0
G1 X-45.00 Y49.00 F6000                 ; move dl=90.02@0<100>0 de=0.0000 h=0.70
;00:02:39.220: pe=-1.0000 eb=0.0000 ve=0.0000 vn=0.0000 vl=0.000 db=0.00
G1 Z0.300 F420                          ; hopdn dz=-0.40@7 h=0.3
;00:02:39.277: pe=-1.0000 eb=0.0000 ve=0.0000 vn=0.0000 vl=0.000 db=0.00
G1 E88.1780 F1800                       ; restore de=2.0370@30
;00:02:39.345: pe=1.0193 eb=0.0176 ve=30.0000 vn=0.8532 vl=0.000 db=0.42
G1 X-40.00 Y49.00 E88.4829 F60          ; draw dl=5.00@0<1>1 l=0.30x0.50x0.98
;00:02:44.346: pe=1.0069 eb=0.0242 ve=0.0610 vn=0.0620 vl=1.000 db=0.50
G1 X-30.00 Y49.00                       ; move dl=10.00@1<1>0 de=0.0000 h=0.30
;00:02:54.347: pe=0.5555 eb=0.0074 ve=0.0000 vn=0.0275 vl=0.000 db=0.28
G1 E88.9519 F1800                       ; restore de=0.4690@30
;00:02:54.363: pe=1.0143 eb=0.0176 ve=30.0000 vn=0.8360 vl=0.000 db=0.42
G1 X-26.40 Y49.00 E89.9104 F3600        ; draw dl=3.60@0<60>60 l=0.30x0.50x4.27
;00:02:54.483: pe=1.7601 eb=0.0242 ve=15.9756 vn=3.8308 vl=60.000 db=0.50
G1 X16.40 Y49.00 E92.5679               ; draw dl=42.80@60<60>60 l=0.30x0.50x1.00
;00:02:55.196: pe=1.7449 eb=0.0244 ve=3.7254 vn=3.7343 vl=60.000 db=0.50
G1 X20.00 Y49.00 E92.0474               ; move dl=3.60@60<60>0 de=-0.5204 h=0.30
;00:02:55.316: pe=1.0181 eb=0.0233 ve=-0.0000 vn=0.2086 vl=0.000 db=0.49
G1 E90.0293 F2400                       ; retract de=-2.0181@40
;00:02:55.367: pe=-1.0000 eb=0.0234 ve=-40.0000 vn=0.0000 vl=0.000 db=0.49
G1 X30.00 Y49.00 F60                    ; move dl=10.00@0<1>1 de=0.0000 h=0.30
;00:03:05.368: pe=-1.0000 eb=0.0000 ve=0.0000 vn=0.0000 vl=1.000 db=0.00
G1 X31.00 Y49.00 E93.1749               ; draw dl=1.00@1<1>1 l=0.30x0.50x50.44
;00:03:06.368: pe=2.0114 eb=0.0921 ve=3.1456 vn=0.3613 vl=1.000 db=0.97
G1 X45.00 Y49.00 E94.1870               ; draw dl=14.00@1<1>0 l=0.30x0.50x1.16
;00:03:20.369: pe=1.5494 eb=0.0575 ve=0.0000 vn=0.0874 vl=0.000 db=0.77
G1 E91.6376 F2400                       ; retract de=-2.5494@40
;00:03:20.432: pe=-1.0000 eb=0.0575 ve=-40.0000 vn=0.0000 vl=0.000 db=0.77
G1 Z0.700 F420                          ; hopup dz=0.40@7 h=0.7
;00:03:20.489: pe=-1.0000 eb=0.0575 ve=0.0000 vn=0.0000 vl=0.000 db=0.50
;00:03:20.489: restoring config Kf=1.0 Kb=2.0 Re=1.0
;00:03:20.489: Test Line StartStop Kf=0.4 Kb=2.0 Re=1.0 vx=60 re=0.0
;00:03:20.489: setting config Kf=0.4 Kb=2.0 Re=1.0
G1 X-45.00 Y47.00 F6000                 ; move dl=90.02@0<100>0 de=0.0000 h=0.70
;00:03:21.590: pe=-1.0000 eb=0.0000 ve=0.0000 vn=0.0000 vl=0.000 db=0.00
G1 Z0.300 F420                          ; hopdn dz=-0.40@7 h=0.3
;00:03:21.647: pe=-1.0000 eb=0.0000 ve=0.0000 vn=0.0000 vl=0.000 db=0.00
G1 E93.6870 F1800                       ; restore de=2.0494@30
;00:03:21.715: pe=1.0356 eb=0.0139 ve=30.0000 vn=0.7072 vl=0.000 db=0.38
G1 X-40.00 Y47.00 E93.9882 F60          ; draw dl=5.00@0<1>1 l=0.30x0.50x0.97
;00:03:26.716: pe=1.0163 eb=0.0241 ve=0.0602 vn=0.0618 vl=1.000 db=0.50
G1 X-30.00 Y47.00                       ; move dl=10.00@1<1>0 de=0.0000 h=0.30
;00:03:36.717: pe=0.5645 eb=0.0075 ve=0.0000 vn=0.0305 vl=0.000 db=0.28
G1 E94.4482 F1800                       ; restore de=0.4600@30
;00:03:36.732: pe=1.0178 eb=0.0142 ve=30.0000 vn=0.6415 vl=0.000 db=0.38
G1 X-26.40 Y47.00 E96.1516 F3600        ; draw dl=3.60@0<60>60 l=0.30x0.50x7.59
;00:03:36.852: pe=2.5179 eb=0.0235 ve=28.3907 vn=3.8437 vl=60.000 db=0.49
G1 X16.40 Y47.00 E98.7995               ; draw dl=42.80@60<60>60 l=0.30x0.50x0.99
;00:03:37.566: pe=2.4909 eb=0.0244 ve=3.7121 vn=3.7329 vl=60.000 db=0.50
G1 X20.00 Y47.00 E97.5331               ; move dl=3.60@60<60>0 de=-1.2664 h=0.30
;00:03:37.686: pe=1.0295 eb=0.0205 ve=-0.0000 vn=0.2868 vl=0.000 db=0.46
G1 E95.5036 F2400                       ; retract de=-2.0295@40
;00:03:37.737: pe=-1.0003 eb=0.0208 ve=-40.0000 vn=0.0000 vl=0.000 db=0.46
G1 X30.00 Y47.00 F60                    ; move dl=10.00@0<1>1 de=0.0000 h=0.30
;00:03:47.738: pe=-1.0003 eb=0.0000 ve=0.0000 vn=0.0000 vl=1.000 db=0.00
G1 X31.00 Y47.00 E98.6744               ; draw dl=1.00@1<1>1 l=0.30x0.50x50.84
;00:03:48.738: pe=2.0409 eb=0.0883 ve=3.1708 vn=0.3555 vl=1.000 db=0.95
G1 X45.00 Y47.00 E99.6770               ; draw dl=14.00@1<1>0 l=0.30x0.50x1.15
;00:04:02.739: pe=1.5660 eb=0.0573 ve=0.0000 vn=0.0904 vl=0.000 db=0.76
G1 E97.1109 F2400                       ; retract de=-2.5660@40
;00:04:02.803: pe=-1.0000 eb=0.0573 ve=-40.0000 vn=0.0000 vl=0.000 db=0.76
G1 Z0.700 F420                          ; hopup dz=0.40@7 h=0.7
;00:04:02.860: pe=-1.0000 eb=0.0573 ve=0.0000 vn=0.0000 vl=0.000 db=0.50
;00:04:02.860: restoring config Kf=1.0 Kb=2.0 Re=1.0
;00:04:02.860: Test Line StartStop Kf=0.6 Kb=2.0 Re=1.0 vx=60 re=0.0
;00:04:02.860: setting config Kf=0.6 Kb=2.0 Re=1.0
G1 X-45.00 Y45.00 F6000                 ; move dl=90.02@0<100>0 de=0.0000 h=0.70
;00:04:03.960: pe=-1.0000 eb=0.0000 ve=0.0000 vn=0.0000 vl=0.000 db=0.00
G1 Z0.300 F420                          ; hopdn dz=-0.40@7 h=0.3
;00:04:04.017: pe=-1.0000 eb=0.0000 ve=0.0000 vn=0.0000 vl=0.000 db=0.00
G1 E99.1728 F1800                       ; restore de=2.0619@30
;00:04:04.086: pe=1.0502 eb=0.0117 ve=30.0000 vn=0.6004 vl=0.000 db=0.34
G1 X-40.00 Y45.00 E99.4718 F60          ; draw dl=5.00@0<1>1 l=0.30x0.50x0.96
;00:04:09.087: pe=1.0270 eb=0.0240 ve=0.0598 vn=0.0617 vl=1.000 db=0.50
G1 X-30.00 Y45.00                       ; move dl=10.00@1<1>0 de=0.0000 h=0.30
;00:04:19.088: pe=0.5743 eb=0.0076 ve=0.0000 vn=0.0316 vl=0.000 db=0.28
G1 E99.9220 F1800                       ; restore de=0.4502@30
;00:04:19.103: pe=1.0195 eb=0.0125 ve=30.0000 vn=0.5075 vl=0.000 db=0.36
G1 X-26.40 Y45.00 E102.3720 F3600       ; draw dl=3.60@0<60>60 l=0.30x0.50x10.91
;00:04:19.223: pe=3.2735 eb=0.0230 ve=40.8341 vn=3.8391 vl=60.000 db=0.49
G1 X16.40 Y45.00 E105.0127              ; draw dl=42.80@60<60>60 l=0.30x0.50x0.99
;00:04:19.936: pe=3.2380 eb=0.0244 ve=3.7018 vn=3.7335 vl=60.000 db=0.50
G1 X20.00 Y45.00 E102.9992              ; move dl=3.60@60<60>0 de=-2.0135 h=0.30
;00:04:20.056: pe=1.0373 eb=0.0179 ve=-0.0000 vn=0.3033 vl=0.000 db=0.43
G1 E100.9619 F2400                      ; retract de=-2.0373@40
;00:04:20.107: pe=-1.0005 eb=0.0184 ve=-40.0000 vn=0.0000 vl=0.000 db=0.43
G1 X30.00 Y45.00 F60                    ; move dl=10.00@0<1>1 de=0.0000 h=0.30
;00:04:30.108: pe=-1.0005 eb=0.0000 ve=0.0000 vn=0.0000 vl=1.000 db=0.00
G1 X31.00 Y45.00 E104.1578              ; draw dl=1.00@1<1>1 l=0.30x0.50x51.25
;00:04:31.108: pe=2.0699 eb=0.0849 ve=3.1959 vn=0.3463 vl=1.000 db=0.93
G1 X45.00 Y45.00 E105.1514              ; draw dl=14.00@1<1>0 l=0.30x0.50x1.14
;00:04:45.109: pe=1.5830 eb=0.0572 ve=0.0000 vn=0.0914 vl=0.000 db=0.76
G1 E102.5684 F2400                      ; retract de=-2.5830@40
;00:04:45.174: pe=-1.0000 eb=0.0572 ve=-40.0000 vn=0.0000 vl=0.000 db=0.76
G1 Z0.700 F420                          ; hopup dz=0.40@7 h=0.7
;00:04:45.231: pe=-1.0000 eb=0.0572 ve=0.0000 vn=0.0000 vl=0.000 db=0.50
;00:04:45.231: restoring config Kf=1.0 Kb=2.0 Re=1.0
;00:04:45.231: Test Line StartStop Kf=0.8 Kb=2.0 Re=1.0 vx=60 re=0.0
;00:04:45.231: setting config Kf=0.8 Kb=2.0 Re=1.0
G1 X-45.00 Y43.00 F6000                 ; move dl=90.02@0<100>0 de=0.0000 h=0.70
;00:04:46.331: pe=-1.0000 eb=0.0000 ve=0.0000 vn=0.0000 vl=0.000 db=0.00
G1 Z0.300 F420                          ; hopdn dz=-0.40@7 h=0.3
;00:04:46.388: pe=-1.0000 eb=0.0000 ve=0.0000 vn=0.0000 vl=0.000 db=0.00
G1 E104.6428 F1800                      ; restore de=2.0744@30
;00:04:46.457: pe=1.0642 eb=0.0102 ve=30.0000 vn=0.5243 vl=0.000 db=0.32
G1 X-40.00 Y43.00 E104.9403 F60         ; draw dl=5.00@0<1>1 l=0.30x0.50x0.95
;00:04:51.458: pe=1.0384 eb=0.0240 ve=0.0595 vn=0.0616 vl=1.000 db=0.49
G1 X-30.00 Y43.00                       ; move dl=10.00@1<1>0 de=0.0000 h=0.30
;00:05:01.459: pe=0.5844 eb=0.0076 ve=0.0000 vn=0.0323 vl=0.000 db=0.28
G1 E105.3804 F1800                      ; restore de=0.4401@30
;00:05:01.474: pe=1.0206 eb=0.0115 ve=30.0000 vn=0.4176 vl=0.000 db=0.34
G1 X-26.40 Y43.00 E108.5777 F3600       ; draw dl=3.60@0<60>60 l=0.30x0.50x14.24
;00:05:01.594: pe=4.0275 eb=0.0227 ve=53.2888 vn=3.8315 vl=60.000 db=0.48
G1 X16.40 Y43.00 E111.2128              ; draw dl=42.80@60<60>60 l=0.30x0.50x0.99
;00:05:02.307: pe=3.9858 eb=0.0244 ve=3.6940 vn=3.7346 vl=60.000 db=0.50
G1 X20.00 Y43.00 E108.4514              ; move dl=3.60@60<60>0 de=-2.7613 h=0.30
;00:05:02.427: pe=1.0428 eb=0.0158 ve=-0.0000 vn=0.2983 vl=0.000 db=0.40
G1 E106.4086 F2400                      ; retract de=-2.0428@40
;00:05:02.478: pe=-1.0007 eb=0.0165 ve=-40.0000 vn=0.0000 vl=0.000 db=0.41
G1 X30.00 Y43.00 F60                    ; move dl=10.00@0<1>1 de=0.0000 h=0.30
;00:05:12.479: pe=-1.0007 eb=0.0000 ve=0.0000 vn=0.0000 vl=1.000 db=0.00
G1 X31.00 Y43.00 E109.6296              ; draw dl=1.00@1<1>1 l=0.30x0.50x51.65
;00:05:13.479: pe=2.0985 eb=0.0819 ve=3.2210 vn=0.3370 vl=1.000 db=0.91
G1 X45.00 Y43.00 E110.6146              ; draw dl=14.00@1<1>0 l=0.30x0.50x1.13
;00:05:27.480: pe=1.6002 eb=0.0571 ve=0.0000 vn=0.0918 vl=0.000 db=0.76
G1 E108.0145 F2400                      ; retract de=-2.6002@40
;00:05:27.545: pe=-1.0000 eb=0.0571 ve=-40.0000 vn=0.0000 vl=0.000 db=0.76
G1 Z0.700 F420                          ; hopup dz=0.40@7 h=0.7
;00:05:27.603: pe=-1.0000 eb=0.0571 ve=0.0000 vn=0.0000 vl=0.000 db=0.50
;00:05:27.603: restoring config Kf=1.0 Kb=2.0 Re=1.0
;00:05:27.603: Test Line StartStop Kf=1.0 Kb=2.0 Re=1.0 vx=60 re=0.0
;00:05:27.603: setting config Kf=1.0 Kb=2.0 Re=1.0
G1 X-45.00 Y41.00 F6000                 ; move dl=90.02@0<100>0 de=0.0000 h=0.70
;00:05:28.703: pe=-1.0000 eb=0.0000 ve=0.0000 vn=0.0000 vl=0.000 db=0.00
G1 Z0.300 F420                          ; hopdn dz=-0.40@7 h=0.3
;00:05:28.760: pe=-1.0000 eb=0.0000 ve=0.0000 vn=0.0000 vl=0.000 db=0.00
G1 E110.1014 F1800                      ; restore de=2.0869@30
;00:05:28.830: pe=1.0777 eb=0.0091 ve=30.0000 vn=0.4678 vl=0.000 db=0.30
G1 X-40.00 Y41.00 E110.3978 F60         ; draw dl=5.00@0<1>1 l=0.30x0.50x0.95
;00:05:33.831: pe=1.0501 eb=0.0239 ve=0.0593 vn=0.0615 vl=1.000 db=0.49
G1 X-30.00 Y41.00                       ; move dl=10.00@1<1>0 de=0.0000 h=0.30
;00:05:43.832: pe=0.5948 eb=0.0077 ve=0.0000 vn=0.0329 vl=0.000 db=0.28
G1 E110.8275 F1800                      ; restore de=0.4297@30
;00:05:43.846: pe=1.0213 eb=0.0109 ve=30.0000 vn=0.3533 vl=0.000 db=0.33
G1 X-26.40 Y41.00 E114.7725 F3600       ; draw dl=3.60@0<60>60 l=0.30x0.50x17.57
;00:05:43.966: pe=4.7803 eb=0.0224 ve=65.7496 vn=3.8239 vl=60.000 db=0.48
G1 X16.40 Y41.00 E117.4031              ; draw dl=42.80@60<60>60 l=0.30x0.50x0.99
;00:05:44.679: pe=4.7340 eb=0.0244 ve=3.6878 vn=3.7356 vl=60.000 db=0.50
G1 X20.00 Y41.00 E113.8936              ; move dl=3.60@60<60>0 de=-3.5095 h=0.30
;00:05:44.799: pe=1.0470 eb=0.0142 ve=-0.0000 vn=0.2860 vl=0.000 db=0.38
G1 E111.8466 F2400                      ; retract de=-2.0470@40
;00:05:44.850: pe=-1.0008 eb=0.0150 ve=-40.0000 vn=0.0000 vl=0.000 db=0.39
G1 X30.00 Y41.00 F60                    ; move dl=10.00@0<1>1 de=0.0000 h=0.30
;00:05:54.851: pe=-1.0008 eb=0.0000 ve=0.0000 vn=0.0000 vl=1.000 db=0.00
G1 X31.00 Y41.00 E115.0926              ; draw dl=1.00@1<1>1 l=0.30x0.50x52.05
;00:05:55.851: pe=2.1266 eb=0.0792 ve=3.2460 vn=0.3282 vl=1.000 db=0.90
G1 X45.00 Y41.00 E116.0694              ; draw dl=14.00@1<1>0 l=0.30x0.50x1.12
;00:06:09.852: pe=1.6176 eb=0.0570 ve=0.0000 vn=0.0921 vl=0.000 db=0.76
G1 E113.4519 F2400                      ; retract de=-2.6176@40
;00:06:09.918: pe=-1.0001 eb=0.0571 ve=-40.0000 vn=0.0000 vl=0.000 db=0.76
G1 Z0.700 F420                          ; hopup dz=0.40@7 h=0.7
;00:06:09.975: pe=-1.0001 eb=0.0571 ve=0.0000 vn=0.0000 vl=0.000 db=0.50
;00:06:09.975: restoring config Kf=1.0 Kb=2.0 Re=1.0
;00:06:09.975: Test Line StartStop Kf=1.2 Kb=2.0 Re=1.0 vx=60 re=0.0
;00:06:09.975: setting config Kf=1.2 Kb=2.0 Re=1.0
G1 X-45.00 Y39.00 F6000                 ; move dl=90.02@0<100>0 de=0.0000 h=0.70
;00:06:11.075: pe=-1.0001 eb=0.0000 ve=0.0000 vn=0.0000 vl=0.000 db=0.00
G1 Z0.300 F420                          ; hopdn dz=-0.40@7 h=0.3
;00:06:11.132: pe=-1.0001 eb=0.0000 ve=0.0000 vn=0.0000 vl=0.000 db=0.00
G1 E115.5512 F1800                      ; restore de=2.0994@30
;00:06:11.202: pe=1.0910 eb=0.0083 ve=30.0000 vn=0.4238 vl=0.000 db=0.29
G1 X-40.00 Y39.00 E115.8469 F60         ; draw dl=5.00@0<1>1 l=0.30x0.50x0.95
;00:06:16.203: pe=1.0620 eb=0.0239 ve=0.0591 vn=0.0615 vl=1.000 db=0.49
G1 X-30.00 Y39.00                       ; move dl=10.00@1<1>0 de=0.0000 h=0.30
;00:06:26.204: pe=0.6053 eb=0.0078 ve=0.0000 vn=0.0333 vl=0.000 db=0.28
G1 E116.2661 F1800                      ; restore de=0.4192@30
;00:06:26.218: pe=1.0218 eb=0.0105 ve=30.0000 vn=0.3053 vl=0.000 db=0.33
G1 X-26.40 Y39.00 E120.9589 F3600       ; draw dl=3.60@0<60>60 l=0.30x0.50x20.90
;00:06:26.338: pe=5.5322 eb=0.0222 ve=78.2138 vn=3.8171 vl=60.000 db=0.48
G1 X16.40 Y39.00 E123.5860              ; draw dl=42.80@60<60>60 l=0.30x0.50x0.98
;00:06:27.052: pe=5.4825 eb=0.0244 ve=3.6828 vn=3.7365 vl=60.000 db=0.50
G1 X20.00 Y39.00 E119.3280              ; move dl=3.60@60<60>0 de=-4.2579 h=0.30
;00:06:27.172: pe=1.0503 eb=0.0129 ve=-0.0000 vn=0.2715 vl=0.000 db=0.36
G1 E117.2778 F2400                      ; retract de=-2.0503@40
;00:06:27.223: pe=-1.0009 eb=0.0137 ve=-40.0000 vn=0.0000 vl=0.000 db=0.37
G1 X30.00 Y39.00 F60                    ; move dl=10.00@0<1>1 de=0.0000 h=0.30
;00:06:37.224: pe=-1.0009 eb=0.0000 ve=0.0000 vn=0.0000 vl=1.000 db=0.00
G1 X31.00 Y39.00 E120.5488              ; draw dl=1.00@1<1>1 l=0.30x0.50x52.45
;00:06:38.224: pe=2.1545 eb=0.0768 ve=3.2710 vn=0.3200 vl=1.000 db=0.89
G1 X45.00 Y39.00 E121.5178              ; draw dl=14.00@1<1>0 l=0.30x0.50x1.11
;00:06:52.225: pe=1.6352 eb=0.0569 ve=0.0000 vn=0.0922 vl=0.000 db=0.76
G1 E118.8826 F2400                      ; retract de=-2.6352@40
;00:06:52.291: pe=-1.0001 eb=0.0570 ve=-40.0000 vn=0.0000 vl=0.000 db=0.76
G1 Z0.700 F420                          ; hopup dz=0.40@7 h=0.7
;00:06:52.348: pe=-1.0001 eb=0.0570 ve=0.0000 vn=0.0000 vl=0.000 db=0.50
;00:06:52.348: restoring config Kf=1.0 Kb=2.0 Re=1.0
;00:06:52.348: Test Line StartStop Kf=1.4 Kb=2.0 Re=1.0 vx=60 re=0.0
;00:06:52.348: setting config Kf=1.4 Kb=2.0 Re=1.0
G1 X-45.00 Y37.00 F6000                 ; move dl=90.02@0<100>0 de=0.0000 h=0.70
;00:06:53.448: pe=-1.0001 eb=0.0000 ve=0.0000 vn=0.0000 vl=0.000 db=0.00
G1 Z0.300 F420                          ; hopdn dz=-0.40@7 h=0.3
;00:06:53.505: pe=-1.0001 eb=0.0000 ve=0.0000 vn=0.0000 vl=0.000 db=0.00
G1 E120.9945 F1800                      ; restore de=2.1119@30
;00:06:53.576: pe=1.1041 eb=0.0077 ve=30.0000 vn=0.3889 vl=0.000 db=0.28
G1 X-40.00 Y37.00 E121.2895 F60         ; draw dl=5.00@0<1>1 l=0.30x0.50x0.95
;00:06:58.577: pe=1.0741 eb=0.0239 ve=0.0590 vn=0.0615 vl=1.000 db=0.49
G1 X-30.00 Y37.00                       ; move dl=10.00@1<1>0 de=0.0000 h=0.30
;00:07:08.578: pe=0.6159 eb=0.0079 ve=0.0000 vn=0.0336 vl=0.000 db=0.28
G1 E121.6980 F1800                      ; restore de=0.4086@30
;00:07:08.591: pe=1.0222 eb=0.0102 ve=30.0000 vn=0.2684 vl=0.000 db=0.32
G1 X-26.40 Y37.00 E127.1388 F3600       ; draw dl=3.60@0<60>60 l=0.30x0.50x24.23
;00:07:08.711: pe=6.2834 eb=0.0220 ve=90.6800 vn=3.8111 vl=60.000 db=0.47
G1 X16.40 Y37.00 E129.7630              ; draw dl=42.80@60<60>60 l=0.30x0.50x0.98
;00:07:09.425: pe=6.2310 eb=0.0244 ve=3.6788 vn=3.7372 vl=60.000 db=0.50
G1 X20.00 Y37.00 E124.7566              ; move dl=3.60@60<60>0 de=-5.0065 h=0.30
;00:07:09.545: pe=1.0529 eb=0.0118 ve=-0.0000 vn=0.2570 vl=0.000 db=0.35
G1 E122.7037 F2400                      ; retract de=-2.0529@40
;00:07:09.596: pe=-1.0009 eb=0.0127 ve=-40.0000 vn=0.0000 vl=0.000 db=0.36
G1 X30.00 Y37.00 F60                    ; move dl=10.00@0<1>1 de=0.0000 h=0.30
;00:07:19.597: pe=-1.0009 eb=0.0000 ve=0.0000 vn=0.0000 vl=1.000 db=0.00
G1 X31.00 Y37.00 E125.9996              ; draw dl=1.00@1<1>1 l=0.30x0.50x52.85
;00:07:20.597: pe=2.1821 eb=0.0745 ve=3.2959 vn=0.3124 vl=1.000 db=0.87
G1 X45.00 Y37.00 E126.9611              ; draw dl=14.00@1<1>0 l=0.30x0.50x1.10
;00:07:34.598: pe=1.6530 eb=0.0569 ve=0.0000 vn=0.0923 vl=0.000 db=0.76
G1 E124.3081 F2400                      ; retract de=-2.6530@40
;00:07:34.664: pe=-1.0001 eb=0.0570 ve=-40.0000 vn=0.0000 vl=0.000 db=0.76
G1 Z0.700 F420                          ; hopup dz=0.40@7 h=0.7
;00:07:34.721: pe=-1.0001 eb=0.0570 ve=0.0000 vn=0.0000 vl=0.000 db=0.50
;00:07:34.721: restoring config Kf=1.0 Kb=2.0 Re=1.0
;00:07:34.721: Test Line StartStop Kf=1.6 Kb=2.0 Re=1.0 vx=60 re=0.0
;00:07:34.721: setting config Kf=1.6 Kb=2.0 Re=1.0
G1 X-45.00 Y35.00 F6000                 ; move dl=90.02@0<100>0 de=0.0000 h=0.70
;00:07:35.822: pe=-1.0001 eb=0.0000 ve=0.0000 vn=0.0000 vl=0.000 db=0.00
G1 Z0.300 F420                          ; hopdn dz=-0.40@7 h=0.3
;00:07:35.879: pe=-1.0001 eb=0.0000 ve=0.0000 vn=0.0000 vl=0.000 db=0.00
G1 E126.4325 F1800                      ; restore de=2.1244@30
;00:07:35.950: pe=1.1171 eb=0.0072 ve=30.0000 vn=0.3602 vl=0.000 db=0.27
G1 X-40.00 Y35.00 E126.7270 F60         ; draw dl=5.00@0<1>1 l=0.30x0.50x0.94
;00:07:40.951: pe=1.0863 eb=0.0239 ve=0.0589 vn=0.0615 vl=1.000 db=0.49
G1 X-30.00 Y35.00                       ; move dl=10.00@1<1>0 de=0.0000 h=0.30
;00:07:50.952: pe=0.6266 eb=0.0080 ve=0.0000 vn=0.0340 vl=0.000 db=0.29
G1 E127.1248 F1800                      ; restore de=0.3979@30
;00:07:50.965: pe=1.0225 eb=0.0100 ve=30.0000 vn=0.2390 vl=0.000 db=0.32
G1 X-26.40 Y35.00 E133.3137 F3600       ; draw dl=3.60@0<60>60 l=0.30x0.50x27.57
;00:07:51.085: pe=7.0342 eb=0.0219 ve=103.1476 vn=3.8058 vl=60.000 db=0.47
G1 X16.40 Y35.00 E135.9355              ; draw dl=42.80@60<60>60 l=0.30x0.50x0.98
;00:07:51.798: pe=6.9796 eb=0.0244 ve=3.6754 vn=3.7378 vl=60.000 db=0.50
G1 X20.00 Y35.00 E130.1804              ; move dl=3.60@60<60>0 de=-5.7550 h=0.30
;00:07:51.918: pe=1.0550 eb=0.0109 ve=-0.0000 vn=0.2432 vl=0.000 db=0.33
G1 E128.1254 F2400                      ; retract de=-2.0550@40
;00:07:51.970: pe=-1.0010 eb=0.0118 ve=-40.0000 vn=0.0000 vl=0.000 db=0.35
G1 X30.00 Y35.00 F60                    ; move dl=10.00@0<1>1 de=0.0000 h=0.30
;00:08:01.971: pe=-1.0010 eb=0.0000 ve=0.0000 vn=0.0000 vl=1.000 db=0.00
G1 X31.00 Y35.00 E131.4463              ; draw dl=1.00@1<1>1 l=0.30x0.50x53.25
;00:08:02.971: pe=2.2094 eb=0.0725 ve=3.3209 vn=0.3053 vl=1.000 db=0.86
G1 X45.00 Y35.00 E132.4004              ; draw dl=14.00@1<1>0 l=0.30x0.50x1.09
;00:08:16.972: pe=1.6709 eb=0.0568 ve=0.0000 vn=0.0924 vl=0.000 db=0.76
G1 E129.7295 F2400                      ; retract de=-2.6709@40
;00:08:17.038: pe=-1.0001 eb=0.0569 ve=-40.0000 vn=0.0000 vl=0.000 db=0.76
G1 Z0.700 F420                          ; hopup dz=0.40@7 h=0.7
;00:08:17.095: pe=-1.0001 eb=0.0569 ve=0.0000 vn=0.0000 vl=0.000 db=0.50
;00:08:17.095: restoring config Kf=1.0 Kb=2.0 Re=1.0
;00:08:17.095: Test Line StartStop Kf=1.8 Kb=2.0 Re=1.0 vx=60 re=0.0
;00:08:17.095: setting config Kf=1.8 Kb=2.0 Re=1.0
G1 X-45.00 Y33.00 F6000                 ; move dl=90.02@0<100>0 de=0.0000 h=0.70
;00:08:18.196: pe=-1.0001 eb=0.0000 ve=0.0000 vn=0.0000 vl=0.000 db=0.00
G1 Z0.300 F420                          ; hopdn dz=-0.40@7 h=0.3
;00:08:18.253: pe=-1.0001 eb=0.0000 ve=0.0000 vn=0.0000 vl=0.000 db=0.00
G1 E131.8663 F1800                      ; restore de=2.1368@30
;00:08:18.324: pe=1.1300 eb=0.0067 ve=30.0000 vn=0.3363 vl=0.000 db=0.26
G1 X-40.00 Y33.00 E132.1604 F60         ; draw dl=5.00@0<1>1 l=0.30x0.50x0.94
;00:08:23.325: pe=1.0985 eb=0.0239 ve=0.0588 vn=0.0615 vl=1.000 db=0.49
G1 X-30.00 Y33.00                       ; move dl=10.00@1<1>0 de=0.0000 h=0.30
;00:08:33.326: pe=0.6374 eb=0.0081 ve=0.0000 vn=0.0343 vl=0.000 db=0.29
G1 E132.5475 F1800                      ; restore de=0.3871@30
;00:08:33.339: pe=1.0227 eb=0.0099 ve=30.0000 vn=0.2151 vl=0.000 db=0.32
G1 X-26.40 Y33.00 E139.4845 F3600       ; draw dl=3.60@0<60>60 l=0.30x0.50x30.90
;00:08:33.459: pe=7.7846 eb=0.0217 ve=115.6162 vn=3.8013 vl=60.000 db=0.47
G1 X16.40 Y33.00 E142.1042              ; draw dl=42.80@60<60>60 l=0.30x0.50x0.98
;00:08:34.172: pe=7.7282 eb=0.0244 ve=3.6725 vn=3.7383 vl=60.000 db=0.50
G1 X20.00 Y33.00 E135.6006              ; move dl=3.60@60<60>0 de=-6.5036 h=0.30
;00:08:34.292: pe=1.0568 eb=0.0101 ve=-0.0000 vn=0.2304 vl=0.000 db=0.32
G1 E133.5438 F2400                      ; retract de=-2.0568@40
;00:08:34.344: pe=-1.0010 eb=0.0111 ve=-40.0000 vn=0.0000 vl=0.000 db=0.34
G1 X30.00 Y33.00 F60                    ; move dl=10.00@0<1>1 de=0.0000 h=0.30
;00:08:44.345: pe=-1.0010 eb=0.0000 ve=0.0000 vn=0.0000 vl=1.000 db=0.00
G1 X31.00 Y33.00 E136.8896              ; draw dl=1.00@1<1>1 l=0.30x0.50x53.65
;00:08:45.345: pe=2.2366 eb=0.0707 ve=3.3458 vn=0.2988 vl=1.000 db=0.85
G1 X45.00 Y33.00 E137.8365              ; draw dl=14.00@1<1>0 l=0.30x0.50x1.08
;00:08:59.346: pe=1.6890 eb=0.0568 ve=0.0000 vn=0.0924 vl=0.000 db=0.76
G1 E135.1476 F2400                      ; retract de=-2.6890@40
;00:08:59.413: pe=-1.0001 eb=0.0569 ve=-40.0000 vn=0.0000 vl=0.000 db=0.76
G1 Z0.700 F420                          ; hopup dz=0.40@7 h=0.7
;00:08:59.470: pe=-1.0001 eb=0.0569 ve=0.0000 vn=0.0000 vl=0.000 db=0.50
;00:08:59.470: restoring config Kf=1.0 Kb=2.0 Re=1.0
;00:08:59.470: Test Line StartStop Kf=2.0 Kb=2.0 Re=1.0 vx=60 re=0.0
;00:08:59.470: setting config Kf=2.0 Kb=2.0 Re=1.0
G1 X-45.00 Y31.00 F6000                 ; move dl=90.02@0<100>0 de=0.0000 h=0.70
;00:09:00.570: pe=-1.0001 eb=0.0000 ve=0.0000 vn=0.0000 vl=0.000 db=0.00
G1 Z0.300 F420                          ; hopdn dz=-0.40@7 h=0.3
;00:09:00.627: pe=-1.0001 eb=0.0000 ve=0.0000 vn=0.0000 vl=0.000 db=0.00
G1 E137.2969 F1800                      ; restore de=2.1493@30
;00:09:00.699: pe=1.1428 eb=0.0064 ve=30.0000 vn=0.3160 vl=0.000 db=0.26
G1 X-40.00 Y31.00 E137.5906 F60         ; draw dl=5.00@0<1>1 l=0.30x0.50x0.94
;00:09:05.700: pe=1.1108 eb=0.0239 ve=0.0587 vn=0.0615 vl=1.000 db=0.49
G1 X-30.00 Y31.00                       ; move dl=10.00@1<1>0 de=0.0000 h=0.30
;00:09:15.701: pe=0.6482 eb=0.0082 ve=0.0000 vn=0.0345 vl=0.000 db=0.29
G1 E137.9669 F1800                      ; restore de=0.3762@30
;00:09:15.714: pe=1.0229 eb=0.0098 ve=30.0000 vn=0.1952 vl=0.000 db=0.32
G1 X-26.40 Y31.00 E145.6520 F3600       ; draw dl=3.60@0<60>60 l=0.30x0.50x34.23
;00:09:15.834: pe=8.5347 eb=0.0216 ve=128.0855 vn=3.7973 vl=60.000 db=0.47
G1 X16.40 Y31.00 E148.2700              ; draw dl=42.80@60<60>60 l=0.30x0.50x0.98
;00:09:16.547: pe=8.4768 eb=0.0245 ve=3.6701 vn=3.7387 vl=60.000 db=0.50
G1 X20.00 Y31.00 E141.0177              ; move dl=3.60@60<60>0 de=-7.2523 h=0.30
;00:09:16.667: pe=1.0583 eb=0.0094 ve=-0.0000 vn=0.2187 vl=0.000 db=0.31
G1 E138.9595 F2400                      ; retract de=-2.0583@40
;00:09:16.718: pe=-1.0010 eb=0.0104 ve=-40.0000 vn=0.0000 vl=0.000 db=0.33
G1 X30.00 Y31.00 F60                    ; move dl=10.00@0<1>1 de=0.0000 h=0.30
;00:09:26.719: pe=-1.0010 eb=0.0000 ve=0.0000 vn=0.0000 vl=1.000 db=0.00
G1 X31.00 Y31.00 E142.3302              ; draw dl=1.00@1<1>1 l=0.30x0.50x54.05
;00:09:27.719: pe=2.2635 eb=0.0690 ve=3.3707 vn=0.2927 vl=1.000 db=0.84
G1 X45.00 Y31.00 E143.2702              ; draw dl=14.00@1<1>0 l=0.30x0.50x1.08
;00:09:41.720: pe=1.7071 eb=0.0567 ve=0.0000 vn=0.0925 vl=0.000 db=0.76
G1 E140.5630 F2400                      ; retract de=-2.7071@40
;00:09:41.788: pe=-1.0002 eb=0.0569 ve=-40.0000 vn=0.0000 vl=0.000 db=0.76
G1 Z0.700 F420                          ; hopup dz=0.40@7 h=0.7
;00:09:41.845: pe=-1.0002 eb=0.0569 ve=0.0000 vn=0.0000 vl=0.000 db=0.50
;00:09:41.845: restoring config Kf=1.0 Kb=2.0 Re=1.0
;structure:brim
;00:09:41.845: text x0=46.0 y0=55 fsize=5 angle=0 'Kf=0.0-2.0\nKb=2.0\nRe=1.0\nvx=60\nre=0.0'
G1 X46.50 Y54.88 F4641                  ; move dl=23.93@0<77>0 de=0.0000 h=0.70
;00:09:42.309: pe=-1.0002 eb=0.0000 ve=0.0000 vn=0.0000 vl=0.000 db=0.00
G1 Z0.300 F420                          ; hopdn dz=-0.40@7 h=0.3
;00:09:42.366: pe=-1.0002 eb=0.0000 ve=0.0000 vn=0.0000 vl=0.000 db=0.00
G1 E143.1767 F1800                      ; restore de=2.6136@30
;00:09:42.454: pe=1.5937 eb=0.0197 ve=30.0000 vn=0.6961 vl=0.000 db=0.45
G1 X46.50 Y51.48 E143.3839 F600         ; draw dl=3.40@0<10>0 l=0.30x0.50x0.98
;00:09:42.814: pe=1.5834 eb=0.0287 ve=0.0000 vn=0.5004 vl=0.000 db=0.54
G1 E140.8005 F2400                      ; retract de=-2.5834@40
;00:09:42.878: pe=-1.0025 eb=0.0312 ve=-40.0000 vn=0.0000 vl=0.000 db=0.56
G1 Z0.700 F420                          ; hopup dz=0.40@7 h=0.7
;00:09:42.935: pe=-1.0025 eb=0.0312 ve=0.0000 vn=0.0000 vl=0.000 db=0.37
G1 X48.96 Y51.48 F1488                  ; move dl=2.46@0<25>0 de=0.0000 h=0.70
;00:09:43.084: pe=-1.0025 eb=0.0000 ve=0.0000 vn=0.0000 vl=0.000 db=0.00
G1 Z0.300 F420                          ; hopdn dz=-0.40@7 h=0.3
;00:09:43.141: pe=-1.0025 eb=0.0000 ve=0.0000 vn=0.0000 vl=0.000 db=0.00
G1 E143.4052 F1800                      ; restore de=2.6048@30
;00:09:43.228: pe=1.5828 eb=0.0195 ve=30.0000 vn=0.6913 vl=0.000 db=0.45
G1 X47.47 Y53.51 E143.5572 F600         ; draw dl=2.52@0<10>0 l=0.30x0.50x0.97
;00:09:43.500: pe=1.5722 eb=0.0284 ve=0.0000 vn=0.4962 vl=0.000 db=0.54
G1 E140.9850 F2400                      ; retract de=-2.5722@40
;00:09:43.564: pe=-1.0025 eb=0.0308 ve=-40.0000 vn=0.0000 vl=0.000 db=0.56
G1 Z0.700 F420                          ; hopup dz=0.40@7 h=0.7
;00:09:43.621: pe=-1.0025 eb=0.0308 ve=0.0000 vn=0.0000 vl=0.000 db=0.37
G1 X46.50 Y52.67 F1075                  ; move dl=1.28@0<18>0 de=0.0000 h=0.70
;00:09:43.729: pe=-1.0025 eb=0.0000 ve=0.0000 vn=0.0000 vl=0.000 db=0.00
G1 Z0.300 F420                          ; hopdn dz=-0.40@7 h=0.3
;00:09:43.786: pe=-1.0025 eb=0.0000 ve=0.0000 vn=0.0000 vl=0.000 db=0.00
G1 E143.6005 F1800                      ; restore de=2.6155@30
;00:09:43.873: pe=1.5933 eb=0.0197 ve=30.0000 vn=0.6959 vl=0.000 db=0.45
G1 X49.02 Y54.88 E143.8048 F600         ; draw dl=3.35@0<10>0 l=0.30x0.50x0.98
;00:09:44.228: pe=1.5830 eb=0.0287 ve=0.0000 vn=0.5002 vl=0.000 db=0.54
G1 E141.2218 F2400                      ; retract de=-2.5830@40
;00:09:44.293: pe=-1.0025 eb=0.0312 ve=-40.0000 vn=0.0000 vl=0.000 db=0.56
G1 Z0.700 F420                          ; hopup dz=0.40@7 h=0.7
;00:09:44.350: pe=-1.0025 eb=0.0312 ve=0.0000 vn=0.0000 vl=0.000 db=0.37
G1 X51.27 Y54.90 F1423                  ; move dl=2.25@0<24>0 de=0.0000 h=0.70
;00:09:44.492: pe=-1.0025 eb=0.0000 ve=0.0000 vn=0.0000 vl=0.000 db=0.00
G1 Z0.300 F420                          ; hopdn dz=-0.40@7 h=0.3
;00:09:44.549: pe=-1.0025 eb=0.0000 ve=0.0000 vn=0.0000 vl=0.000 db=0.00
G1 E143.6229 F1800                      ; restore de=2.4011@30
;00:09:44.629: pe=1.3837 eb=0.0149 ve=30.0000 vn=0.6032 vl=0.000 db=0.39
G1 X51.12 Y54.90 E143.6227 F600         ; move dl=0.15@0<10>10 de=-0.0002 h=0.30
;00:09:44.654: pe=1.3708 eb=0.0193 ve=-0.0143 vn=0.4834 vl=10.000 db=0.44
G1 X50.94 Y54.86 E143.8870              ; draw dl=0.18@10<10>10 l=0.30x0.50x22.98
;00:09:44.673: pe=1.6238 eb=0.0203 ve=14.3339 vn=0.7124 vl=10.000 db=0.46
G1 X50.78 Y54.73 E143.8996              ; draw dl=0.21@10<10>10 l=0.30x0.50x0.98
;00:09:44.694: pe=1.6223 eb=0.0225 ve=0.6126 vn=0.6647 vl=10.000 db=0.48
G1 X50.66 Y54.54 E143.9150              ; draw dl=0.22@10<10>10 l=0.30x0.50x1.09
;00:09:44.716: pe=1.6229 eb=0.0235 ve=0.6821 vn=0.6427 vl=10.000 db=0.49
G1 X50.58 Y54.17 E143.9392              ; draw dl=0.38@10<10>10 l=0.30x0.50x1.03
;00:09:44.754: pe=1.6232 eb=0.0242 ve=0.6410 vn=0.6289 vl=10.000 db=0.50
G1 X50.58 Y51.48 E144.0851              ; draw dl=2.69@10<10>0 l=0.30x0.50x0.87
;00:09:45.033: pe=1.5972 eb=0.0292 ve=0.0000 vn=0.5045 vl=0.000 db=0.55
G1 E141.4879 F2400                      ; retract de=-2.5972@40
;00:09:45.098: pe=-1.0026 eb=0.0318 ve=-40.0000 vn=0.0000 vl=0.000 db=0.57
G1 Z0.700 F420                          ; hopup dz=0.40@7 h=0.7
;00:09:45.155: pe=-1.0026 eb=0.0318 ve=0.0000 vn=0.0000 vl=0.000 db=0.37
G1 X50.08 Y53.76 F1449                  ; move dl=2.33@0<24>0 de=0.0000 h=0.70
;00:09:45.300: pe=-1.0026 eb=0.0000 ve=0.0000 vn=0.0000 vl=0.000 db=0.00
G1 Z0.300 F420                          ; hopdn dz=-0.40@7 h=0.3
;00:09:45.357: pe=-1.0026 eb=0.0000 ve=0.0000 vn=0.0000 vl=0.000 db=0.00
G1 E144.0411 F1800                      ; restore de=2.5532@30
;00:09:45.442: pe=1.5324 eb=0.0183 ve=30.0000 vn=0.6690 vl=0.000 db=0.43
G1 X51.16 Y53.76 E144.1023 F600         ; draw dl=1.08@0<10>0 l=0.30x0.50x0.91
;00:09:45.570: pe=1.5207 eb=0.0267 ve=0.0000 vn=0.4759 vl=0.000 db=0.52
G1 E141.5816 F2400                      ; retract de=-2.5207@40
;00:09:45.633: pe=-1.0023 eb=0.0290 ve=-40.0000 vn=0.0000 vl=0.000 db=0.54
G1 Z0.700 F420                          ; hopup dz=0.40@7 h=0.7
;00:09:45.690: pe=-1.0023 eb=0.0290 ve=0.0000 vn=0.0000 vl=0.000 db=0.36
G1 X52.34 Y53.26 F1074                  ; move dl=1.28@0<18>0 de=0.0000 h=0.70
;00:09:45.798: pe=-1.0023 eb=0.0000 ve=0.0000 vn=0.0000 vl=0.000 db=0.00
G1 Z0.300 F420                          ; hopdn dz=-0.40@7 h=0.3
;00:09:45.855: pe=-1.0023 eb=0.0000 ve=0.0000 vn=0.0000 vl=0.000 db=0.00
G1 E144.1660 F1800                      ; restore de=2.5844@30
;00:09:45.941: pe=1.5631 eb=0.0190 ve=30.0000 vn=0.6826 vl=0.000 db=0.44
G1 X54.03 Y53.26 E144.2659 F600         ; draw dl=1.69@0<10>0 l=0.30x0.50x0.95
;00:09:46.130: pe=1.5521 eb=0.0277 ve=0.0000 vn=0.4886 vl=0.000 db=0.53
G1 E141.7138 F2400                      ; retract de=-2.5521@40
;00:09:46.194: pe=-1.0024 eb=0.0301 ve=-40.0000 vn=0.0000 vl=0.000 db=0.55
G1 Z0.700 F420                          ; hopup dz=0.40@7 h=0.7
;00:09:46.251: pe=-1.0024 eb=0.0301 ve=0.0000 vn=0.0000 vl=0.000 db=0.36
G1 X54.03 Y52.55 F799                   ; move dl=0.71@0<13>0 de=0.0000 h=0.70
;00:09:46.331: pe=-1.0024 eb=0.0000 ve=0.0000 vn=0.0000 vl=0.000 db=0.00
G1 Z0.300 F420                          ; hopdn dz=-0.40@7 h=0.3
;00:09:46.388: pe=-1.0024 eb=0.0000 ve=0.0000 vn=0.0000 vl=0.000 db=0.00
G1 E144.2983 F1800                      ; restore de=2.5845@30
;00:09:46.474: pe=1.5631 eb=0.0190 ve=30.0000 vn=0.6826 vl=0.000 db=0.44
G1 X52.34 Y52.55 E144.3982 F600         ; draw dl=1.69@0<10>0 l=0.30x0.50x0.95
;00:09:46.663: pe=1.5521 eb=0.0277 ve=0.0000 vn=0.4886 vl=0.000 db=0.53
G1 E141.8461 F2400                      ; retract de=-2.5521@40
;00:09:46.727: pe=-1.0024 eb=0.0301 ve=-40.0000 vn=0.0000 vl=0.000 db=0.55
G1 Z0.700 F420                          ; hopup dz=0.40@7 h=0.7
;00:09:46.784: pe=-1.0024 eb=0.0301 ve=0.0000 vn=0.0000 vl=0.000 db=0.36
G1 X56.31 Y54.94 F2042                  ; move dl=4.63@0<34>0 de=0.0000 h=0.70
;00:09:46.988: pe=-1.0024 eb=0.0000 ve=0.0000 vn=0.0000 vl=0.000 db=0.00
G1 Z0.300 F420                          ; hopdn dz=-0.40@7 h=0.3
;00:09:47.045: pe=-1.0024 eb=0.0000 ve=0.0000 vn=0.0000 vl=0.000 db=0.00
G1 E144.3975 F1800                      ; restore de=2.5514@30
;00:09:47.130: pe=1.5308 eb=0.0182 ve=30.0000 vn=0.6682 vl=0.000 db=0.43
G1 X56.82 Y54.80 E144.4242 F600         ; draw dl=0.53@0<10>10 l=0.30x0.50x0.81
;00:09:47.193: pe=1.5219 eb=0.0220 ve=0.5051 vn=0.5737 vl=10.000 db=0.47
G1 X57.21 Y54.42 E144.5599              ; draw dl=0.54@10<10>10 l=0.30x0.50x4.00
;00:09:47.248: pe=1.6239 eb=0.0233 ve=2.4927 vn=0.6496 vl=10.000 db=0.49
G1 X57.45 Y53.86 E144.5976              ; draw dl=0.61@10<10>10 l=0.30x0.50x0.99
;00:09:47.309: pe=1.6230 eb=0.0243 ve=0.6186 vn=0.6264 vl=10.000 db=0.50
G1 X57.53 Y53.18 E144.6410              ; draw dl=0.68@10<10>10 l=0.30x0.50x1.02
;00:09:47.377: pe=1.6235 eb=0.0245 ve=0.6333 vn=0.6240 vl=10.000 db=0.50
G1 X57.45 Y52.51 E144.6831              ; draw dl=0.67@10<10>10 l=0.30x0.50x1.00
;00:09:47.445: pe=1.6236 eb=0.0245 ve=0.6250 vn=0.6237 vl=10.000 db=0.50
G1 X57.21 Y51.95 E144.7211              ; draw dl=0.61@10<10>10 l=0.30x0.50x1.00
;00:09:47.506: pe=1.6236 eb=0.0245 ve=0.6235 vn=0.6236 vl=10.000 db=0.50
G1 X56.82 Y51.56 E144.7555              ; draw dl=0.55@10<10>10 l=0.30x0.50x1.00
;00:09:47.561: pe=1.6236 eb=0.0245 ve=0.6240 vn=0.6236 vl=10.000 db=0.50
G1 X56.31 Y51.42 E144.7885              ; draw dl=0.53@10<10>10 l=0.30x0.50x1.00
;00:09:47.614: pe=1.6236 eb=0.0245 ve=0.6238 vn=0.6236 vl=10.000 db=0.50
G1 X55.79 Y51.56 E144.8221              ; draw dl=0.54@10<10>10 l=0.30x0.50x1.00
;00:09:47.668: pe=1.6236 eb=0.0245 ve=0.6229 vn=0.6236 vl=10.000 db=0.50
G1 X55.41 Y51.95 E144.8561              ; draw dl=0.54@10<10>10 l=0.30x0.50x1.00
;00:09:47.722: pe=1.6236 eb=0.0245 ve=0.6243 vn=0.6236 vl=10.000 db=0.50
G1 X55.17 Y52.51 E144.8940              ; draw dl=0.61@10<10>10 l=0.30x0.50x1.00
;00:09:47.783: pe=1.6236 eb=0.0245 ve=0.6232 vn=0.6236 vl=10.000 db=0.50
G1 X55.09 Y53.18 E144.9361              ; draw dl=0.67@10<10>10 l=0.30x0.50x1.00
;00:09:47.850: pe=1.6236 eb=0.0245 ve=0.6239 vn=0.6236 vl=10.000 db=0.50
G1 X55.17 Y53.85 E144.9782              ; draw dl=0.67@10<10>10 l=0.30x0.50x1.00
;00:09:47.918: pe=1.6236 eb=0.0245 ve=0.6236 vn=0.6236 vl=10.000 db=0.50
G1 X55.41 Y54.42 E145.0168              ; draw dl=0.62@10<10>10 l=0.30x0.50x1.00
;00:09:47.980: pe=1.6236 eb=0.0245 ve=0.6234 vn=0.6236 vl=10.000 db=0.50
G1 X55.79 Y54.80 E145.0503              ; draw dl=0.54@10<10>10 l=0.30x0.50x1.00
;00:09:48.033: pe=1.6236 eb=0.0245 ve=0.6240 vn=0.6236 vl=10.000 db=0.50
G1 X56.31 Y54.94 E144.9862              ; move dl=0.54@10<10>0 de=-0.0641 h=0.30
;00:09:48.097: pe=1.5230 eb=0.0278 ve=-0.0000 vn=0.4582 vl=0.000 db=0.53
G1 E142.4632 F2400                      ; retract de=-2.5230@40
;00:09:48.160: pe=-1.0021 eb=0.0299 ve=-40.0000 vn=0.0000 vl=0.000 db=0.55
G1 Z0.700 F420                          ; hopup dz=0.40@7 h=0.7
;00:09:48.218: pe=-1.0021 eb=0.0299 ve=0.0000 vn=0.0000 vl=0.000 db=0.36
G1 X58.59 Y51.71 F1886                  ; move dl=3.95@0<31>0 de=0.0000 h=0.70
;00:09:48.406: pe=-1.0021 eb=0.0000 ve=0.0000 vn=0.0000 vl=0.000 db=0.00
G1 Z0.300 F420                          ; hopdn dz=-0.40@7 h=0.3
;00:09:48.463: pe=-1.0021 eb=0.0000 ve=0.0000 vn=0.0000 vl=0.000 db=0.00
G1 E144.6509 F1800                      ; restore de=2.1877@30
;00:09:48.536: pe=1.1748 eb=0.0108 ve=30.0000 vn=0.5107 vl=0.000 db=0.33
G1 X58.59 Y51.65 E144.6410 F232         ; move dl=0.06@0<4>0 de=-0.0100 h=0.30
;00:09:48.559: pe=1.1555 eb=0.0173 ve=-0.0000 vn=0.3154 vl=0.000 db=0.42
G1 E142.4855 F2400                      ; retract de=-2.1555@40
;00:09:48.613: pe=-1.0010 eb=0.0183 ve=-40.0000 vn=0.0000 vl=0.000 db=0.43
G1 Z0.700 F420                          ; hopup dz=0.40@7 h=0.7
;00:09:48.670: pe=-1.0010 eb=0.0183 ve=0.0000 vn=0.0000 vl=0.000 db=0.28
G1 X60.87 Y54.94 F1898                  ; move dl=4.00@0<32>0 de=0.0000 h=0.70
;00:09:48.860: pe=-1.0010 eb=0.0000 ve=0.0000 vn=0.0000 vl=0.000 db=0.00
G1 Z0.300 F420                          ; hopdn dz=-0.40@7 h=0.3
;00:09:48.917: pe=-1.0010 eb=0.0000 ve=0.0000 vn=0.0000 vl=0.000 db=0.00
G1 E145.0354 F1800                      ; restore de=2.5500@30
;00:09:49.002: pe=1.5308 eb=0.0182 ve=30.0000 vn=0.6682 vl=0.000 db=0.43
G1 X61.38 Y54.80 E145.0621 F600         ; draw dl=0.53@0<10>10 l=0.30x0.50x0.81
;00:09:49.065: pe=1.5219 eb=0.0220 ve=0.5051 vn=0.5737 vl=10.000 db=0.47
G1 X61.77 Y54.42 E145.1979              ; draw dl=0.54@10<10>10 l=0.30x0.50x4.00
;00:09:49.120: pe=1.6239 eb=0.0233 ve=2.4927 vn=0.6496 vl=10.000 db=0.49
G1 X62.01 Y53.86 E145.2356              ; draw dl=0.61@10<10>10 l=0.30x0.50x0.99
;00:09:49.181: pe=1.6230 eb=0.0243 ve=0.6187 vn=0.6264 vl=10.000 db=0.50
G1 X62.09 Y53.18 E145.2789              ; draw dl=0.68@10<10>10 l=0.30x0.50x1.02
;00:09:49.249: pe=1.6235 eb=0.0245 ve=0.6332 vn=0.6240 vl=10.000 db=0.50
G1 X62.01 Y52.51 E145.3211              ; draw dl=0.67@10<10>10 l=0.30x0.50x1.00
;00:09:49.317: pe=1.6236 eb=0.0245 ve=0.6250 vn=0.6237 vl=10.000 db=0.50
G1 X61.77 Y51.95 E145.3591              ; draw dl=0.61@10<10>10 l=0.30x0.50x1.00
;00:09:49.378: pe=1.6236 eb=0.0245 ve=0.6235 vn=0.6236 vl=10.000 db=0.50
G1 X61.38 Y51.56 E145.3935              ; draw dl=0.55@10<10>10 l=0.30x0.50x1.00
;00:09:49.433: pe=1.6236 eb=0.0245 ve=0.6241 vn=0.6236 vl=10.000 db=0.50
G1 X60.87 Y51.42 E145.4265              ; draw dl=0.53@10<10>10 l=0.30x0.50x1.00
;00:09:49.486: pe=1.6236 eb=0.0245 ve=0.6238 vn=0.6236 vl=10.000 db=0.50
G1 X60.35 Y51.56 E145.4600              ; draw dl=0.54@10<10>10 l=0.30x0.50x1.00
;00:09:49.539: pe=1.6236 eb=0.0245 ve=0.6229 vn=0.6236 vl=10.000 db=0.50
G1 X59.97 Y51.95 E145.4940              ; draw dl=0.54@10<10>10 l=0.30x0.50x1.00
;00:09:49.594: pe=1.6236 eb=0.0245 ve=0.6243 vn=0.6236 vl=10.000 db=0.50
G1 X59.73 Y52.51 E145.5320              ; draw dl=0.61@10<10>10 l=0.30x0.50x1.00
;00:09:49.655: pe=1.6236 eb=0.0245 ve=0.6232 vn=0.6236 vl=10.000 db=0.50
G1 X59.65 Y53.18 E145.5741              ; draw dl=0.67@10<10>10 l=0.30x0.50x1.00
;00:09:49.722: pe=1.6236 eb=0.0245 ve=0.6239 vn=0.6236 vl=10.000 db=0.50
G1 X59.73 Y53.85 E145.6162              ; draw dl=0.67@10<10>10 l=0.30x0.50x1.00
;00:09:49.790: pe=1.6236 eb=0.0245 ve=0.6236 vn=0.6236 vl=10.000 db=0.50
G1 X59.97 Y54.42 E145.6547              ; draw dl=0.62@10<10>10 l=0.30x0.50x1.00
;00:09:49.852: pe=1.6236 eb=0.0245 ve=0.6234 vn=0.6236 vl=10.000 db=0.50
G1 X60.35 Y54.80 E145.6883              ; draw dl=0.54@10<10>10 l=0.30x0.50x1.00
;00:09:49.905: pe=1.6236 eb=0.0245 ve=0.6240 vn=0.6236 vl=10.000 db=0.50
G1 X60.87 Y54.94 E145.6241              ; move dl=0.54@10<10>0 de=-0.0641 h=0.30
;00:09:49.969: pe=1.5230 eb=0.0278 ve=-0.0000 vn=0.4582 vl=0.000 db=0.53
G1 E143.1012 F2400                      ; retract de=-2.5230@40
;00:09:50.032: pe=-1.0021 eb=0.0299 ve=-40.0000 vn=0.0000 vl=0.000 db=0.55
G1 Z0.700 F420                          ; hopup dz=0.40@7 h=0.7
;00:09:50.089: pe=-1.0021 eb=0.0299 ve=0.0000 vn=0.0000 vl=0.000 db=0.36
G1 X63.16 Y52.90 F1661                  ; move dl=3.07@0<28>0 de=0.0000 h=0.70
;00:09:50.256: pe=-1.0021 eb=0.0000 ve=0.0000 vn=0.0000 vl=0.000 db=0.00
G1 Z0.300 F420                          ; hopdn dz=-0.40@7 h=0.3
;00:09:50.313: pe=-1.0021 eb=0.0000 ve=0.0000 vn=0.0000 vl=0.000 db=0.00
G1 E145.6911 F1800                      ; restore de=2.5900@30
;00:09:50.399: pe=1.5687 eb=0.0191 ve=30.0000 vn=0.6851 vl=0.000 db=0.44
G1 X65.03 Y52.90 E145.8024 F600         ; draw dl=1.87@0<10>0 l=0.30x0.50x0.95
;00:09:50.606: pe=1.5578 eb=0.0279 ve=0.0000 vn=0.4908 vl=0.000 db=0.53
G1 E143.2446 F2400                      ; retract de=-2.5578@40
;00:09:50.670: pe=-1.0024 eb=0.0303 ve=-40.0000 vn=0.0000 vl=0.000 db=0.56
G1 Z0.700 F420                          ; hopup dz=0.40@7 h=0.7
;00:09:50.727: pe=-1.0024 eb=0.0303 ve=0.0000 vn=0.0000 vl=0.000 db=0.36
G1 X66.09 Y54.44 F1297                  ; move dl=1.87@0<22>0 de=0.0000 h=0.70
;00:09:50.857: pe=-1.0024 eb=0.0000 ve=0.0000 vn=0.0000 vl=0.000 db=0.00
G1 Z0.300 F420                          ; hopdn dz=-0.40@7 h=0.3
;00:09:50.914: pe=-1.0024 eb=0.0000 ve=0.0000 vn=0.0000 vl=0.000 db=0.00
G1 E145.7324 F1800                      ; restore de=2.4878@30
;00:09:50.997: pe=1.4686 eb=0.0168 ve=30.0000 vn=0.6408 vl=0.000 db=0.41
G1 X66.28 Y54.65 E145.7423 F600         ; draw dl=0.28@0<10>10 l=0.30x0.50x0.56
;00:09:51.035: pe=1.4579 eb=0.0209 ve=0.3515 vn=0.5342 vl=10.000 db=0.46
G1 X66.51 Y54.81 E145.9255              ; draw dl=0.28@10<10>10 l=0.30x0.50x10.48
;00:09:51.063: pe=1.6239 eb=0.0219 ve=6.5385 vn=0.6774 vl=10.000 db=0.47
G1 X66.77 Y54.90 E145.9424              ; draw dl=0.28@10<10>10 l=0.30x0.50x0.98
;00:09:51.091: pe=1.6227 eb=0.0235 ve=0.6140 vn=0.6433 vl=10.000 db=0.49
G1 X67.05 Y54.94 E145.9610              ; draw dl=0.28@10<10>10 l=0.30x0.50x1.06
;00:09:51.119: pe=1.6233 eb=0.0241 ve=0.6586 vn=0.6314 vl=10.000 db=0.50
G1 X67.42 Y54.88 E145.9848              ; draw dl=0.37@10<10>10 l=0.30x0.50x1.02
;00:09:51.157: pe=1.6235 eb=0.0244 ve=0.6337 vn=0.6259 vl=10.000 db=0.50
G1 X67.72 Y54.68 E146.0074              ; draw dl=0.36@10<10>10 l=0.30x0.50x1.01
;00:09:51.193: pe=1.6236 eb=0.0245 ve=0.6271 vn=0.6243 vl=10.000 db=0.50
G1 X67.91 Y54.39 E146.0291              ; draw dl=0.35@10<10>10 l=0.30x0.50x1.00
;00:09:51.227: pe=1.6236 eb=0.0245 ve=0.6253 vn=0.6239 vl=10.000 db=0.50
G1 X67.98 Y54.02 E146.0526              ; draw dl=0.38@10<10>10 l=0.30x0.50x1.00
;00:09:51.265: pe=1.6237 eb=0.0245 ve=0.6251 vn=0.6237 vl=10.000 db=0.50
G1 X67.88 Y53.63 E146.0777              ; draw dl=0.40@10<10>10 l=0.30x0.50x1.00
;00:09:51.305: pe=1.6236 eb=0.0245 ve=0.6225 vn=0.6236 vl=10.000 db=0.50
G1 X67.60 Y53.27 E146.1061              ; draw dl=0.46@10<10>10 l=0.30x0.50x1.00
;00:09:51.351: pe=1.6236 eb=0.0245 ve=0.6243 vn=0.6236 vl=10.000 db=0.50
G1 X66.82 Y52.64 E146.1687              ; draw dl=1.00@10<10>10 l=0.30x0.50x1.00
;00:09:51.451: pe=1.6236 eb=0.0245 ve=0.6236 vn=0.6236 vl=10.000 db=0.50
G1 X66.52 Y52.23 E146.2003              ; draw dl=0.51@10<10>10 l=0.30x0.50x1.00
;00:09:51.502: pe=1.6236 eb=0.0245 ve=0.6230 vn=0.6236 vl=10.000 db=0.50
G1 X66.13 Y51.48 E146.2479              ; draw dl=0.85@10<10>7 l=0.30x0.50x0.90
;00:09:51.587: pe=1.6182 eb=0.0248 ve=0.4135 vn=0.6118 vl=7.345 db=0.50
G1 X67.95 Y51.48 E146.3322              ; draw dl=1.82@7<10>0 l=0.30x0.50x0.74
;00:09:51.780: pe=1.5855 eb=0.0289 ve=0.0000 vn=0.4992 vl=0.000 db=0.54
G1 E143.7467 F2400                      ; retract de=-2.5855@40
;00:09:51.844: pe=-1.0025 eb=0.0314 ve=-40.0000 vn=0.0000 vl=0.000 db=0.57
G1 Z0.700 F420                          ; hopup dz=0.40@7 h=0.7
;00:09:51.902: pe=-1.0025 eb=0.0314 ve=0.0000 vn=0.0000 vl=0.000 db=0.37
G1 X69.04 Y51.71 F1001                  ; move dl=1.11@0<17>0 de=0.0000 h=0.70
;00:09:52.002: pe=-1.0025 eb=0.0000 ve=0.0000 vn=0.0000 vl=0.000 db=0.00
G1 Z0.300 F420                          ; hopdn dz=-0.40@7 h=0.3
;00:09:52.059: pe=-1.0025 eb=0.0000 ve=0.0000 vn=0.0000 vl=0.000 db=0.00
G1 E145.9348 F1800                      ; restore de=2.1881@30
;00:09:52.132: pe=1.1748 eb=0.0108 ve=30.0000 vn=0.5107 vl=0.000 db=0.33
G1 X69.04 Y51.65 E145.9248 F232         ; move dl=0.06@0<4>0 de=-0.0100 h=0.30
;00:09:52.155: pe=1.1555 eb=0.0173 ve=-0.0000 vn=0.3154 vl=0.000 db=0.42
G1 E143.7693 F2400                      ; retract de=-2.1555@40
;00:09:52.209: pe=-1.0010 eb=0.0183 ve=-40.0000 vn=0.0000 vl=0.000 db=0.43
G1 Z0.700 F420                          ; hopup dz=0.40@7 h=0.7
;00:09:52.266: pe=-1.0010 eb=0.0183 ve=0.0000 vn=0.0000 vl=0.000 db=0.28
G1 X71.32 Y54.94 F1898                  ; move dl=4.00@0<32>0 de=0.0000 h=0.70
;00:09:52.456: pe=-1.0010 eb=0.0000 ve=0.0000 vn=0.0000 vl=0.000 db=0.00
G1 Z0.300 F420                          ; hopdn dz=-0.40@7 h=0.3
;00:09:52.513: pe=-1.0010 eb=0.0000 ve=0.0000 vn=0.0000 vl=0.000 db=0.00
G1 E146.3193 F1800                      ; restore de=2.5500@30
;00:09:52.598: pe=1.5308 eb=0.0182 ve=30.0000 vn=0.6682 vl=0.000 db=0.43
G1 X71.83 Y54.80 E146.3460 F600         ; draw dl=0.53@0<10>10 l=0.30x0.50x0.81
;00:09:52.661: pe=1.5219 eb=0.0220 ve=0.5051 vn=0.5737 vl=10.000 db=0.47
G1 X72.22 Y54.42 E146.4817              ; draw dl=0.54@10<10>10 l=0.30x0.50x4.00
;00:09:52.715: pe=1.6239 eb=0.0233 ve=2.4927 vn=0.6496 vl=10.000 db=0.49
G1 X72.46 Y53.86 E146.5194              ; draw dl=0.61@10<10>10 l=0.30x0.50x0.99
;00:09:52.776: pe=1.6230 eb=0.0243 ve=0.6187 vn=0.6264 vl=10.000 db=0.50
G1 X72.54 Y53.18 E146.5628              ; draw dl=0.68@10<10>10 l=0.30x0.50x1.02
;00:09:52.845: pe=1.6235 eb=0.0245 ve=0.6332 vn=0.6240 vl=10.000 db=0.50
G1 X72.46 Y52.51 E146.6049              ; draw dl=0.67@10<10>10 l=0.30x0.50x1.00
;00:09:52.912: pe=1.6236 eb=0.0245 ve=0.6250 vn=0.6237 vl=10.000 db=0.50
G1 X72.22 Y51.95 E146.6429              ; draw dl=0.61@10<10>10 l=0.30x0.50x1.00
;00:09:52.973: pe=1.6236 eb=0.0245 ve=0.6235 vn=0.6236 vl=10.000 db=0.50
G1 X71.83 Y51.56 E146.6773              ; draw dl=0.55@10<10>10 l=0.30x0.50x1.00
;00:09:53.028: pe=1.6236 eb=0.0245 ve=0.6241 vn=0.6236 vl=10.000 db=0.50
G1 X71.32 Y51.42 E146.7103              ; draw dl=0.53@10<10>10 l=0.30x0.50x1.00
;00:09:53.081: pe=1.6236 eb=0.0245 ve=0.6238 vn=0.6236 vl=10.000 db=0.50
G1 X70.80 Y51.56 E146.7439              ; draw dl=0.54@10<10>10 l=0.30x0.50x1.00
;00:09:53.135: pe=1.6236 eb=0.0245 ve=0.6229 vn=0.6236 vl=10.000 db=0.50
G1 X70.42 Y51.95 E146.7779              ; draw dl=0.54@10<10>10 l=0.30x0.50x1.00
;00:09:53.189: pe=1.6236 eb=0.0245 ve=0.6243 vn=0.6236 vl=10.000 db=0.50
G1 X70.18 Y52.51 E146.8158              ; draw dl=0.61@10<10>10 l=0.30x0.50x1.00
;00:09:53.250: pe=1.6236 eb=0.0245 ve=0.6232 vn=0.6236 vl=10.000 db=0.50
G1 X70.10 Y53.18 E146.8579              ; draw dl=0.67@10<10>10 l=0.30x0.50x1.00
;00:09:53.318: pe=1.6236 eb=0.0245 ve=0.6239 vn=0.6236 vl=10.000 db=0.50
G1 X70.18 Y53.85 E146.9000              ; draw dl=0.67@10<10>10 l=0.30x0.50x1.00
;00:09:53.385: pe=1.6236 eb=0.0245 ve=0.6236 vn=0.6236 vl=10.000 db=0.50
G1 X70.42 Y54.42 E146.9386              ; draw dl=0.62@10<10>10 l=0.30x0.50x1.00
;00:09:53.447: pe=1.6236 eb=0.0245 ve=0.6234 vn=0.6236 vl=10.000 db=0.50
G1 X70.80 Y54.80 E146.9721              ; draw dl=0.54@10<10>10 l=0.30x0.50x1.00
;00:09:53.501: pe=1.6236 eb=0.0245 ve=0.6240 vn=0.6236 vl=10.000 db=0.50
G1 X71.32 Y54.94 E146.9080              ; move dl=0.54@10<10>0 de=-0.0641 h=0.30
;00:09:53.565: pe=1.5230 eb=0.0278 ve=-0.0000 vn=0.4582 vl=0.000 db=0.53
G1 E144.3850 F2400                      ; retract de=-2.5230@40
;00:09:53.628: pe=-1.0021 eb=0.0299 ve=-40.0000 vn=0.0000 vl=0.000 db=0.55
G1 Z0.700 F420                          ; hopup dz=0.40@7 h=0.7
;00:09:53.685: pe=-1.0021 eb=0.0299 ve=0.0000 vn=0.0000 vl=0.000 db=0.36
G1 X46.50 Y49.88 F4775                  ; move dl=25.33@0<80>0 de=0.0000 h=0.70
;00:09:54.162: pe=-1.0021 eb=0.0000 ve=0.0000 vn=0.0000 vl=0.000 db=0.00
G1 Z0.300 F420                          ; hopdn dz=-0.40@7 h=0.3
;00:09:54.220: pe=-1.0021 eb=0.0000 ve=0.0000 vn=0.0000 vl=0.000 db=0.00
G1 E147.0006 F1800                      ; restore de=2.6156@30
;00:09:54.307: pe=1.5937 eb=0.0197 ve=30.0000 vn=0.6961 vl=0.000 db=0.45
G1 X46.50 Y46.48 E147.2079 F600         ; draw dl=3.40@0<10>0 l=0.30x0.50x0.98
;00:09:54.667: pe=1.5834 eb=0.0287 ve=0.0000 vn=0.5004 vl=0.000 db=0.54
G1 E144.6244 F2400                      ; retract de=-2.5834@40
;00:09:54.731: pe=-1.0025 eb=0.0312 ve=-40.0000 vn=0.0000 vl=0.000 db=0.56
G1 Z0.700 F420                          ; hopup dz=0.40@7 h=0.7
;00:09:54.789: pe=-1.0025 eb=0.0312 ve=0.0000 vn=0.0000 vl=0.000 db=0.37
G1 X48.96 Y46.48 F1488                  ; move dl=2.46@0<25>0 de=0.0000 h=0.70
;00:09:54.937: pe=-1.0025 eb=0.0000 ve=0.0000 vn=0.0000 vl=0.000 db=0.00
G1 Z0.300 F420                          ; hopdn dz=-0.40@7 h=0.3
;00:09:54.994: pe=-1.0025 eb=0.0000 ve=0.0000 vn=0.0000 vl=0.000 db=0.00
G1 E147.2292 F1800                      ; restore de=2.6048@30
;00:09:55.081: pe=1.5828 eb=0.0195 ve=30.0000 vn=0.6913 vl=0.000 db=0.45
G1 X47.47 Y48.51 E147.3812 F600         ; draw dl=2.52@0<10>0 l=0.30x0.50x0.97
;00:09:55.353: pe=1.5722 eb=0.0284 ve=0.0000 vn=0.4962 vl=0.000 db=0.54
G1 E144.8090 F2400                      ; retract de=-2.5722@40
;00:09:55.417: pe=-1.0025 eb=0.0308 ve=-40.0000 vn=0.0000 vl=0.000 db=0.56
G1 Z0.700 F420                          ; hopup dz=0.40@7 h=0.7
;00:09:55.475: pe=-1.0025 eb=0.0308 ve=0.0000 vn=0.0000 vl=0.000 db=0.37
G1 X46.50 Y47.67 F1075                  ; move dl=1.28@0<18>0 de=0.0000 h=0.70
;00:09:55.582: pe=-1.0025 eb=0.0000 ve=0.0000 vn=0.0000 vl=0.000 db=0.00
G1 Z0.300 F420                          ; hopdn dz=-0.40@7 h=0.3
;00:09:55.639: pe=-1.0025 eb=0.0000 ve=0.0000 vn=0.0000 vl=0.000 db=0.00
G1 E147.4245 F1800                      ; restore de=2.6155@30
;00:09:55.726: pe=1.5933 eb=0.0197 ve=30.0000 vn=0.6959 vl=0.000 db=0.45
G1 X49.02 Y49.88 E147.6287 F600         ; draw dl=3.35@0<10>0 l=0.30x0.50x0.98
;00:09:56.082: pe=1.5830 eb=0.0287 ve=0.0000 vn=0.5002 vl=0.000 db=0.54
G1 E145.0457 F2400                      ; retract de=-2.5830@40
;00:09:56.146: pe=-1.0025 eb=0.0312 ve=-40.0000 vn=0.0000 vl=0.000 db=0.56
G1 Z0.700 F420                          ; hopup dz=0.40@7 h=0.7
;00:09:56.203: pe=-1.0025 eb=0.0312 ve=0.0000 vn=0.0000 vl=0.000 db=0.37
G1 X50.08 Y49.88 F977                   ; move dl=1.06@0<16>0 de=0.0000 h=0.70
;00:09:56.301: pe=-1.0025 eb=0.0000 ve=0.0000 vn=0.0000 vl=0.000 db=0.00
G1 Z0.300 F420                          ; hopdn dz=-0.40@7 h=0.3
;00:09:56.358: pe=-1.0025 eb=0.0000 ve=0.0000 vn=0.0000 vl=0.000 db=0.00
G1 E147.6617 F1800                      ; restore de=2.6160@30
;00:09:56.445: pe=1.5937 eb=0.0197 ve=30.0000 vn=0.6961 vl=0.000 db=0.45
G1 X50.08 Y46.48 E147.8690 F600         ; draw dl=3.40@0<10>0 l=0.30x0.50x0.98
;00:09:56.805: pe=1.5834 eb=0.0287 ve=0.0000 vn=0.5004 vl=0.000 db=0.54
G1 E145.2856 F2400                      ; retract de=-2.5834@40
;00:09:56.870: pe=-1.0025 eb=0.0312 ve=-40.0000 vn=0.0000 vl=0.000 db=0.56
G1 Z0.700 F420                          ; hopup dz=0.40@7 h=0.7
;00:09:56.927: pe=-1.0025 eb=0.0312 ve=0.0000 vn=0.0000 vl=0.000 db=0.37
G1 X50.08 Y46.98 F671                   ; move dl=0.50@0<11>0 de=0.0000 h=0.70
;00:09:56.994: pe=-1.0025 eb=0.0005 ve=0.0000 vn=0.0000 vl=0.000 db=0.05
G1 Z0.300 F420                          ; hopdn dz=-0.40@7 h=0.3
;00:09:57.051: pe=-1.0025 eb=0.0005 ve=0.0000 vn=0.0000 vl=0.000 db=0.07
G1 E147.7965 F1800                      ; restore de=2.5110@30
;00:09:57.135: pe=1.4916 eb=0.0173 ve=30.0000 vn=0.6507 vl=0.000 db=0.42
G1 X50.33 Y46.74 E147.8105 F600         ; draw dl=0.35@0<10>10 l=0.30x0.50x0.65
;00:09:57.180: pe=1.4811 eb=0.0213 ve=0.4029 vn=0.5482 vl=10.000 db=0.47
G1 X50.72 Y46.49 E147.9819              ; draw dl=0.46@10<10>10 l=0.30x0.50x5.93
;00:09:57.226: pe=1.6241 eb=0.0227 ve=3.7002 vn=0.6620 vl=10.000 db=0.48
G1 X51.10 Y46.42 E148.0056              ; draw dl=0.39@10<10>10 l=0.30x0.50x0.98
;00:09:57.265: pe=1.6228 eb=0.0240 ve=0.6134 vn=0.6331 vl=10.000 db=0.49
G1 X51.48 Y46.51 E148.0307              ; draw dl=0.39@10<10>10 l=0.30x0.50x1.03
;00:09:57.304: pe=1.6234 eb=0.0243 ve=0.6429 vn=0.6263 vl=10.000 db=0.50
G1 X51.79 Y46.77 E148.0562              ; draw dl=0.40@10<10>10 l=0.30x0.50x1.01
;00:09:57.344: pe=1.6236 eb=0.0245 ve=0.6297 vn=0.6244 vl=10.000 db=0.50
G1 X51.99 Y47.18 E148.0847              ; draw dl=0.46@10<10>10 l=0.30x0.50x1.00
;00:09:57.390: pe=1.6236 eb=0.0245 ve=0.6253 vn=0.6238 vl=10.000 db=0.50
G1 X52.06 Y47.71 E148.1180              ; draw dl=0.53@10<10>10 l=0.30x0.50x1.00
;00:09:57.443: pe=1.6236 eb=0.0245 ve=0.6233 vn=0.6236 vl=10.000 db=0.50
G1 X52.00 Y48.22 E148.1501              ; draw dl=0.51@10<10>10 l=0.30x0.50x1.00
;00:09:57.494: pe=1.6236 eb=0.0245 ve=0.6236 vn=0.6236 vl=10.000 db=0.50
G1 X51.82 Y48.61 E148.1769              ; draw dl=0.43@10<10>10 l=0.30x0.50x1.00
;00:09:57.537: pe=1.6236 eb=0.0245 ve=0.6241 vn=0.6236 vl=10.000 db=0.50
G1 X51.53 Y48.86 E148.2008              ; draw dl=0.38@10<10>10 l=0.30x0.50x1.00
;00:09:57.576: pe=1.6236 eb=0.0245 ve=0.6241 vn=0.6236 vl=10.000 db=0.50
G1 X51.13 Y48.95 E148.2263              ; draw dl=0.41@10<10>10 l=0.30x0.50x1.00
;00:09:57.617: pe=1.6236 eb=0.0245 ve=0.6235 vn=0.6236 vl=10.000 db=0.50
G1 X50.94 Y48.93 E148.2382              ; draw dl=0.19@10<10>10 l=0.30x0.50x0.99
;00:09:57.636: pe=1.6236 eb=0.0245 ve=0.6200 vn=0.6236 vl=10.000 db=0.50
G1 X50.74 Y48.85 E148.2516              ; draw dl=0.22@10<10>10 l=0.30x0.50x1.00
;00:09:57.657: pe=1.6236 eb=0.0245 ve=0.6241 vn=0.6236 vl=10.000 db=0.50
G1 X50.53 Y48.72 E148.2670              ; draw dl=0.25@10<10>10 l=0.30x0.50x1.00
;00:09:57.682: pe=1.6236 eb=0.0245 ve=0.6233 vn=0.6236 vl=10.000 db=0.50
G1 X50.33 Y48.50 E148.2856              ; draw dl=0.30@10<10>10 l=0.30x0.50x1.00
;00:09:57.712: pe=1.6236 eb=0.0245 ve=0.6259 vn=0.6237 vl=10.000 db=0.50
G1 X50.08 Y48.03 E148.2202              ; move dl=0.53@10<10>0 de=-0.0654 h=0.30
;00:09:57.775: pe=1.5221 eb=0.0278 ve=-0.0000 vn=0.4575 vl=0.000 db=0.53
G1 E145.6981 F2400                      ; retract de=-2.5221@40
;00:09:57.838: pe=-1.0021 eb=0.0299 ve=-40.0000 vn=0.0000 vl=0.000 db=0.55
G1 Z0.700 F420                          ; hopup dz=0.40@7 h=0.7
;00:09:57.895: pe=-1.0021 eb=0.0299 ve=0.0000 vn=0.0000 vl=0.000 db=0.36
G1 X53.12 Y48.26 F1656                  ; move dl=3.05@0<28>0 de=0.0000 h=0.70
;00:09:58.061: pe=-1.0021 eb=0.0000 ve=0.0000 vn=0.0000 vl=0.000 db=0.00
G1 Z0.300 F420                          ; hopdn dz=-0.40@7 h=0.3
;00:09:58.118: pe=-1.0021 eb=0.0000 ve=0.0000 vn=0.0000 vl=0.000 db=0.00
G1 E148.2824 F1800                      ; restore de=2.5842@30
;00:09:58.204: pe=1.5631 eb=0.0190 ve=30.0000 vn=0.6826 vl=0.000 db=0.44
G1 X54.81 Y48.26 E148.3823 F600         ; draw dl=1.69@0<10>0 l=0.30x0.50x0.95
;00:09:58.393: pe=1.5521 eb=0.0277 ve=0.0000 vn=0.4886 vl=0.000 db=0.53
G1 E145.8302 F2400                      ; retract de=-2.5521@40
;00:09:58.457: pe=-1.0024 eb=0.0301 ve=-40.0000 vn=0.0000 vl=0.000 db=0.55
G1 Z0.700 F420                          ; hopup dz=0.40@7 h=0.7
;00:09:58.514: pe=-1.0024 eb=0.0301 ve=0.0000 vn=0.0000 vl=0.000 db=0.36
G1 X54.81 Y47.55 F799                   ; move dl=0.71@0<13>0 de=0.0000 h=0.70
;00:09:58.594: pe=-1.0024 eb=0.0000 ve=0.0000 vn=0.0000 vl=0.000 db=0.00
G1 Z0.300 F420                          ; hopdn dz=-0.40@7 h=0.3
;00:09:58.651: pe=-1.0024 eb=0.0000 ve=0.0000 vn=0.0000 vl=0.000 db=0.00
G1 E148.4147 F1800                      ; restore de=2.5845@30
;00:09:58.737: pe=1.5631 eb=0.0190 ve=30.0000 vn=0.6826 vl=0.000 db=0.44
G1 X53.12 Y47.55 E148.5146 F600         ; draw dl=1.69@0<10>0 l=0.30x0.50x0.95
;00:09:58.926: pe=1.5521 eb=0.0277 ve=0.0000 vn=0.4886 vl=0.000 db=0.53
G1 E145.9625 F2400                      ; retract de=-2.5521@40
;00:09:58.990: pe=-1.0024 eb=0.0301 ve=-40.0000 vn=0.0000 vl=0.000 db=0.55
G1 Z0.700 F420                          ; hopup dz=0.40@7 h=0.7
;00:09:59.047: pe=-1.0024 eb=0.0301 ve=0.0000 vn=0.0000 vl=0.000 db=0.36
G1 X55.88 Y49.44 F1735                  ; move dl=3.35@0<29>0 de=0.0000 h=0.70
;00:09:59.221: pe=-1.0024 eb=0.0000 ve=0.0000 vn=0.0000 vl=0.000 db=0.00
G1 Z0.300 F420                          ; hopdn dz=-0.40@7 h=0.3
;00:09:59.278: pe=-1.0024 eb=0.0000 ve=0.0000 vn=0.0000 vl=0.000 db=0.00
G1 E148.4474 F1800                      ; restore de=2.4849@30
;00:09:59.361: pe=1.4658 eb=0.0167 ve=30.0000 vn=0.6396 vl=0.000 db=0.41
G1 X56.06 Y49.65 E148.4569 F600         ; draw dl=0.28@0<10>10 l=0.30x0.50x0.55
;00:09:59.398: pe=1.4551 eb=0.0208 ve=0.3426 vn=0.5325 vl=10.000 db=0.46
G1 X56.29 Y49.81 E148.6429              ; draw dl=0.28@10<10>10 l=0.30x0.50x10.65
;00:09:59.426: pe=1.6239 eb=0.0219 ve=6.6403 vn=0.6782 vl=10.000 db=0.47
G1 X56.55 Y49.90 E148.6598              ; draw dl=0.28@10<10>10 l=0.30x0.50x0.98
;00:09:59.454: pe=1.6226 eb=0.0235 ve=0.6137 vn=0.6436 vl=10.000 db=0.49
G1 X56.84 Y49.94 E148.6790              ; draw dl=0.29@10<10>10 l=0.30x0.50x1.05
;00:09:59.483: pe=1.6232 eb=0.0241 ve=0.6561 vn=0.6312 vl=10.000 db=0.50
G1 X57.21 Y49.88 E148.7029              ; draw dl=0.37@10<10>10 l=0.30x0.50x1.02
;00:09:59.521: pe=1.6235 eb=0.0244 ve=0.6354 vn=0.6258 vl=10.000 db=0.50
G1 X57.50 Y49.68 E148.7250              ; draw dl=0.35@10<10>10 l=0.30x0.50x1.01
;00:09:59.556: pe=1.6236 eb=0.0245 ve=0.6275 vn=0.6243 vl=10.000 db=0.50
G1 X57.70 Y49.39 E148.7470              ; draw dl=0.35@10<10>10 l=0.30x0.50x1.00
;00:09:59.591: pe=1.6236 eb=0.0245 ve=0.6250 vn=0.6239 vl=10.000 db=0.50
G1 X57.77 Y49.02 E148.7705              ; draw dl=0.38@10<10>10 l=0.30x0.50x1.00
;00:09:59.629: pe=1.6237 eb=0.0245 ve=0.6250 vn=0.6237 vl=10.000 db=0.50
G1 X57.66 Y48.63 E148.7957              ; draw dl=0.41@10<10>10 l=0.30x0.50x1.00
;00:09:59.669: pe=1.6236 eb=0.0245 ve=0.6223 vn=0.6236 vl=10.000 db=0.50
G1 X57.38 Y48.27 E148.8242              ; draw dl=0.46@10<10>10 l=0.30x0.50x1.00
;00:09:59.715: pe=1.6236 eb=0.0245 ve=0.6245 vn=0.6236 vl=10.000 db=0.50
G1 X56.61 Y47.64 E148.8862              ; draw dl=0.99@10<10>10 l=0.30x0.50x1.00
;00:09:59.814: pe=1.6236 eb=0.0245 ve=0.6235 vn=0.6236 vl=10.000 db=0.50
G1 X56.30 Y47.23 E148.9183              ; draw dl=0.51@10<10>10 l=0.30x0.50x1.00
;00:09:59.866: pe=1.6236 eb=0.0245 ve=0.6239 vn=0.6236 vl=10.000 db=0.50
G1 X55.91 Y46.48 E148.9659              ; draw dl=0.85@10<10>7 l=0.30x0.50x0.90
;00:09:59.951: pe=1.6182 eb=0.0248 ve=0.4131 vn=0.6117 vl=7.345 db=0.50
G1 X57.73 Y46.48 E149.0501              ; draw dl=1.82@7<10>0 l=0.30x0.50x0.74
;00:10:00.144: pe=1.5855 eb=0.0289 ve=0.0000 vn=0.4992 vl=0.000 db=0.54
G1 E146.4646 F2400                      ; retract de=-2.5855@40
;00:10:00.208: pe=-1.0025 eb=0.0314 ve=-40.0000 vn=0.0000 vl=0.000 db=0.57
G1 Z0.700 F420                          ; hopup dz=0.40@7 h=0.7
;00:10:00.266: pe=-1.0025 eb=0.0314 ve=0.0000 vn=0.0000 vl=0.000 db=0.37
G1 X58.83 Y46.71 F1006                  ; move dl=1.12@0<17>0 de=0.0000 h=0.70
;00:10:00.366: pe=-1.0025 eb=0.0000 ve=0.0000 vn=0.0000 vl=0.000 db=0.00
G1 Z0.300 F420                          ; hopdn dz=-0.40@7 h=0.3
;00:10:00.423: pe=-1.0025 eb=0.0000 ve=0.0000 vn=0.0000 vl=0.000 db=0.00
G1 E148.6527 F1800                      ; restore de=2.1881@30
;00:10:00.496: pe=1.1748 eb=0.0108 ve=30.0000 vn=0.5107 vl=0.000 db=0.33
G1 X58.83 Y46.65 E148.6428 F232         ; move dl=0.06@0<4>0 de=-0.0100 h=0.30
;00:10:00.519: pe=1.1555 eb=0.0173 ve=-0.0000 vn=0.3154 vl=0.000 db=0.42
