;gcode_flavor: flashforge
;machine_type: Adventurer 3 Series
;filament_diameter0: 1.75
;right_extruder_temperature: 245
;platform_temperature: 100
;extruder_fan: 0%
;case_fan: 0%
;base_print_speed: 50
;travel_speed: 100
;vertical_speed: 7
;extruder_speed: 30
;layer_height: 0.30
;line_width: 0.60
;extrusion_ratio: 1.00
;start gcode
M118 X75.00 Y75.00 Z150.00 T0
M140 S100 T0
M104 S245 T0
M104 S0 T1
M107
M900 K1.000 T0
G90
G28
M132 X Y Z A B
G1 Z50.000 F420
G161 X Y F3300
M7 T0
M6 T0
M651
M108 T0
;preExtrude:0.30
;00:00:00.000: layer=P h=0.30 w=0.60 r=1.00
;structure:pre-extrude
G1 X-55.00 Y-65.00 F6000
G1 Z0.300 F420
;00:00:00.894: restore 5.8271@30 self.re=0.0000
G1 E5.8271 F1800
;00:00:01.089: draw 0.30x0.60x4.00@20 ve=5.9868
G1 X-55.00 Y55.00 E41.7480 F1200
G1 X-55.00 Y65.00 F600
G1 X55.00 Y65.00
;00:00:19.089: retract -1.0000@30 self.re=0.0000
G1 E40.7480 F1800
G1 Z0.700 F420
;layer:0.30
;00:00:19.179: layer=1 h=0.30 w=0.60 r=1.00
;structure:brim
G1 X-45.00 Y60.00 F6000
G1 Z0.300 F420
;00:00:20.237: restore 1.7513@30 self.re=-1.0000
G1 E42.4993 F1800
;00:00:20.296: draw 0.30x0.60x1.00@10 ve=0.7484
G1 X-45.00 Y-61.00 E51.5544 F600
G1 X-45.60 Y-61.00 E51.5993
G1 X-45.60 Y60.00 E60.6544
;00:00:44.556: retract -1.7484@30 self.re=0.7484
G1 E58.9060 F1800
G1 Z0.700 F420
G1 X45.00 Y60.00 F6000
G1 Z0.300 F420
;00:00:45.634: restore 1.7572@30 self.re=-1.0059
G1 E60.6632 F1800
G1 X45.00 Y-61.00 E69.7183 F600
G1 X45.60 Y-61.00 E69.7632
G1 X45.60 Y60.00 E78.8182
;00:01:09.953: retract -1.7484@30 self.re=0.7484
G1 E77.0699 F1800
G1 Z0.700 F420
;00:01:10.068: testStartStop Kf=0.0-2.0 vx=60 le=0 ve=30
;structure:shell-outer
G1 X-45.00 Y55.00 F6000
G1 Z0.300 F420
;00:01:11.033: restore 1.7572@30 self.re=-1.0059
G1 E78.8270 F1800
G1 X45.00 Y55.00 E85.5622 F600
;00:01:20.091: retract -1.7484@30 self.re=0.7484
G1 E83.8139 F1800
G1 Z0.700 F420
G1 X-42.00 Y55.00 F6000
G1 X-40.00 Y55.00
G1 Z0.300 F420
;00:01:21.154: restore 1.7572@30 self.re=-1.0059
G1 E85.5710 F1800
G1 X-40.00 Y52.00 E85.7956 F600
;00:01:21.513: retract -1.7408@30 self.re=0.7408
G1 E84.0547 F1800
G1 Z0.700 F420
G1 X-38.00 Y55.00 F6000
G1 Z0.300 F420
;00:01:21.721: restore 1.7570@30 self.re=-1.0057
G1 E85.8118 F1800
G1 X-38.00 Y53.50 E85.9240 F600
;00:01:21.930: retract -1.7396@30 self.re=0.7396
G1 E84.1844 F1800
G1 Z0.700 F420
G1 X-36.00 Y55.00 F6000
G1 Z0.300 F420
;00:01:22.127: restore 1.7570@30 self.re=-1.0057
G1 E85.9414 F1800
G1 X-36.00 Y53.50 E86.0537 F600
;00:01:22.335: retract -1.7396@30 self.re=0.7396
G1 E84.3141 F1800
G1 Z0.700 F420
G1 X-34.00 Y55.00 F6000
G1 Z0.300 F420
;00:01:22.533: restore 1.7570@30 self.re=-1.0057
G1 E86.0711 F1800
G1 X-34.00 Y53.50 E86.1833 F600
;00:01:22.741: retract -1.7396@30 self.re=0.7396
G1 E84.4437 F1800
G1 Z0.700 F420
G1 X-32.00 Y55.00 F6000
G1 Z0.300 F420
;00:01:22.938: restore 1.7570@30 self.re=-1.0057
G1 E86.2007 F1800
G1 X-32.00 Y53.50 E86.3130 F600
;00:01:23.147: retract -1.7396@30 self.re=0.7396
G1 E84.5734 F1800
G1 Z0.700 F420
G1 X-30.00 Y55.00 F6000
G1 Z0.300 F420
;00:01:23.344: restore 1.7570@30 self.re=-1.0057
G1 E86.3304 F1800
G1 X-30.00 Y52.00 E86.5549 F600
;00:01:23.703: retract -1.7408@30 self.re=0.7408
G1 E84.8141 F1800
G1 Z0.700 F420
G1 X-28.00 Y55.00 F6000
G1 Z0.300 F420
;00:01:23.911: restore 1.7570@30 self.re=-1.0057
G1 E86.5711 F1800
G1 X-28.00 Y53.50 E86.6834 F600
;00:01:24.120: retract -1.7396@30 self.re=0.7396
G1 E84.9438 F1800
G1 Z0.700 F420
G1 X-26.00 Y55.00 F6000
G1 Z0.300 F420
;00:01:24.317: restore 1.7570@30 self.re=-1.0057
G1 E86.7008 F1800
G1 X-26.00 Y53.50 E86.8130 F600
;00:01:24.526: retract -1.7396@30 self.re=0.7396
G1 E85.0734 F1800
G1 Z0.700 F420
G1 X-24.00 Y55.00 F6000
G1 Z0.300 F420
;00:01:24.723: restore 1.7570@30 self.re=-1.0057
G1 E86.8304 F1800
G1 X-24.00 Y53.50 E86.9427 F600
;00:01:24.932: retract -1.7396@30 self.re=0.7396
G1 E85.2031 F1800
G1 Z0.700 F420
G1 X-22.00 Y55.00 F6000
G1 Z0.300 F420
;00:01:25.129: restore 1.7570@30 self.re=-1.0057
G1 E86.9601 F1800
G1 X-22.00 Y53.50 E87.0724 F600
;00:01:25.337: retract -1.7396@30 self.re=0.7396
G1 E85.3328 F1800
G1 Z0.700 F420
G1 X-20.00 Y55.00 F6000
G1 Z0.300 F420
;00:01:25.535: restore 1.7570@30 self.re=-1.0057
G1 E87.0898 F1800
G1 X-20.00 Y52.00 E87.3143 F600
;00:01:25.893: retract -1.7408@30 self.re=0.7408
G1 E85.5735 F1800
G1 Z0.700 F420
G1 X-18.00 Y55.00 F6000
G1 Z0.300 F420
;00:01:26.102: restore 1.7570@30 self.re=-1.0057
G1 E87.3305 F1800
G1 X-18.00 Y53.50 E87.4427 F600
;00:01:26.310: retract -1.7396@30 self.re=0.7396
G1 E85.7031 F1800
G1 Z0.700 F420
G1 X-16.00 Y55.00 F6000
G1 Z0.300 F420
;00:01:26.507: restore 1.7570@30 self.re=-1.0057
G1 E87.4601 F1800
G1 X-16.00 Y53.50 E87.5724 F600
;00:01:26.716: retract -1.7396@30 self.re=0.7396
G1 E85.8328 F1800
G1 Z0.700 F420
G1 X-14.00 Y55.00 F6000
G1 Z0.300 F420
;00:01:26.913: restore 1.7570@30 self.re=-1.0057
G1 E87.5898 F1800
G1 X-14.00 Y53.50 E87.7020 F600
;00:01:27.122: retract -1.7396@30 self.re=0.7396
G1 E85.9624 F1800
G1 Z0.700 F420
G1 X-12.00 Y55.00 F6000
G1 Z0.300 F420
;00:01:27.319: restore 1.7570@30 self.re=-1.0057
G1 E87.7195 F1800
G1 X-12.00 Y53.50 E87.8317 F600
;00:01:27.528: retract -1.7396@30 self.re=0.7396
G1 E86.0921 F1800
G1 Z0.700 F420
G1 X-10.00 Y55.00 F6000
G1 Z0.300 F420
;00:01:27.725: restore 1.7570@30 self.re=-1.0057
G1 E87.8491 F1800
G1 X-10.00 Y52.00 E88.0736 F600
;00:01:28.083: retract -1.7408@30 self.re=0.7408
G1 E86.3328 F1800
G1 Z0.700 F420
G1 X-8.00 Y55.00 F6000
G1 Z0.300 F420
;00:01:28.292: restore 1.7570@30 self.re=-1.0057
G1 E88.0898 F1800
G1 X-8.00 Y53.50 E88.2021 F600
;00:01:28.500: retract -1.7396@30 self.re=0.7396
G1 E86.4625 F1800
G1 Z0.700 F420
G1 X-6.00 Y55.00 F6000
G1 Z0.300 F420
;00:01:28.698: restore 1.7570@30 self.re=-1.0057
G1 E88.2195 F1800
G1 X-6.00 Y53.50 E88.3317 F600
;00:01:28.906: retract -1.7396@30 self.re=0.7396
G1 E86.5921 F1800
G1 Z0.700 F420
G1 X-4.00 Y55.00 F6000
G1 Z0.300 F420
;00:01:29.104: restore 1.7570@30 self.re=-1.0057
G1 E88.3491 F1800
G1 X-4.00 Y53.50 E88.4614 F600
;00:01:29.312: retract -1.7396@30 self.re=0.7396
G1 E86.7218 F1800
G1 Z0.700 F420
G1 X-2.00 Y55.00 F6000
G1 Z0.300 F420
;00:01:29.509: restore 1.7570@30 self.re=-1.0057
G1 E88.4788 F1800
G1 X-2.00 Y53.50 E88.5911 F600
;00:01:29.718: retract -1.7396@30 self.re=0.7396
G1 E86.8515 F1800
G1 Z0.700 F420
G1 X0.00 Y55.00 F6000
G1 Z0.300 F420
;00:01:29.915: restore 1.7570@30 self.re=-1.0057
G1 E88.6085 F1800
G1 X0.00 Y52.00 E88.8330 F600
;00:01:30.274: retract -1.7408@30 self.re=0.7408
G1 E87.0922 F1800
G1 Z0.700 F420
G1 X2.00 Y55.00 F6000
G1 Z0.300 F420
;00:01:30.482: restore 1.7570@30 self.re=-1.0057
G1 E88.8492 F1800
G1 X2.00 Y53.50 E88.9614 F600
;00:01:30.691: retract -1.7396@30 self.re=0.7396
G1 E87.2218 F1800
G1 Z0.700 F420
G1 X4.00 Y55.00 F6000
G1 Z0.300 F420
;00:01:30.888: restore 1.7570@30 self.re=-1.0057
G1 E88.9788 F1800
G1 X4.00 Y53.50 E89.0911 F600
;00:01:31.097: retract -1.7396@30 self.re=0.7396
G1 E87.3515 F1800
G1 Z0.700 F420
G1 X6.00 Y55.00 F6000
G1 Z0.300 F420
;00:01:31.294: restore 1.7570@30 self.re=-1.0057
G1 E89.1085 F1800
G1 X6.00 Y53.50 E89.2208 F600
;00:01:31.502: retract -1.7396@30 self.re=0.7396
G1 E87.4812 F1800
G1 Z0.700 F420
G1 X8.00 Y55.00 F6000
G1 Z0.300 F420
;00:01:31.700: restore 1.7570@30 self.re=-1.0057
G1 E89.2382 F1800
G1 X8.00 Y53.50 E89.3504 F600
;00:01:31.908: retract -1.7396@30 self.re=0.7396
G1 E87.6108 F1800
G1 Z0.700 F420
G1 X10.00 Y55.00 F6000
G1 Z0.300 F420
;00:01:32.105: restore 1.7570@30 self.re=-1.0057
G1 E89.3678 F1800
G1 X10.00 Y52.00 E89.5923 F600
;00:01:32.464: retract -1.7408@30 self.re=0.7408
G1 E87.8515 F1800
G1 Z0.700 F420
G1 X12.00 Y55.00 F6000
G1 Z0.300 F420
;00:01:32.672: restore 1.7570@30 self.re=-1.0057
G1 E89.6085 F1800
G1 X12.00 Y53.50 E89.7208 F600
;00:01:32.881: retract -1.7396@30 self.re=0.7396
G1 E87.9812 F1800
G1 Z0.700 F420
G1 X14.00 Y55.00 F6000
G1 Z0.300 F420
;00:01:33.078: restore 1.7570@30 self.re=-1.0057
G1 E89.7382 F1800
G1 X14.00 Y53.50 E89.8505 F600
;00:01:33.287: retract -1.7396@30 self.re=0.7396
G1 E88.1109 F1800
G1 Z0.700 F420
G1 X16.00 Y55.00 F6000
G1 Z0.300 F420
;00:01:33.484: restore 1.7570@30 self.re=-1.0057
G1 E89.8679 F1800
G1 X16.00 Y53.50 E89.9801 F600
;00:01:33.693: retract -1.7396@30 self.re=0.7396
G1 E88.2405 F1800
G1 Z0.700 F420
G1 X18.00 Y55.00 F6000
G1 Z0.300 F420
;00:01:33.890: restore 1.7570@30 self.re=-1.0057
G1 E89.9975 F1800
G1 X18.00 Y53.50 E90.1098 F600
;00:01:34.099: retract -1.7396@30 self.re=0.7396
G1 E88.3702 F1800
G1 Z0.700 F420
G1 X20.00 Y55.00 F6000
G1 Z0.300 F420
;00:01:34.296: restore 1.7570@30 self.re=-1.0057
G1 E90.1272 F1800
G1 X20.00 Y52.00 E90.3517 F600
;00:01:34.654: retract -1.7408@30 self.re=0.7408
G1 E88.6109 F1800
G1 Z0.700 F420
G1 X22.00 Y55.00 F6000
G1 Z0.300 F420
;00:01:34.863: restore 1.7570@30 self.re=-1.0057
G1 E90.3679 F1800
G1 X22.00 Y53.50 E90.4801 F600
;00:01:35.071: retract -1.7396@30 self.re=0.7396
G1 E88.7405 F1800
G1 Z0.700 F420
G1 X24.00 Y55.00 F6000
G1 Z0.300 F420
;00:01:35.269: restore 1.7570@30 self.re=-1.0057
G1 E90.4976 F1800
G1 X24.00 Y53.50 E90.6098 F600
;00:01:35.477: retract -1.7396@30 self.re=0.7396
G1 E88.8702 F1800
G1 Z0.700 F420
G1 X26.00 Y55.00 F6000
G1 Z0.300 F420
;00:01:35.674: restore 1.7570@30 self.re=-1.0057
G1 E90.6272 F1800
G1 X26.00 Y53.50 E90.7395 F600
;00:01:35.883: retract -1.7396@30 self.re=0.7396
G1 E88.9999 F1800
G1 Z0.700 F420
G1 X28.00 Y55.00 F6000
G1 Z0.300 F420
;00:01:36.080: restore 1.7570@30 self.re=-1.0057
G1 E90.7569 F1800
G1 X28.00 Y53.50 E90.8691 F600
;00:01:36.289: retract -1.7396@30 self.re=0.7396
G1 E89.1295 F1800
G1 Z0.700 F420
G1 X30.00 Y55.00 F6000
G1 Z0.300 F420
;00:01:36.486: restore 1.7570@30 self.re=-1.0057
G1 E90.8865 F1800
G1 X30.00 Y52.00 E91.1110 F600
;00:01:36.845: retract -1.7408@30 self.re=0.7408
G1 E89.3702 F1800
G1 Z0.700 F420
G1 X32.00 Y55.00 F6000
G1 Z0.300 F420
;00:01:37.053: restore 1.7570@30 self.re=-1.0057
G1 E91.1272 F1800
G1 X32.00 Y53.50 E91.2395 F600
;00:01:37.262: retract -1.7396@30 self.re=0.7396
G1 E89.4999 F1800
G1 Z0.700 F420
G1 X34.00 Y55.00 F6000
G1 Z0.300 F420
;00:01:37.459: restore 1.7570@30 self.re=-1.0057
G1 E91.2569 F1800
G1 X34.00 Y53.50 E91.3692 F600
;00:01:37.667: retract -1.7396@30 self.re=0.7396
G1 E89.6296 F1800
G1 Z0.700 F420
G1 X36.00 Y55.00 F6000
G1 Z0.300 F420
;00:01:37.865: restore 1.7570@30 self.re=-1.0057
G1 E91.3866 F1800
G1 X36.00 Y53.50 E91.4988 F600
;00:01:38.073: retract -1.7396@30 self.re=0.7396
G1 E89.7592 F1800
G1 Z0.700 F420
G1 X38.00 Y55.00 F6000
G1 Z0.300 F420
;00:01:38.271: restore 1.7570@30 self.re=-1.0057
G1 E91.5162 F1800
G1 X38.00 Y53.50 E91.6285 F600
;00:01:38.479: retract -1.7396@30 self.re=0.7396
G1 E89.8889 F1800
G1 Z0.700 F420
G1 X40.00 Y55.00 F6000
G1 Z0.300 F420
;00:01:38.676: restore 1.7570@30 self.re=-1.0057
G1 E91.6459 F1800
G1 X40.00 Y52.00 E91.8704 F600
;00:01:39.035: retract -1.7408@30 self.re=0.7408
G1 E90.1296 F1800
G1 Z0.700 F420
;structure:infill-solid
;00:01:39.150: testStartStopLine Kf=0.0 vx=60 le=0 ve=30
G1 X-45.00 Y51.00 F6000
G1 Z0.300 F420
;00:01:40.057: restore 1.0233@30 self.re=-1.0057
G1 E91.1529 F1800
;00:01:40.091: draw 0.30x0.60x1.00@5 ve=0.3742
G1 X-40.00 Y51.00 E91.5271 F300
G1 X-30.00 Y51.00 F60
;00:01:51.091: restore 0.0176@30 self.re=0.0000
G1 E91.5447 F1800
;00:01:51.092: draw 0.30x0.60x1.00@60 ve=4.4901
G1 X20.00 Y51.00 E95.2865 F3600
G1 F1800
G1 X30.00 Y51.00 F60
;00:02:01.925: restore 0.0176@30 self.re=0.0000
G1 E95.3041 F1800
;00:02:01.926: draw 0.30x0.60x1.00@5 ve=0.3742
G1 X45.00 Y51.00 E96.4267 F300
;00:02:04.926: retract -1.0000@30 self.re=0.0000
G1 E95.4267 F1800
G1 Z0.700 F420
;00:02:05.016: testStartStopLine Kf=0.2 vx=60 le=0 ve=30
G1 X-45.00 Y49.00 F6000
G1 Z0.300 F420
;00:02:05.974: restore 1.0889@30 self.re=-1.0000
G1 E96.5156 F1800
G1 X-40.00 Y49.00 E96.8897 F300
G1 X-30.00 Y49.00 F60
;00:02:17.010: restore 0.5789@30 self.re=0.0000
G1 E97.4686 F1800
;00:02:17.029: draw 0.30x0.60x1.00@60 ve=4.4901
G1 X20.00 Y49.00 E101.2104 F3600
;00:02:17.863: retract -0.8925@30 self.re=0.8925
G1 E100.3179 F1800
G1 X30.00 Y49.00 F60
;00:02:27.892: restore 0.1452@30 self.re=-0.0563
G1 E100.4631 F1800
;00:02:27.897: draw 0.30x0.60x1.00@5 ve=0.3742
G1 X45.00 Y49.00 E101.5856 F300
;00:02:30.897: retract -1.0748@30 self.re=0.0748
G1 E100.5108 F1800
G1 Z0.700 F420
;00:02:30.990: testStartStopLine Kf=0.4 vx=60 le=0 ve=30
G1 X-45.00 Y47.00 F6000
G1 Z0.300 F420
;00:02:31.948: restore 1.1638@30 self.re=-1.0001
G1 E101.6746 F1800
G1 X-40.00 Y47.00 E102.0488 F300
G1 X-30.00 Y47.00 F60
;00:02:42.986: restore 1.3992@30 self.re=0.0000
G1 E103.4480 F1800
;00:02:43.033: draw 0.30x0.60x1.00@60 ve=4.4901
G1 X20.00 Y47.00 E107.1898 F3600
;00:02:43.866: retract -1.7355@30 self.re=1.7355
G1 E105.4543 F1800
G1 X30.00 Y47.00 F60
;00:02:53.924: restore 0.2703@30 self.re=-0.1066
G1 E105.7246 F1800
;00:02:53.933: draw 0.30x0.60x1.00@5 ve=0.3742
G1 X45.00 Y47.00 E106.8471 F300
;00:02:56.933: retract -1.1497@30 self.re=0.1497
G1 E105.6974 F1800
G1 Z0.700 F420
;00:02:57.029: testStartStopLine Kf=0.6000000000000001 vx=60 le=0 ve=30
G1 X-45.00 Y45.00 F6000
G1 Z0.300 F420
;00:02:57.986: restore 1.2388@30 self.re=-1.0003
G1 E106.9362 F1800
G1 X-40.00 Y45.00 E107.3103 F300
G1 X-30.00 Y45.00 F60
;00:03:09.027: restore 2.2627@30 self.re=0.0000
G1 E109.5730 F1800
;00:03:09.103: draw 0.30x0.60x1.00@60 ve=4.4901
G1 X20.00 Y45.00 E113.3148 F3600
;00:03:09.936: retract -2.5491@30 self.re=2.5491
G1 E110.7657 F1800
G1 X30.00 Y45.00 F60
;00:03:20.021: restore 0.3918@30 self.re=-0.1534
G1 E111.1576 F1800
;00:03:20.034: draw 0.30x0.60x1.00@5 ve=0.3742
G1 X45.00 Y45.00 E112.2801 F300
;00:03:23.034: retract -1.2246@30 self.re=0.2246
G1 E111.0555 F1800
G1 Z0.700 F420
;00:03:23.132: testStartStopLine Kf=0.8 vx=60 le=0 ve=30
G1 X-45.00 Y43.00 F6000
G1 Z0.300 F420
;00:03:24.089: restore 1.3137@30 self.re=-1.0004
G1 E112.3692 F1800
G1 X-40.00 Y43.00 E112.7434 F300
G1 X-30.00 Y43.00 F60
;00:03:35.133: restore 3.1412@30 self.re=0.0000
G1 E115.8846 F1800
;00:03:35.238: draw 0.30x0.60x1.00@60 ve=4.4901
G1 X20.00 Y43.00 E119.6264 F3600
;00:03:36.071: retract -3.3575@30 self.re=3.3575
G1 E116.2689 F1800
G1 X30.00 Y43.00 F60
;00:03:46.183: restore 0.5128@30 self.re=-0.1995
G1 E116.7816 F1800
;00:03:46.200: draw 0.30x0.60x1.00@5 ve=0.3742
G1 X45.00 Y43.00 E117.9042 F300
;00:03:49.200: retract -1.2996@30 self.re=0.2996
G1 E116.6046 F1800
G1 Z0.700 F420
;00:03:49.301: testStartStopLine Kf=1.0 vx=60 le=0 ve=30
G1 X-45.00 Y41.00 F6000
G1 Z0.300 F420
;00:03:50.258: restore 1.3887@30 self.re=-1.0006
G1 E117.9933 F1800
G1 X-40.00 Y41.00 E118.3674 F300
G1 X-30.00 Y41.00 F60
;00:04:01.304: restore 4.0266@30 self.re=0.0000
G1 E122.3941 F1800
;00:04:01.439: draw 0.30x0.60x1.00@60 ve=4.4901
G1 X20.00 Y41.00 E126.1359 F3600
;00:04:02.272: retract -4.1675@30 self.re=4.1675
G1 E121.9683 F1800
G1 X30.00 Y41.00 F60
;00:04:12.411: restore 0.6339@30 self.re=-0.2458
G1 E122.6022 F1800
;00:04:12.432: draw 0.30x0.60x1.00@5 ve=0.3742
G1 X45.00 Y41.00 E123.7247 F300
;00:04:15.432: retract -1.3747@30 self.re=0.3747
G1 E122.3501 F1800
G1 Z0.700 F420
;00:04:15.535: testStartStopLine Kf=1.2 vx=60 le=0 ve=30
G1 X-45.00 Y39.00 F6000
G1 Z0.300 F420
;00:04:16.492: restore 1.4637@30 self.re=-1.0007
G1 E123.8138 F1800
G1 X-40.00 Y39.00 E124.1879 F300
G1 X-30.00 Y39.00 F60
;00:04:27.541: restore 4.9158@30 self.re=0.0001
G1 E129.1038 F1800
;00:04:27.705: draw 0.30x0.60x1.00@60 ve=4.4901
G1 X20.00 Y39.00 E132.8455 F3600
;00:04:28.538: retract -4.9803@30 self.re=4.9803
G1 E127.8653 F1800
G1 X30.00 Y39.00 F60
;00:04:38.704: restore 0.7554@30 self.re=-0.2924
G1 E128.6206 F1800
;00:04:38.730: draw 0.30x0.60x1.00@5 ve=0.3742
G1 X45.00 Y39.00 E129.7432 F300
;00:04:41.730: retract -1.4497@30 self.re=0.4497
G1 E128.2934 F1800
G1 Z0.700 F420
;00:04:41.835: testStartStopLine Kf=1.4 vx=60 le=0 ve=30
G1 X-45.00 Y37.00 F6000
G1 Z0.300 F420
;00:04:42.792: restore 1.5387@30 self.re=-1.0009
G1 E129.8321 F1800
G1 X-40.00 Y37.00 E130.2063 F300
G1 X-30.00 Y37.00 F60
;00:04:53.844: restore 5.8071@30 self.re=0.0004
G1 E136.0134 F1800
;00:04:54.037: draw 0.30x0.60x1.00@60 ve=4.4901
G1 X20.00 Y37.00 E139.7551 F3600
;00:04:54.871: retract -5.7955@30 self.re=5.7955
G1 E133.9596 F1800
G1 X30.00 Y37.00 F60
;00:05:05.064: restore 0.8772@30 self.re=-0.3394
G1 E134.8368 F1800
;00:05:05.093: draw 0.30x0.60x1.00@5 ve=0.3742
G1 X45.00 Y37.00 E135.9593 F300
;00:05:08.093: retract -1.5248@30 self.re=0.5248
G1 E134.4346 F1800
G1 Z0.700 F420
;00:05:08.201: testStartStopLine Kf=1.5999999999999999 vx=60 le=0 ve=30
G1 X-45.00 Y35.00 F6000
G1 Z0.300 F420
;00:05:09.158: restore 1.6136@30 self.re=-1.0010
G1 E136.0482 F1800
G1 X-40.00 Y35.00 E136.4224 F300
G1 X-30.00 Y35.00 F60
;00:05:20.212: restore 6.6994@30 self.re=0.0012
G1 E143.1218 F1800
;00:05:20.435: draw 0.30x0.60x1.00@60 ve=4.4901
G1 X20.00 Y35.00 E146.8635 F3600
;00:05:21.269: retract -6.6130@30 self.re=6.6130
G1 E140.2506 F1800
G1 X30.00 Y35.00 F60
;00:05:31.489: restore 0.9993@30 self.re=-0.3867
G1 E141.2499 F1800
;00:05:31.523: draw 0.30x0.60x1.00@5 ve=0.3742
G1 X45.00 Y35.00 E142.3724 F300
;00:05:34.523: retract -1.5997@30 self.re=0.5997
G1 E140.7727 F1800
G1 Z0.700 F420
;00:05:34.633: testStartStopLine Kf=1.7999999999999998 vx=60 le=0 ve=30
G1 X-45.00 Y33.00 F6000
G1 Z0.300 F420
;00:05:35.590: restore 1.6886@30 self.re=-1.0012
G1 E142.4613 F1800
G1 X-40.00 Y33.00 E142.8355 F300
G1 X-30.00 Y33.00 F60
;00:05:46.647: restore 7.5920@30 self.re=0.0027
G1 E150.4275 F1800
;00:05:46.900: draw 0.30x0.60x1.00@60 ve=4.4901
G1 X20.00 Y33.00 E154.1693 F3600
;00:05:47.733: retract -7.4324@30 self.re=7.4324
G1 E146.7369 F1800
G1 X30.00 Y33.00 F60
;00:05:57.981: restore 1.1217@30 self.re=-0.4343
G1 E147.8585 F1800
;00:05:58.018: draw 0.30x0.60x1.00@5 ve=0.3742
G1 X45.00 Y33.00 E148.9811 F300
;00:06:01.018: retract -1.6747@30 self.re=0.6747
G1 E147.3064 F1800
G1 Z0.700 F420
;00:06:01.131: testStartStopLine Kf=1.9999999999999998 vx=60 le=0 ve=30
G1 X-45.00 Y31.00 F6000
G1 Z0.300 F420
;00:06:02.088: restore 1.7636@30 self.re=-1.0013
G1 E149.0700 F1800
G1 X-40.00 Y31.00 E149.4442 F300
G1 X-30.00 Y31.00 F60
;00:06:13.147: restore 8.4844@30 self.re=0.0052
G1 E157.9286 F1800
;00:06:13.430: draw 0.30x0.60x1.00@60 ve=4.4901
G1 X20.00 Y31.00 E161.6703 F3600
;00:06:14.263: retract -8.2534@30 self.re=8.2534
G1 E153.4169 F1800
G1 X30.00 Y31.00 F60
;00:06:24.539: restore 1.2442@30 self.re=-0.4820
G1 E154.6611 F1800
;00:06:24.580: draw 0.30x0.60x1.00@5 ve=0.3742
G1 X45.00 Y31.00 E155.7837 F300
;00:06:27.580: retract -1.7495@30 self.re=0.7495
G1 E154.0342 F1800
G1 Z0.700 F420
;structure:brim
;00:06:27.695: text 'Kf=0.0-2.0\nvx=60\nle=0\nve=30'
G1 X46.55 Y54.88 F6000
G1 Z0.300 F420
;00:06:27.992: restore 1.7528@30 self.re=-1.0015
G1 E155.7870 F1800
;00:06:28.050: draw 0.30x0.60x1.00@10 ve=0.7484
G1 X46.55 Y51.56 E156.0354 F600
;00:06:28.382: retract -1.7411@30 self.re=0.7411
G1 E154.2943 F1800
G1 Z0.700 F420
G1 X48.96 Y51.56 F6000
G1 Z0.300 F420
;00:06:28.579: restore 1.7570@30 self.re=-1.0057
G1 E156.0514 F1800
G1 X47.50 Y53.55 E156.2361 F600
;00:06:28.884: retract -1.7404@30 self.re=0.7404
G1 E154.4957 F1800
G1 Z0.700 F420
G1 X46.55 Y52.72 F6000
G1 Z0.300 F420
;00:06:29.069: restore 1.7570@30 self.re=-1.0057
G1 E156.2527 F1800
G1 X49.01 Y54.88 E156.4977 F600
;00:06:29.455: retract -1.7410@30 self.re=0.7410
G1 E154.7567 F1800
G1 Z0.700 F420
G1 X51.33 Y54.90 F6000
G1 Z0.300 F420
;00:06:29.651: restore 1.7570@30 self.re=-1.0057
G1 E156.5137 F1800
G1 X51.18 Y54.91 E156.5250 F600
G1 X51.00 Y54.86 E156.5389
G1 X50.85 Y54.74 E156.5533
G1 X50.73 Y54.55 E156.5701
G1 X50.65 Y54.19 E156.5977
G1 X50.65 Y51.56 E156.7945
;00:06:30.084: retract -1.7414@30 self.re=0.7414
G1 E155.0532 F1800
G1 Z0.700 F420
G1 X50.16 Y53.79 F6000
G1 Z0.300 F420
;00:06:30.280: restore 1.7570@30 self.re=-1.0057
G1 E156.8102 F1800
G1 X51.22 Y53.79 E156.8896 F600
;00:06:30.444: retract -1.7392@30 self.re=0.7392
G1 E155.1503 F1800
G1 Z0.700 F420
G1 X52.48 Y53.29 F6000
G1 Z0.300 F420
;00:06:30.630: restore 1.7570@30 self.re=-1.0057
G1 E156.9073 F1800
G1 X54.13 Y53.29 E157.0308 F600
;00:06:30.853: retract -1.7397@30 self.re=0.7397
G1 E155.2911 F1800
G1 Z0.700 F420
G1 X54.13 Y52.60 F6000
G1 Z0.300 F420
;00:06:31.033: restore 1.7570@30 self.re=-1.0057
G1 E157.0481 F1800
G1 X52.48 Y52.60 E157.1716 F600
;00:06:31.256: retract -1.7397@30 self.re=0.7397
G1 E155.4318 F1800
G1 Z0.700 F420
G1 X56.47 Y54.94 F6000
G1 Z0.300 F420
;00:06:31.475: restore 1.7570@30 self.re=-1.0057
G1 E157.1889 F1800
G1 X56.97 Y54.80 E157.2277 F600
G1 X57.35 Y54.43 E157.2674
G1 X57.58 Y53.88 E157.3120
G1 X57.67 Y53.22 E157.3619
G1 X57.58 Y52.56 E157.4117
G1 X57.35 Y52.01 E157.4563
G1 X56.97 Y51.64 E157.4960
G1 X56.47 Y51.50 E157.5349
G1 X55.97 Y51.64 E157.5737
G1 X55.59 Y52.01 E157.6134
G1 X55.36 Y52.56 E157.6580
G1 X55.28 Y53.22 E157.7078
G1 X55.36 Y53.88 E157.7575
G1 X55.59 Y54.43 E157.8022
G1 X55.96 Y54.80 E157.8413
G1 X56.47 Y54.94 E157.8809
;00:06:32.458: retract -1.7443@30 self.re=0.7443
G1 E156.1366 F1800
G1 Z0.700 F420
G1 X58.82 Y51.78 F6000
G1 Z0.300 F420
;00:06:32.670: restore 2.5084@30 self.re=-1.0058
G1 E158.6450 F1800
G1 X58.82 Y51.58 E158.6600 F600
;00:06:32.773: retract -2.4445@30 self.re=1.4445
G1 E156.2154 F1800
G1 Z0.700 F420
G1 X61.16 Y54.94 F6000
G1 Z0.300 F420
;00:06:33.010: restore 1.7783@30 self.re=-1.0270
G1 E157.9937 F1800
G1 X61.66 Y54.80 E158.0326 F600
G1 X62.04 Y54.43 E158.0722
G1 X62.27 Y53.88 E158.1169
G1 X62.36 Y53.22 E158.1667
G1 X62.27 Y52.56 E158.2166
G1 X62.04 Y52.01 E158.2612
G1 X61.66 Y51.64 E158.3009
G1 X61.16 Y51.50 E158.3397
G1 X60.66 Y51.64 E158.3786
G1 X60.28 Y52.01 E158.4183
G1 X60.05 Y52.56 E158.4629
G1 X59.97 Y53.22 E158.5126
G1 X60.05 Y53.88 E158.5624
G1 X60.28 Y54.43 E158.6070
G1 X60.65 Y54.80 E158.6462
G1 X61.16 Y54.94 E158.6857
;00:06:33.994: retract -1.7443@30 self.re=0.7443
G1 E156.9415 F1800
G1 Z0.700 F420
G1 X63.50 Y52.94 F6000
G1 Z0.300 F420
;00:06:34.197: restore 1.7571@30 self.re=-1.0058
G1 E158.6986 F1800
G1 X65.33 Y52.94 E158.8355 F600
;00:06:34.439: retract -1.7399@30 self.re=0.7399
G1 E157.0956 F1800
G1 Z0.700 F420
G1 X66.48 Y54.45 F6000
G1 Z0.300 F420
;00:06:34.630: restore 1.7570@30 self.re=-1.0057
G1 E158.8526 F1800
G1 X66.66 Y54.66 E158.8733 F600
G1 X66.89 Y54.81 E158.8939
G1 X67.15 Y54.91 E158.9147
G1 X67.42 Y54.94 E158.9351
G1 X67.78 Y54.88 E158.9624
G1 X68.07 Y54.69 E158.9883
G1 X68.26 Y54.41 E159.0137
G1 X68.33 Y54.04 E159.0418
G1 X68.23 Y53.66 E159.0712
G1 X67.95 Y53.31 E159.1048
G1 X67.19 Y52.70 E159.1777
G1 X66.90 Y52.29 E159.2153
G1 X66.52 Y51.56 E159.2769
G1 X68.30 Y51.56 E159.4101
;00:06:35.434: retract -1.7435@30 self.re=0.7435
G1 E157.6666 F1800
G1 Z0.700 F420
G1 X69.48 Y51.78 F6000
G1 Z0.300 F420
;00:06:35.618: restore 2.5084@30 self.re=-1.0058
G1 E160.1750 F1800
G1 X69.48 Y51.58 E160.1899 F600
;00:06:35.722: retract -2.4445@30 self.re=1.4445
G1 E157.7454 F1800
G1 Z0.700 F420
G1 X71.82 Y54.94 F6000
G1 Z0.300 F420
;00:06:35.958: restore 1.7783@30 self.re=-1.0270
G1 E159.5237 F1800
G1 X72.32 Y54.80 E159.5625 F600
G1 X72.70 Y54.43 E159.6022
G1 X72.93 Y53.88 E159.6468
G1 X73.02 Y53.22 E159.6967
G1 X72.93 Y52.56 E159.7465
G1 X72.70 Y52.01 E159.7911
G1 X72.32 Y51.64 E159.8308
G1 X71.82 Y51.50 E159.8697
G1 X71.32 Y51.64 E159.9086
G1 X70.94 Y52.01 E159.9482
G1 X70.71 Y52.56 E159.9929
G1 X70.63 Y53.22 E160.0426
G1 X70.71 Y53.88 E160.0924
G1 X70.94 Y54.43 E160.1370
G1 X71.31 Y54.80 E160.1761
G1 X71.82 Y54.94 E160.2157
;00:06:36.942: retract -1.7443@30 self.re=0.7443
G1 E158.4714 F1800
G1 Z0.700 F420
G1 X46.55 Y48.91 F6000
G1 Z0.300 F420
;00:06:37.375: restore 1.7571@30 self.re=-1.0058
G1 E160.2285 F1800
G1 X47.55 Y46.56 E160.4197 F600
G1 X48.55 Y48.91 E160.6108
;00:06:37.944: retract -1.7422@30 self.re=0.7422
G1 E158.8686 F1800
G1 Z0.700 F420
G1 X49.70 Y48.91 F6000
G1 Z0.300 F420
;00:06:38.128: restore 1.7571@30 self.re=-1.0057
G1 E160.6256 F1800
G1 X51.65 Y46.56 E160.8541 F600
;00:06:38.492: retract -1.7409@30 self.re=0.7409
G1 E159.1133 F1800
G1 Z0.700 F420
G1 X49.70 Y46.56 F6000
G1 Z0.300 F420
;00:06:38.684: restore 1.7570@30 self.re=-1.0057
G1 E160.8703 F1800
G1 X51.65 Y48.91 E161.0988 F600
;00:06:39.048: retract -1.7409@30 self.re=0.7409
G1 E159.3580 F1800
G1 Z0.700 F420
G1 X52.80 Y48.29 F6000
G1 Z0.300 F420
;00:06:39.233: restore 1.7570@30 self.re=-1.0057
G1 E161.1150 F1800
G1 X54.45 Y48.29 E161.2385 F600
;00:06:39.457: retract -1.7397@30 self.re=0.7397
G1 E159.4988 F1800
G1 Z0.700 F420
G1 X54.45 Y47.60 F6000
G1 Z0.300 F420
;00:06:39.636: restore 1.7570@30 self.re=-1.0057
G1 E161.2558 F1800
G1 X52.80 Y47.60 E161.3792 F600
;00:06:39.859: retract -1.7397@30 self.re=0.7397
G1 E159.6395 F1800
G1 Z0.700 F420
G1 X57.60 Y49.19 F6000
G1 Z0.300 F420
;00:06:40.082: restore 1.7570@30 self.re=-1.0057
G1 E161.3965 F1800
G1 X57.29 Y49.75 E161.4444 F600
G1 X56.72 Y49.94 E161.4894
G1 X56.22 Y49.82 E161.5279
G1 X55.87 Y49.48 E161.5644
G1 X55.67 Y48.89 E161.6110
G1 X55.60 Y48.10 E161.6704
G1 X55.67 Y47.41 E161.7223
G1 X55.88 Y46.91 E161.7628
G1 X56.22 Y46.61 E161.7968
G1 X56.68 Y46.50 E161.8322
G1 X57.11 Y46.59 E161.8650
G1 X57.43 Y46.83 E161.8950
G1 X57.61 Y47.19 E161.9251
G1 X57.67 Y47.61 E161.9568
G1 X57.60 Y48.01 E161.9872
G1 X57.42 Y48.34 E162.0154
G1 X57.12 Y48.57 E162.0437
G1 X56.73 Y48.65 E162.0734
G1 X56.28 Y48.56 E162.1078
G1 X55.86 Y48.32 E162.1440
G1 X55.60 Y48.10 E162.1695
;00:06:41.174: retract -1.7447@30 self.re=0.7447
G1 E160.4248 F1800
G1 Z0.700 F420
G1 X60.01 Y49.94 F6000
G1 Z0.300 F420
;00:06:41.394: restore 1.7571@30 self.re=-1.0058
G1 E162.1819 F1800
G1 X60.51 Y49.80 E162.2207 F600
G1 X60.89 Y49.43 E162.2604
G1 X61.12 Y48.88 E162.3050
G1 X61.21 Y48.22 E162.3549
G1 X61.12 Y47.56 E162.4047
G1 X60.89 Y47.01 E162.4493
G1 X60.51 Y46.64 E162.4890
G1 X60.01 Y46.50 E162.5279
G1 X59.51 Y46.64 E162.5667
G1 X59.13 Y47.01 E162.6064
G1 X58.90 Y47.56 E162.6510
G1 X58.82 Y48.22 E162.7008
G1 X58.90 Y48.88 E162.7506
G1 X59.13 Y49.43 E162.7952
G1 X59.50 Y49.80 E162.8343
G1 X60.01 Y49.94 E162.8739
;00:06:42.377: retract -1.7443@30 self.re=0.7443
G1 E161.1296 F1800
G1 Z0.700 F420
G1 X46.55 Y44.88 F6000
G1 Z0.300 F420
;00:06:42.693: restore 1.7571@30 self.re=-1.0058
G1 E162.8867 F1800
G1 X46.55 Y41.56 E163.1351 F600
;00:06:43.084: retract -1.7410@30 self.re=0.7410
G1 E161.3941 F1800
G1 Z0.700 F420
G1 X47.70 Y42.74 F6000
G1 Z0.300 F420
;00:06:43.273: restore 1.7570@30 self.re=-1.0057
G1 E163.1511 F1800
G1 X49.79 Y42.74 E163.3075 F600
G1 X49.72 Y43.26 E163.3468
G1 X49.51 Y43.64 E163.3793
G1 X49.18 Y43.89 E163.4103
G1 X48.75 Y43.97 E163.4430
G1 X48.32 Y43.89 E163.4757
G1 X47.99 Y43.64 E163.5067
G1 X47.78 Y43.26 E163.5392
G1 X47.70 Y42.74 E163.5786
G1 X47.78 Y42.22 E163.6180
G1 X48.00 Y41.83 E163.6515
G1 X48.34 Y41.58 E163.6830
G1 X48.79 Y41.50 E163.7173
G1 X49.13 Y41.55 E163.7430
G1 X49.41 Y41.68 E163.7661
G1 X49.62 Y41.90 E163.7888
G1 X49.74 Y42.20 E163.8130
;00:06:44.216: retract -1.7441@30 self.re=0.7441
G1 E162.0689 F1800
G1 Z0.700 F420
G1 X50.94 Y43.29 F6000
G1 Z0.300 F420
;00:06:44.404: restore 1.7571@30 self.re=-1.0058
G1 E163.8260 F1800
G1 X52.59 Y43.29 E163.9494 F600
;00:06:44.628: retract -1.7397@30 self.re=0.7397
G1 E162.2097 F1800
G1 Z0.700 F420
G1 X52.59 Y42.60 F6000
G1 Z0.300 F420
;00:06:44.807: restore 1.7570@30 self.re=-1.0057
G1 E163.9667 F1800
G1 X50.94 Y42.60 E164.0902 F600
;00:06:45.031: retract -1.7397@30 self.re=0.7397
G1 E162.3505 F1800
G1 Z0.700 F420
G1 X54.93 Y44.94 F6000
G1 Z0.300 F420
;00:06:45.249: restore 1.7570@30 self.re=-1.0057
G1 E164.1075 F1800
G1 X55.43 Y44.80 E164.1463 F600
G1 X55.81 Y44.43 E164.1860
G1 X56.04 Y43.88 E164.2306
G1 X56.13 Y43.22 E164.2805
G1 X56.04 Y42.56 E164.3303
G1 X55.81 Y42.01 E164.3750
G1 X55.43 Y41.64 E164.4146
G1 X54.93 Y41.50 E164.4535
G1 X54.43 Y41.64 E164.4924
G1 X54.05 Y42.01 E164.5320
G1 X53.82 Y42.56 E164.5767
G1 X53.74 Y43.22 E164.6264
G1 X53.82 Y43.88 E164.6762
G1 X54.05 Y44.43 E164.7208
G1 X54.42 Y44.80 E164.7599
G1 X54.93 Y44.94 E164.7995
;00:06:46.233: retract -1.7443@30 self.re=0.7443
G1 E163.0552 F1800
G1 Z0.700 F420
G1 X46.55 Y38.91 F6000
G1 Z0.300 F420
;00:06:46.508: restore 1.7571@30 self.re=-1.0058
G1 E164.8123 F1800
G1 X47.55 Y36.56 E165.0034 F600
G1 X48.55 Y38.91 E165.1946
;00:06:47.078: retract -1.7422@30 self.re=0.7422
G1 E163.4523 F1800
G1 Z0.700 F420
G1 X49.70 Y37.74 F6000
G1 Z0.300 F420
;00:06:47.266: restore 1.7571@30 self.re=-1.0057
G1 E165.2094 F1800
G1 X51.79 Y37.74 E165.3658 F600
G1 X51.72 Y38.26 E165.4050
G1 X51.51 Y38.64 E165.4375
G1 X51.18 Y38.89 E165.4685
G1 X50.75 Y38.97 E165.5012
G1 X50.32 Y38.89 E165.5340
G1 X49.99 Y38.64 E165.5650
G1 X49.78 Y38.26 E165.5975
G1 X49.70 Y37.74 E165.6368
G1 X49.78 Y37.22 E165.6762
G1 X50.00 Y36.83 E165.7097
G1 X50.34 Y36.58 E165.7413
G1 X50.79 Y36.50 E165.7755
G1 X51.13 Y36.55 E165.8012
G1 X51.41 Y36.68 E165.8243
G1 X51.62 Y36.90 E165.8471
G1 X51.74 Y37.20 E165.8713
;00:06:48.209: retract -1.7441@30 self.re=0.7441
G1 E164.1271 F1800
G1 Z0.700 F420
G1 X52.94 Y38.29 F6000
G1 Z0.300 F420
;00:06:48.398: restore 1.7571@30 self.re=-1.0058
G1 E165.8842 F1800
G1 X54.59 Y38.29 E166.0077 F600
;00:06:48.622: retract -1.7397@30 self.re=0.7397
G1 E164.2680 F1800
G1 Z0.700 F420
G1 X54.59 Y37.60 F6000
G1 Z0.300 F420
;00:06:48.801: restore 1.7570@30 self.re=-1.0057
G1 E166.0250 F1800
G1 X52.94 Y37.60 E166.1484 F600
;00:06:49.024: retract -1.7397@30 self.re=0.7397
G1 E164.4087 F1800
G1 Z0.700 F420
G1 X55.78 Y39.15 F6000
G1 Z0.300 F420
;00:06:49.229: restore 1.7570@30 self.re=-1.0057
G1 E166.1657 F1800
G1 X55.90 Y39.48 E166.1920 F600
G1 X56.10 Y39.74 E166.2165
G1 X56.38 Y39.89 E166.2403
G1 X56.72 Y39.94 E166.2660
G1 X57.10 Y39.87 E166.2949
G1 X57.38 Y39.69 E166.3199
G1 X57.56 Y39.42 E166.3441
G1 X57.63 Y39.08 E166.3701
G1 X57.56 Y38.88 E166.3860
G1 X57.42 Y38.71 E166.4025
G1 X57.06 Y38.49 E166.4340
G1 X56.63 Y38.33 E166.4684
G1 X57.06 Y38.22 E166.5016
G1 X57.41 Y38.06 E166.5304
G1 X57.69 Y37.79 E166.5595
G1 X57.80 Y37.51 E166.5820
G1 X57.72 Y37.10 E166.6133
G1 X57.50 Y36.78 E166.6423
G1 X57.17 Y36.57 E166.6716
G1 X56.76 Y36.50 E166.7027
G1 X56.36 Y36.56 E166.7330
G1 X56.05 Y36.73 E166.7595
G1 X55.84 Y36.99 E166.7845
G1 X55.74 Y37.34 E166.8117
;00:06:50.151: retract -1.7440@30 self.re=0.7440
G1 E165.0677 F1800
G1 Z0.700 F420
G1 X60.13 Y39.94 F6000
G1 Z0.300 F420
;00:06:50.374: restore 1.7571@30 self.re=-1.0058
G1 E166.8247 F1800
G1 X60.63 Y39.80 E166.8636 F600
G1 X61.01 Y39.43 E166.9033
G1 X61.24 Y38.88 E166.9479
G1 X61.33 Y38.22 E166.9978
G1 X61.24 Y37.56 E167.0476
G1 X61.01 Y37.01 E167.0922
G1 X60.63 Y36.64 E167.1319
G1 X60.13 Y36.50 E167.1708
G1 X59.63 Y36.64 E167.2096
G1 X59.25 Y37.01 E167.2493
G1 X59.02 Y37.56 E167.2939
G1 X58.94 Y38.22 E167.3437
G1 X59.02 Y38.88 E167.3934
G1 X59.25 Y39.43 E167.4380
G1 X59.62 Y39.80 E167.4772
G1 X60.13 Y39.94 E167.5168
;00:06:51.357: retract -1.7443@30 self.re=0.7443
G1 E165.7725 F1800
G1 Z0.700 F420
;00:06:51.473: testStartStop Kf=1.0 vx=20-100 le=0 ve=30
;structure:shell-outer
G1 X-45.00 Y26.00 F6000
G1 Z0.300 F420
;00:06:52.590: restore 1.7571@30 self.re=-1.0058
G1 E167.5296 F1800
G1 X45.00 Y26.00 E174.2648 F600
;00:07:01.649: retract -1.7484@30 self.re=0.7484
G1 E172.5164 F1800
G1 Z0.700 F420
G1 X-42.00 Y26.00 F6000
G1 X-40.00 Y26.00
G1 Z0.300 F420
;00:07:02.711: restore 1.7572@30 self.re=-1.0059
G1 E174.2736 F1800
G1 X-40.00 Y23.00 E174.4981 F600
;00:07:03.070: retract -1.7408@30 self.re=0.7408
G1 E172.7573 F1800
G1 Z0.700 F420
G1 X-38.00 Y26.00 F6000
G1 Z0.300 F420
;00:07:03.278: restore 1.7570@30 self.re=-1.0057
G1 E174.5143 F1800
G1 X-38.00 Y24.50 E174.6266 F600
;00:07:03.487: retract -1.7396@30 self.re=0.7396
G1 E172.8870 F1800
G1 Z0.700 F420
G1 X-36.00 Y26.00 F6000
G1 Z0.300 F420
;00:07:03.684: restore 1.7570@30 self.re=-1.0057
G1 E174.6440 F1800
G1 X-36.00 Y24.50 E174.7562 F600
;00:07:03.893: retract -1.7396@30 self.re=0.7396
G1 E173.0166 F1800
G1 Z0.700 F420
G1 X-34.00 Y26.00 F6000
G1 Z0.300 F420
;00:07:04.090: restore 1.7570@30 self.re=-1.0057
G1 E174.7736 F1800
G1 X-34.00 Y24.50 E174.8859 F600
;00:07:04.299: retract -1.7396@30 self.re=0.7396
G1 E173.1463 F1800
G1 Z0.700 F420
G1 X-32.00 Y26.00 F6000
G1 Z0.300 F420
;00:07:04.496: restore 1.7570@30 self.re=-1.0057
G1 E174.9033 F1800
G1 X-32.00 Y24.50 E175.0155 F600
;00:07:04.705: retract -1.7396@30 self.re=0.7396
G1 E173.2759 F1800
G1 Z0.700 F420
G1 X-30.00 Y26.00 F6000
G1 Z0.300 F420
;00:07:04.902: restore 1.7570@30 self.re=-1.0057
G1 E175.0329 F1800
G1 X-30.00 Y23.00 E175.2574 F600
;00:07:05.260: retract -1.7408@30 self.re=0.7408
G1 E173.5166 F1800
G1 Z0.700 F420
G1 X-28.00 Y26.00 F6000
G1 Z0.300 F420
;00:07:05.469: restore 1.7570@30 self.re=-1.0057
G1 E175.2737 F1800
G1 X-28.00 Y24.50 E175.3859 F600
;00:07:05.677: retract -1.7396@30 self.re=0.7396
G1 E173.6463 F1800
G1 Z0.700 F420
G1 X-26.00 Y26.00 F6000
G1 Z0.300 F420
;00:07:05.875: restore 1.7570@30 self.re=-1.0057
G1 E175.4033 F1800
G1 X-26.00 Y24.50 E175.5156 F600
;00:07:06.083: retract -1.7396@30 self.re=0.7396
G1 E173.7760 F1800
G1 Z0.700 F420
G1 X-24.00 Y26.00 F6000
G1 Z0.300 F420
;00:07:06.280: restore 1.7570@30 self.re=-1.0057
G1 E175.5330 F1800
G1 X-24.00 Y24.50 E175.6452 F600
;00:07:06.489: retract -1.7396@30 self.re=0.7396
G1 E173.9056 F1800
G1 Z0.700 F420
G1 X-22.00 Y26.00 F6000
G1 Z0.300 F420
;00:07:06.686: restore 1.7570@30 self.re=-1.0057
G1 E175.6626 F1800
G1 X-22.00 Y24.50 E175.7749 F600
;00:07:06.895: retract -1.7396@30 self.re=0.7396
G1 E174.0353 F1800
G1 Z0.700 F420
G1 X-20.00 Y26.00 F6000
G1 Z0.300 F420
;00:07:07.092: restore 1.7570@30 self.re=-1.0057
G1 E175.7923 F1800
G1 X-20.00 Y23.00 E176.0168 F600
;00:07:07.451: retract -1.7408@30 self.re=0.7408
G1 E174.2760 F1800
G1 Z0.700 F420
G1 X-18.00 Y26.00 F6000
G1 Z0.300 F420
;00:07:07.659: restore 1.7570@30 self.re=-1.0057
G1 E176.0330 F1800
G1 X-18.00 Y24.50 E176.1453 F600
;00:07:07.868: retract -1.7396@30 self.re=0.7396
G1 E174.4057 F1800
G1 Z0.700 F420
G1 X-16.00 Y26.00 F6000
G1 Z0.300 F420
;00:07:08.065: restore 1.7570@30 self.re=-1.0057
G1 E176.1627 F1800
G1 X-16.00 Y24.50 E176.2749 F600
;00:07:08.273: retract -1.7396@30 self.re=0.7396
G1 E174.5353 F1800
G1 Z0.700 F420
G1 X-14.00 Y26.00 F6000
G1 Z0.300 F420
;00:07:08.471: restore 1.7570@30 self.re=-1.0057
G1 E176.2923 F1800
G1 X-14.00 Y24.50 E176.4046 F600
;00:07:08.679: retract -1.7396@30 self.re=0.7396
G1 E174.6650 F1800
G1 Z0.700 F420
G1 X-12.00 Y26.00 F6000
G1 Z0.300 F420
;00:07:08.877: restore 1.7570@30 self.re=-1.0057
G1 E176.4220 F1800
G1 X-12.00 Y24.50 E176.5342 F600
;00:07:09.085: retract -1.7396@30 self.re=0.7396
G1 E174.7946 F1800
G1 Z0.700 F420
G1 X-10.00 Y26.00 F6000
G1 Z0.300 F420
;00:07:09.282: restore 1.7570@30 self.re=-1.0057
G1 E176.5516 F1800
G1 X-10.00 Y23.00 E176.7761 F600
;00:07:09.641: retract -1.7408@30 self.re=0.7408
G1 E175.0353 F1800
G1 Z0.700 F420
G1 X-8.00 Y26.00 F6000
G1 Z0.300 F420
;00:07:09.849: restore 1.7570@30 self.re=-1.0057
G1 E176.7924 F1800
G1 X-8.00 Y24.50 E176.9046 F600
;00:07:10.058: retract -1.7396@30 self.re=0.7396
G1 E175.1650 F1800
G1 Z0.700 F420
G1 X-6.00 Y26.00 F6000
G1 Z0.300 F420
;00:07:10.255: restore 1.7570@30 self.re=-1.0057
G1 E176.9220 F1800
G1 X-6.00 Y24.50 E177.0343 F600
;00:07:10.464: retract -1.7396@30 self.re=0.7396
G1 E175.2947 F1800
G1 Z0.700 F420
G1 X-4.00 Y26.00 F6000
G1 Z0.300 F420
;00:07:10.661: restore 1.7570@30 self.re=-1.0057
G1 E177.0517 F1800
G1 X-4.00 Y24.50 E177.1639 F600
;00:07:10.870: retract -1.7396@30 self.re=0.7396
G1 E175.4243 F1800
G1 Z0.700 F420
G1 X-2.00 Y26.00 F6000
G1 Z0.300 F420
;00:07:11.067: restore 1.7570@30 self.re=-1.0057
G1 E177.1813 F1800
G1 X-2.00 Y24.50 E177.2936 F600
;00:07:11.275: retract -1.7396@30 self.re=0.7396
G1 E175.5540 F1800
G1 Z0.700 F420
G1 X0.00 Y26.00 F6000
G1 Z0.300 F420
;00:07:11.473: restore 1.7570@30 self.re=-1.0057
G1 E177.3110 F1800
G1 X0.00 Y23.00 E177.5355 F600
;00:07:11.831: retract -1.7408@30 self.re=0.7408
G1 E175.7947 F1800
G1 Z0.700 F420
G1 X2.00 Y26.00 F6000
G1 Z0.300 F420
;00:07:12.040: restore 1.7570@30 self.re=-1.0057
G1 E177.5517 F1800
G1 X2.00 Y24.50 E177.6640 F600
;00:07:12.248: retract -1.7396@30 self.re=0.7396
G1 E175.9244 F1800
G1 Z0.700 F420
G1 X4.00 Y26.00 F6000
G1 Z0.300 F420
;00:07:12.445: restore 1.7570@30 self.re=-1.0057
G1 E177.6814 F1800
G1 X4.00 Y24.50 E177.7936 F600
;00:07:12.654: retract -1.7396@30 self.re=0.7396
G1 E176.0540 F1800
G1 Z0.700 F420
G1 X6.00 Y26.00 F6000
G1 Z0.300 F420
;00:07:12.851: restore 1.7570@30 self.re=-1.0057
G1 E177.8110 F1800
G1 X6.00 Y24.50 E177.9233 F600
;00:07:13.060: retract -1.7396@30 self.re=0.7396
G1 E176.1837 F1800
G1 Z0.700 F420
G1 X8.00 Y26.00 F6000
G1 Z0.300 F420
;00:07:13.257: restore 1.7570@30 self.re=-1.0057
G1 E177.9407 F1800
G1 X8.00 Y24.50 E178.0529 F600
;00:07:13.466: retract -1.7396@30 self.re=0.7396
G1 E176.3133 F1800
G1 Z0.700 F420
G1 X10.00 Y26.00 F6000
G1 Z0.300 F420
;00:07:13.663: restore 1.7570@30 self.re=-1.0057
G1 E178.0703 F1800
G1 X10.00 Y23.00 E178.2949 F600
;00:07:14.022: retract -1.7408@30 self.re=0.7408
G1 E176.5540 F1800
G1 Z0.700 F420
G1 X12.00 Y26.00 F6000
G1 Z0.300 F420
;00:07:14.230: restore 1.7570@30 self.re=-1.0057
G1 E178.3111 F1800
G1 X12.00 Y24.50 E178.4233 F600
;00:07:14.438: retract -1.7396@30 self.re=0.7396
G1 E176.6837 F1800
G1 Z0.700 F420
G1 X14.00 Y26.00 F6000
G1 Z0.300 F420
;00:07:14.636: restore 1.7570@30 self.re=-1.0057
G1 E178.4407 F1800
G1 X14.00 Y24.50 E178.5530 F600
;00:07:14.844: retract -1.7396@30 self.re=0.7396
G1 E176.8134 F1800
G1 Z0.700 F420
G1 X16.00 Y26.00 F6000
G1 Z0.300 F420
;00:07:15.042: restore 1.7570@30 self.re=-1.0057
G1 E178.5704 F1800
G1 X16.00 Y24.50 E178.6826 F600
;00:07:15.250: retract -1.7396@30 self.re=0.7396
G1 E176.9430 F1800
G1 Z0.700 F420
G1 X18.00 Y26.00 F6000
G1 Z0.300 F420
;00:07:15.447: restore 1.7570@30 self.re=-1.0057
G1 E178.7000 F1800
G1 X18.00 Y24.50 E178.8123 F600
;00:07:15.656: retract -1.7396@30 self.re=0.7396
G1 E177.0727 F1800
G1 Z0.700 F420
G1 X20.00 Y26.00 F6000
G1 Z0.300 F420
;00:07:15.853: restore 1.7570@30 self.re=-1.0057
G1 E178.8297 F1800
G1 X20.00 Y23.00 E179.0542 F600
;00:07:16.212: retract -1.7408@30 self.re=0.7408
G1 E177.3134 F1800
G1 Z0.700 F420
G1 X22.00 Y26.00 F6000
G1 Z0.300 F420
;00:07:16.420: restore 1.7570@30 self.re=-1.0057
G1 E179.0704 F1800
G1 X22.00 Y24.50 E179.1827 F600
;00:07:16.629: retract -1.7396@30 self.re=0.7396
G1 E177.4431 F1800
G1 Z0.700 F420
G1 X24.00 Y26.00 F6000
G1 Z0.300 F420
;00:07:16.826: restore 1.7570@30 self.re=-1.0057
G1 E179.2001 F1800
G1 X24.00 Y24.50 E179.3123 F600
;00:07:17.035: retract -1.7396@30 self.re=0.7396
G1 E177.5727 F1800
G1 Z0.700 F420
G1 X26.00 Y26.00 F6000
G1 Z0.300 F420
;00:07:17.232: restore 1.7570@30 self.re=-1.0057
G1 E179.3297 F1800
G1 X26.00 Y24.50 E179.4420 F600
;00:07:17.440: retract -1.7396@30 self.re=0.7396
G1 E177.7024 F1800
G1 Z0.700 F420
G1 X28.00 Y26.00 F6000
G1 Z0.300 F420
;00:07:17.638: restore 1.7570@30 self.re=-1.0057
G1 E179.4594 F1800
G1 X28.00 Y24.50 E179.5716 F600
;00:07:17.846: retract -1.7396@30 self.re=0.7396
G1 E177.8320 F1800
G1 Z0.700 F420
G1 X30.00 Y26.00 F6000
G1 Z0.300 F420
;00:07:18.044: restore 1.7570@30 self.re=-1.0057
G1 E179.5891 F1800
G1 X30.00 Y23.00 E179.8136 F600
;00:07:18.402: retract -1.7408@30 self.re=0.7408
G1 E178.0727 F1800
G1 Z0.700 F420
G1 X32.00 Y26.00 F6000
G1 Z0.300 F420
;00:07:18.610: restore 1.7570@30 self.re=-1.0057
G1 E179.8298 F1800
G1 X32.00 Y24.50 E179.9420 F600
;00:07:18.819: retract -1.7396@30 self.re=0.7396
G1 E178.2024 F1800
G1 Z0.700 F420
G1 X34.00 Y26.00 F6000
G1 Z0.300 F420
;00:07:19.016: restore 1.7570@30 self.re=-1.0057
G1 E179.9594 F1800
G1 X34.00 Y24.50 E180.0717 F600
;00:07:19.225: retract -1.7396@30 self.re=0.7396
G1 E178.3321 F1800
G1 Z0.700 F420
G1 X36.00 Y26.00 F6000
G1 Z0.300 F420
;00:07:19.422: restore 1.7570@30 self.re=-1.0057
G1 E180.0891 F1800
G1 X36.00 Y24.50 E180.2013 F600
;00:07:19.631: retract -1.7396@30 self.re=0.7396
G1 E178.4617 F1800
G1 Z0.700 F420
G1 X38.00 Y26.00 F6000
G1 Z0.300 F420
;00:07:19.828: restore 1.7570@30 self.re=-1.0057
G1 E180.2187 F1800
G1 X38.00 Y24.50 E180.3310 F600
;00:07:20.037: retract -1.7396@30 self.re=0.7396
G1 E178.5914 F1800
G1 Z0.700 F420
G1 X40.00 Y26.00 F6000
G1 Z0.300 F420
;00:07:20.234: restore 1.7570@30 self.re=-1.0057
G1 E180.3484 F1800
G1 X40.00 Y23.00 E180.5729 F600
;00:07:20.592: retract -1.7408@30 self.re=0.7408
G1 E178.8321 F1800
G1 Z0.700 F420
;structure:infill-solid
;00:07:20.708: testStartStopLine Kf=1.0 vx=20 le=0 ve=30
G1 X-45.00 Y22.00 F6000
G1 Z0.300 F420
;00:07:21.615: restore 1.3938@30 self.re=-1.0057
G1 E180.2259 F1800
;00:07:21.661: draw 0.30x0.60x1.00@5 ve=0.3742
G1 X-40.00 Y22.00 E180.6001 F300
G1 X-30.00 Y22.00 F60
;00:07:32.661: restore 1.4568@30 self.re=0.0000
G1 E182.0569 F1800
;00:07:32.710: draw 0.30x0.60x1.00@20 ve=1.4967
G1 X20.00 Y22.00 E185.7986 F1200
;00:07:35.210: retract -1.4899@30 self.re=1.4899
G1 E184.3087 F1800
G1 X30.00 Y22.00 F60
;00:07:45.259: restore 0.4168@30 self.re=-0.0287
G1 E184.7255 F1800
;00:07:45.273: draw 0.30x0.60x1.00@5 ve=0.3742
G1 X45.00 Y22.00 E185.8480 F300
;00:07:48.273: retract -1.3747@30 self.re=0.3747
G1 E184.4734 F1800
G1 Z0.700 F420
;00:07:48.376: testStartStopLine Kf=1.0 vx=28.0 le=0 ve=30
G1 X-45.00 Y20.00 F6000
G1 Z0.300 F420
;00:07:49.334: restore 1.3888@30 self.re=-1.0007
G1 E185.8622 F1800
G1 X-40.00 Y20.00 E186.2364 F300
G1 X-30.00 Y20.00 F60
;00:08:00.380: restore 2.0019@30 self.re=0.0000
G1 E188.2383 F1800
;00:08:00.447: draw 0.30x0.60x1.00@28 ve=2.0954
G1 X20.00 Y20.00 E191.9800 F1680
;00:08:02.232: retract -2.0670@30 self.re=2.0670
G1 E189.9130 F1800
G1 X30.00 Y20.00 F60
;00:08:12.301: restore 0.4465@30 self.re=-0.0584
G1 E190.3596 F1800
;00:08:12.316: draw 0.30x0.60x1.00@5 ve=0.3742
G1 X45.00 Y20.00 E191.4821 F300
;00:08:15.316: retract -1.3747@30 self.re=0.3747
G1 E190.1074 F1800
G1 Z0.700 F420
;00:08:15.419: testStartStopLine Kf=1.0 vx=36.0 le=0 ve=30
G1 X-45.00 Y18.00 F6000
G1 Z0.300 F420
;00:08:16.377: restore 1.3888@30 self.re=-1.0007
G1 E191.4963 F1800
G1 X-40.00 Y18.00 E191.8705 F300
G1 X-30.00 Y18.00 F60
;00:08:27.423: restore 2.5307@30 self.re=0.0000
G1 E194.4012 F1800
;00:08:27.507: draw 0.30x0.60x1.00@36 ve=2.6941
G1 X20.00 Y18.00 E198.1430 F2160
;00:08:28.896: retract -2.6242@30 self.re=2.6242
G1 E195.5188 F1800
G1 X30.00 Y18.00 F60
;00:08:38.984: restore 0.4844@30 self.re=-0.0963
G1 E196.0032 F1800
;00:08:39.000: draw 0.30x0.60x1.00@5 ve=0.3742
G1 X45.00 Y18.00 E197.1257 F300
;00:08:42.000: retract -1.3747@30 self.re=0.3747
G1 E195.7511 F1800
G1 Z0.700 F420
;00:08:42.103: testStartStopLine Kf=1.0 vx=44.0 le=0 ve=30
G1 X-45.00 Y16.00 F6000
G1 Z0.300 F420
;00:08:43.060: restore 1.3888@30 self.re=-1.0007
G1 E197.1399 F1800
G1 X-40.00 Y16.00 E197.5141 F300
G1 X-30.00 Y16.00 F60
;00:08:54.106: restore 3.0440@30 self.re=0.0000
G1 E200.5581 F1800
;00:08:54.208: draw 0.30x0.60x1.00@44 ve=3.2928
G1 X20.00 Y16.00 E204.2999 F2640
;00:08:55.344: retract -3.1599@30 self.re=3.1599
G1 E201.1400 F1800
G1 X30.00 Y16.00 F60
;00:09:05.449: restore 0.5288@30 self.re=-0.1407
G1 E201.6688 F1800
;00:09:05.467: draw 0.30x0.60x1.00@5 ve=0.3742
G1 X45.00 Y16.00 E202.7913 F300
;00:09:08.467: retract -1.3747@30 self.re=0.3747
G1 E201.4166 F1800
G1 Z0.700 F420
;00:09:08.570: testStartStopLine Kf=1.0 vx=52.0 le=0 ve=30
G1 X-45.00 Y14.00 F6000
G1 Z0.300 F420
;00:09:09.527: restore 1.3888@30 self.re=-1.0007
G1 E202.8055 F1800
G1 X-40.00 Y14.00 E203.1797 F300
G1 X-30.00 Y14.00 F60
;00:09:20.574: restore 3.5425@30 self.re=0.0000
G1 E206.7221 F1800
;00:09:20.692: draw 0.30x0.60x1.00@52 ve=3.8914
G1 X20.00 Y14.00 E210.4639 F3120
;00:09:21.653: retract -3.6742@30 self.re=3.6742
G1 E206.7897 F1800
G1 X30.00 Y14.00 F60
;00:09:31.776: restore 0.5793@30 self.re=-0.1912
G1 E207.3690 F1800
;00:09:31.795: draw 0.30x0.60x1.00@5 ve=0.3742
G1 X45.00 Y14.00 E208.4915 F300
;00:09:34.795: retract -1.3746@30 self.re=0.3746
G1 E207.1169 F1800
G1 Z0.700 F420
;00:09:34.898: testStartStopLine Kf=1.0 vx=60.0 le=0 ve=30
G1 X-45.00 Y12.00 F6000
G1 Z0.300 F420
;00:09:35.855: restore 1.3888@30 self.re=-1.0007
G1 E208.5057 F1800
G1 X-40.00 Y12.00 E208.8799 F300
G1 X-30.00 Y12.00 F60
;00:09:46.902: restore 4.0266@30 self.re=0.0000
G1 E212.9066 F1800
;00:09:47.036: draw 0.30x0.60x1.00@60 ve=4.4901
G1 X20.00 Y12.00 E216.6483 F3600
;00:09:47.869: retract -4.1675@30 self.re=4.1675
G1 E212.4808 F1800
G1 X30.00 Y12.00 F60
;00:09:58.008: restore 0.6339@30 self.re=-0.2458
G1 E213.1147 F1800
;00:09:58.029: draw 0.30x0.60x1.00@5 ve=0.3742
G1 X45.00 Y12.00 E214.2372 F300
;00:10:01.029: retract -1.3747@30 self.re=0.3747
G1 E212.8626 F1800
G1 Z0.700 F420
;00:10:01.132: testStartStopLine Kf=1.0 vx=68.0 le=0 ve=30
G1 X-45.00 Y10.00 F6000
G1 Z0.300 F420
;00:10:02.090: restore 1.3888@30 self.re=-1.0007
G1 E214.2514 F1800
G1 X-40.00 Y10.00 E214.6256 F300
G1 X-30.00 Y10.00 F60
;00:10:13.136: restore 4.4972@30 self.re=0.0000
G1 E219.1228 F1800
;00:10:13.286: draw 0.30x0.60x1.00@68 ve=5.0888
G1 X20.00 Y10.00 E222.8645 F4080
;00:10:14.021: retract -4.6406@30 self.re=4.6406
G1 E218.2240 F1800
G1 X30.00 Y10.00 F60
;00:10:24.176: restore 0.6927@30 self.re=-0.3046
G1 E218.9166 F1800
;00:10:24.199: draw 0.30x0.60x1.00@5 ve=0.3742
G1 X45.00 Y10.00 E220.0392 F300
;00:10:27.199: retract -1.3747@30 self.re=0.3747
G1 E218.6645 F1800
G1 Z0.700 F420
;00:10:27.302: testStartStopLine Kf=1.0 vx=76.0 le=0 ve=30
G1 X-45.00 Y8.00 F6000
G1 Z0.300 F420
;00:10:28.259: restore 1.3888@30 self.re=-1.0007
G1 E220.0533 F1800
G1 X-40.00 Y8.00 E220.4275 F300
G1 X-30.00 Y8.00 F60
;00:10:39.306: restore 4.9547@30 self.re=0.0000
G1 E225.3822 F1800
;00:10:39.471: draw 0.30x0.60x1.00@76 ve=5.6875
G1 X20.00 Y8.00 E229.1239 F4560
;00:10:40.129: retract -5.0946@30 self.re=5.0946
G1 E224.0293 F1800
G1 X30.00 Y8.00 F60
;00:10:50.298: restore 0.7540@30 self.re=-0.3659
G1 E224.7833 F1800
;00:10:50.324: draw 0.30x0.60x1.00@5 ve=0.3742
G1 X45.00 Y8.00 E225.9058 F300
;00:10:53.324: retract -1.3747@30 self.re=0.3747
G1 E224.5312 F1800
G1 Z0.700 F420
;00:10:53.427: testStartStopLine Kf=1.0 vx=84.0 le=0 ve=30
G1 X-45.00 Y6.00 F6000
G1 Z0.300 F420
;00:10:54.384: restore 1.3888@30 self.re=-1.0007
G1 E225.9200 F1800
G1 X-40.00 Y6.00 E226.2942 F300
G1 X-30.00 Y6.00 F60
;00:11:05.430: restore 5.3996@30 self.re=0.0000
G1 E231.6938 F1800
;00:11:05.610: draw 0.30x0.60x1.00@84 ve=6.2862
G1 X20.00 Y6.00 E235.4355 F5040
;00:11:06.205: retract -5.5301@30 self.re=5.5301
G1 E229.9054 F1800
G1 X30.00 Y6.00 F60
;00:11:16.390: restore 0.8174@30 self.re=-0.4293
G1 E230.7228 F1800
;00:11:16.417: draw 0.30x0.60x1.00@5 ve=0.3742
G1 X45.00 Y6.00 E231.8453 F300
;00:11:19.417: retract -1.3747@30 self.re=0.3747
G1 E230.4707 F1800
G1 Z0.700 F420
;00:11:19.520: testStartStopLine Kf=1.0 vx=92.0 le=0 ve=30
G1 X-45.00 Y4.00 F6000
G1 Z0.300 F420
;00:11:20.477: restore 1.3888@30 self.re=-1.0007
G1 E231.8595 F1800
G1 X-40.00 Y4.00 E232.2337 F300
G1 X-30.00 Y4.00 F60
;00:11:31.524: restore 5.8325@30 self.re=0.0000
G1 E238.0662 F1800
;00:11:31.718: draw 0.30x0.60x1.00@92 ve=6.8848
G1 X20.00 Y4.00 E241.8080 F5520
;00:11:32.262: retract -5.9486@30 self.re=5.9486
G1 E235.8594 F1800
G1 X30.00 Y4.00 F60
;00:11:42.460: restore 0.8831@30 self.re=-0.4950
G1 E236.7424 F1800
;00:11:42.489: draw 0.30x0.60x1.00@5 ve=0.3742
G1 X45.00 Y4.00 E237.8649 F300
;00:11:45.489: retract -1.3746@30 self.re=0.3746
G1 E236.4903 F1800
G1 Z0.700 F420
;00:11:45.592: testStartStopLine Kf=1.0 vx=100.0 le=0 ve=30
G1 X-45.00 Y2.00 F6000
G1 Z0.300 F420
;00:11:46.550: restore 1.3888@30 self.re=-1.0007
G1 E237.8791 F1800
G1 X-40.00 Y2.00 E238.2533 F300
G1 X-30.00 Y2.00 F60
;00:11:57.596: restore 6.2539@30 self.re=0.0000
G1 E244.5072 F1800
;00:11:57.804: draw 0.30x0.60x1.00@100 ve=7.4835
G1 X20.00 Y2.00 E248.2490 F6000
;00:11:58.304: retract -6.3504@30 self.re=6.3504
G1 E241.8985 F1800
G1 X30.00 Y2.00 F60
;00:12:08.516: restore 0.9498@30 self.re=-0.5617
G1 E242.8484 F1800
;00:12:08.548: draw 0.30x0.60x1.00@5 ve=0.3742
G1 X45.00 Y2.00 E243.9709 F300
;00:12:11.548: retract -1.3747@30 self.re=0.3747
G1 E242.5962 F1800
G1 Z0.700 F420
;structure:brim
;00:12:11.651: text 'Kf=1.0\nvx=20-100\nle=0\nve=30'
G1 X46.55 Y25.88 F6000
G1 Z0.300 F420
;00:12:11.947: restore 1.7521@30 self.re=-1.0007
G1 E244.3483 F1800
;00:12:12.006: draw 0.30x0.60x1.00@10 ve=0.7484
G1 X46.55 Y22.56 E244.5967 F600
;00:12:12.338: retract -1.7411@30 self.re=0.7411
G1 E242.8557 F1800
G1 Z0.700 F420
G1 X48.96 Y22.56 F6000
G1 Z0.300 F420
;00:12:12.534: restore 1.7570@30 self.re=-1.0057
G1 E244.6127 F1800
G1 X47.50 Y24.55 E244.7974 F600
;00:12:12.839: retract -1.7404@30 self.re=0.7404
G1 E243.0570 F1800
G1 Z0.700 F420
G1 X46.55 Y23.72 F6000
G1 Z0.300 F420
;00:12:13.024: restore 1.7570@30 self.re=-1.0057
G1 E244.8140 F1800
G1 X49.01 Y25.88 E245.0590 F600
;00:12:13.410: retract -1.7410@30 self.re=0.7410
G1 E243.3180 F1800
G1 Z0.700 F420
G1 X51.33 Y25.90 F6000
G1 Z0.300 F420
;00:12:13.606: restore 1.7570@30 self.re=-1.0057
G1 E245.0750 F1800
G1 X51.18 Y25.91 E245.0863 F600
G1 X51.00 Y25.86 E245.1003
G1 X50.85 Y25.74 E245.1146
G1 X50.73 Y25.55 E245.1315
G1 X50.65 Y25.19 E245.1591
G1 X50.65 Y22.56 E245.3559
;00:12:14.040: retract -1.7414@30 self.re=0.7414
G1 E243.6145 F1800
G1 Z0.700 F420
G1 X50.16 Y24.79 F6000
G1 Z0.300 F420
;00:12:14.235: restore 1.7570@30 self.re=-1.0057
G1 E245.3716 F1800
G1 X51.22 Y24.79 E245.4509 F600
;00:12:14.399: retract -1.7392@30 self.re=0.7392
G1 E243.7117 F1800
G1 Z0.700 F420
G1 X52.48 Y24.29 F6000
G1 Z0.300 F420
;00:12:14.585: restore 1.7570@30 self.re=-1.0057
G1 E245.4687 F1800
G1 X54.13 Y24.29 E245.5921 F600
;00:12:14.809: retract -1.7397@30 self.re=0.7397
G1 E243.8524 F1800
G1 Z0.700 F420
G1 X54.13 Y23.60 F6000
G1 Z0.300 F420
;00:12:14.988: restore 1.7570@30 self.re=-1.0057
G1 E245.6094 F1800
G1 X52.48 Y23.60 E245.7329 F600
;00:12:15.211: retract -1.7397@30 self.re=0.7397
G1 E243.9932 F1800
G1 Z0.700 F420
G1 X55.28 Y25.02 F6000
G1 Z0.300 F420
;00:12:15.415: restore 1.7570@30 self.re=-1.0057
G1 E245.7502 F1800
G1 X55.74 Y25.26 E245.7890 F600
G1 X56.10 Y25.56 E245.8241
G1 X56.34 Y25.88 E245.8540
G1 X56.34 Y22.56 E246.1025
;00:12:15.944: retract -1.7420@30 self.re=0.7420
G1 E244.3605 F1800
G1 Z0.700 F420
G1 X57.49 Y22.78 F6000
G1 Z0.300 F420
;00:12:16.128: restore 2.5084@30 self.re=-1.0057
G1 E246.8688 F1800
G1 X57.49 Y22.58 E246.8838 F600
;00:12:16.232: retract -2.4445@30 self.re=1.4445
G1 E244.4393 F1800
G1 Z0.700 F420
G1 X59.83 Y25.94 F6000
G1 Z0.300 F420
;00:12:16.469: restore 1.7783@30 self.re=-1.0270
G1 E246.2175 F1800
G1 X60.33 Y25.80 E246.2564 F600
G1 X60.71 Y25.43 E246.2961
G1 X60.94 Y24.88 E246.3407
G1 X61.03 Y24.22 E246.3906
G1 X60.94 Y23.56 E246.4404
G1 X60.71 Y23.01 E246.4850
G1 X60.33 Y22.64 E246.5247
G1 X59.83 Y22.50 E246.5636
G1 X59.33 Y22.64 E246.6024
G1 X58.95 Y23.01 E246.6421
G1 X58.72 Y23.56 E246.6867
G1 X58.64 Y24.22 E246.7365
G1 X58.72 Y24.88 E246.7862
G1 X58.95 Y25.43 E246.8308
G1 X59.32 Y25.80 E246.8700
G1 X59.83 Y25.94 E246.9096
;00:12:17.453: retract -1.7443@30 self.re=0.7443
G1 E245.1653 F1800
G1 Z0.700 F420
G1 X46.55 Y19.91 F6000
G1 Z0.300 F420
;00:12:17.771: restore 1.7571@30 self.re=-1.0058
G1 E246.9224 F1800
G1 X47.55 Y17.56 E247.1135 F600
G1 X48.55 Y19.91 E247.3047
;00:12:18.340: retract -1.7422@30 self.re=0.7422
G1 E245.5624 F1800
G1 Z0.700 F420
G1 X49.70 Y19.91 F6000
G1 Z0.300 F420
;00:12:18.524: restore 1.7571@30 self.re=-1.0057
G1 E247.3195 F1800
G1 X51.65 Y17.56 E247.5480 F600
;00:12:18.888: retract -1.7409@30 self.re=0.7409
G1 E245.8071 F1800
G1 Z0.700 F420
G1 X49.70 Y17.56 F6000
G1 Z0.300 F420
;00:12:19.080: restore 1.7570@30 self.re=-1.0057
G1 E247.5642 F1800
G1 X51.65 Y19.91 E247.7927 F600
;00:12:19.444: retract -1.7409@30 self.re=0.7409
G1 E246.0518 F1800
G1 Z0.700 F420
G1 X52.80 Y19.29 F6000
G1 Z0.300 F420
;00:12:19.629: restore 1.7570@30 self.re=-1.0057
G1 E247.8089 F1800
G1 X54.45 Y19.29 E247.9324 F600
;00:12:19.853: retract -1.7397@30 self.re=0.7397
G1 E246.1926 F1800
G1 Z0.700 F420
G1 X54.45 Y18.60 F6000
G1 Z0.300 F420
;00:12:20.032: restore 1.7570@30 self.re=-1.0057
G1 E247.9496 F1800
G1 X52.80 Y18.60 E248.0731 F600
;00:12:20.256: retract -1.7397@30 self.re=0.7397
G1 E246.3334 F1800
G1 Z0.700 F420
G1 X55.60 Y20.45 F6000
G1 Z0.300 F420
;00:12:20.461: restore 1.7570@30 self.re=-1.0057
G1 E248.0904 F1800
G1 X55.78 Y20.66 E248.1111 F600
G1 X56.01 Y20.81 E248.1316
G1 X56.27 Y20.91 E248.1525
G1 X56.54 Y20.94 E248.1728
G1 X56.90 Y20.88 E248.2001
G1 X57.19 Y20.69 E248.2261
G1 X57.38 Y20.41 E248.2514
G1 X57.45 Y20.04 E248.2796
G1 X57.35 Y19.66 E248.3090
G1 X57.07 Y19.31 E248.3425
G1 X56.31 Y18.70 E248.4155
G1 X56.02 Y18.29 E248.4530
G1 X55.64 Y17.56 E248.5146
G1 X57.42 Y17.56 E248.6478
;00:12:21.265: retract -1.7435@30 self.re=0.7435
G1 E246.9043 F1800
G1 Z0.700 F420
G1 X59.79 Y20.94 F6000
G1 Z0.300 F420
;00:12:21.479: restore 1.7571@30 self.re=-1.0058
G1 E248.6614 F1800
G1 X60.29 Y20.80 E248.7003 F600
G1 X60.67 Y20.43 E248.7399
G1 X60.90 Y19.88 E248.7846
G1 X60.99 Y19.22 E248.8344
G1 X60.90 Y18.56 E248.8843
G1 X60.67 Y18.01 E248.9289
G1 X60.29 Y17.64 E248.9686
G1 X59.79 Y17.50 E249.0074
G1 X59.29 Y17.64 E249.0463
G1 X58.91 Y18.01 E249.0860
G1 X58.68 Y18.56 E249.1306
G1 X58.60 Y19.22 E249.1803
G1 X58.68 Y19.88 E249.2301
G1 X58.91 Y20.43 E249.2747
G1 X59.28 Y20.80 E249.3139
G1 X59.79 Y20.94 E249.3534
;00:12:22.462: retract -1.7443@30 self.re=0.7443
G1 E247.6091 F1800
G1 Z0.700 F420
G1 X62.13 Y18.94 F6000
G1 Z0.300 F420
;00:12:22.665: restore 1.7571@30 self.re=-1.0058
G1 E249.3662 F1800
G1 X63.96 Y18.94 E249.5032 F600
;00:12:22.907: retract -1.7399@30 self.re=0.7399
G1 E247.7633 F1800
G1 Z0.700 F420
G1 X65.11 Y20.02 F6000
G1 Z0.300 F420
;00:12:23.095: restore 1.7570@30 self.re=-1.0057
G1 E249.5203 F1800
G1 X65.57 Y20.26 E249.5591 F600
G1 X65.93 Y20.56 E249.5942
G1 X66.17 Y20.88 E249.6241
G1 X66.17 Y17.56 E249.8726
;00:12:23.624: retract -1.7420@30 self.re=0.7420
G1 E248.1306 F1800
G1 Z0.700 F420
G1 X68.51 Y20.94 F6000
G1 Z0.300 F420
;00:12:23.838: restore 1.7571@30 self.re=-1.0057
G1 E249.8876 F1800
G1 X69.01 Y20.80 E249.9265 F600
G1 X69.39 Y20.43 E249.9662
G1 X69.62 Y19.88 E250.0108
G1 X69.71 Y19.22 E250.0607
G1 X69.62 Y18.56 E250.1105
G1 X69.39 Y18.01 E250.1551
G1 X69.01 Y17.64 E250.1948
G1 X68.51 Y17.50 E250.2337
G1 X68.01 Y17.64 E250.2725
G1 X67.63 Y18.01 E250.3122
G1 X67.40 Y18.56 E250.3568
G1 X67.32 Y19.22 E250.4066
G1 X67.40 Y19.88 E250.4563
G1 X67.63 Y20.43 E250.5009
G1 X68.00 Y20.80 E250.5401
G1 X68.51 Y20.94 E250.5797
;00:12:24.821: retract -1.7443@30 self.re=0.7443
G1 E248.8354 F1800
G1 Z0.700 F420
G1 X72.05 Y20.94 F6000
G1 Z0.300 F420
;00:12:25.029: restore 1.7571@30 self.re=-1.0058
G1 E250.5925 F1800
G1 X72.55 Y20.80 E250.6313 F600
G1 X72.93 Y20.43 E250.6710
G1 X73.16 Y19.88 E250.7156
G1 X73.25 Y19.22 E250.7655
G1 X73.16 Y18.56 E250.8153
G1 X72.93 Y18.01 E250.8599
G1 X72.55 Y17.64 E250.8996
G1 X72.05 Y17.50 E250.9385
G1 X71.55 Y17.64 E250.9774
G1 X71.17 Y18.01 E251.0170
G1 X70.94 Y18.56 E251.0617
G1 X70.86 Y19.22 E251.1114
G1 X70.94 Y19.88 E251.1612
G1 X71.17 Y20.43 E251.2058
G1 X71.54 Y20.80 E251.2449
G1 X72.05 Y20.94 E251.2845
;00:12:26.012: retract -1.7443@30 self.re=0.7443
G1 E249.5402 F1800
G1 Z0.700 F420
G1 X46.55 Y15.88 F6000
G1 Z0.300 F420
;00:12:26.444: restore 1.7571@30 self.re=-1.0058
G1 E251.2973 F1800
G1 X46.55 Y12.56 E251.5458 F600
;00:12:26.835: retract -1.7410@30 self.re=0.7410
G1 E249.8047 F1800
G1 Z0.700 F420
G1 X47.70 Y13.74 F6000
G1 Z0.300 F420
;00:12:27.024: restore 1.7570@30 self.re=-1.0057
G1 E251.5617 F1800
G1 X49.79 Y13.74 E251.7181 F600
G1 X49.72 Y14.26 E251.7574
G1 X49.51 Y14.64 E251.7899
G1 X49.18 Y14.89 E251.8209
G1 X48.75 Y14.97 E251.8536
G1 X48.32 Y14.89 E251.8863
G1 X47.99 Y14.64 E251.9173
G1 X47.78 Y14.26 E251.9498
G1 X47.70 Y13.74 E251.9892
G1 X47.78 Y13.22 E252.0286
G1 X48.00 Y12.83 E252.0621
G1 X48.34 Y12.58 E252.0937
G1 X48.79 Y12.50 E252.1279
G1 X49.13 Y12.55 E252.1536
G1 X49.41 Y12.68 E252.1767
G1 X49.62 Y12.90 E252.1994
G1 X49.74 Y13.20 E252.2236
;00:12:27.967: retract -1.7441@30 self.re=0.7441
G1 E250.4795 F1800
G1 Z0.700 F420
G1 X50.94 Y14.29 F6000
G1 Z0.300 F420
;00:12:28.155: restore 1.7571@30 self.re=-1.0058
G1 E252.2366 F1800
G1 X52.59 Y14.29 E252.3601 F600
;00:12:28.379: retract -1.7397@30 self.re=0.7397
G1 E250.6203 F1800
G1 Z0.700 F420
G1 X52.59 Y13.60 F6000
G1 Z0.300 F420
;00:12:28.558: restore 1.7570@30 self.re=-1.0057
G1 E252.3773 F1800
G1 X50.94 Y13.60 E252.5008 F600
;00:12:28.782: retract -1.7397@30 self.re=0.7397
G1 E250.7611 F1800
G1 Z0.700 F420
G1 X54.93 Y15.94 F6000
G1 Z0.300 F420
;00:12:29.000: restore 1.7570@30 self.re=-1.0057
G1 E252.5181 F1800
G1 X55.43 Y15.80 E252.5569 F600
G1 X55.81 Y15.43 E252.5966
G1 X56.04 Y14.88 E252.6412
G1 X56.13 Y14.22 E252.6911
G1 X56.04 Y13.56 E252.7409
G1 X55.81 Y13.01 E252.7856
G1 X55.43 Y12.64 E252.8253
G1 X54.93 Y12.50 E252.8641
G1 X54.43 Y12.64 E252.9030
G1 X54.05 Y13.01 E252.9427
G1 X53.82 Y13.56 E252.9873
G1 X53.74 Y14.22 E253.0370
G1 X53.82 Y14.88 E253.0868
G1 X54.05 Y15.43 E253.1314
G1 X54.42 Y15.80 E253.1705
G1 X54.93 Y15.94 E253.2101
;00:12:29.984: retract -1.7443@30 self.re=0.7443
G1 E251.4658 F1800
G1 Z0.700 F420
G1 X46.55 Y9.91 F6000
G1 Z0.300 F420
;00:12:30.259: restore 1.7571@30 self.re=-1.0058
G1 E253.2229 F1800
G1 X47.55 Y7.56 E253.4140 F600
G1 X48.55 Y9.91 E253.6052
;00:12:30.829: retract -1.7422@30 self.re=0.7422
G1 E251.8629 F1800
G1 Z0.700 F420
G1 X49.70 Y8.74 F6000
G1 Z0.300 F420
;00:12:31.017: restore 1.7571@30 self.re=-1.0057
G1 E253.6200 F1800
G1 X51.79 Y8.74 E253.7764 F600
G1 X51.72 Y9.26 E253.8157
G1 X51.51 Y9.64 E253.8481
G1 X51.18 Y9.89 E253.8791
G1 X50.75 Y9.97 E253.9119
G1 X50.32 Y9.89 E253.9446
G1 X49.99 Y9.64 E253.9756
G1 X49.78 Y9.26 E254.0081
G1 X49.70 Y8.74 E254.0474
G1 X49.78 Y8.22 E254.0868
G1 X50.00 Y7.83 E254.1203
G1 X50.34 Y7.58 E254.1519
G1 X50.79 Y7.50 E254.1861
G1 X51.13 Y7.55 E254.2118
G1 X51.41 Y7.68 E254.2349
G1 X51.62 Y7.90 E254.2577
G1 X51.74 Y8.20 E254.2819
;00:12:31.960: retract -1.7441@30 self.re=0.7441
G1 E252.5377 F1800
G1 Z0.700 F420
G1 X52.94 Y9.29 F6000
G1 Z0.300 F420
;00:12:32.149: restore 1.7571@30 self.re=-1.0058
G1 E254.2948 F1800
G1 X54.59 Y9.29 E254.4183 F600
;00:12:32.373: retract -1.7397@30 self.re=0.7397
G1 E252.6786 F1800
G1 Z0.700 F420
G1 X54.59 Y8.60 F6000
G1 Z0.300 F420
;00:12:32.552: restore 1.7570@30 self.re=-1.0057
G1 E254.4356 F1800
G1 X52.94 Y8.60 E254.5590 F600
;00:12:32.775: retract -1.7397@30 self.re=0.7397
G1 E252.8193 F1800
G1 Z0.700 F420
G1 X55.78 Y10.15 F6000
G1 Z0.300 F420
;00:12:32.980: restore 1.7570@30 self.re=-1.0057
G1 E254.5763 F1800
G1 X55.90 Y10.48 E254.6026 F600
G1 X56.10 Y10.74 E254.6272
G1 X56.38 Y10.89 E254.6509
G1 X56.72 Y10.94 E254.6766
G1 X57.10 Y10.87 E254.7056
G1 X57.38 Y10.69 E254.7305
G1 X57.56 Y10.42 E254.7548
G1 X57.63 Y10.08 E254.7807
G1 X57.56 Y9.88 E254.7966
G1 X57.42 Y9.71 E254.8131
G1 X57.06 Y9.49 E254.8446
G1 X56.63 Y9.33 E254.8790
G1 X57.06 Y9.22 E254.9122
G1 X57.41 Y9.06 E254.9410
G1 X57.69 Y8.79 E254.9701
G1 X57.80 Y8.51 E254.9926
G1 X57.72 Y8.10 E255.0239
G1 X57.50 Y7.78 E255.0529
G1 X57.17 Y7.57 E255.0822
G1 X56.76 Y7.50 E255.1133
G1 X56.36 Y7.56 E255.1436
G1 X56.05 Y7.73 E255.1701
G1 X55.84 Y7.99 E255.1951
G1 X55.74 Y8.34 E255.2223
;00:12:33.902: retract -1.7440@30 self.re=0.7440
G1 E253.4783 F1800
G1 Z0.700 F420
G1 X60.13 Y10.94 F6000
G1 Z0.300 F420
;00:12:34.125: restore 1.7571@30 self.re=-1.0058
G1 E255.2354 F1800
G1 X60.63 Y10.80 E255.2742 F600
G1 X61.01 Y10.43 E255.3139
G1 X61.24 Y9.88 E255.3585
G1 X61.33 Y9.22 E255.4084
G1 X61.24 Y8.56 E255.4582
G1 X61.01 Y8.01 E255.5028
G1 X60.63 Y7.64 E255.5425
G1 X60.13 Y7.50 E255.5814
G1 X59.63 Y7.64 E255.6202
G1 X59.25 Y8.01 E255.6599
G1 X59.02 Y8.56 E255.7045
G1 X58.94 Y9.22 E255.7543
G1 X59.02 Y9.88 E255.8040
G1 X59.25 Y10.43 E255.8487
G1 X59.62 Y10.80 E255.8878
G1 X60.13 Y10.94 E255.9274
;00:12:35.109: retract -1.7443@30 self.re=0.7443
G1 E254.1831 F1800
G1 Z0.700 F420
;00:12:35.224: testStartStop Kf=1.5 vx=20-100 le=0 ve=30
;structure:shell-outer
G1 X-45.00 Y-3.00 F6000
G1 Z0.300 F420
;00:12:36.341: restore 1.7571@30 self.re=-1.0058
G1 E255.9402 F1800
G1 X45.00 Y-3.00 E262.6754 F600
;00:12:45.400: retract -1.7484@30 self.re=0.7484
G1 E260.9270 F1800
G1 Z0.700 F420
G1 X-42.00 Y-3.00 F6000
G1 X-40.00 Y-3.00
G1 Z0.300 F420
;00:12:46.463: restore 1.7572@30 self.re=-1.0059
G1 E262.6842 F1800
G1 X-40.00 Y-6.00 E262.9087 F600
;00:12:46.821: retract -1.7408@30 self.re=0.7408
G1 E261.1679 F1800
G1 Z0.700 F420
G1 X-38.00 Y-3.00 F6000
G1 Z0.300 F420
;00:12:47.030: restore 1.7570@30 self.re=-1.0057
G1 E262.9249 F1800
G1 X-38.00 Y-4.50 E263.0372 F600
;00:12:47.238: retract -1.7396@30 self.re=0.7396
G1 E261.2976 F1800
G1 Z0.700 F420
G1 X-36.00 Y-3.00 F6000
G1 Z0.300 F420
;00:12:47.435: restore 1.7570@30 self.re=-1.0057
G1 E263.0546 F1800
G1 X-36.00 Y-4.50 E263.1668 F600
;00:12:47.644: retract -1.7396@30 self.re=0.7396
G1 E261.4272 F1800
G1 Z0.700 F420
G1 X-34.00 Y-3.00 F6000
G1 Z0.300 F420
;00:12:47.841: restore 1.7570@30 self.re=-1.0057
G1 E263.1842 F1800
G1 X-34.00 Y-4.50 E263.2965 F600
;00:12:48.050: retract -1.7396@30 self.re=0.7396
G1 E261.5569 F1800
G1 Z0.700 F420
G1 X-32.00 Y-3.00 F6000
G1 Z0.300 F420
;00:12:48.247: restore 1.7570@30 self.re=-1.0057
G1 E263.3139 F1800
G1 X-32.00 Y-4.50 E263.4261 F600
;00:12:48.456: retract -1.7396@30 self.re=0.7396
G1 E261.6865 F1800
G1 Z0.700 F420
G1 X-30.00 Y-3.00 F6000
G1 Z0.300 F420
;00:12:48.653: restore 1.7570@30 self.re=-1.0057
G1 E263.4435 F1800
G1 X-30.00 Y-6.00 E263.6680 F600
;00:12:49.011: retract -1.7408@30 self.re=0.7408
G1 E261.9272 F1800
G1 Z0.700 F420
G1 X-28.00 Y-3.00 F6000
G1 Z0.300 F420
;00:12:49.220: restore 1.7570@30 self.re=-1.0057
G1 E263.6843 F1800
G1 X-28.00 Y-4.50 E263.7965 F600
;00:12:49.428: retract -1.7396@30 self.re=0.7396
G1 E262.0569 F1800
G1 Z0.700 F420
G1 X-26.00 Y-3.00 F6000
G1 Z0.300 F420
;00:12:49.626: restore 1.7570@30 self.re=-1.0057
G1 E263.8139 F1800
G1 X-26.00 Y-4.50 E263.9262 F600
;00:12:49.834: retract -1.7396@30 self.re=0.7396
G1 E262.1866 F1800
G1 Z0.700 F420
G1 X-24.00 Y-3.00 F6000
G1 Z0.300 F420
;00:12:50.031: restore 1.7570@30 self.re=-1.0057
G1 E263.9436 F1800
G1 X-24.00 Y-4.50 E264.0558 F600
;00:12:50.240: retract -1.7396@30 self.re=0.7396
G1 E262.3162 F1800
G1 Z0.700 F420
G1 X-22.00 Y-3.00 F6000
G1 Z0.300 F420
;00:12:50.437: restore 1.7570@30 self.re=-1.0057
G1 E264.0732 F1800
G1 X-22.00 Y-4.50 E264.1855 F600
;00:12:50.646: retract -1.7396@30 self.re=0.7396
G1 E262.4459 F1800
G1 Z0.700 F420
G1 X-20.00 Y-3.00 F6000
G1 Z0.300 F420
;00:12:50.843: restore 1.7570@30 self.re=-1.0057
G1 E264.2029 F1800
G1 X-20.00 Y-6.00 E264.4274 F600
;00:12:51.202: retract -1.7408@30 self.re=0.7408
G1 E262.6866 F1800
G1 Z0.700 F420
G1 X-18.00 Y-3.00 F6000
G1 Z0.300 F420
;00:12:51.410: restore 1.7570@30 self.re=-1.0057
G1 E264.4436 F1800
G1 X-18.00 Y-4.50 E264.5559 F600
;00:12:51.619: retract -1.7396@30 self.re=0.7396
G1 E262.8163 F1800
G1 Z0.700 F420
G1 X-16.00 Y-3.00 F6000
G1 Z0.300 F420
;00:12:51.816: restore 1.7570@30 self.re=-1.0057
G1 E264.5733 F1800
G1 X-16.00 Y-4.50 E264.6855 F600
;00:12:52.025: retract -1.7396@30 self.re=0.7396
G1 E262.9459 F1800
G1 Z0.700 F420
G1 X-14.00 Y-3.00 F6000
G1 Z0.300 F420
;00:12:52.222: restore 1.7570@30 self.re=-1.0057
G1 E264.7029 F1800
G1 X-14.00 Y-4.50 E264.8152 F600
;00:12:52.430: retract -1.7396@30 self.re=0.7396
G1 E263.0756 F1800
G1 Z0.700 F420
G1 X-12.00 Y-3.00 F6000
G1 Z0.300 F420
;00:12:52.628: restore 1.7570@30 self.re=-1.0057
G1 E264.8326 F1800
G1 X-12.00 Y-4.50 E264.9448 F600
;00:12:52.836: retract -1.7396@30 self.re=0.7396
G1 E263.2052 F1800
G1 Z0.700 F420
G1 X-10.00 Y-3.00 F6000
G1 Z0.300 F420
;00:12:53.033: restore 1.7570@30 self.re=-1.0057
G1 E264.9622 F1800
G1 X-10.00 Y-6.00 E265.1868 F600
;00:12:53.392: retract -1.7408@30 self.re=0.7408
G1 E263.4459 F1800
G1 Z0.700 F420
G1 X-8.00 Y-3.00 F6000
G1 Z0.300 F420
;00:12:53.600: restore 1.7570@30 self.re=-1.0057
G1 E265.2030 F1800
G1 X-8.00 Y-4.50 E265.3152 F600
;00:12:53.809: retract -1.7396@30 self.re=0.7396
G1 E263.5756 F1800
G1 Z0.700 F420
G1 X-6.00 Y-3.00 F6000
G1 Z0.300 F420
;00:12:54.006: restore 1.7570@30 self.re=-1.0057
G1 E265.3326 F1800
G1 X-6.00 Y-4.50 E265.4449 F600
;00:12:54.215: retract -1.7396@30 self.re=0.7396
G1 E263.7053 F1800
G1 Z0.700 F420
G1 X-4.00 Y-3.00 F6000
G1 Z0.300 F420
;00:12:54.412: restore 1.7570@30 self.re=-1.0057
G1 E265.4623 F1800
G1 X-4.00 Y-4.50 E265.5745 F600
;00:12:54.621: retract -1.7396@30 self.re=0.7396
G1 E263.8349 F1800
G1 Z0.700 F420
G1 X-2.00 Y-3.00 F6000
G1 Z0.300 F420
;00:12:54.818: restore 1.7570@30 self.re=-1.0057
G1 E265.5919 F1800
G1 X-2.00 Y-4.50 E265.7042 F600
;00:12:55.026: retract -1.7396@30 self.re=0.7396
G1 E263.9646 F1800
G1 Z0.700 F420
G1 X0.00 Y-3.00 F6000
G1 Z0.300 F420
;00:12:55.224: restore 1.7570@30 self.re=-1.0057
G1 E265.7216 F1800
G1 X0.00 Y-6.00 E265.9461 F600
;00:12:55.582: retract -1.7408@30 self.re=0.7408
G1 E264.2053 F1800
G1 Z0.700 F420
G1 X2.00 Y-3.00 F6000
G1 Z0.300 F420
;00:12:55.791: restore 1.7570@30 self.re=-1.0057
G1 E265.9623 F1800
G1 X2.00 Y-4.50 E266.0746 F600
;00:12:55.999: retract -1.7396@30 self.re=0.7396
G1 E264.3350 F1800
G1 Z0.700 F420
G1 X4.00 Y-3.00 F6000
G1 Z0.300 F420
;00:12:56.197: restore 1.7570@30 self.re=-1.0057
G1 E266.0920 F1800
G1 X4.00 Y-4.50 E266.2042 F600
;00:12:56.405: retract -1.7396@30 self.re=0.7396
G1 E264.4646 F1800
G1 Z0.700 F420
G1 X6.00 Y-3.00 F6000
G1 Z0.300 F420
;00:12:56.602: restore 1.7570@30 self.re=-1.0057
G1 E266.2216 F1800
G1 X6.00 Y-4.50 E266.3339 F600
;00:12:56.811: retract -1.7396@30 self.re=0.7396
G1 E264.5943 F1800
G1 Z0.700 F420
G1 X8.00 Y-3.00 F6000
G1 Z0.300 F420
;00:12:57.008: restore 1.7570@30 self.re=-1.0057
G1 E266.3513 F1800
G1 X8.00 Y-4.50 E266.4635 F600
;00:12:57.217: retract -1.7396@30 self.re=0.7396
G1 E264.7239 F1800
G1 Z0.700 F420
G1 X10.00 Y-3.00 F6000
G1 Z0.300 F420
;00:12:57.414: restore 1.7570@30 self.re=-1.0057
G1 E266.4810 F1800
G1 X10.00 Y-6.00 E266.7055 F600
;00:12:57.773: retract -1.7408@30 self.re=0.7408
G1 E264.9646 F1800
G1 Z0.700 F420
G1 X12.00 Y-3.00 F6000
G1 Z0.300 F420
;00:12:57.981: restore 1.7570@30 self.re=-1.0057
G1 E266.7217 F1800
G1 X12.00 Y-4.50 E266.8339 F600
;00:12:58.190: retract -1.7396@30 self.re=0.7396
G1 E265.0943 F1800
G1 Z0.700 F420
G1 X14.00 Y-3.00 F6000
G1 Z0.300 F420
;00:12:58.387: restore 1.7570@30 self.re=-1.0057
G1 E266.8513 F1800
G1 X14.00 Y-4.50 E266.9636 F600
;00:12:58.595: retract -1.7396@30 self.re=0.7396
G1 E265.2240 F1800
G1 Z0.700 F420
G1 X16.00 Y-3.00 F6000
G1 Z0.300 F420
;00:12:58.793: restore 1.7570@30 self.re=-1.0057
G1 E266.9810 F1800
G1 X16.00 Y-4.50 E267.0932 F600
;00:12:59.001: retract -1.7396@30 self.re=0.7396
G1 E265.3536 F1800
G1 Z0.700 F420
G1 X18.00 Y-3.00 F6000
G1 Z0.300 F420
;00:12:59.198: restore 1.7570@30 self.re=-1.0057
G1 E267.1106 F1800
G1 X18.00 Y-4.50 E267.2229 F600
;00:12:59.407: retract -1.7396@30 self.re=0.7396
G1 E265.4833 F1800
G1 Z0.700 F420
G1 X20.00 Y-3.00 F6000
G1 Z0.300 F420
;00:12:59.604: restore 1.7570@30 self.re=-1.0057
G1 E267.2403 F1800
G1 X20.00 Y-6.00 E267.4648 F600
;00:12:59.963: retract -1.7408@30 self.re=0.7408
G1 E265.7240 F1800
G1 Z0.700 F420
G1 X22.00 Y-3.00 F6000
G1 Z0.300 F420
;00:13:00.171: restore 1.7570@30 self.re=-1.0057
G1 E267.4810 F1800
G1 X22.00 Y-4.50 E267.5933 F600
;00:13:00.380: retract -1.7396@30 self.re=0.7396
G1 E265.8537 F1800
G1 Z0.700 F420
G1 X24.00 Y-3.00 F6000
G1 Z0.300 F420
;00:13:00.577: restore 1.7570@30 self.re=-1.0057
G1 E267.6107 F1800
G1 X24.00 Y-4.50 E267.7229 F600
;00:13:00.786: retract -1.7396@30 self.re=0.7396
G1 E265.9833 F1800
G1 Z0.700 F420
G1 X26.00 Y-3.00 F6000
G1 Z0.300 F420
;00:13:00.983: restore 1.7570@30 self.re=-1.0057
G1 E267.7403 F1800
G1 X26.00 Y-4.50 E267.8526 F600
;00:13:01.192: retract -1.7396@30 self.re=0.7396
G1 E266.1130 F1800
G1 Z0.700 F420
G1 X28.00 Y-3.00 F6000
G1 Z0.300 F420
;00:13:01.389: restore 1.7570@30 self.re=-1.0057
G1 E267.8700 F1800
G1 X28.00 Y-4.50 E267.9823 F600
;00:13:01.597: retract -1.7396@30 self.re=0.7396
G1 E266.2427 F1800
G1 Z0.700 F420
G1 X30.00 Y-3.00 F6000
G1 Z0.300 F420
;00:13:01.795: restore 1.7570@30 self.re=-1.0057
G1 E267.9997 F1800
G1 X30.00 Y-6.00 E268.2242 F600
;00:13:02.153: retract -1.7408@30 self.re=0.7408
G1 E266.4834 F1800
G1 Z0.700 F420
G1 X32.00 Y-3.00 F6000
G1 Z0.300 F420
;00:13:02.362: restore 1.7570@30 self.re=-1.0057
G1 E268.2404 F1800
G1 X32.00 Y-4.50 E268.3526 F600
;00:13:02.570: retract -1.7396@30 self.re=0.7396
G1 E266.6130 F1800
G1 Z0.700 F420
G1 X34.00 Y-3.00 F6000
G1 Z0.300 F420
;00:13:02.767: restore 1.7570@30 self.re=-1.0057
G1 E268.3700 F1800
G1 X34.00 Y-4.50 E268.4823 F600
;00:13:02.976: retract -1.7396@30 self.re=0.7396
G1 E266.7427 F1800
G1 Z0.700 F420
G1 X36.00 Y-3.00 F6000
G1 Z0.300 F420
;00:13:03.173: restore 1.7570@30 self.re=-1.0057
G1 E268.4997 F1800
G1 X36.00 Y-4.50 E268.6120 F600
;00:13:03.382: retract -1.7396@30 self.re=0.7396
G1 E266.8724 F1800
G1 Z0.700 F420
G1 X38.00 Y-3.00 F6000
G1 Z0.300 F420
;00:13:03.579: restore 1.7570@30 self.re=-1.0057
G1 E268.6294 F1800
G1 X38.00 Y-4.50 E268.7416 F600
;00:13:03.788: retract -1.7396@30 self.re=0.7396
G1 E267.0020 F1800
G1 Z0.700 F420
G1 X40.00 Y-3.00 F6000
G1 Z0.300 F420
;00:13:03.985: restore 1.7570@30 self.re=-1.0057
G1 E268.7590 F1800
G1 X40.00 Y-6.00 E268.9835 F600
;00:13:04.343: retract -1.7408@30 self.re=0.7408
G1 E267.2427 F1800
G1 Z0.700 F420
;structure:infill-solid
;00:13:04.459: testStartStopLine Kf=1.5 vx=20 le=0 ve=30
G1 X-45.00 Y-7.00 F6000
G1 Z0.300 F420
;00:13:05.366: restore 1.5809@30 self.re=-1.0057
G1 E268.8236 F1800
;00:13:05.419: draw 0.30x0.60x1.00@5 ve=0.3742
G1 X-40.00 Y-7.00 E269.1978 F300
G1 X-30.00 Y-7.00 F60
;00:13:16.419: restore 2.2036@30 self.re=0.0007
G1 E271.4014 F1800
;00:13:16.492: draw 0.30x0.60x1.00@20 ve=1.4967
G1 X20.00 Y-7.00 E275.1432 F1200
;00:13:18.992: retract -2.2252@30 self.re=2.2252
G1 E272.9179 F1800
G1 X30.00 Y-7.00 F60
;00:13:29.066: restore 0.6179@30 self.re=-0.0427
G1 E273.5358 F1800
;00:13:29.087: draw 0.30x0.60x1.00@5 ve=0.3742
G1 X45.00 Y-7.00 E274.6584 F300
;00:13:32.087: retract -1.5623@30 self.re=0.5623
G1 E273.0960 F1800
G1 Z0.700 F420
;00:13:32.196: testStartStopLine Kf=1.5 vx=28.0 le=0 ve=30
G1 X-45.00 Y-9.00 F6000
G1 Z0.300 F420
;00:13:33.153: restore 1.5763@30 self.re=-1.0011
G1 E274.6723 F1800
G1 X-40.00 Y-9.00 E275.0465 F300
G1 X-30.00 Y-9.00 F60
;00:13:44.206: restore 3.0469@30 self.re=0.0007
G1 E278.0934 F1800
;00:13:44.307: draw 0.30x0.60x1.00@28 ve=2.0954
G1 X20.00 Y-9.00 E281.8351 F1680
;00:13:46.093: retract -3.0788@30 self.re=3.0788
G1 E278.7563 F1800
G1 X30.00 Y-9.00 F60
;00:13:56.196: restore 0.6616@30 self.re=-0.0864
G1 E279.4179 F1800
;00:13:56.218: draw 0.30x0.60x1.00@5 ve=0.3742
G1 X45.00 Y-9.00 E280.5404 F300
;00:13:59.218: retract -1.5623@30 self.re=0.5623
G1 E278.9781 F1800
G1 Z0.700 F420
;00:13:59.327: testStartStopLine Kf=1.5 vx=36.0 le=0 ve=30
G1 X-45.00 Y-11.00 F6000
G1 Z0.300 F420
;00:14:00.284: restore 1.5763@30 self.re=-1.0011
G1 E280.5544 F1800
G1 X-40.00 Y-11.00 E280.9286 F300
G1 X-30.00 Y-11.00 F60
;00:14:11.337: restore 3.8729@30 self.re=0.0007
G1 E284.8015 F1800
;00:14:11.466: draw 0.30x0.60x1.00@36 ve=2.6941
G1 X20.00 Y-11.00 E288.5433 F2160
;00:14:12.855: retract -3.9031@30 self.re=3.9031
G1 E284.6401 F1800
G1 X30.00 Y-11.00 F60
;00:14:22.985: restore 0.7171@30 self.re=-0.1419
G1 E285.3572 F1800
;00:14:23.009: draw 0.30x0.60x1.00@5 ve=0.3742
G1 X45.00 Y-11.00 E286.4797 F300
;00:14:26.009: retract -1.5623@30 self.re=0.5623
G1 E284.9175 F1800
G1 Z0.700 F420
;00:14:26.118: testStartStopLine Kf=1.5 vx=44.0 le=0 ve=30
G1 X-45.00 Y-13.00 F6000
G1 Z0.300 F420
;00:14:27.076: restore 1.5763@30 self.re=-1.0011
G1 E286.4937 F1800
G1 X-40.00 Y-13.00 E286.8679 F300
G1 X-30.00 Y-13.00 F60
;00:14:38.128: restore 4.6823@30 self.re=0.0007
G1 E291.5502 F1800
;00:14:38.284: draw 0.30x0.60x1.00@44 ve=3.2928
G1 X20.00 Y-13.00 E295.2920 F2640
;00:14:39.421: retract -4.6982@30 self.re=4.6982
G1 E290.5938 F1800
G1 X30.00 Y-13.00 F60
;00:14:49.577: restore 0.7823@30 self.re=-0.2072
G1 E291.3761 F1800
;00:14:49.603: draw 0.30x0.60x1.00@5 ve=0.3742
G1 X45.00 Y-13.00 E292.4987 F300
;00:14:52.603: retract -1.5623@30 self.re=0.5623
G1 E290.9364 F1800
G1 Z0.700 F420
;00:14:52.712: testStartStopLine Kf=1.5 vx=52.0 le=0 ve=30
G1 X-45.00 Y-15.00 F6000
G1 Z0.300 F420
;00:14:53.670: restore 1.5763@30 self.re=-1.0011
G1 E292.5127 F1800
G1 X-40.00 Y-15.00 E292.8869 F300
G1 X-30.00 Y-15.00 F60
;00:15:04.722: restore 5.4756@30 self.re=0.0007
G1 E298.3624 F1800
;00:15:04.905: draw 0.30x0.60x1.00@52 ve=3.8914
G1 X20.00 Y-15.00 E302.1042 F3120
;00:15:05.866: retract -5.4647@30 self.re=5.4647
G1 E296.6395 F1800
G1 X30.00 Y-15.00 F60
;00:15:16.049: restore 0.8572@30 self.re=-0.2820
G1 E297.4966 F1800
;00:15:16.077: draw 0.30x0.60x1.00@5 ve=0.3742
G1 X45.00 Y-15.00 E298.6192 F300
;00:15:19.077: retract -1.5622@30 self.re=0.5622
G1 E297.0569 F1800
G1 Z0.700 F420
;00:15:19.186: testStartStopLine Kf=1.5 vx=60.0 le=0 ve=30
G1 X-45.00 Y-17.00 F6000
G1 Z0.300 F420
;00:15:20.144: restore 1.5763@30 self.re=-1.0011
G1 E298.6332 F1800
G1 X-40.00 Y-17.00 E299.0074 F300
G1 X-30.00 Y-17.00 F60
;00:15:31.196: restore 6.2532@30 self.re=0.0007
G1 E305.2606 F1800
;00:15:31.405: draw 0.30x0.60x1.00@60 ve=4.4901
G1 X20.00 Y-17.00 E309.0023 F3600
;00:15:32.238: retract -6.2040@30 self.re=6.2040
G1 E302.7983 F1800
G1 X30.00 Y-17.00 F60
;00:15:42.445: restore 0.9382@30 self.re=-0.3631
G1 E303.7366 F1800
;00:15:42.476: draw 0.30x0.60x1.00@5 ve=0.3742
G1 X45.00 Y-17.00 E304.8591 F300
;00:15:45.476: retract -1.5623@30 self.re=0.5623
G1 E303.2968 F1800
G1 Z0.700 F420
;00:15:45.585: testStartStopLine Kf=1.5 vx=68.0 le=0 ve=30
G1 X-45.00 Y-19.00 F6000
G1 Z0.300 F420
;00:15:46.543: restore 1.5763@30 self.re=-1.0011
G1 E304.8731 F1800
G1 X-40.00 Y-19.00 E305.2473 F300
G1 X-30.00 Y-19.00 F60
;00:15:57.595: restore 7.0155@30 self.re=0.0007
G1 E312.2628 F1800
;00:15:57.829: draw 0.30x0.60x1.00@68 ve=5.0888
G1 X20.00 Y-19.00 E316.0046 F4080
;00:15:58.564: retract -6.9173@30 self.re=6.9173
G1 E309.0873 F1800
G1 X30.00 Y-19.00 F60
;00:16:08.795: restore 1.0264@30 self.re=-0.4512
G1 E310.1136 F1800
;00:16:08.829: draw 0.30x0.60x1.00@5 ve=0.3742
G1 X45.00 Y-19.00 E311.2362 F300
;00:16:11.829: retract -1.5623@30 self.re=0.5623
G1 E309.6738 F1800
G1 Z0.700 F420
;00:16:11.938: testStartStopLine Kf=1.5 vx=76.0 le=0 ve=30
G1 X-45.00 Y-21.00 F6000
G1 Z0.300 F420
;00:16:12.896: restore 1.5763@30 self.re=-1.0011
G1 E311.2501 F1800
G1 X-40.00 Y-21.00 E311.6243 F300
G1 X-30.00 Y-21.00 F60
;00:16:23.948: restore 7.7632@30 self.re=0.0007
G1 E319.3874 F1800
;00:16:24.207: draw 0.30x0.60x1.00@76 ve=5.6875
G1 X20.00 Y-21.00 E323.1292 F4560
;00:16:24.865: retract -7.6055@30 self.re=7.6055
G1 E315.5237 F1800
G1 X30.00 Y-21.00 F60
;00:16:35.118: restore 1.1190@30 self.re=-0.5438
G1 E316.6427 F1800
;00:16:35.156: draw 0.30x0.60x1.00@5 ve=0.3742
G1 X45.00 Y-21.00 E317.7652 F300
;00:16:38.156: retract -1.5623@30 self.re=0.5623
G1 E316.2029 F1800
G1 Z0.700 F420
;00:16:38.265: testStartStopLine Kf=1.5 vx=84.0 le=0 ve=30
G1 X-45.00 Y-23.00 F6000
G1 Z0.300 F420
;00:16:39.222: restore 1.5763@30 self.re=-1.0011
G1 E317.7792 F1800
G1 X-40.00 Y-23.00 E318.1534 F300
G1 X-30.00 Y-23.00 F60
;00:16:50.275: restore 8.4964@30 self.re=0.0007
G1 E326.6498 F1800
;00:16:50.558: draw 0.30x0.60x1.00@84 ve=6.2862
G1 X20.00 Y-23.00 E330.3916 F5040
;00:16:51.153: retract -8.2698@30 self.re=8.2698
G1 E322.1218 F1800
G1 X30.00 Y-23.00 F60
;00:17:01.429: restore 1.2154@30 self.re=-0.6402
G1 E323.3372 F1800
;00:17:01.470: draw 0.30x0.60x1.00@5 ve=0.3742
G1 X45.00 Y-23.00 E324.4597 F300
;00:17:04.470: retract -1.5623@30 self.re=0.5623
G1 E322.8974 F1800
G1 Z0.700 F420
;00:17:04.579: testStartStopLine Kf=1.5 vx=92.0 le=0 ve=30
G1 X-45.00 Y-25.00 F6000
G1 Z0.300 F420
;00:17:05.536: restore 1.5763@30 self.re=-1.0011
G1 E324.4737 F1800
G1 X-40.00 Y-25.00 E324.8479 F300
G1 X-30.00 Y-25.00 F60
;00:17:16.589: restore 9.2158@30 self.re=0.0007
G1 E334.0637 F1800
;00:17:16.896: draw 0.30x0.60x1.00@92 ve=6.8848
G1 X20.00 Y-25.00 E337.8054 F5520
;00:17:17.439: retract -8.9116@30 self.re=8.9116
G1 E328.8938 F1800
G1 X30.00 Y-25.00 F60
;00:17:27.736: restore 1.3158@30 self.re=-0.7406
G1 E330.2096 F1800
;00:17:27.780: draw 0.30x0.60x1.00@5 ve=0.3742
G1 X45.00 Y-25.00 E331.3321 F300
;00:17:30.780: retract -1.5622@30 self.re=0.5622
G1 E329.7699 F1800
G1 Z0.700 F420
;00:17:30.889: testStartStopLine Kf=1.5 vx=100.0 le=0 ve=30
G1 X-45.00 Y-27.00 F6000
G1 Z0.300 F420
;00:17:31.847: restore 1.5763@30 self.re=-1.0011
G1 E331.3462 F1800
G1 X-40.00 Y-27.00 E331.7203 F300
G1 X-30.00 Y-27.00 F60
;00:17:42.899: restore 9.9216@30 self.re=0.0007
G1 E341.6419 F1800
;00:17:43.230: draw 0.30x0.60x1.00@100 ve=7.4835
G1 X20.00 Y-27.00 E345.3837 F6000
;00:17:43.730: retract -9.5313@30 self.re=9.5313
G1 E335.8523 F1800
G1 X30.00 Y-27.00 F60
;00:17:54.048: restore 1.4188@30 self.re=-0.8436
G1 E337.2711 F1800
;00:17:54.095: draw 0.30x0.60x1.00@5 ve=0.3742
G1 X45.00 Y-27.00 E338.3936 F300
;00:17:57.095: retract -1.5623@30 self.re=0.5623
G1 E336.8313 F1800
G1 Z0.700 F420
;structure:brim
;00:17:57.204: text 'Kf=1.5\nvx=20-100\nle=0\nve=30'
G1 X46.55 Y-3.12 F6000
G1 Z0.300 F420
;00:17:57.501: restore 1.7524@30 self.re=-1.0011
G1 E338.5837 F1800
;00:17:57.559: draw 0.30x0.60x1.00@10 ve=0.7484
G1 X46.55 Y-6.44 E338.8322 F600
;00:17:57.891: retract -1.7411@30 self.re=0.7411
G1 E337.0911 F1800
G1 Z0.700 F420
G1 X48.96 Y-6.44 F6000
G1 Z0.300 F420
;00:17:58.088: restore 1.7570@30 self.re=-1.0057
G1 E338.8482 F1800
G1 X47.50 Y-4.45 E339.0329 F600
;00:17:58.393: retract -1.7404@30 self.re=0.7404
G1 E337.2925 F1800
G1 Z0.700 F420
G1 X46.55 Y-5.28 F6000
G1 Z0.300 F420
;00:17:58.578: restore 1.7570@30 self.re=-1.0057
G1 E339.0495 F1800
G1 X49.01 Y-3.12 E339.2945 F600
;00:17:58.964: retract -1.7410@30 self.re=0.7410
G1 E337.5534 F1800
G1 Z0.700 F420
G1 X51.33 Y-3.10 F6000
G1 Z0.300 F420
;00:17:59.159: restore 1.7570@30 self.re=-1.0057
G1 E339.3105 F1800
G1 X51.18 Y-3.09 E339.3217 F600
G1 X51.00 Y-3.14 E339.3357
G1 X50.85 Y-3.26 E339.3501
G1 X50.73 Y-3.45 E339.3669
G1 X50.65 Y-3.81 E339.3945
G1 X50.65 Y-6.44 E339.5913
;00:17:59.593: retract -1.7414@30 self.re=0.7414
G1 E337.8500 F1800
G1 Z0.700 F420
G1 X50.16 Y-4.21 F6000
G1 Z0.300 F420
;00:17:59.788: restore 1.7570@30 self.re=-1.0057
G1 E339.6070 F1800
G1 X51.22 Y-4.21 E339.6863 F600
;00:17:59.953: retract -1.7392@30 self.re=0.7392
G1 E337.9471 F1800
G1 Z0.700 F420
G1 X52.48 Y-4.71 F6000
G1 Z0.300 F420
;00:18:00.139: restore 1.7570@30 self.re=-1.0057
G1 E339.7041 F1800
G1 X54.13 Y-4.71 E339.8276 F600
;00:18:00.362: retract -1.7397@30 self.re=0.7397
G1 E338.0879 F1800
G1 Z0.700 F420
G1 X54.13 Y-5.40 F6000
G1 Z0.300 F420
;00:18:00.541: restore 1.7570@30 self.re=-1.0057
G1 E339.8449 F1800
G1 X52.48 Y-5.40 E339.9683 F600
;00:18:00.765: retract -1.7397@30 self.re=0.7397
G1 E338.2286 F1800
G1 Z0.700 F420
G1 X55.28 Y-3.98 F6000
G1 Z0.300 F420
;00:18:00.969: restore 1.7570@30 self.re=-1.0057
G1 E339.9856 F1800
G1 X55.74 Y-3.74 E340.0245 F600
G1 X56.10 Y-3.44 E340.0595
G1 X56.34 Y-3.12 E340.0895
G1 X56.34 Y-6.44 E340.3379
;00:18:01.498: retract -1.7420@30 self.re=0.7420
G1 E338.5959 F1800
G1 Z0.700 F420
G1 X57.49 Y-6.22 F6000
G1 Z0.300 F420
;00:18:01.682: restore 2.5084@30 self.re=-1.0057
G1 E341.1043 F1800
G1 X57.49 Y-6.42 E341.1192 F600
;00:18:01.786: retract -2.4445@30 self.re=1.4445
G1 E338.6747 F1800
G1 Z0.700 F420
G1 X60.58 Y-3.12 F6000
G1 Z0.300 F420
;00:18:02.027: restore 1.7783@30 self.re=-1.0270
G1 E340.4530 F1800
G1 X58.87 Y-3.12 E340.5810 F600
G1 X58.73 Y-4.82 E340.7086
G1 X59.01 Y-4.51 E340.7399
G1 X59.17 Y-4.40 E340.7544
G1 X59.36 Y-4.33 E340.7696
G1 X59.55 Y-4.30 E340.7840
G1 X59.75 Y-4.29 E340.7989
G1 X60.14 Y-4.38 E340.8289
G1 X60.46 Y-4.60 E340.8579
G1 X60.66 Y-4.93 E340.8868
G1 X60.74 Y-5.34 E340.9181
G1 X60.68 Y-5.79 E340.9521
G1 X60.47 Y-6.16 E340.9839
G1 X60.13 Y-6.41 E341.0155
G1 X59.64 Y-6.50 E341.0528
G1 X59.27 Y-6.44 E341.0808
G1 X58.97 Y-6.28 E341.1063
G1 X58.76 Y-6.03 E341.1307
G1 X58.64 Y-5.67 E341.1591
;00:18:03.030: retract -1.7443@30 self.re=0.7443
G1 E339.4148 F1800
G1 Z0.700 F420
G1 X46.55 Y-9.09 F6000
G1 Z0.300 F420
;00:18:03.328: restore 1.7571@30 self.re=-1.0058
G1 E341.1718 F1800
G1 X47.55 Y-11.44 E341.3630 F600
G1 X48.55 Y-9.09 E341.5541
;00:18:03.897: retract -1.7422@30 self.re=0.7422
G1 E339.8119 F1800
G1 Z0.700 F420
G1 X49.70 Y-9.09 F6000
G1 Z0.300 F420
;00:18:04.081: restore 1.7571@30 self.re=-1.0057
G1 E341.5689 F1800
G1 X51.65 Y-11.44 E341.7974 F600
;00:18:04.445: retract -1.7409@30 self.re=0.7409
G1 E340.0566 F1800
G1 Z0.700 F420
G1 X49.70 Y-11.44 F6000
G1 Z0.300 F420
;00:18:04.637: restore 1.7570@30 self.re=-1.0057
G1 E341.8136 F1800
G1 X51.65 Y-9.09 E342.0421 F600
;00:18:05.000: retract -1.7409@30 self.re=0.7409
G1 E340.3013 F1800
G1 Z0.700 F420
G1 X52.80 Y-9.71 F6000
G1 Z0.300 F420
;00:18:05.186: restore 1.7570@30 self.re=-1.0057
G1 E342.0583 F1800
G1 X54.45 Y-9.71 E342.1818 F600
;00:18:05.409: retract -1.7397@30 self.re=0.7397
G1 E340.4421 F1800
G1 Z0.700 F420
G1 X54.45 Y-10.40 F6000
G1 Z0.300 F420
;00:18:05.589: restore 1.7570@30 self.re=-1.0057
G1 E342.1991 F1800
G1 X52.80 Y-10.40 E342.3225 F600
;00:18:05.812: retract -1.7397@30 self.re=0.7397
G1 E340.5828 F1800
G1 Z0.700 F420
G1 X55.60 Y-8.55 F6000
G1 Z0.300 F420
;00:18:06.018: restore 1.7570@30 self.re=-1.0057
G1 E342.3398 F1800
G1 X55.78 Y-8.34 E342.3605 F600
G1 X56.01 Y-8.19 E342.3811
G1 X56.27 Y-8.09 E342.4019
G1 X56.54 Y-8.06 E342.4222
G1 X56.90 Y-8.12 E342.4496
G1 X57.19 Y-8.31 E342.4755
G1 X57.38 Y-8.59 E342.5008
G1 X57.45 Y-8.96 E342.5290
G1 X57.35 Y-9.34 E342.5584
G1 X57.07 Y-9.69 E342.5920
G1 X56.31 Y-10.30 E342.6649
G1 X56.02 Y-10.71 E342.7025
G1 X55.64 Y-11.44 E342.7641
G1 X57.42 Y-11.44 E342.8973
;00:18:06.821: retract -1.7435@30 self.re=0.7435
G1 E341.1538 F1800
G1 Z0.700 F420
G1 X59.79 Y-8.06 F6000
G1 Z0.300 F420
;00:18:07.035: restore 1.7571@30 self.re=-1.0058
G1 E342.9108 F1800
G1 X60.29 Y-8.20 E342.9497 F600
G1 X60.67 Y-8.57 E342.9894
G1 X60.90 Y-9.12 E343.0340
G1 X60.99 Y-9.78 E343.0838
G1 X60.90 Y-10.44 E343.1337
G1 X60.67 Y-10.99 E343.1783
G1 X60.29 Y-11.36 E343.2180
G1 X59.79 Y-11.50 E343.2569
G1 X59.29 Y-11.36 E343.2957
G1 X58.91 Y-10.99 E343.3354
G1 X58.68 Y-10.44 E343.3800
G1 X58.60 Y-9.78 E343.4298
G1 X58.68 Y-9.12 E343.4795
G1 X58.91 Y-8.57 E343.5241
G1 X59.28 Y-8.20 E343.5633
G1 X59.79 Y-8.06 E343.6029
;00:18:08.018: retract -1.7443@30 self.re=0.7443
G1 E341.8586 F1800
G1 Z0.700 F420
G1 X62.13 Y-10.06 F6000
G1 Z0.300 F420
;00:18:08.222: restore 1.7571@30 self.re=-1.0058
G1 E343.6157 F1800
G1 X63.96 Y-10.06 E343.7526 F600
;00:18:08.463: retract -1.7399@30 self.re=0.7399
G1 E342.0127 F1800
G1 Z0.700 F420
G1 X65.11 Y-8.98 F6000
G1 Z0.300 F420
;00:18:08.651: restore 1.7570@30 self.re=-1.0057
G1 E343.7697 F1800
G1 X65.57 Y-8.74 E343.8086 F600
G1 X65.93 Y-8.44 E343.8436
G1 X66.17 Y-8.12 E343.8736
G1 X66.17 Y-11.44 E344.1220
;00:18:09.181: retract -1.7420@30 self.re=0.7420
G1 E342.3800 F1800
G1 Z0.700 F420
G1 X68.51 Y-8.06 F6000
G1 Z0.300 F420
;00:18:09.394: restore 1.7571@30 self.re=-1.0057
G1 E344.1371 F1800
G1 X69.01 Y-8.20 E344.1759 F600
G1 X69.39 Y-8.57 E344.2156
G1 X69.62 Y-9.12 E344.2602
G1 X69.71 Y-9.78 E344.3101
G1 X69.62 Y-10.44 E344.3599
G1 X69.39 Y-10.99 E344.4046
G1 X69.01 Y-11.36 E344.4442
G1 X68.51 Y-11.50 E344.4831
G1 X68.01 Y-11.36 E344.5220
G1 X67.63 Y-10.99 E344.5616
G1 X67.40 Y-10.44 E344.6063
G1 X67.32 Y-9.78 E344.6560
G1 X67.40 Y-9.12 E344.7058
G1 X67.63 Y-8.57 E344.7504
G1 X68.00 Y-8.20 E344.7895
G1 X68.51 Y-8.06 E344.8291
;00:18:10.377: retract -1.7443@30 self.re=0.7443
G1 E343.0848 F1800
G1 Z0.700 F420
G1 X72.05 Y-8.06 F6000
G1 Z0.300 F420
;00:18:10.585: restore 1.7571@30 self.re=-1.0058
G1 E344.8419 F1800
G1 X72.55 Y-8.20 E344.8808 F600
G1 X72.93 Y-8.57 E344.9205
G1 X73.16 Y-9.12 E344.9651
G1 X73.25 Y-9.78 E345.0149
G1 X73.16 Y-10.44 E345.0648
G1 X72.93 Y-10.99 E345.1094
G1 X72.55 Y-11.36 E345.1491
G1 X72.05 Y-11.50 E345.1879
G1 X71.55 Y-11.36 E345.2268
G1 X71.17 Y-10.99 E345.2665
G1 X70.94 Y-10.44 E345.3111
G1 X70.86 Y-9.78 E345.3608
G1 X70.94 Y-9.12 E345.4106
G1 X71.17 Y-8.57 E345.4552
G1 X71.54 Y-8.20 E345.4944
G1 X72.05 Y-8.06 E345.5339
;00:18:11.569: retract -1.7443@30 self.re=0.7443
G1 E343.7896 F1800
G1 Z0.700 F420
G1 X46.55 Y-13.12 F6000
G1 Z0.300 F420
;00:18:12.001: restore 1.7571@30 self.re=-1.0058
G1 E345.5467 F1800
G1 X46.55 Y-16.44 E345.7952 F600
;00:18:12.391: retract -1.7410@30 self.re=0.7410
G1 E344.0541 F1800
G1 Z0.700 F420
G1 X47.70 Y-15.26 F6000
G1 Z0.300 F420
;00:18:12.580: restore 1.7570@30 self.re=-1.0057
G1 E345.8112 F1800
G1 X49.79 Y-15.26 E345.9676 F600
G1 X49.72 Y-14.74 E346.0068
G1 X49.51 Y-14.36 E346.0393
G1 X49.18 Y-14.11 E346.0703
G1 X48.75 Y-14.03 E346.1031
G1 X48.32 Y-14.11 E346.1358
G1 X47.99 Y-14.36 E346.1668
G1 X47.78 Y-14.74 E346.1993
G1 X47.70 Y-15.26 E346.2386
G1 X47.78 Y-15.78 E346.2780
G1 X48.00 Y-16.17 E346.3115
G1 X48.34 Y-16.42 E346.3431
G1 X48.79 Y-16.50 E346.3773
G1 X49.13 Y-16.45 E346.4030
G1 X49.41 Y-16.32 E346.4261
G1 X49.62 Y-16.10 E346.4489
G1 X49.74 Y-15.80 E346.4731
;00:18:13.523: retract -1.7441@30 self.re=0.7441
G1 E344.7289 F1800
G1 Z0.700 F420
G1 X50.94 Y-14.71 F6000
G1 Z0.300 F420
;00:18:13.712: restore 1.7571@30 self.re=-1.0058
G1 E346.4860 F1800
G1 X52.59 Y-14.71 E346.6095 F600
;00:18:13.936: retract -1.7397@30 self.re=0.7397
G1 E344.8698 F1800
G1 Z0.700 F420
G1 X52.59 Y-15.40 F6000
G1 Z0.300 F420
;00:18:14.115: restore 1.7570@30 self.re=-1.0057
G1 E346.6268 F1800
G1 X50.94 Y-15.40 E346.7502 F600
;00:18:14.338: retract -1.7397@30 self.re=0.7397
G1 E345.0105 F1800
G1 Z0.700 F420
G1 X54.93 Y-13.06 F6000
G1 Z0.300 F420
;00:18:14.557: restore 1.7570@30 self.re=-1.0057
G1 E346.7675 F1800
G1 X55.43 Y-13.20 E346.8064 F600
G1 X55.81 Y-13.57 E346.8461
G1 X56.04 Y-14.12 E346.8907
G1 X56.13 Y-14.78 E346.9405
G1 X56.04 Y-15.44 E346.9904
G1 X55.81 Y-15.99 E347.0350
G1 X55.43 Y-16.36 E347.0747
G1 X54.93 Y-16.50 E347.1135
G1 X54.43 Y-16.36 E347.1524
G1 X54.05 Y-15.99 E347.1921
G1 X53.82 Y-15.44 E347.2367
G1 X53.74 Y-14.78 E347.2865
G1 X53.82 Y-14.12 E347.3362
G1 X54.05 Y-13.57 E347.3808
G1 X54.42 Y-13.20 E347.4200
G1 X54.93 Y-13.06 E347.4596
;00:18:15.540: retract -1.7443@30 self.re=0.7443
G1 E345.7153 F1800
G1 Z0.700 F420
G1 X46.55 Y-19.09 F6000
G1 Z0.300 F420
;00:18:15.816: restore 1.7571@30 self.re=-1.0058
G1 E347.4724 F1800
G1 X47.55 Y-21.44 E347.6635 F600
G1 X48.55 Y-19.09 E347.8546
;00:18:16.385: retract -1.7422@30 self.re=0.7422
G1 E346.1124 F1800
G1 Z0.700 F420
G1 X49.70 Y-20.26 F6000
G1 Z0.300 F420
;00:18:16.574: restore 1.7571@30 self.re=-1.0057
G1 E347.8694 F1800
G1 X51.79 Y-20.26 E348.0258 F600
G1 X51.72 Y-19.74 E348.0651
G1 X51.51 Y-19.36 E348.0976
G1 X51.18 Y-19.11 E348.1286
G1 X50.75 Y-19.03 E348.1613
G1 X50.32 Y-19.11 E348.1940
G1 X49.99 Y-19.36 E348.2250
G1 X49.78 Y-19.74 E348.2575
G1 X49.70 Y-20.26 E348.2969
G1 X49.78 Y-20.78 E348.3362
G1 X50.00 Y-21.17 E348.3697
G1 X50.34 Y-21.42 E348.4013
G1 X50.79 Y-21.50 E348.4355
G1 X51.13 Y-21.45 E348.4613
G1 X51.41 Y-21.32 E348.4844
G1 X51.62 Y-21.10 E348.5071
G1 X51.74 Y-20.80 E348.5313
;00:18:17.517: retract -1.7441@30 self.re=0.7441
G1 E346.7872 F1800
G1 Z0.700 F420
G1 X52.94 Y-19.71 F6000
G1 Z0.300 F420
;00:18:17.706: restore 1.7571@30 self.re=-1.0058
G1 E348.5442 F1800
G1 X54.59 Y-19.71 E348.6677 F600
;00:18:17.929: retract -1.7397@30 self.re=0.7397
G1 E346.9280 F1800
G1 Z0.700 F420
G1 X54.59 Y-20.40 F6000
G1 Z0.300 F420
;00:18:18.108: restore 1.7570@30 self.re=-1.0057
G1 E348.6850 F1800
G1 X52.94 Y-20.40 E348.8085 F600
;00:18:18.332: retract -1.7397@30 self.re=0.7397
G1 E347.0688 F1800
G1 Z0.700 F420
G1 X55.78 Y-18.85 F6000
G1 Z0.300 F420
;00:18:18.536: restore 1.7570@30 self.re=-1.0057
G1 E348.8258 F1800
G1 X55.90 Y-18.52 E348.8520 F600
G1 X56.10 Y-18.26 E348.8766
G1 X56.38 Y-18.11 E348.9004
G1 X56.72 Y-18.06 E348.9261
G1 X57.10 Y-18.13 E348.9550
G1 X57.38 Y-18.31 E348.9799
G1 X57.56 Y-18.58 E349.0042
G1 X57.63 Y-18.92 E349.0302
G1 X57.56 Y-19.12 E349.0460
G1 X57.42 Y-19.29 E349.0625
G1 X57.06 Y-19.51 E349.0941
G1 X56.63 Y-19.67 E349.1284
G1 X57.06 Y-19.78 E349.1616
G1 X57.41 Y-19.94 E349.1904
G1 X57.69 Y-20.21 E349.2195
G1 X57.80 Y-20.49 E349.2420
G1 X57.72 Y-20.90 E349.2733
G1 X57.50 Y-21.22 E349.3024
G1 X57.17 Y-21.43 E349.3316
G1 X56.76 Y-21.50 E349.3628
G1 X56.36 Y-21.44 E349.3930
G1 X56.05 Y-21.27 E349.4195
G1 X55.84 Y-21.01 E349.4445
G1 X55.74 Y-20.66 E349.4717
;00:18:19.458: retract -1.7440@30 self.re=0.7440
G1 E347.7277 F1800
G1 Z0.700 F420
G1 X60.13 Y-18.06 F6000
G1 Z0.300 F420
;00:18:19.682: restore 1.7571@30 self.re=-1.0058
G1 E349.4848 F1800
G1 X60.63 Y-18.20 E349.5236 F600
G1 X61.01 Y-18.57 E349.5633
G1 X61.24 Y-19.12 E349.6079
G1 X61.33 Y-19.78 E349.6578
G1 X61.24 Y-20.44 E349.7076
G1 X61.01 Y-20.99 E349.7523
G1 X60.63 Y-21.36 E349.7920
G1 X60.13 Y-21.50 E349.8308
G1 X59.63 Y-21.36 E349.8697
G1 X59.25 Y-20.99 E349.9094
G1 X59.02 Y-20.44 E349.9540
G1 X58.94 Y-19.78 E350.0037
G1 X59.02 Y-19.12 E350.0535
G1 X59.25 Y-18.57 E350.0981
G1 X59.62 Y-18.20 E350.1372
G1 X60.13 Y-18.06 E350.1768
;00:18:20.665: retract -1.7443@30 self.re=0.7443
G1 E348.4325 F1800
G1 Z0.700 F420
;00:18:20.780: testStartStop Kf=1.0 vx=60 le=0-4 ve=30
;structure:shell-outer
G1 X-45.00 Y-32.00 F6000
G1 Z0.300 F420
;00:18:21.898: restore 1.7571@30 self.re=-1.0058
G1 E350.1896 F1800
G1 X45.00 Y-32.00 E356.9248 F600
;00:18:30.957: retract -1.7484@30 self.re=0.7484
G1 E355.1764 F1800
G1 Z0.700 F420
G1 X-42.00 Y-32.00 F6000
G1 X-40.00 Y-32.00
G1 Z0.300 F420
;00:18:32.019: restore 1.7572@30 self.re=-1.0059
G1 E356.9336 F1800
G1 X-40.00 Y-35.00 E357.1581 F600
;00:18:32.378: retract -1.7408@30 self.re=0.7408
G1 E355.4173 F1800
G1 Z0.700 F420
G1 X-38.00 Y-32.00 F6000
G1 Z0.300 F420
;00:18:32.586: restore 1.7570@30 self.re=-1.0057
G1 E357.1743 F1800
G1 X-38.00 Y-33.50 E357.2866 F600
;00:18:32.795: retract -1.7396@30 self.re=0.7396
G1 E355.5470 F1800
G1 Z0.700 F420
G1 X-36.00 Y-32.00 F6000
G1 Z0.300 F420
;00:18:32.992: restore 1.7570@30 self.re=-1.0057
G1 E357.3040 F1800
G1 X-36.00 Y-33.50 E357.4163 F600
;00:18:33.200: retract -1.7396@30 self.re=0.7396
G1 E355.6767 F1800
G1 Z0.700 F420
G1 X-34.00 Y-32.00 F6000
G1 Z0.300 F420
;00:18:33.398: restore 1.7570@30 self.re=-1.0057
G1 E357.4337 F1800
G1 X-34.00 Y-33.50 E357.5459 F600
;00:18:33.606: retract -1.7396@30 self.re=0.7396
G1 E355.8063 F1800
G1 Z0.700 F420
G1 X-32.00 Y-32.00 F6000
G1 Z0.300 F420
;00:18:33.804: restore 1.7570@30 self.re=-1.0057
G1 E357.5633 F1800
G1 X-32.00 Y-33.50 E357.6756 F600
;00:18:34.012: retract -1.7396@30 self.re=0.7396
G1 E355.9360 F1800
G1 Z0.700 F420
G1 X-30.00 Y-32.00 F6000
G1 Z0.300 F420
;00:18:34.209: restore 1.7570@30 self.re=-1.0057
G1 E357.6930 F1800
G1 X-30.00 Y-35.00 E357.9175 F600
;00:18:34.568: retract -1.7408@30 self.re=0.7408
G1 E356.1767 F1800
G1 Z0.700 F420
G1 X-28.00 Y-32.00 F6000
G1 Z0.300 F420
;00:18:34.776: restore 1.7570@30 self.re=-1.0057
G1 E357.9337 F1800
G1 X-28.00 Y-33.50 E358.0459 F600
;00:18:34.985: retract -1.7396@30 self.re=0.7396
G1 E356.3063 F1800
G1 Z0.700 F420
G1 X-26.00 Y-32.00 F6000
G1 Z0.300 F420
;00:18:35.182: restore 1.7570@30 self.re=-1.0057
G1 E358.0634 F1800
G1 X-26.00 Y-33.50 E358.1756 F600
;00:18:35.391: retract -1.7396@30 self.re=0.7396
G1 E356.4360 F1800
G1 Z0.700 F420
G1 X-24.00 Y-32.00 F6000
G1 Z0.300 F420
;00:18:35.588: restore 1.7570@30 self.re=-1.0057
G1 E358.1930 F1800
G1 X-24.00 Y-33.50 E358.3053 F600
;00:18:35.797: retract -1.7396@30 self.re=0.7396
G1 E356.5657 F1800
G1 Z0.700 F420
G1 X-22.00 Y-32.00 F6000
G1 Z0.300 F420
;00:18:35.994: restore 1.7570@30 self.re=-1.0057
G1 E358.3227 F1800
G1 X-22.00 Y-33.50 E358.4349 F600
;00:18:36.202: retract -1.7396@30 self.re=0.7396
G1 E356.6953 F1800
G1 Z0.700 F420
G1 X-20.00 Y-32.00 F6000
G1 Z0.300 F420
;00:18:36.400: restore 1.7570@30 self.re=-1.0057
G1 E358.4523 F1800
G1 X-20.00 Y-35.00 E358.6768 F600
;00:18:36.758: retract -1.7408@30 self.re=0.7408
G1 E356.9360 F1800
G1 Z0.700 F420
G1 X-18.00 Y-32.00 F6000
G1 Z0.300 F420
;00:18:36.967: restore 1.7570@30 self.re=-1.0057
G1 E358.6930 F1800
G1 X-18.00 Y-33.50 E358.8053 F600
;00:18:37.175: retract -1.7396@30 self.re=0.7396
G1 E357.0657 F1800
G1 Z0.700 F420
G1 X-16.00 Y-32.00 F6000
G1 Z0.300 F420
;00:18:37.372: restore 1.7570@30 self.re=-1.0057
G1 E358.8227 F1800
G1 X-16.00 Y-33.50 E358.9350 F600
;00:18:37.581: retract -1.7396@30 self.re=0.7396
G1 E357.1954 F1800
G1 Z0.700 F420
G1 X-14.00 Y-32.00 F6000
G1 Z0.300 F420
;00:18:37.778: restore 1.7570@30 self.re=-1.0057
G1 E358.9524 F1800
G1 X-14.00 Y-33.50 E359.0646 F600
;00:18:37.987: retract -1.7396@30 self.re=0.7396
G1 E357.3250 F1800
G1 Z0.700 F420
G1 X-12.00 Y-32.00 F6000
G1 Z0.300 F420
;00:18:38.184: restore 1.7570@30 self.re=-1.0057
G1 E359.0820 F1800
G1 X-12.00 Y-33.50 E359.1943 F600
;00:18:38.393: retract -1.7396@30 self.re=0.7396
G1 E357.4547 F1800
G1 Z0.700 F420
G1 X-10.00 Y-32.00 F6000
G1 Z0.300 F420
;00:18:38.590: restore 1.7570@30 self.re=-1.0057
G1 E359.2117 F1800
G1 X-10.00 Y-35.00 E359.4362 F600
;00:18:38.949: retract -1.7408@30 self.re=0.7408
G1 E357.6954 F1800
G1 Z0.700 F420
G1 X-8.00 Y-32.00 F6000
G1 Z0.300 F420
;00:18:39.157: restore 1.7570@30 self.re=-1.0057
G1 E359.4524 F1800
G1 X-8.00 Y-33.50 E359.5647 F600
;00:18:39.365: retract -1.7396@30 self.re=0.7396
G1 E357.8251 F1800
G1 Z0.700 F420
G1 X-6.00 Y-32.00 F6000
G1 Z0.300 F420
;00:18:39.563: restore 1.7570@30 self.re=-1.0057
G1 E359.5821 F1800
G1 X-6.00 Y-33.50 E359.6943 F600
;00:18:39.771: retract -1.7396@30 self.re=0.7396
G1 E357.9547 F1800
G1 Z0.700 F420
G1 X-4.00 Y-32.00 F6000
G1 Z0.300 F420
;00:18:39.969: restore 1.7570@30 self.re=-1.0057
G1 E359.7117 F1800
G1 X-4.00 Y-33.50 E359.8240 F600
;00:18:40.177: retract -1.7396@30 self.re=0.7396
G1 E358.0844 F1800
G1 Z0.700 F420
G1 X-2.00 Y-32.00 F6000
G1 Z0.300 F420
;00:18:40.374: restore 1.7570@30 self.re=-1.0057
G1 E359.8414 F1800
G1 X-2.00 Y-33.50 E359.9536 F600
;00:18:40.583: retract -1.7396@30 self.re=0.7396
G1 E358.2140 F1800
G1 Z0.700 F420
G1 X0.00 Y-32.00 F6000
G1 Z0.300 F420
;00:18:40.780: restore 1.7570@30 self.re=-1.0057
G1 E359.9710 F1800
G1 X0.00 Y-35.00 E360.1955 F600
;00:18:41.139: retract -1.7408@30 self.re=0.7408
G1 E358.4547 F1800
G1 Z0.700 F420
G1 X2.00 Y-32.00 F6000
G1 Z0.300 F420
;00:18:41.347: restore 1.7570@30 self.re=-1.0057
G1 E360.2118 F1800
G1 X2.00 Y-33.50 E360.3240 F600
;00:18:41.556: retract -1.7396@30 self.re=0.7396
G1 E358.5844 F1800
G1 Z0.700 F420
G1 X4.00 Y-32.00 F6000
G1 Z0.300 F420
;00:18:41.753: restore 1.7570@30 self.re=-1.0057
G1 E360.3414 F1800
G1 X4.00 Y-33.50 E360.4537 F600
;00:18:41.962: retract -1.7396@30 self.re=0.7396
G1 E358.7141 F1800
G1 Z0.700 F420
G1 X6.00 Y-32.00 F6000
G1 Z0.300 F420
;00:18:42.159: restore 1.7570@30 self.re=-1.0057
G1 E360.4711 F1800
G1 X6.00 Y-33.50 E360.5833 F600
;00:18:42.367: retract -1.7396@30 self.re=0.7396
G1 E358.8437 F1800
G1 Z0.700 F420
G1 X8.00 Y-32.00 F6000
G1 Z0.300 F420
;00:18:42.565: restore 1.7570@30 self.re=-1.0057
G1 E360.6007 F1800
G1 X8.00 Y-33.50 E360.7130 F600
;00:18:42.773: retract -1.7396@30 self.re=0.7396
G1 E358.9734 F1800
G1 Z0.700 F420
G1 X10.00 Y-32.00 F6000
G1 Z0.300 F420
;00:18:42.971: restore 1.7570@30 self.re=-1.0057
G1 E360.7304 F1800
G1 X10.00 Y-35.00 E360.9549 F600
;00:18:43.329: retract -1.7408@30 self.re=0.7408
G1 E359.2141 F1800
G1 Z0.700 F420
G1 X12.00 Y-32.00 F6000
G1 Z0.300 F420
;00:18:43.537: restore 1.7570@30 self.re=-1.0057
G1 E360.9711 F1800
G1 X12.00 Y-33.50 E361.0834 F600
;00:18:43.746: retract -1.7396@30 self.re=0.7396
G1 E359.3438 F1800
G1 Z0.700 F420
G1 X14.00 Y-32.00 F6000
G1 Z0.300 F420
;00:18:43.943: restore 1.7570@30 self.re=-1.0057
G1 E361.1008 F1800
G1 X14.00 Y-33.50 E361.2130 F600
;00:18:44.152: retract -1.7396@30 self.re=0.7396
G1 E359.4734 F1800
G1 Z0.700 F420
G1 X16.00 Y-32.00 F6000
G1 Z0.300 F420
;00:18:44.349: restore 1.7570@30 self.re=-1.0057
G1 E361.2304 F1800
G1 X16.00 Y-33.50 E361.3427 F600
;00:18:44.558: retract -1.7396@30 self.re=0.7396
G1 E359.6031 F1800
G1 Z0.700 F420
G1 X18.00 Y-32.00 F6000
G1 Z0.300 F420
;00:18:44.755: restore 1.7570@30 self.re=-1.0057
G1 E361.3601 F1800
G1 X18.00 Y-33.50 E361.4723 F600
;00:18:44.964: retract -1.7396@30 self.re=0.7396
G1 E359.7327 F1800
G1 Z0.700 F420
G1 X20.00 Y-32.00 F6000
G1 Z0.300 F420
;00:18:45.161: restore 1.7570@30 self.re=-1.0057
G1 E361.4897 F1800
G1 X20.00 Y-35.00 E361.7142 F600
;00:18:45.519: retract -1.7408@30 self.re=0.7408
G1 E359.9734 F1800
G1 Z0.700 F420
G1 X22.00 Y-32.00 F6000
G1 Z0.300 F420
;00:18:45.728: restore 1.7570@30 self.re=-1.0057
G1 E361.7305 F1800
G1 X22.00 Y-33.50 E361.8427 F600
;00:18:45.936: retract -1.7396@30 self.re=0.7396
G1 E360.1031 F1800
G1 Z0.700 F420
G1 X24.00 Y-32.00 F6000
G1 Z0.300 F420
;00:18:46.134: restore 1.7570@30 self.re=-1.0057
G1 E361.8601 F1800
G1 X24.00 Y-33.50 E361.9724 F600
;00:18:46.342: retract -1.7396@30 self.re=0.7396
G1 E360.2328 F1800
G1 Z0.700 F420
G1 X26.00 Y-32.00 F6000
G1 Z0.300 F420
;00:18:46.539: restore 1.7570@30 self.re=-1.0057
G1 E361.9898 F1800
G1 X26.00 Y-33.50 E362.1020 F600
;00:18:46.748: retract -1.7396@30 self.re=0.7396
G1 E360.3624 F1800
G1 Z0.700 F420
G1 X28.00 Y-32.00 F6000
G1 Z0.300 F420
;00:18:46.945: restore 1.7570@30 self.re=-1.0057
G1 E362.1194 F1800
G1 X28.00 Y-33.50 E362.2317 F600
;00:18:47.154: retract -1.7396@30 self.re=0.7396
G1 E360.4921 F1800
G1 Z0.700 F420
G1 X30.00 Y-32.00 F6000
G1 Z0.300 F420
;00:18:47.351: restore 1.7570@30 self.re=-1.0057
G1 E362.2491 F1800
G1 X30.00 Y-35.00 E362.4736 F600
;00:18:47.710: retract -1.7408@30 self.re=0.7408
G1 E360.7328 F1800
G1 Z0.700 F420
G1 X32.00 Y-32.00 F6000
G1 Z0.300 F420
;00:18:47.918: restore 1.7570@30 self.re=-1.0057
G1 E362.4898 F1800
G1 X32.00 Y-33.50 E362.6021 F600
;00:18:48.127: retract -1.7396@30 self.re=0.7396
G1 E360.8625 F1800
G1 Z0.700 F420
G1 X34.00 Y-32.00 F6000
G1 Z0.300 F420
;00:18:48.324: restore 1.7570@30 self.re=-1.0057
G1 E362.6195 F1800
G1 X34.00 Y-33.50 E362.7317 F600
;00:18:48.532: retract -1.7396@30 self.re=0.7396
G1 E360.9921 F1800
G1 Z0.700 F420
G1 X36.00 Y-32.00 F6000
G1 Z0.300 F420
;00:18:48.730: restore 1.7570@30 self.re=-1.0057
G1 E362.7491 F1800
G1 X36.00 Y-33.50 E362.8614 F600
;00:18:48.938: retract -1.7396@30 self.re=0.7396
G1 E361.1218 F1800
G1 Z0.700 F420
G1 X38.00 Y-32.00 F6000
G1 Z0.300 F420
;00:18:49.136: restore 1.7570@30 self.re=-1.0057
G1 E362.8788 F1800
G1 X38.00 Y-33.50 E362.9910 F600
;00:18:49.344: retract -1.7396@30 self.re=0.7396
G1 E361.2514 F1800
G1 Z0.700 F420
G1 X40.00 Y-32.00 F6000
G1 Z0.300 F420
;00:18:49.541: restore 1.7570@30 self.re=-1.0057
G1 E363.0084 F1800
G1 X40.00 Y-35.00 E363.2330 F600
;00:18:49.900: retract -1.7408@30 self.re=0.7408
G1 E361.4921 F1800
G1 Z0.700 F420
;structure:infill-solid
;00:18:50.015: testStartStopLine Kf=1.0 vx=60 le=0 ve=30
G1 X-45.00 Y-36.00 F6000
G1 Z0.300 F420
;00:18:50.922: restore 1.3938@30 self.re=-1.0057
G1 E362.8860 F1800
;00:18:50.969: draw 0.30x0.60x1.00@5 ve=0.3742
G1 X-40.00 Y-36.00 E363.2601 F300
G1 X-30.00 Y-36.00 F60
;00:19:01.969: restore 4.0266@30 self.re=0.0000
G1 E367.2868 F1800
;00:19:02.103: draw 0.30x0.60x1.00@60 ve=4.4901
G1 X20.00 Y-36.00 E371.0286 F3600
;00:19:02.936: retract -4.1675@30 self.re=4.1675
G1 E366.8610 F1800
G1 X30.00 Y-36.00 F60
;00:19:13.075: restore 0.6339@30 self.re=-0.2458
G1 E367.4949 F1800
;00:19:13.096: draw 0.30x0.60x1.00@5 ve=0.3742
G1 X45.00 Y-36.00 E368.6174 F300
;00:19:16.096: retract -1.3747@30 self.re=0.3747
G1 E367.2428 F1800
G1 Z0.700 F420
;00:19:16.199: testStartStopLine Kf=1.0 vx=60 le=0.4 ve=30
G1 X-45.00 Y-38.00 F6000
G1 Z0.300 F420
;00:19:17.157: restore 1.3888@30 self.re=-1.0007
G1 E368.6316 F1800
G1 X-40.00 Y-38.00 E369.0058 F300
G1 X-30.00 Y-38.00 F60
;00:19:28.203: restore 4.0266@30 self.re=0.0000
G1 E373.0325 F1800
;00:19:28.337: draw 0.30x0.60x1.00@60 ve=4.4901
G1 X20.00 Y-38.00 E376.7742 F3600
;00:19:29.171: retract -4.5675@30 self.re=4.1675
G1 E372.2067 F1800
G1 X30.00 Y-38.00 F60
;00:19:39.323: restore 1.0339@30 self.re=-0.6458
G1 E373.2406 F1800
;00:19:39.357: draw 0.30x0.60x1.00@5 ve=0.3742
G1 X45.00 Y-38.00 E374.3631 F300
;00:19:42.357: retract -1.3747@30 self.re=0.3747
G1 E372.9884 F1800
G1 Z0.700 F420
;00:19:42.460: testStartStopLine Kf=1.0 vx=60 le=0.8 ve=30
G1 X-45.00 Y-40.00 F6000
G1 Z0.300 F420
;00:19:43.418: restore 1.3888@30 self.re=-1.0007
G1 E374.3773 F1800
G1 X-40.00 Y-40.00 E374.7515 F300
G1 X-30.00 Y-40.00 F60
;00:19:54.464: restore 4.0266@30 self.re=0.0000
G1 E378.7781 F1800
;00:19:54.598: draw 0.30x0.60x1.00@60 ve=4.4901
G1 X20.00 Y-40.00 E382.5199 F3600
;00:19:55.432: retract -4.9675@30 self.re=4.1675
G1 E377.5523 F1800
G1 X30.00 Y-40.00 F60
;00:20:05.597: restore 1.4339@30 self.re=-1.0458
G1 E378.9862 F1800
