;gcode_flavor: flashforge
;machine_type: Adventurer 3 Series
;filament_diameter0: 1.75
;right_extruder_temperature: 245
;platform_temperature: 100
;extruder_fan: 0%
;case_fan: 0%
;base_print_speed: 50
;travel_speed: 100
;vertical_speed: 7
;retract_speed: 40
;restore_speed: 30
;layer_height: 0.30
;line_width: 0.60
;extrusion_ratio: 1.00
;start gcode
M118 X75.00 Y75.00 Z150.00 T0
M140 S100 T0
M104 S245 T0
M104 S0 T1
M107
M900 K0.850 T0
G90
G28
M132 X Y Z A B
G1 Z50.000 F420
G161 X Y F3300
M7 T0
M6 T0
M651
M108 T0
;preExtrude:0.30
;00:00:00.000: layer=P h=0.30 w=0.60 r=1.00
;structure:pre-extrude
G1 X-55.00 Y-65.00 F6000
G1 Z0.300 F420
;00:00:00.894: restore 0.0000+4.9306@30  ve=0.0000@re=0.0000 -> ve=5.8007@re=4.9306
G1 E4.9306 F1800
;00:00:01.059: draw 0.30x0.60x4.00@20 ve=5.2509@re=4.4633 -> ve=5.9868@re=5.0888
G1 X-55.00 Y55.00 E40.8516 F1200
G1 X-55.00 Y65.00 F600
G1 X35.00 Y65.00
G1 X45.00 Y65.00 F60
;00:00:27.059: retract 0.0000-1.5000@40 ve=0.0000@re=0.0000 -> ve=0.0000@re=-1.5000
G1 E39.3516 F2400
G1 Z0.700 F420
;layer:0.30
;00:00:27.153: layer=1 h=0.30 w=0.60 r=1.00
;structure:brim
G1 X-45.00 Y60.00 F6000
G1 Z0.300 F420
;00:00:28.112: restore -1.5000+2.1391@30  ve=0.0000@re=-1.5000 -> ve=0.7519@re=0.6391
G1 E41.4907 F1800
;00:00:28.183: draw 0.30x0.60x1.00@10 ve=0.7391@re=0.6282 -> ve=0.7484@re=0.6361
G1 X-45.00 Y-61.00 E50.5457 F600
G1 X-45.60 Y-61.00 E50.5906
G1 X-45.60 Y60.00 E59.6457
;00:00:52.443: retract 0.6361-2.1361@40 ve=0.7484@re=0.6361 -> ve=0.0000@re=-1.5000
G1 E57.5096 F2400
G1 Z0.700 F420
G1 X45.00 Y60.00 F6000
G1 Z0.300 F420
;00:00:53.517: restore -1.5029+2.1420@30  ve=0.0000@re=-1.5029 -> ve=0.7519@re=0.6391
G1 E59.6517 F1800
;00:00:53.588: draw 0.30x0.60x1.00@10 ve=0.7391@re=0.6283 -> ve=0.7484@re=0.6361
G1 X45.00 Y-61.00 E68.7067 F600
G1 X45.60 Y-61.00 E68.7516
G1 X45.60 Y60.00 E77.8067
;00:01:17.848: retract 0.6361-2.1361@40 ve=0.7484@re=0.6361 -> ve=0.0000@re=-1.5000
G1 E75.6706 F2400
G1 Z0.700 F420
;00:01:17.959: testStartStop Kf=0.5-1.5 vx=60 le=1.5
;structure:shell-outer
G1 X-45.00 Y55.00 F6000
G1 Z0.300 F420
;00:01:18.923: restore -1.5029+2.1420@30  ve=0.0000@re=-1.5029 -> ve=0.7519@re=0.6391
G1 E77.8126 F1800
;00:01:18.995: draw 0.30x0.60x1.00@10 ve=0.7391@re=0.6283 -> ve=0.7484@re=0.6361
G1 X45.00 Y55.00 E84.5478 F600
;00:01:27.995: retract 0.6361-2.1361@40 ve=0.7484@re=0.6361 -> ve=0.0000@re=-1.5000
G1 E82.4117 F2400
G1 Z0.700 F420
G1 X-42.00 Y55.00 F6000
G1 X-40.00 Y55.00
G1 Z0.300 F420
;00:01:29.052: restore -1.5029+2.1420@30  ve=0.0000@re=-1.5029 -> ve=0.7519@re=0.6391
G1 E84.5538 F1800
;00:01:29.124: draw 0.30x0.60x1.00@10 ve=0.7391@re=0.6283 -> ve=0.7484@re=0.6361
G1 X-40.00 Y52.00 E84.7783 F600
;00:01:29.424: retract 0.6306-2.1306@40 ve=0.7419@re=0.6306 -> ve=0.0000@re=-1.5000
G1 E82.6477 F2400
G1 Z0.700 F420
G1 X-38.00 Y55.00 F6000
G1 Z0.300 F420
;00:01:29.627: restore -1.5029+2.1420@30  ve=0.0000@re=-1.5029 -> ve=0.7519@re=0.6391
G1 E84.7897 F1800
;00:01:29.699: draw 0.30x0.60x1.00@10 ve=0.7391@re=0.6283 -> ve=0.7484@re=0.6361
G1 X-38.00 Y53.50 E84.9019 F600
;00:01:29.849: retract 0.6295-2.1295@40 ve=0.7406@re=0.6295 -> ve=0.0000@re=-1.5000
G1 E82.7724 F2400
G1 Z0.700 F420
G1 X-36.00 Y55.00 F6000
G1 Z0.300 F420
;00:01:30.041: restore -1.5029+2.1420@30  ve=0.0000@re=-1.5029 -> ve=0.7519@re=0.6391
G1 E84.9144 F1800
;00:01:30.113: draw 0.30x0.60x1.00@10 ve=0.7391@re=0.6283 -> ve=0.7484@re=0.6361
G1 X-36.00 Y53.50 E85.0267 F600
;00:01:30.263: retract 0.6295-2.1295@40 ve=0.7406@re=0.6295 -> ve=0.0000@re=-1.5000
G1 E82.8971 F2400
G1 Z0.700 F420
G1 X-34.00 Y55.00 F6000
G1 Z0.300 F420
;00:01:30.455: restore -1.5029+2.1420@30  ve=0.0000@re=-1.5029 -> ve=0.7519@re=0.6391
G1 E85.0391 F1800
;00:01:30.527: draw 0.30x0.60x1.00@10 ve=0.7391@re=0.6283 -> ve=0.7484@re=0.6361
G1 X-34.00 Y53.50 E85.1514 F600
;00:01:30.677: retract 0.6295-2.1295@40 ve=0.7406@re=0.6295 -> ve=0.0000@re=-1.5000
G1 E83.0219 F2400
G1 Z0.700 F420
G1 X-32.00 Y55.00 F6000
G1 Z0.300 F420
;00:01:30.869: restore -1.5029+2.1420@30  ve=0.0000@re=-1.5029 -> ve=0.7519@re=0.6391
G1 E85.1638 F1800
;00:01:30.941: draw 0.30x0.60x1.00@10 ve=0.7391@re=0.6283 -> ve=0.7484@re=0.6361
G1 X-32.00 Y53.50 E85.2761 F600
;00:01:31.091: retract 0.6295-2.1295@40 ve=0.7406@re=0.6295 -> ve=0.0000@re=-1.5000
G1 E83.1466 F2400
G1 Z0.700 F420
G1 X-30.00 Y55.00 F6000
G1 Z0.300 F420
;00:01:31.283: restore -1.5029+2.1420@30  ve=0.0000@re=-1.5029 -> ve=0.7519@re=0.6391
G1 E85.2885 F1800
;00:01:31.355: draw 0.30x0.60x1.00@10 ve=0.7391@re=0.6283 -> ve=0.7484@re=0.6361
G1 X-30.00 Y52.00 E85.5131 F600
;00:01:31.655: retract 0.6306-2.1306@40 ve=0.7419@re=0.6306 -> ve=0.0000@re=-1.5000
G1 E83.3825 F2400
G1 Z0.700 F420
G1 X-28.00 Y55.00 F6000
G1 Z0.300 F420
;00:01:31.858: restore -1.5029+2.1420@30  ve=0.0000@re=-1.5029 -> ve=0.7519@re=0.6391
G1 E85.5245 F1800
;00:01:31.930: draw 0.30x0.60x1.00@10 ve=0.7391@re=0.6283 -> ve=0.7484@re=0.6361
G1 X-28.00 Y53.50 E85.6367 F600
;00:01:32.080: retract 0.6295-2.1295@40 ve=0.7406@re=0.6295 -> ve=0.0000@re=-1.5000
G1 E83.5072 F2400
G1 Z0.700 F420
G1 X-26.00 Y55.00 F6000
G1 Z0.300 F420
;00:01:32.272: restore -1.5029+2.1420@30  ve=0.0000@re=-1.5029 -> ve=0.7519@re=0.6391
G1 E85.6492 F1800
;00:01:32.343: draw 0.30x0.60x1.00@10 ve=0.7391@re=0.6283 -> ve=0.7484@re=0.6361
G1 X-26.00 Y53.50 E85.7614 F600
;00:01:32.493: retract 0.6295-2.1295@40 ve=0.7406@re=0.6295 -> ve=0.0000@re=-1.5000
G1 E83.6319 F2400
G1 Z0.700 F420
G1 X-24.00 Y55.00 F6000
G1 Z0.300 F420
;00:01:32.686: restore -1.5029+2.1420@30  ve=0.0000@re=-1.5029 -> ve=0.7519@re=0.6391
G1 E85.7739 F1800
;00:01:32.757: draw 0.30x0.60x1.00@10 ve=0.7391@re=0.6283 -> ve=0.7484@re=0.6361
G1 X-24.00 Y53.50 E85.8861 F600
;00:01:32.907: retract 0.6295-2.1295@40 ve=0.7406@re=0.6295 -> ve=0.0000@re=-1.5000
G1 E83.7566 F2400
G1 Z0.700 F420
G1 X-22.00 Y55.00 F6000
G1 Z0.300 F420
;00:01:33.100: restore -1.5029+2.1420@30  ve=0.0000@re=-1.5029 -> ve=0.7519@re=0.6391
G1 E85.8986 F1800
;00:01:33.171: draw 0.30x0.60x1.00@10 ve=0.7391@re=0.6283 -> ve=0.7484@re=0.6361
G1 X-22.00 Y53.50 E86.0109 F600
;00:01:33.321: retract 0.6295-2.1295@40 ve=0.7406@re=0.6295 -> ve=0.0000@re=-1.5000
G1 E83.8813 F2400
G1 Z0.700 F420
G1 X-20.00 Y55.00 F6000
G1 Z0.300 F420
;00:01:33.514: restore -1.5029+2.1420@30  ve=0.0000@re=-1.5029 -> ve=0.7519@re=0.6391
G1 E86.0233 F1800
;00:01:33.585: draw 0.30x0.60x1.00@10 ve=0.7391@re=0.6283 -> ve=0.7484@re=0.6361
G1 X-20.00 Y52.00 E86.2478 F600
;00:01:33.885: retract 0.6306-2.1306@40 ve=0.7419@re=0.6306 -> ve=0.0000@re=-1.5000
G1 E84.1173 F2400
G1 Z0.700 F420
G1 X-18.00 Y55.00 F6000
G1 Z0.300 F420
;00:01:34.089: restore -1.5029+2.1420@30  ve=0.0000@re=-1.5029 -> ve=0.7519@re=0.6391
G1 E86.2592 F1800
;00:01:34.160: draw 0.30x0.60x1.00@10 ve=0.7391@re=0.6283 -> ve=0.7484@re=0.6361
G1 X-18.00 Y53.50 E86.3715 F600
;00:01:34.310: retract 0.6295-2.1295@40 ve=0.7406@re=0.6295 -> ve=0.0000@re=-1.5000
G1 E84.2420 F2400
G1 Z0.700 F420
G1 X-16.00 Y55.00 F6000
G1 Z0.300 F420
;00:01:34.503: restore -1.5029+2.1420@30  ve=0.0000@re=-1.5029 -> ve=0.7519@re=0.6391
G1 E86.3840 F1800
;00:01:34.574: draw 0.30x0.60x1.00@10 ve=0.7391@re=0.6283 -> ve=0.7484@re=0.6361
G1 X-16.00 Y53.50 E86.4962 F600
;00:01:34.724: retract 0.6295-2.1295@40 ve=0.7406@re=0.6295 -> ve=0.0000@re=-1.5000
G1 E84.3667 F2400
G1 Z0.700 F420
G1 X-14.00 Y55.00 F6000
G1 Z0.300 F420
;00:01:34.917: restore -1.5029+2.1420@30  ve=0.0000@re=-1.5029 -> ve=0.7519@re=0.6391
G1 E86.5087 F1800
;00:01:34.988: draw 0.30x0.60x1.00@10 ve=0.7391@re=0.6283 -> ve=0.7484@re=0.6361
G1 X-14.00 Y53.50 E86.6209 F600
;00:01:35.138: retract 0.6295-2.1295@40 ve=0.7406@re=0.6295 -> ve=0.0000@re=-1.5000
G1 E84.4914 F2400
G1 Z0.700 F420
G1 X-12.00 Y55.00 F6000
G1 Z0.300 F420
;00:01:35.331: restore -1.5029+2.1420@30  ve=0.0000@re=-1.5029 -> ve=0.7519@re=0.6391
G1 E86.6334 F1800
;00:01:35.402: draw 0.30x0.60x1.00@10 ve=0.7391@re=0.6283 -> ve=0.7484@re=0.6361
G1 X-12.00 Y53.50 E86.7456 F600
;00:01:35.552: retract 0.6295-2.1295@40 ve=0.7406@re=0.6295 -> ve=0.0000@re=-1.5000
G1 E84.6161 F2400
G1 Z0.700 F420
G1 X-10.00 Y55.00 F6000
G1 Z0.300 F420
;00:01:35.744: restore -1.5029+2.1420@30  ve=0.0000@re=-1.5029 -> ve=0.7519@re=0.6391
G1 E86.7581 F1800
;00:01:35.816: draw 0.30x0.60x1.00@10 ve=0.7391@re=0.6283 -> ve=0.7484@re=0.6361
G1 X-10.00 Y52.00 E86.9826 F600
;00:01:36.116: retract 0.6306-2.1306@40 ve=0.7419@re=0.6306 -> ve=0.0000@re=-1.5000
G1 E84.8520 F2400
G1 Z0.700 F420
G1 X-8.00 Y55.00 F6000
G1 Z0.300 F420
;00:01:36.319: restore -1.5029+2.1420@30  ve=0.0000@re=-1.5029 -> ve=0.7519@re=0.6391
G1 E86.9940 F1800
;00:01:36.391: draw 0.30x0.60x1.00@10 ve=0.7391@re=0.6283 -> ve=0.7484@re=0.6361
G1 X-8.00 Y53.50 E87.1063 F600
;00:01:36.541: retract 0.6295-2.1295@40 ve=0.7406@re=0.6295 -> ve=0.0000@re=-1.5000
G1 E84.9768 F2400
G1 Z0.700 F420
G1 X-6.00 Y55.00 F6000
G1 Z0.300 F420
;00:01:36.733: restore -1.5029+2.1420@30  ve=0.0000@re=-1.5029 -> ve=0.7519@re=0.6391
G1 E87.1187 F1800
;00:01:36.805: draw 0.30x0.60x1.00@10 ve=0.7391@re=0.6283 -> ve=0.7484@re=0.6361
G1 X-6.00 Y53.50 E87.2310 F600
;00:01:36.955: retract 0.6295-2.1295@40 ve=0.7406@re=0.6295 -> ve=0.0000@re=-1.5000
G1 E85.1015 F2400
G1 Z0.700 F420
G1 X-4.00 Y55.00 F6000
G1 Z0.300 F420
;00:01:37.147: restore -1.5029+2.1420@30  ve=0.0000@re=-1.5029 -> ve=0.7519@re=0.6391
G1 E87.2434 F1800
;00:01:37.219: draw 0.30x0.60x1.00@10 ve=0.7391@re=0.6283 -> ve=0.7484@re=0.6361
G1 X-4.00 Y53.50 E87.3557 F600
;00:01:37.369: retract 0.6295-2.1295@40 ve=0.7406@re=0.6295 -> ve=0.0000@re=-1.5000
G1 E85.2262 F2400
G1 Z0.700 F420
G1 X-2.00 Y55.00 F6000
G1 Z0.300 F420
;00:01:37.561: restore -1.5029+2.1420@30  ve=0.0000@re=-1.5029 -> ve=0.7519@re=0.6391
G1 E87.3682 F1800
;00:01:37.633: draw 0.30x0.60x1.00@10 ve=0.7391@re=0.6283 -> ve=0.7484@re=0.6361
G1 X-2.00 Y53.50 E87.4804 F600
;00:01:37.783: retract 0.6295-2.1295@40 ve=0.7406@re=0.6295 -> ve=0.0000@re=-1.5000
G1 E85.3509 F2400
G1 Z0.700 F420
G1 X0.00 Y55.00 F6000
G1 Z0.300 F420
;00:01:37.975: restore -1.5029+2.1420@30  ve=0.0000@re=-1.5029 -> ve=0.7519@re=0.6391
G1 E87.4929 F1800
;00:01:38.047: draw 0.30x0.60x1.00@10 ve=0.7391@re=0.6283 -> ve=0.7484@re=0.6361
G1 X0.00 Y52.00 E87.7174 F600
;00:01:38.347: retract 0.6306-2.1306@40 ve=0.7419@re=0.6306 -> ve=0.0000@re=-1.5000
G1 E85.5868 F2400
G1 Z0.700 F420
G1 X2.00 Y55.00 F6000
G1 Z0.300 F420
;00:01:38.550: restore -1.5029+2.1420@30  ve=0.0000@re=-1.5029 -> ve=0.7519@re=0.6391
G1 E87.7288 F1800
;00:01:38.622: draw 0.30x0.60x1.00@10 ve=0.7391@re=0.6283 -> ve=0.7484@re=0.6361
G1 X2.00 Y53.50 E87.8410 F600
;00:01:38.772: retract 0.6295-2.1295@40 ve=0.7406@re=0.6295 -> ve=0.0000@re=-1.5000
G1 E85.7115 F2400
G1 Z0.700 F420
G1 X4.00 Y55.00 F6000
G1 Z0.300 F420
;00:01:38.964: restore -1.5029+2.1420@30  ve=0.0000@re=-1.5029 -> ve=0.7519@re=0.6391
G1 E87.8535 F1800
;00:01:39.036: draw 0.30x0.60x1.00@10 ve=0.7391@re=0.6283 -> ve=0.7484@re=0.6361
G1 X4.00 Y53.50 E87.9658 F600
;00:01:39.186: retract 0.6295-2.1295@40 ve=0.7406@re=0.6295 -> ve=0.0000@re=-1.5000
G1 E85.8362 F2400
G1 Z0.700 F420
G1 X6.00 Y55.00 F6000
G1 Z0.300 F420
;00:01:39.378: restore -1.5029+2.1420@30  ve=0.0000@re=-1.5029 -> ve=0.7519@re=0.6391
G1 E87.9782 F1800
;00:01:39.449: draw 0.30x0.60x1.00@10 ve=0.7391@re=0.6283 -> ve=0.7484@re=0.6361
G1 X6.00 Y53.50 E88.0905 F600
;00:01:39.599: retract 0.6295-2.1295@40 ve=0.7406@re=0.6295 -> ve=0.0000@re=-1.5000
G1 E85.9610 F2400
G1 Z0.700 F420
G1 X8.00 Y55.00 F6000
G1 Z0.300 F420
;00:01:39.792: restore -1.5029+2.1420@30  ve=0.0000@re=-1.5029 -> ve=0.7519@re=0.6391
G1 E88.1029 F1800
;00:01:39.863: draw 0.30x0.60x1.00@10 ve=0.7391@re=0.6283 -> ve=0.7484@re=0.6361
G1 X8.00 Y53.50 E88.2152 F600
;00:01:40.013: retract 0.6295-2.1295@40 ve=0.7406@re=0.6295 -> ve=0.0000@re=-1.5000
G1 E86.0857 F2400
G1 Z0.700 F420
G1 X10.00 Y55.00 F6000
G1 Z0.300 F420
;00:01:40.206: restore -1.5029+2.1420@30  ve=0.0000@re=-1.5029 -> ve=0.7519@re=0.6391
G1 E88.2277 F1800
;00:01:40.277: draw 0.30x0.60x1.00@10 ve=0.7391@re=0.6283 -> ve=0.7484@re=0.6361
G1 X10.00 Y52.00 E88.4522 F600
;00:01:40.577: retract 0.6306-2.1306@40 ve=0.7419@re=0.6306 -> ve=0.0000@re=-1.5000
G1 E86.3216 F2400
G1 Z0.700 F420
G1 X12.00 Y55.00 F6000
G1 Z0.300 F420
;00:01:40.781: restore -1.5029+2.1420@30  ve=0.0000@re=-1.5029 -> ve=0.7519@re=0.6391
G1 E88.4636 F1800
;00:01:40.852: draw 0.30x0.60x1.00@10 ve=0.7391@re=0.6283 -> ve=0.7484@re=0.6361
G1 X12.00 Y53.50 E88.5758 F600
;00:01:41.002: retract 0.6295-2.1295@40 ve=0.7406@re=0.6295 -> ve=0.0000@re=-1.5000
G1 E86.4463 F2400
G1 Z0.700 F420
G1 X14.00 Y55.00 F6000
G1 Z0.300 F420
;00:01:41.195: restore -1.5029+2.1420@30  ve=0.0000@re=-1.5029 -> ve=0.7519@re=0.6391
G1 E88.5883 F1800
;00:01:41.266: draw 0.30x0.60x1.00@10 ve=0.7391@re=0.6283 -> ve=0.7484@re=0.6361
G1 X14.00 Y53.50 E88.7005 F600
;00:01:41.416: retract 0.6295-2.1295@40 ve=0.7406@re=0.6295 -> ve=0.0000@re=-1.5000
G1 E86.5710 F2400
G1 Z0.700 F420
G1 X16.00 Y55.00 F6000
G1 Z0.300 F420
;00:01:41.609: restore -1.5029+2.1420@30  ve=0.0000@re=-1.5029 -> ve=0.7519@re=0.6391
G1 E88.7130 F1800
;00:01:41.680: draw 0.30x0.60x1.00@10 ve=0.7391@re=0.6283 -> ve=0.7484@re=0.6361
G1 X16.00 Y53.50 E88.8253 F600
;00:01:41.830: retract 0.6295-2.1295@40 ve=0.7406@re=0.6295 -> ve=0.0000@re=-1.5000
G1 E86.6957 F2400
G1 Z0.700 F420
G1 X18.00 Y55.00 F6000
G1 Z0.300 F420
;00:01:42.023: restore -1.5029+2.1420@30  ve=0.0000@re=-1.5029 -> ve=0.7519@re=0.6391
G1 E88.8377 F1800
;00:01:42.094: draw 0.30x0.60x1.00@10 ve=0.7391@re=0.6283 -> ve=0.7484@re=0.6361
G1 X18.00 Y53.50 E88.9500 F600
;00:01:42.244: retract 0.6295-2.1295@40 ve=0.7406@re=0.6295 -> ve=0.0000@re=-1.5000
G1 E86.8205 F2400
G1 Z0.700 F420
G1 X20.00 Y55.00 F6000
G1 Z0.300 F420
;00:01:42.437: restore -1.5029+2.1420@30  ve=0.0000@re=-1.5029 -> ve=0.7519@re=0.6391
G1 E88.9624 F1800
;00:01:42.508: draw 0.30x0.60x1.00@10 ve=0.7391@re=0.6283 -> ve=0.7484@re=0.6361
G1 X20.00 Y52.00 E89.1869 F600
;00:01:42.808: retract 0.6306-2.1306@40 ve=0.7419@re=0.6306 -> ve=0.0000@re=-1.5000
G1 E87.0564 F2400
G1 Z0.700 F420
G1 X22.00 Y55.00 F6000
G1 Z0.300 F420
;00:01:43.012: restore -1.5029+2.1420@30  ve=0.0000@re=-1.5029 -> ve=0.7519@re=0.6391
G1 E89.1983 F1800
;00:01:43.083: draw 0.30x0.60x1.00@10 ve=0.7391@re=0.6283 -> ve=0.7484@re=0.6361
G1 X22.00 Y53.50 E89.3106 F600
;00:01:43.233: retract 0.6295-2.1295@40 ve=0.7406@re=0.6295 -> ve=0.0000@re=-1.5000
G1 E87.1811 F2400
G1 Z0.700 F420
G1 X24.00 Y55.00 F6000
G1 Z0.300 F420
;00:01:43.426: restore -1.5029+2.1420@30  ve=0.0000@re=-1.5029 -> ve=0.7519@re=0.6391
G1 E89.3231 F1800
;00:01:43.497: draw 0.30x0.60x1.00@10 ve=0.7391@re=0.6283 -> ve=0.7484@re=0.6361
G1 X24.00 Y53.50 E89.4353 F600
;00:01:43.647: retract 0.6295-2.1295@40 ve=0.7406@re=0.6295 -> ve=0.0000@re=-1.5000
G1 E87.3058 F2400
G1 Z0.700 F420
G1 X26.00 Y55.00 F6000
G1 Z0.300 F420
;00:01:43.839: restore -1.5029+2.1420@30  ve=0.0000@re=-1.5029 -> ve=0.7519@re=0.6391
G1 E89.4478 F1800
;00:01:43.911: draw 0.30x0.60x1.00@10 ve=0.7391@re=0.6283 -> ve=0.7484@re=0.6361
G1 X26.00 Y53.50 E89.5600 F600
;00:01:44.061: retract 0.6295-2.1295@40 ve=0.7406@re=0.6295 -> ve=0.0000@re=-1.5000
G1 E87.4305 F2400
G1 Z0.700 F420
G1 X28.00 Y55.00 F6000
G1 Z0.300 F420
;00:01:44.253: restore -1.5029+2.1420@30  ve=0.0000@re=-1.5029 -> ve=0.7519@re=0.6391
G1 E89.5725 F1800
;00:01:44.325: draw 0.30x0.60x1.00@10 ve=0.7391@re=0.6283 -> ve=0.7484@re=0.6361
G1 X28.00 Y53.50 E89.6847 F600
;00:01:44.475: retract 0.6295-2.1295@40 ve=0.7406@re=0.6295 -> ve=0.0000@re=-1.5000
G1 E87.5552 F2400
G1 Z0.700 F420
G1 X30.00 Y55.00 F6000
G1 Z0.300 F420
;00:01:44.667: restore -1.5029+2.1420@30  ve=0.0000@re=-1.5029 -> ve=0.7519@re=0.6391
G1 E89.6972 F1800
;00:01:44.739: draw 0.30x0.60x1.00@10 ve=0.7391@re=0.6283 -> ve=0.7484@re=0.6361
G1 X30.00 Y52.00 E89.9217 F600
;00:01:45.039: retract 0.6306-2.1306@40 ve=0.7419@re=0.6306 -> ve=0.0000@re=-1.5000
G1 E87.7911 F2400
G1 Z0.700 F420
G1 X32.00 Y55.00 F6000
G1 Z0.300 F420
;00:01:45.242: restore -1.5029+2.1420@30  ve=0.0000@re=-1.5029 -> ve=0.7519@re=0.6391
G1 E89.9331 F1800
;00:01:45.314: draw 0.30x0.60x1.00@10 ve=0.7391@re=0.6283 -> ve=0.7484@re=0.6361
G1 X32.00 Y53.50 E90.0454 F600
;00:01:45.464: retract 0.6295-2.1295@40 ve=0.7406@re=0.6295 -> ve=0.0000@re=-1.5000
G1 E87.9159 F2400
G1 Z0.700 F420
G1 X34.00 Y55.00 F6000
G1 Z0.300 F420
;00:01:45.656: restore -1.5029+2.1420@30  ve=0.0000@re=-1.5029 -> ve=0.7519@re=0.6391
G1 E90.0578 F1800
;00:01:45.728: draw 0.30x0.60x1.00@10 ve=0.7391@re=0.6283 -> ve=0.7484@re=0.6361
G1 X34.00 Y53.50 E90.1701 F600
;00:01:45.878: retract 0.6295-2.1295@40 ve=0.7406@re=0.6295 -> ve=0.0000@re=-1.5000
G1 E88.0406 F2400
G1 Z0.700 F420
G1 X36.00 Y55.00 F6000
G1 Z0.300 F420
;00:01:46.070: restore -1.5029+2.1420@30  ve=0.0000@re=-1.5029 -> ve=0.7519@re=0.6391
G1 E90.1826 F1800
;00:01:46.142: draw 0.30x0.60x1.00@10 ve=0.7391@re=0.6283 -> ve=0.7484@re=0.6361
G1 X36.00 Y53.50 E90.2948 F600
;00:01:46.292: retract 0.6295-2.1295@40 ve=0.7406@re=0.6295 -> ve=0.0000@re=-1.5000
G1 E88.1653 F2400
G1 Z0.700 F420
G1 X38.00 Y55.00 F6000
G1 Z0.300 F420
;00:01:46.484: restore -1.5029+2.1420@30  ve=0.0000@re=-1.5029 -> ve=0.7519@re=0.6391
G1 E90.3073 F1800
;00:01:46.555: draw 0.30x0.60x1.00@10 ve=0.7391@re=0.6283 -> ve=0.7484@re=0.6361
G1 X38.00 Y53.50 E90.4195 F600
;00:01:46.705: retract 0.6295-2.1295@40 ve=0.7406@re=0.6295 -> ve=0.0000@re=-1.5000
G1 E88.2900 F2400
G1 Z0.700 F420
G1 X40.00 Y55.00 F6000
G1 Z0.300 F420
;00:01:46.898: restore -1.5029+2.1420@30  ve=0.0000@re=-1.5029 -> ve=0.7519@re=0.6391
G1 E90.4320 F1800
;00:01:46.969: draw 0.30x0.60x1.00@10 ve=0.7391@re=0.6283 -> ve=0.7484@re=0.6361
G1 X40.00 Y52.00 E90.6565 F600
;00:01:47.269: retract 0.6306-2.1306@40 ve=0.7419@re=0.6306 -> ve=0.0000@re=-1.5000
G1 E88.5259 F2400
G1 Z0.700 F420
;structure:infill-solid
;00:01:47.380: testStartStopLine Kf=0.5 vx=60 le=1.5
G1 X-45.00 Y51.00 F6000
G1 Z0.300 F420
;00:01:48.287: restore -1.5029+1.5578@30  ve=0.0000@re=-1.5029 -> ve=0.1098@re=0.0549
G1 E90.0837 F1800
;00:01:48.339: draw 0.30x0.60x1.00@1 ve=0.1094@re=0.0547 -> ve=0.0748@re=0.0374
G1 X-40.00 Y51.00 E90.4579 F60
G1 X-30.00 Y51.00
;00:02:03.339: restore 0.0000+1.8282@30  ve=0.0000@re=0.0000 -> ve=3.6563@re=1.8282
G1 E92.2860 F1800
;00:02:03.400: draw 0.30x0.60x1.00@60 ve=3.4264@re=1.7132 -> ve=4.4901@re=2.2451
G1 X20.00 Y51.00 E96.0278 F3600
;00:02:04.233: retract 2.1438-3.6438@40 ve=4.2875@re=2.1438 -> ve=0.0000@re=-1.5000
G1 E92.3840 F2400
G1 X30.00 Y51.00 F60
;00:02:14.324: restore -1.5973+1.7984@30  ve=0.0000@re=-1.5973 -> ve=0.4021@re=0.2011
G1 E94.1824 F1800
;00:02:14.384: draw 0.30x0.60x1.00@5 ve=0.3971@re=0.1986 -> ve=0.3742@re=0.1871
G1 X45.00 Y51.00 E95.3049 F300
;00:02:17.384: retract 0.1871-1.6871@40 ve=0.3742@re=0.1871 -> ve=0.0000@re=-1.5000
G1 E93.6178 F2400
G1 Z0.700 F420
;00:02:17.484: testStartStopLine Kf=0.6 vx=60 le=1.5
G1 X-45.00 Y49.00 F6000
G1 Z0.300 F420
;00:02:18.441: restore -1.5000+1.5624@30  ve=0.0000@re=-1.5000 -> ve=0.1040@re=0.0624
G1 E95.1802 F1800
;00:02:18.493: draw 0.30x0.60x1.00@1 ve=0.1033@re=0.0620 -> ve=0.0748@re=0.0449
G1 X-40.00 Y49.00 E95.5544 F60
G1 X-30.00 Y49.00
;00:02:33.493: restore 0.0000+2.2627@30  ve=0.0000@re=0.0000 -> ve=3.7712@re=2.2627
G1 E97.8170 F1800
;00:02:33.568: draw 0.30x0.60x1.00@60 ve=3.5276@re=2.1165 -> ve=4.4901@re=2.6941
G1 X20.00 Y49.00 E101.5588 F3600
;00:02:34.402: retract 2.5491-4.0491@40 ve=4.2484@re=2.5491 -> ve=0.0000@re=-1.5000
G1 E97.5098 F2400
G1 X30.00 Y49.00 F60
;00:02:44.503: restore -1.6145+1.8530@30  ve=0.0000@re=-1.6145 -> ve=0.3974@re=0.2385
G1 E99.3628 F1800
;00:02:44.565: draw 0.30x0.60x1.00@5 ve=0.3931@re=0.2359 -> ve=0.3742@re=0.2245
G1 X45.00 Y49.00 E100.4853 F300
;00:02:47.565: retract 0.2246-1.7246@40 ve=0.3743@re=0.2246 -> ve=0.0000@re=-1.5000
G1 E98.7607 F2400
G1 Z0.700 F420
;00:02:47.665: testStartStopLine Kf=0.7 vx=60 le=1.5
G1 X-45.00 Y47.00 F6000
G1 Z0.300 F420
;00:02:48.622: restore -1.5000+1.5699@30  ve=0.0000@re=-1.5000 -> ve=0.0998@re=0.0699
G1 E100.3306 F1800
;00:02:48.675: draw 0.30x0.60x1.00@1 ve=0.0993@re=0.0695 -> ve=0.0748@re=0.0524
G1 X-40.00 Y47.00 E100.7047 F60
G1 X-30.00 Y47.00
;00:03:03.675: restore 0.0000+2.7008@30  ve=0.0000@re=0.0000 -> ve=3.8582@re=2.7008
G1 E103.4055 F1800
;00:03:03.765: draw 0.30x0.60x1.00@60 ve=3.6037@re=2.5226 -> ve=4.4901@re=3.1431
G1 X20.00 Y47.00 E107.1473 F3600
;00:03:04.598: retract 2.9533-4.4533@40 ve=4.2190@re=2.9533 -> ve=0.0000@re=-1.5000
G1 E102.6940 F2400
G1 X30.00 Y47.00 F60
;00:03:14.709: restore -1.6317+1.9075@30  ve=0.0000@re=-1.6317 -> ve=0.3941@re=0.2759
G1 E104.6015 F1800
;00:03:14.773: draw 0.30x0.60x1.00@5 ve=0.3894@re=0.2726 -> ve=0.3742@re=0.2619
G1 X45.00 Y47.00 E105.7240 F300
;00:03:17.773: retract 0.2621-1.7621@40 ve=0.3744@re=0.2621 -> ve=0.0000@re=-1.5000
G1 E103.9620 F2400
G1 Z0.700 F420
;00:03:17.874: testStartStopLine Kf=0.7999999999999999 vx=60 le=1.5
G1 X-45.00 Y45.00 F6000
G1 Z0.300 F420
;00:03:18.832: restore -1.5000+1.5774@30  ve=0.0000@re=-1.5000 -> ve=0.0967@re=0.0774
G1 E105.5393 F1800
;00:03:18.884: draw 0.30x0.60x1.00@1 ve=0.0961@re=0.0769 -> ve=0.0748@re=0.0599
G1 X-40.00 Y45.00 E105.9135 F60
G1 X-30.00 Y45.00
;00:03:33.884: restore 0.0000+3.1412@30  ve=0.0000@re=0.0000 -> ve=3.9265@re=3.1412
G1 E109.0547 F1800
;00:03:33.989: draw 0.30x0.60x1.00@60 ve=3.6634@re=2.9307 -> ve=4.4901@re=3.5921
G1 X20.00 Y45.00 E112.7965 F3600
;00:03:34.822: retract 3.3575-4.8575@40 ve=4.1969@re=3.3575 -> ve=0.0000@re=-1.5000
G1 E107.9390 F2400
G1 X30.00 Y45.00 F60
;00:03:44.944: restore -1.6488+1.9621@30  ve=0.0000@re=-1.6488 -> ve=0.3916@re=0.3133
G1 E109.9010 F1800
;00:03:45.009: draw 0.30x0.60x1.00@5 ve=0.3872@re=0.3097 -> ve=0.3742@re=0.2993
G1 X45.00 Y45.00 E111.0236 F300
;00:03:48.009: retract 0.2996-1.7996@40 ve=0.3745@re=0.2996 -> ve=0.0000@re=-1.5000
G1 E109.2240 F2400
G1 Z0.700 F420
;00:03:48.111: testStartStopLine Kf=0.8999999999999999 vx=60 le=1.5
G1 X-45.00 Y43.00 F6000
G1 Z0.300 F420
;00:03:49.068: restore -1.5000+1.5848@30  ve=0.0000@re=-1.5000 -> ve=0.0943@re=0.0848
G1 E110.8088 F1800
;00:03:49.121: draw 0.30x0.60x1.00@1 ve=0.0934@re=0.0841 -> ve=0.0748@re=0.0674
G1 X-40.00 Y43.00 E111.1830 F60
G1 X-30.00 Y43.00
;00:04:04.121: restore 0.0000+3.5833@30  ve=0.0000@re=0.0000 -> ve=3.9815@re=3.5833
G1 E114.7663 F1800
;00:04:04.241: draw 0.30x0.60x1.00@60 ve=3.7115@re=3.3404 -> ve=4.4901@re=4.0411
G1 X20.00 Y43.00 E118.5081 F3600
;00:04:05.074: retract 3.7622-5.2622@40 ve=4.1802@re=3.7622 -> ve=0.0000@re=-1.5000
G1 E113.2459 F2400
G1 X30.00 Y43.00 F60
;00:04:15.206: restore -1.6660+2.0167@30  ve=0.0000@re=-1.6660 -> ve=0.3897@re=0.3507
G1 E115.2626 F1800
;00:04:15.273: draw 0.30x0.60x1.00@5 ve=0.3854@re=0.3468 -> ve=0.3742@re=0.3368
G1 X45.00 Y43.00 E116.3851 F300
;00:04:18.273: retract 0.3371-1.8371@40 ve=0.3746@re=0.3371 -> ve=0.0000@re=-1.5000
G1 E114.5480 F2400
G1 Z0.700 F420
;00:04:18.376: testStartStopLine Kf=0.9999999999999999 vx=60 le=1.5
G1 X-45.00 Y41.00 F6000
G1 Z0.300 F420
;00:04:19.333: restore -1.5000+1.5923@30  ve=0.0000@re=-1.5000 -> ve=0.0923@re=0.0923
G1 E116.1403 F1800
;00:04:19.386: draw 0.30x0.60x1.00@1 ve=0.0920@re=0.0920 -> ve=0.0748@re=0.0748
G1 X-40.00 Y41.00 E116.5145 F60
G1 X-30.00 Y41.00
;00:04:34.386: restore 0.0000+4.0267@30  ve=0.0000@re=0.0000 -> ve=4.0267@re=4.0267
G1 E120.5412 F1800
;00:04:34.521: draw 0.30x0.60x1.00@60 ve=3.7510@re=3.7510 -> ve=4.4901@re=4.4901
G1 X20.00 Y41.00 E124.2829 F3600
;00:04:35.354: retract 4.1675-5.6675@40 ve=4.1675@re=4.1675 -> ve=0.0000@re=-1.5000
G1 E118.6154 F2400
G1 X30.00 Y41.00 F60
;00:04:45.496: restore -1.6834+2.0715@30  ve=0.0000@re=-1.6834 -> ve=0.3881@re=0.3881
G1 E120.6869 F1800
;00:04:45.565: draw 0.30x0.60x1.00@5 ve=0.3835@re=0.3835 -> ve=0.3742@re=0.3742
G1 X45.00 Y41.00 E121.8094 F300
;00:04:48.565: retract 0.3746-1.8746@40 ve=0.3746@re=0.3746 -> ve=0.0000@re=-1.5000
G1 E119.9348 F2400
G1 Z0.700 F420
;00:04:48.669: testStartStopLine Kf=1.0999999999999999 vx=60 le=1.5
G1 X-45.00 Y39.00 F6000
G1 Z0.300 F420
;00:04:49.626: restore -1.5000+1.5998@30  ve=0.0000@re=-1.5000 -> ve=0.0907@re=0.0998
G1 E121.5346 F1800
;00:04:49.679: draw 0.30x0.60x1.00@1 ve=0.0900@re=0.0990 -> ve=0.0748@re=0.0823
G1 X-40.00 Y39.00 E121.9087 F60
G1 X-30.00 Y39.00
;00:05:04.679: restore 0.0000+4.4709@30  ve=0.0000@re=0.0000 -> ve=4.0645@re=4.4709
G1 E126.3797 F1800
;00:05:04.828: draw 0.30x0.60x1.00@60 ve=3.7839@re=4.1623 -> ve=4.4901@re=4.9391
G1 X20.00 Y39.00 E130.1214 F3600
;00:05:05.662: retract 4.5736-6.0736@40 ve=4.1578@re=4.5736 -> ve=0.0000@re=-1.5000
G1 E124.0479 F2400
G1 X30.00 Y39.00 F60
;00:05:15.814: restore -1.7008+2.1263@30  ve=0.0000@re=-1.7008 -> ve=0.3868@re=0.4255
G1 E126.1742 F1800
;00:05:15.884: draw 0.30x0.60x1.00@5 ve=0.3826@re=0.4209 -> ve=0.3742@re=0.4116
G1 X45.00 Y39.00 E127.2967 F300
;00:05:18.884: retract 0.4122-1.9122@40 ve=0.3747@re=0.4122 -> ve=0.0000@re=-1.5000
G1 E125.3845 F2400
G1 Z0.700 F420
;00:05:18.989: testStartStopLine Kf=1.2 vx=60 le=1.5
G1 X-45.00 Y37.00 F6000
G1 Z0.300 F420
;00:05:19.947: restore -1.5000+1.6073@30  ve=0.0000@re=-1.5000 -> ve=0.0894@re=0.1073
G1 E126.9918 F1800
;00:05:20.000: draw 0.30x0.60x1.00@1 ve=0.0890@re=0.1068 -> ve=0.0748@re=0.0898
G1 X-40.00 Y37.00 E127.3660 F60
G1 X-30.00 Y37.00
;00:05:35.000: restore 0.0000+4.9159@30  ve=0.0000@re=0.0000 -> ve=4.0966@re=4.9159
G1 E132.2819 F1800
;00:05:35.164: draw 0.30x0.60x1.00@60 ve=3.8118@re=4.5741 -> ve=4.4901@re=5.3881
G1 X20.00 Y37.00 E136.0237 F3600
;00:05:35.998: retract 4.9803-6.4803@40 ve=4.1502@re=4.9803 -> ve=0.0000@re=-1.5000
G1 E129.5434 F2400
G1 X30.00 Y37.00 F60
;00:05:46.160: restore -1.7183+2.1812@30  ve=0.0000@re=-1.7183 -> ve=0.3858@re=0.4629
G1 E131.7247 F1800
;00:05:46.232: draw 0.30x0.60x1.00@5 ve=0.3812@re=0.4575 -> ve=0.3742@re=0.4490
G1 X45.00 Y37.00 E132.8472 F300
;00:05:49.232: retract 0.4497-1.9497@40 ve=0.3748@re=0.4497 -> ve=0.0000@re=-1.5000
G1 E130.8975 F2400
G1 Z0.700 F420
;00:05:49.338: testStartStopLine Kf=1.3 vx=60 le=1.5
G1 X-45.00 Y35.00 F6000
G1 Z0.300 F420
;00:05:50.296: restore -1.5000+1.6148@30  ve=0.0000@re=-1.5000 -> ve=0.0883@re=0.1148
G1 E132.5122 F1800
;00:05:50.349: draw 0.30x0.60x1.00@1 ve=0.0877@re=0.1140 -> ve=0.0748@re=0.0973
G1 X-40.00 Y35.00 E132.8864 F60
G1 X-30.00 Y35.00
;00:06:05.349: restore 0.0000+5.3615@30  ve=0.0000@re=0.0000 -> ve=4.1242@re=5.3615
G1 E138.2479 F1800
;00:06:05.528: draw 0.30x0.60x1.00@60 ve=3.8357@re=4.9864 -> ve=4.4901@re=5.8372
G1 X20.00 Y35.00 E141.9896 F3600
;00:06:06.361: retract 5.3876-6.8876@40 ve=4.1443@re=5.3876 -> ve=0.0000@re=-1.5000
G1 E135.1021 F2400
G1 X30.00 Y35.00 F60
;00:06:16.534: restore -1.7358+2.2362@30  ve=0.0000@re=-1.7358 -> ve=0.3849@re=0.5003
G1 E137.3382 F1800
;00:06:16.608: draw 0.30x0.60x1.00@5 ve=0.3805@re=0.4946 -> ve=0.3742@re=0.4864
G1 X45.00 Y35.00 E138.4608 F300
;00:06:19.608: retract 0.4873-1.9873@40 ve=0.3748@re=0.4873 -> ve=0.0000@re=-1.5000
G1 E136.4735 F2400
G1 Z0.700 F420
;00:06:19.715: testStartStopLine Kf=1.4000000000000001 vx=60 le=1.5
G1 X-45.00 Y33.00 F6000
G1 Z0.300 F420
;00:06:20.672: restore -1.5000+1.6223@30  ve=0.0000@re=-1.5000 -> ve=0.0873@re=0.1223
G1 E138.0958 F1800
;00:06:20.726: draw 0.30x0.60x1.00@1 ve=0.0866@re=0.1212 -> ve=0.0748@re=0.1048
G1 X-40.00 Y33.00 E138.4699 F60
G1 X-30.00 Y33.00
;00:06:35.726: restore 0.0001+5.8074@30  ve=0.0001@re=0.0001 -> ve=4.1482@re=5.8075
G1 E144.2774 F1800
;00:06:35.920: draw 0.30x0.60x1.00@60 ve=3.8564@re=5.3990 -> ve=4.4901@re=6.2862
G1 X20.00 Y33.00 E148.0191 F3600
;00:06:36.753: retract 5.7955-7.2955@40 ve=4.1397@re=5.7955 -> ve=0.0000@re=-1.5000
G1 E140.7236 F2400
G1 X30.00 Y33.00 F60
;00:06:46.936: restore -1.7534+2.2912@30  ve=0.0000@re=-1.7534 -> ve=0.3841@re=0.5378
G1 E143.0148 F1800
;00:06:47.012: draw 0.30x0.60x1.00@5 ve=0.3799@re=0.5319 -> ve=0.3742@re=0.5238
G1 X45.00 Y33.00 E144.1373 F300
;00:06:50.012: retract 0.5248-2.0248@40 ve=0.3749@re=0.5248 -> ve=0.0000@re=-1.5000
G1 E142.1125 F2400
G1 Z0.700 F420
;structure:brim
;00:06:50.120: text 'Kf=0.5-1.5\nvx=60\nle=1.5'
G1 X46.55 Y54.88 F6000
G1 Z0.300 F420
;00:06:50.396: restore -1.5000+2.1391@30  ve=0.0000@re=-1.5000 -> ve=0.7519@re=0.6391
G1 E144.2516 F1800
;00:06:50.468: draw 0.30x0.60x1.00@10 ve=0.7391@re=0.6282 -> ve=0.7484@re=0.6361
G1 X46.55 Y51.56 E144.5001 F600
;00:06:50.800: retract 0.6308-2.1308@40 ve=0.7421@re=0.6308 -> ve=0.0000@re=-1.5000
G1 E142.3693 F2400
G1 Z0.700 F420
G1 X48.96 Y51.56 F6000
G1 Z0.300 F420
;00:06:50.991: restore -1.5029+2.1420@30  ve=0.0000@re=-1.5029 -> ve=0.7519@re=0.6391
G1 E144.5113 F1800
;00:06:51.063: draw 0.30x0.60x1.00@10 ve=0.7391@re=0.6283 -> ve=0.7484@re=0.6361
G1 X47.50 Y53.55 E144.6960 F600
;00:06:51.309: retract 0.6302-2.1302@40 ve=0.7414@re=0.6302 -> ve=0.0000@re=-1.5000
G1 E142.5658 F2400
G1 Z0.700 F420
G1 X46.55 Y52.72 F6000
G1 Z0.300 F420
;00:06:51.490: restore -1.5029+2.1420@30  ve=0.0000@re=-1.5029 -> ve=0.7519@re=0.6391
G1 E144.7078 F1800
;00:06:51.561: draw 0.30x0.60x1.00@10 ve=0.7391@re=0.6283 -> ve=0.7484@re=0.6361
G1 X49.01 Y54.88 E144.9528 F600
;00:06:51.888: retract 0.6307-2.1307@40 ve=0.7421@re=0.6307 -> ve=0.0000@re=-1.5000
G1 E142.8220 F2400
G1 Z0.700 F420
G1 X51.33 Y54.90 F6000
G1 Z0.300 F420
;00:06:52.079: restore -1.5029+2.1420@30  ve=0.0000@re=-1.5029 -> ve=0.7519@re=0.6391
G1 E144.9640 F1800
;00:06:52.151: draw 0.30x0.60x1.00@10 ve=0.7391@re=0.6283 -> ve=0.7484@re=0.6361
G1 X51.18 Y54.91 E144.9753 F600
G1 X51.00 Y54.86 E144.9892
G1 X50.85 Y54.74 E145.0036
G1 X50.73 Y54.55 E145.0204
G1 X50.65 Y54.19 E145.0480
G1 X50.65 Y51.56 E145.2448
;00:06:52.526: retract 0.6310-2.1310@40 ve=0.7424@re=0.6310 -> ve=0.0000@re=-1.5000
G1 E143.1138 F2400
G1 Z0.700 F420
G1 X50.16 Y53.79 F6000
G1 Z0.300 F420
;00:06:52.716: restore -1.5029+2.1420@30  ve=0.0000@re=-1.5029 -> ve=0.7519@re=0.6391
G1 E145.2558 F1800
;00:06:52.788: draw 0.30x0.60x1.00@10 ve=0.7391@re=0.6283 -> ve=0.7484@re=0.6361
G1 X51.22 Y53.79 E145.3351 F600
;00:06:52.894: retract 0.6292-2.1292@40 ve=0.7402@re=0.6292 -> ve=0.0000@re=-1.5000
G1 E143.2060 F2400
G1 Z0.700 F420
G1 X52.48 Y53.29 F6000
G1 Z0.300 F420
;00:06:53.075: restore -1.5029+2.1420@30  ve=0.0000@re=-1.5029 -> ve=0.7519@re=0.6391
G1 E145.3479 F1800
;00:06:53.146: draw 0.30x0.60x1.00@10 ve=0.7391@re=0.6283 -> ve=0.7484@re=0.6361
G1 X54.13 Y53.29 E145.4714 F600
;00:06:53.311: retract 0.6296-2.1296@40 ve=0.7407@re=0.6296 -> ve=0.0000@re=-1.5000
G1 E143.3418 F2400
G1 Z0.700 F420
G1 X54.13 Y52.60 F6000
G1 Z0.300 F420
;00:06:53.486: restore -1.5029+2.1420@30  ve=0.0000@re=-1.5029 -> ve=0.7519@re=0.6391
G1 E145.4838 F1800
;00:06:53.557: draw 0.30x0.60x1.00@10 ve=0.7391@re=0.6283 -> ve=0.7484@re=0.6361
G1 X52.48 Y52.60 E145.6072 F600
;00:06:53.722: retract 0.6296-2.1296@40 ve=0.7407@re=0.6296 -> ve=0.0000@re=-1.5000
G1 E143.4776 F2400
G1 Z0.700 F420
G1 X56.47 Y54.94 F6000
G1 Z0.300 F420
;00:06:53.936: restore -1.5029+2.1420@30  ve=0.0000@re=-1.5029 -> ve=0.7519@re=0.6391
G1 E145.6196 F1800
;00:06:54.007: draw 0.30x0.60x1.00@10 ve=0.7391@re=0.6283 -> ve=0.7484@re=0.6361
G1 X56.97 Y54.80 E145.6584 F600
G1 X57.35 Y54.43 E145.6981
G1 X57.58 Y53.88 E145.7427
G1 X57.67 Y53.22 E145.7926
G1 X57.58 Y52.56 E145.8424
G1 X57.35 Y52.01 E145.8870
G1 X56.97 Y51.64 E145.9267
G1 X56.47 Y51.50 E145.9656
G1 X55.97 Y51.64 E146.0045
G1 X55.59 Y52.01 E146.0441
G1 X55.36 Y52.56 E146.0888
G1 X55.28 Y53.22 E146.1385
G1 X55.36 Y53.88 E146.1883
G1 X55.59 Y54.43 E146.2329
G1 X55.96 Y54.80 E146.2720
G1 X56.47 Y54.94 E146.3116
;00:06:54.932: retract 0.6334-2.1334@40 ve=0.7452@re=0.6334 -> ve=0.0000@re=-1.5000
G1 E144.1782 F2400
G1 Z0.700 F420
G1 X58.82 Y51.78 F6000
G1 Z0.300 F420
;00:06:55.139: restore -1.5029+2.7811@30  ve=0.0000@re=-1.5029 -> ve=1.5038@re=1.2782
G1 E146.9593 F1800
;00:06:55.232: draw 0.30x0.60x1.00@10 ve=1.4596@re=1.2407 -> ve=0.7484@re=0.6361
G1 X58.82 Y51.58 E146.9743 F600
;00:06:55.252: retract 1.2267-2.7267@40 ve=1.4431@re=1.2267 -> ve=0.0000@re=-1.5000
G1 E144.2476 F2400
G1 Z0.700 F420
G1 X61.91 Y54.88 F6000
G1 Z0.300 F420
;00:06:55.479: restore -1.5160+2.1551@30  ve=0.0000@re=-1.5160 -> ve=0.7519@re=0.6391
G1 E146.4027 F1800
;00:06:55.551: draw 0.30x0.60x1.00@10 ve=0.7392@re=0.6283 -> ve=0.7484@re=0.6361
G1 X60.20 Y54.88 E146.5307 F600
G1 X60.06 Y53.18 E146.6583
G1 X60.34 Y53.49 E146.6896
G1 X60.50 Y53.60 E146.7041
G1 X60.69 Y53.67 E146.7193
G1 X60.88 Y53.70 E146.7337
G1 X61.08 Y53.71 E146.7487
G1 X61.47 Y53.62 E146.7786
G1 X61.79 Y53.40 E146.8077
G1 X61.99 Y53.07 E146.8366
G1 X62.07 Y52.66 E146.8678
G1 X62.01 Y52.21 E146.9018
G1 X61.80 Y51.84 E146.9336
G1 X61.46 Y51.59 E146.9652
G1 X60.97 Y51.50 E147.0025
G1 X60.60 Y51.56 E147.0305
G1 X60.30 Y51.72 E147.0560
G1 X60.09 Y51.97 E147.0804
G1 X59.97 Y52.33 E147.1088
;00:06:56.495: retract 0.6335-2.1335@40 ve=0.7453@re=0.6335 -> ve=0.0000@re=-1.5000
G1 E144.9753 F2400
G1 Z0.700 F420
G1 X63.22 Y52.94 F6000
G1 Z0.300 F420
;00:06:56.695: restore -1.5029+2.1420@30  ve=0.0000@re=-1.5029 -> ve=0.7519@re=0.6391
G1 E147.1173 F1800
;00:06:56.767: draw 0.30x0.60x1.00@10 ve=0.7391@re=0.6283 -> ve=0.7484@re=0.6361
G1 X65.05 Y52.94 E147.2543 F600
;00:06:56.950: retract 0.6298-2.1298@40 ve=0.7409@re=0.6298 -> ve=0.0000@re=-1.5000
G1 E145.1245 F2400
G1 Z0.700 F420
G1 X66.19 Y54.02 F6000
G1 Z0.300 F420
;00:06:57.133: restore -1.5029+2.1420@30  ve=0.0000@re=-1.5029 -> ve=0.7519@re=0.6391
G1 E147.2665 F1800
;00:06:57.204: draw 0.30x0.60x1.00@10 ve=0.7391@re=0.6283 -> ve=0.7484@re=0.6361
G1 X66.65 Y54.26 E147.3053 F600
G1 X67.01 Y54.56 E147.3404
G1 X67.25 Y54.88 E147.3703
G1 X67.25 Y51.56 E147.6188
;00:06:57.675: retract 0.6316-2.1316@40 ve=0.7430@re=0.6316 -> ve=0.0000@re=-1.5000
G1 E145.4872 F2400
G1 Z0.700 F420
G1 X68.41 Y51.78 F6000
G1 Z0.300 F420
;00:06:57.854: restore -1.5029+2.7811@30  ve=0.0000@re=-1.5029 -> ve=1.5038@re=1.2782
G1 E148.2683 F1800
;00:06:57.947: draw 0.30x0.60x1.00@10 ve=1.4596@re=1.2407 -> ve=0.7484@re=0.6361
G1 X68.41 Y51.58 E148.2833 F600
;00:06:57.967: retract 1.2267-2.7267@40 ve=1.4431@re=1.2267 -> ve=0.0000@re=-1.5000
G1 E145.5566 F2400
G1 Z0.700 F420
G1 X71.50 Y54.88 F6000
G1 Z0.300 F420
;00:06:58.195: restore -1.5160+2.1551@30  ve=0.0000@re=-1.5160 -> ve=0.7519@re=0.6391
G1 E147.7117 F1800
;00:06:58.267: draw 0.30x0.60x1.00@10 ve=0.7392@re=0.6283 -> ve=0.7484@re=0.6361
G1 X69.79 Y54.88 E147.8397 F600
G1 X69.65 Y53.18 E147.9673
G1 X69.93 Y53.49 E147.9986
G1 X70.09 Y53.60 E148.0131
G1 X70.28 Y53.67 E148.0283
G1 X70.47 Y53.70 E148.0427
G1 X70.67 Y53.71 E148.0577
G1 X71.06 Y53.62 E148.0876
G1 X71.38 Y53.40 E148.1167
G1 X71.58 Y53.07 E148.1456
G1 X71.66 Y52.66 E148.1768
G1 X71.60 Y52.21 E148.2108
G1 X71.39 Y51.84 E148.2426
G1 X71.05 Y51.59 E148.2742
G1 X70.56 Y51.50 E148.3115
G1 X70.19 Y51.56 E148.3395
G1 X69.89 Y51.72 E148.3650
G1 X69.68 Y51.97 E148.3894
G1 X69.56 Y52.33 E148.4178
;00:06:59.210: retract 0.6335-2.1335@40 ve=0.7453@re=0.6335 -> ve=0.0000@re=-1.5000
G1 E146.2843 F2400
G1 Z0.700 F420
G1 X46.55 Y48.91 F6000
G1 Z0.300 F420
;00:06:59.610: restore -1.5029+2.1420@30  ve=0.0000@re=-1.5029 -> ve=0.7519@re=0.6391
G1 E148.4263 F1800
;00:06:59.682: draw 0.30x0.60x1.00@10 ve=0.7391@re=0.6283 -> ve=0.7484@re=0.6361
G1 X47.55 Y46.56 E148.6174 F600
G1 X48.55 Y48.91 E148.8086
;00:07:00.193: retract 0.6318-2.1318@40 ve=0.7433@re=0.6318 -> ve=0.0000@re=-1.5000
G1 E146.6768 F2400
G1 Z0.700 F420
G1 X49.70 Y48.91 F6000
G1 Z0.300 F420
;00:07:00.372: restore -1.5029+2.1420@30  ve=0.0000@re=-1.5029 -> ve=0.7519@re=0.6391
G1 E148.8188 F1800
;00:07:00.443: draw 0.30x0.60x1.00@10 ve=0.7391@re=0.6283 -> ve=0.7484@re=0.6361
G1 X51.65 Y46.56 E149.0473 F600
;00:07:00.748: retract 0.6306-2.1306@40 ve=0.7419@re=0.6306 -> ve=0.0000@re=-1.5000
G1 E146.9167 F2400
G1 Z0.700 F420
G1 X49.70 Y46.56 F6000
G1 Z0.300 F420
;00:07:00.936: restore -1.5029+2.1420@30  ve=0.0000@re=-1.5029 -> ve=0.7519@re=0.6391
G1 E149.0587 F1800
;00:07:01.007: draw 0.30x0.60x1.00@10 ve=0.7391@re=0.6283 -> ve=0.7484@re=0.6361
G1 X51.65 Y48.91 E149.2872 F600
;00:07:01.312: retract 0.6306-2.1306@40 ve=0.7419@re=0.6306 -> ve=0.0000@re=-1.5000
G1 E147.1566 F2400
G1 Z0.700 F420
G1 X52.80 Y48.29 F6000
G1 Z0.300 F420
;00:07:01.493: restore -1.5029+2.1420@30  ve=0.0000@re=-1.5029 -> ve=0.7519@re=0.6391
G1 E149.2986 F1800
;00:07:01.564: draw 0.30x0.60x1.00@10 ve=0.7391@re=0.6283 -> ve=0.7484@re=0.6361
G1 X54.45 Y48.29 E149.4221 F600
;00:07:01.729: retract 0.6296-2.1296@40 ve=0.7407@re=0.6296 -> ve=0.0000@re=-1.5000
G1 E147.2924 F2400
G1 Z0.700 F420
G1 X54.45 Y47.60 F6000
G1 Z0.300 F420
;00:07:01.904: restore -1.5029+2.1420@30  ve=0.0000@re=-1.5029 -> ve=0.7519@re=0.6391
G1 E149.4344 F1800
;00:07:01.975: draw 0.30x0.60x1.00@10 ve=0.7391@re=0.6283 -> ve=0.7484@re=0.6361
G1 X52.80 Y47.60 E149.5579 F600
;00:07:02.140: retract 0.6296-2.1296@40 ve=0.7407@re=0.6296 -> ve=0.0000@re=-1.5000
G1 E147.4283 F2400
G1 Z0.700 F420
G1 X57.60 Y49.19 F6000
G1 Z0.300 F420
;00:07:02.358: restore -1.5029+2.1420@30  ve=0.0000@re=-1.5029 -> ve=0.7519@re=0.6391
G1 E149.5702 F1800
;00:07:02.430: draw 0.30x0.60x1.00@10 ve=0.7391@re=0.6283 -> ve=0.7484@re=0.6361
G1 X57.29 Y49.75 E149.6181 F600
G1 X56.72 Y49.94 E149.6631
G1 X56.22 Y49.82 E149.7016
G1 X55.87 Y49.48 E149.7381
G1 X55.67 Y48.89 E149.7847
G1 X55.60 Y48.10 E149.8441
G1 X55.67 Y47.41 E149.8960
G1 X55.88 Y46.91 E149.9365
G1 X56.22 Y46.61 E149.9705
G1 X56.68 Y46.50 E150.0059
G1 X57.11 Y46.59 E150.0388
G1 X57.43 Y46.83 E150.0687
G1 X57.61 Y47.19 E150.0988
G1 X57.67 Y47.61 E150.1306
G1 X57.60 Y48.01 E150.1609
G1 X57.42 Y48.34 E150.1891
G1 X57.12 Y48.57 E150.2174
G1 X56.73 Y48.65 E150.2472
G1 X56.28 Y48.56 E150.2815
G1 X55.86 Y48.32 E150.3177
G1 X55.60 Y48.10 E150.3432
;00:07:03.462: retract 0.6338-2.1338@40 ve=0.7456@re=0.6338 -> ve=0.0000@re=-1.5000
G1 E148.2094 F2400
G1 Z0.700 F420
G1 X60.01 Y49.94 F6000
G1 Z0.300 F420
;00:07:03.678: restore -1.5029+2.1420@30  ve=0.0000@re=-1.5029 -> ve=0.7519@re=0.6391
G1 E150.3514 F1800
;00:07:03.749: draw 0.30x0.60x1.00@10 ve=0.7391@re=0.6283 -> ve=0.7484@re=0.6361
G1 X60.51 Y49.80 E150.3903 F600
G1 X60.89 Y49.43 E150.4300
G1 X61.12 Y48.88 E150.4746
G1 X61.21 Y48.22 E150.5245
G1 X61.12 Y47.56 E150.5743
G1 X60.89 Y47.01 E150.6189
G1 X60.51 Y46.64 E150.6586
G1 X60.01 Y46.50 E150.6975
G1 X59.51 Y46.64 E150.7363
G1 X59.13 Y47.01 E150.7760
G1 X58.90 Y47.56 E150.8206
G1 X58.82 Y48.22 E150.8704
G1 X58.90 Y48.88 E150.9201
G1 X59.13 Y49.43 E150.9647
G1 X59.50 Y49.80 E151.0039
G1 X60.01 Y49.94 E151.0435
;00:07:04.674: retract 0.6334-2.1334@40 ve=0.7452@re=0.6334 -> ve=0.0000@re=-1.5000
G1 E148.9100 F2400
G1 Z0.700 F420
G1 X46.55 Y44.88 F6000
G1 Z0.300 F420
;00:07:04.985: restore -1.5029+2.1420@30  ve=0.0000@re=-1.5029 -> ve=0.7519@re=0.6391
G1 E151.0521 F1800
;00:07:05.057: draw 0.30x0.60x1.00@10 ve=0.7391@re=0.6283 -> ve=0.7484@re=0.6361
G1 X46.55 Y41.56 E151.3005 F600
;00:07:05.389: retract 0.6308-2.1308@40 ve=0.7421@re=0.6308 -> ve=0.0000@re=-1.5000
G1 E149.1697 F2400
G1 Z0.700 F420
G1 X47.70 Y42.74 F6000
G1 Z0.300 F420
;00:07:05.573: restore -1.5029+2.1420@30  ve=0.0000@re=-1.5029 -> ve=0.7519@re=0.6391
G1 E151.3117 F1800
;00:07:05.644: draw 0.30x0.60x1.00@10 ve=0.7391@re=0.6283 -> ve=0.7484@re=0.6361
G1 X49.79 Y42.74 E151.4681 F600
G1 X49.72 Y43.26 E151.5074
G1 X49.51 Y43.64 E151.5399
G1 X49.18 Y43.89 E151.5709
G1 X48.75 Y43.97 E151.6036
G1 X48.32 Y43.89 E151.6363
G1 X47.99 Y43.64 E151.6673
G1 X47.78 Y43.26 E151.6998
G1 X47.70 Y42.74 E151.7392
G1 X47.78 Y42.22 E151.7785
G1 X48.00 Y41.83 E151.8121
G1 X48.34 Y41.58 E151.8436
G1 X48.79 Y41.50 E151.8778
G1 X49.13 Y41.55 E151.9036
G1 X49.41 Y41.68 E151.9267
G1 X49.62 Y41.90 E151.9494
G1 X49.74 Y42.20 E151.9736
;00:07:06.529: retract 0.6333-2.1333@40 ve=0.7451@re=0.6333 -> ve=0.0000@re=-1.5000
G1 E149.8403 F2400
G1 Z0.700 F420
G1 X50.94 Y43.29 F6000
G1 Z0.300 F420
;00:07:06.713: restore -1.5029+2.1420@30  ve=0.0000@re=-1.5029 -> ve=0.7519@re=0.6391
G1 E151.9823 F1800
;00:07:06.784: draw 0.30x0.60x1.00@10 ve=0.7391@re=0.6283 -> ve=0.7484@re=0.6361
G1 X52.59 Y43.29 E152.1058 F600
;00:07:06.949: retract 0.6296-2.1296@40 ve=0.7407@re=0.6296 -> ve=0.0000@re=-1.5000
G1 E149.9762 F2400
G1 Z0.700 F420
G1 X52.59 Y42.60 F6000
G1 Z0.300 F420
;00:07:07.123: restore -1.5029+2.1420@30  ve=0.0000@re=-1.5029 -> ve=0.7519@re=0.6391
G1 E152.1181 F1800
;00:07:07.195: draw 0.30x0.60x1.00@10 ve=0.7391@re=0.6283 -> ve=0.7484@re=0.6361
G1 X50.94 Y42.60 E152.2416 F600
;00:07:07.360: retract 0.6296-2.1296@40 ve=0.7407@re=0.6296 -> ve=0.0000@re=-1.5000
G1 E150.1120 F2400
G1 Z0.700 F420
G1 X53.74 Y44.02 F6000
G1 Z0.300 F420
;00:07:07.559: restore -1.5029+2.1420@30  ve=0.0000@re=-1.5029 -> ve=0.7519@re=0.6391
G1 E152.2540 F1800
;00:07:07.630: draw 0.30x0.60x1.00@10 ve=0.7391@re=0.6283 -> ve=0.7484@re=0.6361
G1 X54.20 Y44.26 E152.2928 F600
G1 X54.56 Y44.56 E152.3279
G1 X54.80 Y44.88 E152.3578
G1 X54.80 Y41.56 E152.6062
;00:07:08.101: retract 0.6316-2.1316@40 ve=0.7430@re=0.6316 -> ve=0.0000@re=-1.5000
G1 E150.4747 F2400
G1 Z0.700 F420
G1 X55.95 Y41.78 F6000
G1 Z0.300 F420
;00:07:08.280: restore -1.5029+2.7811@30  ve=0.0000@re=-1.5029 -> ve=1.5038@re=1.2782
G1 E153.2558 F1800
;00:07:08.373: draw 0.30x0.60x1.00@10 ve=1.4596@re=1.2407 -> ve=0.7484@re=0.6361
G1 X55.95 Y41.58 E153.2707 F600
;00:07:08.393: retract 1.2267-2.7267@40 ve=1.4431@re=1.2267 -> ve=0.0000@re=-1.5000
G1 E150.5441 F2400
G1 Z0.700 F420
G1 X59.04 Y44.88 F6000
G1 Z0.300 F420
;00:07:08.621: restore -1.5160+2.1551@30  ve=0.0000@re=-1.5160 -> ve=0.7519@re=0.6391
G1 E152.6992 F1800
;00:07:08.692: draw 0.30x0.60x1.00@10 ve=0.7392@re=0.6283 -> ve=0.7484@re=0.6361
G1 X57.33 Y44.88 E152.8272 F600
G1 X57.19 Y43.18 E152.9548
G1 X57.47 Y43.49 E152.9861
G1 X57.63 Y43.60 E153.0006
G1 X57.82 Y43.67 E153.0158
G1 X58.01 Y43.70 E153.0302
G1 X58.21 Y43.71 E153.0451
G1 X58.60 Y43.62 E153.0751
G1 X58.92 Y43.40 E153.1042
G1 X59.12 Y43.07 E153.1330
G1 X59.20 Y42.66 E153.1643
G1 X59.14 Y42.21 E153.1983
G1 X58.93 Y41.84 E153.2301
G1 X58.59 Y41.59 E153.2617
G1 X58.10 Y41.50 E153.2990
G1 X57.73 Y41.56 E153.3270
G1 X57.43 Y41.72 E153.3525
G1 X57.22 Y41.97 E153.3769
G1 X57.10 Y42.33 E153.4053
;00:07:09.636: retract 0.6335-2.1335@40 ve=0.7453@re=0.6335 -> ve=0.0000@re=-1.5000
G1 E151.2718 F2400
G1 Z0.700 F420
;00:07:09.746: testStartStop Kf=0.5-1.5 vx=100 le=1.5
;structure:shell-outer
G1 X-45.00 Y26.00 F6000
G1 Z0.300 F420
;00:07:10.837: restore -1.5029+2.1420@30  ve=0.0000@re=-1.5029 -> ve=0.7519@re=0.6391
G1 E153.4138 F1800
;00:07:10.909: draw 0.30x0.60x1.00@10 ve=0.7391@re=0.6283 -> ve=0.7484@re=0.6361
G1 X45.00 Y26.00 E160.1490 F600
;00:07:19.909: retract 0.6361-2.1361@40 ve=0.7484@re=0.6361 -> ve=0.0000@re=-1.5000
G1 E158.0129 F2400
G1 Z0.700 F420
G1 X-42.00 Y26.00 F6000
G1 X-40.00 Y26.00
G1 Z0.300 F420
;00:07:20.967: restore -1.5029+2.1420@30  ve=0.0000@re=-1.5029 -> ve=0.7519@re=0.6391
G1 E160.1549 F1800
;00:07:21.038: draw 0.30x0.60x1.00@10 ve=0.7391@re=0.6283 -> ve=0.7484@re=0.6361
G1 X-40.00 Y23.00 E160.3794 F600
;00:07:21.338: retract 0.6306-2.1306@40 ve=0.7419@re=0.6306 -> ve=0.0000@re=-1.5000
G1 E158.2488 F2400
G1 Z0.700 F420
G1 X-38.00 Y26.00 F6000
G1 Z0.300 F420
;00:07:21.542: restore -1.5029+2.1420@30  ve=0.0000@re=-1.5029 -> ve=0.7519@re=0.6391
G1 E160.3908 F1800
;00:07:21.613: draw 0.30x0.60x1.00@10 ve=0.7391@re=0.6283 -> ve=0.7484@re=0.6361
G1 X-38.00 Y24.50 E160.5031 F600
;00:07:21.763: retract 0.6295-2.1295@40 ve=0.7406@re=0.6295 -> ve=0.0000@re=-1.5000
G1 E158.3736 F2400
G1 Z0.700 F420
G1 X-36.00 Y26.00 F6000
G1 Z0.300 F420
;00:07:21.956: restore -1.5029+2.1420@30  ve=0.0000@re=-1.5029 -> ve=0.7519@re=0.6391
G1 E160.5155 F1800
;00:07:22.027: draw 0.30x0.60x1.00@10 ve=0.7391@re=0.6283 -> ve=0.7484@re=0.6361
G1 X-36.00 Y24.50 E160.6278 F600
;00:07:22.177: retract 0.6295-2.1295@40 ve=0.7406@re=0.6295 -> ve=0.0000@re=-1.5000
G1 E158.4983 F2400
G1 Z0.700 F420
G1 X-34.00 Y26.00 F6000
G1 Z0.300 F420
;00:07:22.369: restore -1.5029+2.1420@30  ve=0.0000@re=-1.5029 -> ve=0.7519@re=0.6391
G1 E160.6403 F1800
;00:07:22.441: draw 0.30x0.60x1.00@10 ve=0.7391@re=0.6283 -> ve=0.7484@re=0.6361
G1 X-34.00 Y24.50 E160.7525 F600
;00:07:22.591: retract 0.6295-2.1295@40 ve=0.7406@re=0.6295 -> ve=0.0000@re=-1.5000
G1 E158.6230 F2400
G1 Z0.700 F420
G1 X-32.00 Y26.00 F6000
G1 Z0.300 F420
;00:07:22.783: restore -1.5029+2.1420@30  ve=0.0000@re=-1.5029 -> ve=0.7519@re=0.6391
G1 E160.7650 F1800
;00:07:22.855: draw 0.30x0.60x1.00@10 ve=0.7391@re=0.6283 -> ve=0.7484@re=0.6361
G1 X-32.00 Y24.50 E160.8772 F600
;00:07:23.005: retract 0.6295-2.1295@40 ve=0.7406@re=0.6295 -> ve=0.0000@re=-1.5000
G1 E158.7477 F2400
G1 Z0.700 F420
G1 X-30.00 Y26.00 F6000
G1 Z0.300 F420
;00:07:23.197: restore -1.5029+2.1420@30  ve=0.0000@re=-1.5029 -> ve=0.7519@re=0.6391
G1 E160.8897 F1800
;00:07:23.269: draw 0.30x0.60x1.00@10 ve=0.7391@re=0.6283 -> ve=0.7484@re=0.6361
G1 X-30.00 Y23.00 E161.1142 F600
;00:07:23.569: retract 0.6306-2.1306@40 ve=0.7419@re=0.6306 -> ve=0.0000@re=-1.5000
G1 E158.9836 F2400
G1 Z0.700 F420
G1 X-28.00 Y26.00 F6000
G1 Z0.300 F420
;00:07:23.772: restore -1.5029+2.1420@30  ve=0.0000@re=-1.5029 -> ve=0.7519@re=0.6391
G1 E161.1256 F1800
;00:07:23.844: draw 0.30x0.60x1.00@10 ve=0.7391@re=0.6283 -> ve=0.7484@re=0.6361
G1 X-28.00 Y24.50 E161.2379 F600
;00:07:23.994: retract 0.6295-2.1295@40 ve=0.7406@re=0.6295 -> ve=0.0000@re=-1.5000
G1 E159.1083 F2400
G1 Z0.700 F420
G1 X-26.00 Y26.00 F6000
G1 Z0.300 F420
;00:07:24.186: restore -1.5029+2.1420@30  ve=0.0000@re=-1.5029 -> ve=0.7519@re=0.6391
G1 E161.2503 F1800
;00:07:24.258: draw 0.30x0.60x1.00@10 ve=0.7391@re=0.6283 -> ve=0.7484@re=0.6361
G1 X-26.00 Y24.50 E161.3626 F600
;00:07:24.408: retract 0.6295-2.1295@40 ve=0.7406@re=0.6295 -> ve=0.0000@re=-1.5000
G1 E159.2331 F2400
G1 Z0.700 F420
G1 X-24.00 Y26.00 F6000
G1 Z0.300 F420
;00:07:24.600: restore -1.5029+2.1420@30  ve=0.0000@re=-1.5029 -> ve=0.7519@re=0.6391
G1 E161.3750 F1800
;00:07:24.672: draw 0.30x0.60x1.00@10 ve=0.7391@re=0.6283 -> ve=0.7484@re=0.6361
G1 X-24.00 Y24.50 E161.4873 F600
;00:07:24.822: retract 0.6295-2.1295@40 ve=0.7406@re=0.6295 -> ve=0.0000@re=-1.5000
G1 E159.3578 F2400
G1 Z0.700 F420
G1 X-22.00 Y26.00 F6000
G1 Z0.300 F420
;00:07:25.014: restore -1.5029+2.1420@30  ve=0.0000@re=-1.5029 -> ve=0.7519@re=0.6391
G1 E161.4997 F1800
;00:07:25.085: draw 0.30x0.60x1.00@10 ve=0.7391@re=0.6283 -> ve=0.7484@re=0.6361
G1 X-22.00 Y24.50 E161.6120 F600
;00:07:25.235: retract 0.6295-2.1295@40 ve=0.7406@re=0.6295 -> ve=0.0000@re=-1.5000
G1 E159.4825 F2400
G1 Z0.700 F420
G1 X-20.00 Y26.00 F6000
G1 Z0.300 F420
;00:07:25.428: restore -1.5029+2.1420@30  ve=0.0000@re=-1.5029 -> ve=0.7519@re=0.6391
G1 E161.6245 F1800
;00:07:25.499: draw 0.30x0.60x1.00@10 ve=0.7391@re=0.6283 -> ve=0.7484@re=0.6361
G1 X-20.00 Y23.00 E161.8490 F600
;00:07:25.799: retract 0.6306-2.1306@40 ve=0.7419@re=0.6306 -> ve=0.0000@re=-1.5000
G1 E159.7184 F2400
G1 Z0.700 F420
G1 X-18.00 Y26.00 F6000
G1 Z0.300 F420
;00:07:26.003: restore -1.5029+2.1420@30  ve=0.0000@re=-1.5029 -> ve=0.7519@re=0.6391
G1 E161.8604 F1800
;00:07:26.074: draw 0.30x0.60x1.00@10 ve=0.7391@re=0.6283 -> ve=0.7484@re=0.6361
G1 X-18.00 Y24.50 E161.9726 F600
;00:07:26.224: retract 0.6295-2.1295@40 ve=0.7406@re=0.6295 -> ve=0.0000@re=-1.5000
G1 E159.8431 F2400
G1 Z0.700 F420
G1 X-16.00 Y26.00 F6000
G1 Z0.300 F420
;00:07:26.417: restore -1.5029+2.1420@30  ve=0.0000@re=-1.5029 -> ve=0.7519@re=0.6391
G1 E161.9851 F1800
;00:07:26.488: draw 0.30x0.60x1.00@10 ve=0.7391@re=0.6283 -> ve=0.7484@re=0.6361
G1 X-16.00 Y24.50 E162.0973 F600
;00:07:26.638: retract 0.6295-2.1295@40 ve=0.7406@re=0.6295 -> ve=0.0000@re=-1.5000
G1 E159.9678 F2400
G1 Z0.700 F420
G1 X-14.00 Y26.00 F6000
G1 Z0.300 F420
;00:07:26.831: restore -1.5029+2.1420@30  ve=0.0000@re=-1.5029 -> ve=0.7519@re=0.6391
G1 E162.1098 F1800
;00:07:26.902: draw 0.30x0.60x1.00@10 ve=0.7391@re=0.6283 -> ve=0.7484@re=0.6361
G1 X-14.00 Y24.50 E162.2221 F600
;00:07:27.052: retract 0.6295-2.1295@40 ve=0.7406@re=0.6295 -> ve=0.0000@re=-1.5000
G1 E160.0925 F2400
G1 Z0.700 F420
G1 X-12.00 Y26.00 F6000
G1 Z0.300 F420
;00:07:27.245: restore -1.5029+2.1420@30  ve=0.0000@re=-1.5029 -> ve=0.7519@re=0.6391
G1 E162.2345 F1800
;00:07:27.316: draw 0.30x0.60x1.00@10 ve=0.7391@re=0.6283 -> ve=0.7484@re=0.6361
G1 X-12.00 Y24.50 E162.3468 F600
;00:07:27.466: retract 0.6295-2.1295@40 ve=0.7406@re=0.6295 -> ve=0.0000@re=-1.5000
G1 E160.2173 F2400
G1 Z0.700 F420
G1 X-10.00 Y26.00 F6000
G1 Z0.300 F420
;00:07:27.659: restore -1.5029+2.1420@30  ve=0.0000@re=-1.5029 -> ve=0.7519@re=0.6391
G1 E162.3592 F1800
;00:07:27.730: draw 0.30x0.60x1.00@10 ve=0.7391@re=0.6283 -> ve=0.7484@re=0.6361
G1 X-10.00 Y23.00 E162.5837 F600
;00:07:28.030: retract 0.6306-2.1306@40 ve=0.7419@re=0.6306 -> ve=0.0000@re=-1.5000
G1 E160.4532 F2400
G1 Z0.700 F420
G1 X-8.00 Y26.00 F6000
G1 Z0.300 F420
;00:07:28.234: restore -1.5029+2.1420@30  ve=0.0000@re=-1.5029 -> ve=0.7519@re=0.6391
G1 E162.5952 F1800
;00:07:28.305: draw 0.30x0.60x1.00@10 ve=0.7391@re=0.6283 -> ve=0.7484@re=0.6361
G1 X-8.00 Y24.50 E162.7074 F600
;00:07:28.455: retract 0.6295-2.1295@40 ve=0.7406@re=0.6295 -> ve=0.0000@re=-1.5000
G1 E160.5779 F2400
G1 Z0.700 F420
G1 X-6.00 Y26.00 F6000
G1 Z0.300 F420
;00:07:28.648: restore -1.5029+2.1420@30  ve=0.0000@re=-1.5029 -> ve=0.7519@re=0.6391
G1 E162.7199 F1800
;00:07:28.719: draw 0.30x0.60x1.00@10 ve=0.7391@re=0.6283 -> ve=0.7484@re=0.6361
G1 X-6.00 Y24.50 E162.8321 F600
;00:07:28.869: retract 0.6295-2.1295@40 ve=0.7406@re=0.6295 -> ve=0.0000@re=-1.5000
G1 E160.7026 F2400
G1 Z0.700 F420
G1 X-4.00 Y26.00 F6000
G1 Z0.300 F420
;00:07:29.062: restore -1.5029+2.1420@30  ve=0.0000@re=-1.5029 -> ve=0.7519@re=0.6391
G1 E162.8446 F1800
;00:07:29.133: draw 0.30x0.60x1.00@10 ve=0.7391@re=0.6283 -> ve=0.7484@re=0.6361
G1 X-4.00 Y24.50 E162.9568 F600
;00:07:29.283: retract 0.6295-2.1295@40 ve=0.7406@re=0.6295 -> ve=0.0000@re=-1.5000
G1 E160.8273 F2400
G1 Z0.700 F420
G1 X-2.00 Y26.00 F6000
G1 Z0.300 F420
;00:07:29.475: restore -1.5029+2.1420@30  ve=0.0000@re=-1.5029 -> ve=0.7519@re=0.6391
G1 E162.9693 F1800
;00:07:29.547: draw 0.30x0.60x1.00@10 ve=0.7391@re=0.6283 -> ve=0.7484@re=0.6361
G1 X-2.00 Y24.50 E163.0816 F600
;00:07:29.697: retract 0.6295-2.1295@40 ve=0.7406@re=0.6295 -> ve=0.0000@re=-1.5000
G1 E160.9520 F2400
G1 Z0.700 F420
G1 X0.00 Y26.00 F6000
G1 Z0.300 F420
;00:07:29.889: restore -1.5029+2.1420@30  ve=0.0000@re=-1.5029 -> ve=0.7519@re=0.6391
G1 E163.0940 F1800
;00:07:29.961: draw 0.30x0.60x1.00@10 ve=0.7391@re=0.6283 -> ve=0.7484@re=0.6361
G1 X0.00 Y23.00 E163.3185 F600
;00:07:30.261: retract 0.6306-2.1306@40 ve=0.7419@re=0.6306 -> ve=0.0000@re=-1.5000
G1 E161.1879 F2400
G1 Z0.700 F420
G1 X2.00 Y26.00 F6000
G1 Z0.300 F420
;00:07:30.464: restore -1.5029+2.1420@30  ve=0.0000@re=-1.5029 -> ve=0.7519@re=0.6391
G1 E163.3299 F1800
;00:07:30.536: draw 0.30x0.60x1.00@10 ve=0.7391@re=0.6283 -> ve=0.7484@re=0.6361
G1 X2.00 Y24.50 E163.4422 F600
;00:07:30.686: retract 0.6295-2.1295@40 ve=0.7406@re=0.6295 -> ve=0.0000@re=-1.5000
G1 E161.3127 F2400
G1 Z0.700 F420
G1 X4.00 Y26.00 F6000
G1 Z0.300 F420
;00:07:30.878: restore -1.5029+2.1420@30  ve=0.0000@re=-1.5029 -> ve=0.7519@re=0.6391
G1 E163.4546 F1800
;00:07:30.950: draw 0.30x0.60x1.00@10 ve=0.7391@re=0.6283 -> ve=0.7484@re=0.6361
G1 X4.00 Y24.50 E163.5669 F600
;00:07:31.100: retract 0.6295-2.1295@40 ve=0.7406@re=0.6295 -> ve=0.0000@re=-1.5000
G1 E161.4374 F2400
G1 Z0.700 F420
G1 X6.00 Y26.00 F6000
G1 Z0.300 F420
;00:07:31.292: restore -1.5029+2.1420@30  ve=0.0000@re=-1.5029 -> ve=0.7519@re=0.6391
G1 E163.5794 F1800
;00:07:31.364: draw 0.30x0.60x1.00@10 ve=0.7391@re=0.6283 -> ve=0.7484@re=0.6361
G1 X6.00 Y24.50 E163.6916 F600
;00:07:31.514: retract 0.6295-2.1295@40 ve=0.7406@re=0.6295 -> ve=0.0000@re=-1.5000
G1 E161.5621 F2400
G1 Z0.700 F420
G1 X8.00 Y26.00 F6000
G1 Z0.300 F420
;00:07:31.706: restore -1.5029+2.1420@30  ve=0.0000@re=-1.5029 -> ve=0.7519@re=0.6391
G1 E163.7041 F1800
;00:07:31.778: draw 0.30x0.60x1.00@10 ve=0.7391@re=0.6283 -> ve=0.7484@re=0.6361
G1 X8.00 Y24.50 E163.8163 F600
;00:07:31.928: retract 0.6295-2.1295@40 ve=0.7406@re=0.6295 -> ve=0.0000@re=-1.5000
G1 E161.6868 F2400
G1 Z0.700 F420
G1 X10.00 Y26.00 F6000
G1 Z0.300 F420
;00:07:32.120: restore -1.5029+2.1420@30  ve=0.0000@re=-1.5029 -> ve=0.7519@re=0.6391
G1 E163.8288 F1800
;00:07:32.191: draw 0.30x0.60x1.00@10 ve=0.7391@re=0.6283 -> ve=0.7484@re=0.6361
G1 X10.00 Y23.00 E164.0533 F600
;00:07:32.491: retract 0.6306-2.1306@40 ve=0.7419@re=0.6306 -> ve=0.0000@re=-1.5000
G1 E161.9227 F2400
G1 Z0.700 F420
G1 X12.00 Y26.00 F6000
G1 Z0.300 F420
;00:07:32.695: restore -1.5029+2.1420@30  ve=0.0000@re=-1.5029 -> ve=0.7519@re=0.6391
G1 E164.0647 F1800
;00:07:32.766: draw 0.30x0.60x1.00@10 ve=0.7391@re=0.6283 -> ve=0.7484@re=0.6361
G1 X12.00 Y24.50 E164.1770 F600
;00:07:32.916: retract 0.6295-2.1295@40 ve=0.7406@re=0.6295 -> ve=0.0000@re=-1.5000
G1 E162.0474 F2400
G1 Z0.700 F420
G1 X14.00 Y26.00 F6000
G1 Z0.300 F420
;00:07:33.109: restore -1.5029+2.1420@30  ve=0.0000@re=-1.5029 -> ve=0.7519@re=0.6391
G1 E164.1894 F1800
;00:07:33.180: draw 0.30x0.60x1.00@10 ve=0.7391@re=0.6283 -> ve=0.7484@re=0.6361
G1 X14.00 Y24.50 E164.3017 F600
;00:07:33.330: retract 0.6295-2.1295@40 ve=0.7406@re=0.6295 -> ve=0.0000@re=-1.5000
G1 E162.1722 F2400
G1 Z0.700 F420
G1 X16.00 Y26.00 F6000
G1 Z0.300 F420
;00:07:33.523: restore -1.5029+2.1420@30  ve=0.0000@re=-1.5029 -> ve=0.7519@re=0.6391
G1 E164.3141 F1800
;00:07:33.594: draw 0.30x0.60x1.00@10 ve=0.7391@re=0.6283 -> ve=0.7484@re=0.6361
G1 X16.00 Y24.50 E164.4264 F600
;00:07:33.744: retract 0.6295-2.1295@40 ve=0.7406@re=0.6295 -> ve=0.0000@re=-1.5000
G1 E162.2969 F2400
G1 Z0.700 F420
G1 X18.00 Y26.00 F6000
G1 Z0.300 F420
;00:07:33.937: restore -1.5029+2.1420@30  ve=0.0000@re=-1.5029 -> ve=0.7519@re=0.6391
G1 E164.4389 F1800
;00:07:34.008: draw 0.30x0.60x1.00@10 ve=0.7391@re=0.6283 -> ve=0.7484@re=0.6361
G1 X18.00 Y24.50 E164.5511 F600
;00:07:34.158: retract 0.6295-2.1295@40 ve=0.7406@re=0.6295 -> ve=0.0000@re=-1.5000
G1 E162.4216 F2400
G1 Z0.700 F420
G1 X20.00 Y26.00 F6000
G1 Z0.300 F420
;00:07:34.351: restore -1.5029+2.1420@30  ve=0.0000@re=-1.5029 -> ve=0.7519@re=0.6391
G1 E164.5636 F1800
;00:07:34.422: draw 0.30x0.60x1.00@10 ve=0.7391@re=0.6283 -> ve=0.7484@re=0.6361
G1 X20.00 Y23.00 E164.7881 F600
;00:07:34.722: retract 0.6306-2.1306@40 ve=0.7419@re=0.6306 -> ve=0.0000@re=-1.5000
G1 E162.6575 F2400
G1 Z0.700 F420
G1 X22.00 Y26.00 F6000
G1 Z0.300 F420
;00:07:34.926: restore -1.5029+2.1420@30  ve=0.0000@re=-1.5029 -> ve=0.7519@re=0.6391
G1 E164.7995 F1800
;00:07:34.997: draw 0.30x0.60x1.00@10 ve=0.7391@re=0.6283 -> ve=0.7484@re=0.6361
G1 X22.00 Y24.50 E164.9117 F600
;00:07:35.147: retract 0.6295-2.1295@40 ve=0.7406@re=0.6295 -> ve=0.0000@re=-1.5000
G1 E162.7822 F2400
G1 Z0.700 F420
G1 X24.00 Y26.00 F6000
G1 Z0.300 F420
;00:07:35.340: restore -1.5029+2.1420@30  ve=0.0000@re=-1.5029 -> ve=0.7519@re=0.6391
G1 E164.9242 F1800
;00:07:35.411: draw 0.30x0.60x1.00@10 ve=0.7391@re=0.6283 -> ve=0.7484@re=0.6361
G1 X24.00 Y24.50 E165.0365 F600
;00:07:35.561: retract 0.6295-2.1295@40 ve=0.7406@re=0.6295 -> ve=0.0000@re=-1.5000
G1 E162.9069 F2400
G1 Z0.700 F420
G1 X26.00 Y26.00 F6000
G1 Z0.300 F420
;00:07:35.754: restore -1.5029+2.1420@30  ve=0.0000@re=-1.5029 -> ve=0.7519@re=0.6391
G1 E165.0489 F1800
;00:07:35.825: draw 0.30x0.60x1.00@10 ve=0.7391@re=0.6283 -> ve=0.7484@re=0.6361
G1 X26.00 Y24.50 E165.1612 F600
;00:07:35.975: retract 0.6295-2.1295@40 ve=0.7406@re=0.6295 -> ve=0.0000@re=-1.5000
G1 E163.0317 F2400
G1 Z0.700 F420
G1 X28.00 Y26.00 F6000
G1 Z0.300 F420
;00:07:36.168: restore -1.5029+2.1420@30  ve=0.0000@re=-1.5029 -> ve=0.7519@re=0.6391
G1 E165.1736 F1800
;00:07:36.239: draw 0.30x0.60x1.00@10 ve=0.7391@re=0.6283 -> ve=0.7484@re=0.6361
G1 X28.00 Y24.50 E165.2859 F600
;00:07:36.389: retract 0.6295-2.1295@40 ve=0.7406@re=0.6295 -> ve=0.0000@re=-1.5000
G1 E163.1564 F2400
G1 Z0.700 F420
G1 X30.00 Y26.00 F6000
G1 Z0.300 F420
;00:07:36.581: restore -1.5029+2.1420@30  ve=0.0000@re=-1.5029 -> ve=0.7519@re=0.6391
G1 E165.2983 F1800
;00:07:36.653: draw 0.30x0.60x1.00@10 ve=0.7391@re=0.6283 -> ve=0.7484@re=0.6361
G1 X30.00 Y23.00 E165.5229 F600
;00:07:36.953: retract 0.6306-2.1306@40 ve=0.7419@re=0.6306 -> ve=0.0000@re=-1.5000
G1 E163.3923 F2400
G1 Z0.700 F420
G1 X32.00 Y26.00 F6000
G1 Z0.300 F420
;00:07:37.156: restore -1.5029+2.1420@30  ve=0.0000@re=-1.5029 -> ve=0.7519@re=0.6391
G1 E165.5343 F1800
;00:07:37.228: draw 0.30x0.60x1.00@10 ve=0.7391@re=0.6283 -> ve=0.7484@re=0.6361
G1 X32.00 Y24.50 E165.6465 F600
;00:07:37.378: retract 0.6295-2.1295@40 ve=0.7406@re=0.6295 -> ve=0.0000@re=-1.5000
G1 E163.5170 F2400
G1 Z0.700 F420
G1 X34.00 Y26.00 F6000
G1 Z0.300 F420
;00:07:37.570: restore -1.5029+2.1420@30  ve=0.0000@re=-1.5029 -> ve=0.7519@re=0.6391
G1 E165.6590 F1800
;00:07:37.642: draw 0.30x0.60x1.00@10 ve=0.7391@re=0.6283 -> ve=0.7484@re=0.6361
G1 X34.00 Y24.50 E165.7712 F600
;00:07:37.792: retract 0.6295-2.1295@40 ve=0.7406@re=0.6295 -> ve=0.0000@re=-1.5000
G1 E163.6417 F2400
G1 Z0.700 F420
G1 X36.00 Y26.00 F6000
G1 Z0.300 F420
;00:07:37.984: restore -1.5029+2.1420@30  ve=0.0000@re=-1.5029 -> ve=0.7519@re=0.6391
G1 E165.7837 F1800
;00:07:38.056: draw 0.30x0.60x1.00@10 ve=0.7391@re=0.6283 -> ve=0.7484@re=0.6361
G1 X36.00 Y24.50 E165.8959 F600
;00:07:38.206: retract 0.6295-2.1295@40 ve=0.7406@re=0.6295 -> ve=0.0000@re=-1.5000
G1 E163.7664 F2400
G1 Z0.700 F420
G1 X38.00 Y26.00 F6000
G1 Z0.300 F420
;00:07:38.398: restore -1.5029+2.1420@30  ve=0.0000@re=-1.5029 -> ve=0.7519@re=0.6391
G1 E165.9084 F1800
;00:07:38.470: draw 0.30x0.60x1.00@10 ve=0.7391@re=0.6283 -> ve=0.7484@re=0.6361
G1 X38.00 Y24.50 E166.0207 F600
;00:07:38.620: retract 0.6295-2.1295@40 ve=0.7406@re=0.6295 -> ve=0.0000@re=-1.5000
G1 E163.8911 F2400
G1 Z0.700 F420
G1 X40.00 Y26.00 F6000
G1 Z0.300 F420
;00:07:38.812: restore -1.5029+2.1420@30  ve=0.0000@re=-1.5029 -> ve=0.7519@re=0.6391
G1 E166.0331 F1800
;00:07:38.884: draw 0.30x0.60x1.00@10 ve=0.7391@re=0.6283 -> ve=0.7484@re=0.6361
G1 X40.00 Y23.00 E166.2576 F600
;00:07:39.184: retract 0.6306-2.1306@40 ve=0.7419@re=0.6306 -> ve=0.0000@re=-1.5000
G1 E164.1271 F2400
G1 Z0.700 F420
;structure:infill-solid
;00:07:39.294: testStartStopLine Kf=0.5 vx=100 le=1.5
G1 X-45.00 Y22.00 F6000
G1 Z0.300 F420
;00:07:40.201: restore -1.5029+1.5578@30  ve=0.0000@re=-1.5029 -> ve=0.1098@re=0.0549
G1 E165.6848 F1800
;00:07:40.253: draw 0.30x0.60x1.00@1 ve=0.1094@re=0.0547 -> ve=0.0748@re=0.0374
G1 X-40.00 Y22.00 E166.0590 F60
G1 X-30.00 Y22.00
;00:07:55.253: restore 0.0000+2.6903@30  ve=0.0000@re=0.0000 -> ve=5.3806@re=2.6903
G1 E168.7493 F1800
;00:07:55.343: draw 0.30x0.60x1.00@100 ve=4.9034@re=2.4517 -> ve=7.4835@re=3.7418
G1 X20.00 Y22.00 E172.4911 F6000
;00:07:55.843: retract 3.2648-4.7648@40 ve=6.5296@re=3.2648 -> ve=0.0000@re=-1.5000
G1 E167.7263 F2400
G1 X30.00 Y22.00 F60
;00:08:05.962: restore -1.7257+1.9267@30  ve=0.0000@re=-1.7257 -> ve=0.4021@re=0.2011
G1 E169.6530 F1800
;00:08:06.026: draw 0.30x0.60x1.00@5 ve=0.3973@re=0.1986 -> ve=0.3742@re=0.1871
G1 X45.00 Y22.00 E170.7755 F300
;00:08:09.026: retract 0.1871-1.6871@40 ve=0.3742@re=0.1871 -> ve=0.0000@re=-1.5000
G1 E169.0884 F2400
G1 Z0.700 F420
;00:08:09.125: testStartStopLine Kf=0.6 vx=100 le=1.5
G1 X-45.00 Y20.00 F6000
G1 Z0.300 F420
;00:08:10.083: restore -1.5000+1.5624@30  ve=0.0000@re=-1.5000 -> ve=0.1040@re=0.0624
G1 E170.6508 F1800
;00:08:10.135: draw 0.30x0.60x1.00@1 ve=0.1033@re=0.0620 -> ve=0.0748@re=0.0449
G1 X-40.00 Y20.00 E171.0250 F60
G1 X-30.00 Y20.00
;00:08:25.135: restore 0.0000+3.3852@30  ve=0.0000@re=0.0000 -> ve=5.6420@re=3.3852
G1 E174.4102 F1800
;00:08:25.248: draw 0.30x0.60x1.00@100 ve=5.1202@re=3.0721 -> ve=7.4835@re=4.4901
G1 X20.00 Y20.00 E178.1520 F6000
;00:08:25.748: retract 3.8713-5.3713@40 ve=6.4522@re=3.8713 -> ve=0.0000@re=-1.5000
G1 E172.7807 F2400
G1 X30.00 Y20.00 F60
;00:08:35.882: restore -1.7644+2.0028@30  ve=0.0000@re=-1.7644 -> ve=0.3974@re=0.2385
G1 E174.7835 F1800
;00:08:35.949: draw 0.30x0.60x1.00@5 ve=0.3928@re=0.2357 -> ve=0.3742@re=0.2245
G1 X45.00 Y20.00 E175.9060 F300
;00:08:38.949: retract 0.2246-1.7246@40 ve=0.3743@re=0.2246 -> ve=0.0000@re=-1.5000
G1 E174.1814 F2400
G1 Z0.700 F420
;00:08:39.049: testStartStopLine Kf=0.7 vx=100 le=1.5
G1 X-45.00 Y18.00 F6000
G1 Z0.300 F420
;00:08:40.006: restore -1.5000+1.5699@30  ve=0.0000@re=-1.5000 -> ve=0.0998@re=0.0699
G1 E175.7513 F1800
;00:08:40.059: draw 0.30x0.60x1.00@1 ve=0.0993@re=0.0695 -> ve=0.0748@re=0.0524
G1 X-40.00 Y18.00 E176.1255 F60
G1 X-30.00 Y18.00
;00:08:55.059: restore 0.0000+4.0920@30  ve=0.0000@re=0.0000 -> ve=5.8457@re=4.0920
G1 E180.2175 F1800
;00:08:55.195: draw 0.30x0.60x1.00@100 ve=5.2878@re=3.7015 -> ve=7.4835@re=5.2385
G1 X20.00 Y18.00 E183.9592 F6000
;00:08:55.695: retract 4.4834-5.9834@40 ve=6.4048@re=4.4834 -> ve=0.0000@re=-1.5000
G1 E177.9759 F2400
G1 X30.00 Y18.00 F60
;00:09:05.845: restore -1.8040+2.0799@30  ve=0.0000@re=-1.8040 -> ve=0.3941@re=0.2759
G1 E180.0558 F1800
;00:09:05.914: draw 0.30x0.60x1.00@5 ve=0.3894@re=0.2726 -> ve=0.3742@re=0.2619
G1 X45.00 Y18.00 E181.1783 F300
;00:09:08.914: retract 0.2621-1.7621@40 ve=0.3744@re=0.2621 -> ve=0.0000@re=-1.5000
G1 E179.4162 F2400
G1 Z0.700 F420
;00:09:09.015: testStartStopLine Kf=0.7999999999999999 vx=100 le=1.5
G1 X-45.00 Y16.00 F6000
G1 Z0.300 F420
;00:09:09.973: restore -1.5000+1.5774@30  ve=0.0000@re=-1.5000 -> ve=0.0967@re=0.0774
G1 E180.9936 F1800
;00:09:10.025: draw 0.30x0.60x1.00@1 ve=0.0961@re=0.0769 -> ve=0.0748@re=0.0599
G1 X-40.00 Y16.00 E181.3677 F60
G1 X-30.00 Y16.00
;00:09:25.025: restore 0.0000+4.8071@30  ve=0.0000@re=0.0000 -> ve=6.0089@re=4.8071
G1 E186.1748 F1800
;00:09:25.185: draw 0.30x0.60x1.00@100 ve=5.4209@re=4.3367 -> ve=7.4835@re=5.9868
G1 X20.00 Y16.00 E189.9166 F6000
;00:09:25.685: retract 5.1009-6.6009@40 ve=6.3761@re=5.1009 -> ve=0.0000@re=-1.5000
G1 E183.3157 F2400
G1 X30.00 Y16.00 F60
;00:09:35.850: restore -1.8445+2.1578@30  ve=0.0000@re=-1.8445 -> ve=0.3916@re=0.3133
G1 E185.4735 F1800
;00:09:35.922: draw 0.30x0.60x1.00@5 ve=0.3868@re=0.3095 -> ve=0.3742@re=0.2993
G1 X45.00 Y16.00 E186.5960 F300
;00:09:38.922: retract 0.2996-1.7996@40 ve=0.3745@re=0.2996 -> ve=0.0000@re=-1.5000
G1 E184.7965 F2400
G1 Z0.700 F420
;00:09:39.024: testStartStopLine Kf=0.8999999999999999 vx=100 le=1.5
G1 X-45.00 Y14.00 F6000
G1 Z0.300 F420
;00:09:39.982: restore -1.5000+1.5848@30  ve=0.0000@re=-1.5000 -> ve=0.0943@re=0.0848
G1 E186.3813 F1800
;00:09:40.035: draw 0.30x0.60x1.00@1 ve=0.0934@re=0.0841 -> ve=0.0748@re=0.0674
G1 X-40.00 Y14.00 E186.7555 F60
G1 X-30.00 Y14.00
;00:09:55.035: restore 0.0000+5.5282@30  ve=0.0000@re=0.0000 -> ve=6.1425@re=5.5282
G1 E192.2837 F1800
;00:09:55.219: draw 0.30x0.60x1.00@100 ve=5.5299@re=4.9769 -> ve=7.4835@re=6.7352
G1 X20.00 Y14.00 E196.0255 F6000
;00:09:55.719: retract 5.7236-7.2236@40 ve=6.3595@re=5.7236 -> ve=0.0000@re=-1.5000
G1 E188.8019 F2400
G1 X30.00 Y14.00 F60
;00:10:05.900: restore -1.8856+2.2363@30  ve=0.0000@re=-1.8856 -> ve=0.3897@re=0.3507
G1 E191.0382 F1800
;00:10:05.974: draw 0.30x0.60x1.00@5 ve=0.3855@re=0.3470 -> ve=0.3742@re=0.3368
G1 X45.00 Y14.00 E192.1607 F300
;00:10:08.974: retract 0.3371-1.8371@40 ve=0.3746@re=0.3371 -> ve=0.0000@re=-1.5000
G1 E190.3236 F2400
G1 Z0.700 F420
;00:10:09.077: testStartStopLine Kf=0.9999999999999999 vx=100 le=1.5
G1 X-45.00 Y12.00 F6000
G1 Z0.300 F420
;00:10:10.035: restore -1.5000+1.5923@30  ve=0.0000@re=-1.5000 -> ve=0.0923@re=0.0923
G1 E191.9159 F1800
;00:10:10.088: draw 0.30x0.60x1.00@1 ve=0.0920@re=0.0920 -> ve=0.0748@re=0.0748
G1 X-40.00 Y12.00 E192.2901 F60
G1 X-30.00 Y12.00
;00:10:25.088: restore 0.0000+6.2539@30  ve=0.0000@re=0.0000 -> ve=6.2539@re=6.2539
G1 E198.5440 F1800
;00:10:25.296: draw 0.30x0.60x1.00@100 ve=5.6200@re=5.6200 -> ve=7.4835@re=7.4835
G1 X20.00 Y12.00 E202.2857 F6000
;00:10:25.796: retract 6.3504-7.8504@40 ve=6.3504@re=6.3504 -> ve=0.0000@re=-1.5000
G1 E194.4353 F2400
G1 X30.00 Y12.00 F60
;00:10:35.992: restore -1.9273+2.3154@30  ve=0.0000@re=-1.9273 -> ve=0.3881@re=0.3881
G1 E196.7507 F1800
;00:10:36.070: draw 0.30x0.60x1.00@5 ve=0.3836@re=0.3836 -> ve=0.3742@re=0.3742
G1 X45.00 Y12.00 E197.8732 F300
;00:10:39.070: retract 0.3747-1.8747@40 ve=0.3747@re=0.3747 -> ve=0.0000@re=-1.5000
G1 E195.9986 F2400
G1 Z0.700 F420
;00:10:39.174: testStartStopLine Kf=1.0999999999999999 vx=100 le=1.5
G1 X-45.00 Y10.00 F6000
G1 Z0.300 F420
;00:10:40.131: restore -1.5000+1.5998@30  ve=0.0000@re=-1.5000 -> ve=0.0907@re=0.0998
G1 E197.5984 F1800
;00:10:40.184: draw 0.30x0.60x1.00@1 ve=0.0900@re=0.0990 -> ve=0.0748@re=0.0823
G1 X-40.00 Y10.00 E197.9725 F60
G1 X-30.00 Y10.00
;00:10:55.184: restore 0.0000+6.9831@30  ve=0.0000@re=0.0000 -> ve=6.3482@re=6.9831
G1 E204.9556 F1800
;00:10:55.417: draw 0.30x0.60x1.00@100 ve=5.6962@re=6.2658 -> ve=7.4835@re=8.2319
G1 X20.00 Y10.00 E208.6974 F6000
;00:10:55.917: retract 6.9811-8.4811@40 ve=6.3465@re=6.9811 -> ve=0.0000@re=-1.5000
G1 E200.2162 F2400
G1 X30.00 Y10.00 F60
;00:11:06.129: restore -1.9694+2.3950@30  ve=0.0000@re=-1.9694 -> ve=0.3868@re=0.4255
G1 E202.6112 F1800
;00:11:06.209: draw 0.30x0.60x1.00@5 ve=0.3827@re=0.4210 -> ve=0.3742@re=0.4116
G1 X45.00 Y10.00 E203.7337 F300
;00:11:09.209: retract 0.4122-1.9122@40 ve=0.3747@re=0.4122 -> ve=0.0000@re=-1.5000
G1 E201.8215 F2400
G1 Z0.700 F420
;00:11:09.314: testStartStopLine Kf=1.2 vx=100 le=1.5
G1 X-45.00 Y8.00 F6000
G1 Z0.300 F420
;00:11:10.271: restore -1.5000+1.6073@30  ve=0.0000@re=-1.5000 -> ve=0.0894@re=0.1073
G1 E203.4288 F1800
;00:11:10.325: draw 0.30x0.60x1.00@1 ve=0.0890@re=0.1068 -> ve=0.0748@re=0.0898
G1 X-40.00 Y8.00 E203.8030 F60
G1 X-30.00 Y8.00
;00:11:25.325: restore 0.0000+7.7150@30  ve=0.0000@re=0.0000 -> ve=6.4291@re=7.7150
G1 E211.5179 F1800
;00:11:25.582: draw 0.30x0.60x1.00@100 ve=5.7614@re=6.9137 -> ve=7.4835@re=8.9802
G1 X20.00 Y8.00 E215.2597 F6000
;00:11:26.082: retract 7.6151-9.1151@40 ve=6.3459@re=7.6151 -> ve=0.0000@re=-1.5000
G1 E206.1446 F2400
G1 X30.00 Y8.00 F60
;00:11:36.310: restore -2.0120+2.4750@30  ve=0.0000@re=-2.0120 -> ve=0.3858@re=0.4629
G1 E208.6195 F1800
;00:11:36.392: draw 0.30x0.60x1.00@5 ve=0.3812@re=0.4575 -> ve=0.3742@re=0.4490
G1 X45.00 Y8.00 E209.7421 F300
;00:11:39.392: retract 0.4497-1.9497@40 ve=0.3748@re=0.4497 -> ve=0.0000@re=-1.5000
G1 E207.7924 F2400
G1 Z0.700 F420
;00:11:39.498: testStartStopLine Kf=1.3 vx=100 le=1.5
G1 X-45.00 Y6.00 F6000
G1 Z0.300 F420
;00:11:40.456: restore -1.5000+1.6148@30  ve=0.0000@re=-1.5000 -> ve=0.0883@re=0.1148
G1 E209.4071 F1800
;00:11:40.509: draw 0.30x0.60x1.00@1 ve=0.0877@re=0.1140 -> ve=0.0748@re=0.0973
G1 X-40.00 Y6.00 E209.7813 F60
G1 X-30.00 Y6.00
;00:11:55.509: restore 0.0000+8.4490@30  ve=0.0000@re=0.0000 -> ve=6.4993@re=8.4491
G1 E218.2303 F1800
;00:11:55.791: draw 0.30x0.60x1.00@100 ve=5.8177@re=7.5631 -> ve=7.4835@re=9.7286
G1 X20.00 Y6.00 E221.9721 F6000
;00:11:56.291: retract 8.2517-9.7517@40 ve=6.3475@re=8.2517 -> ve=0.0000@re=-1.5000
G1 E212.2204 F2400
G1 X30.00 Y6.00 F60
;00:12:06.535: restore -2.0550+2.5553@30  ve=0.0000@re=-2.0550 -> ve=0.3849@re=0.5003
G1 E214.7757 F1800
;00:12:06.620: draw 0.30x0.60x1.00@5 ve=0.3806@re=0.4948 -> ve=0.3742@re=0.4864
G1 X45.00 Y6.00 E215.8982 F300
;00:12:09.620: retract 0.4873-1.9873@40 ve=0.3748@re=0.4873 -> ve=0.0000@re=-1.5000
G1 E213.9110 F2400
G1 Z0.700 F420
;00:12:09.727: testStartStopLine Kf=1.4000000000000001 vx=100 le=1.5
G1 X-45.00 Y4.00 F6000
G1 Z0.300 F420
;00:12:10.684: restore -1.5000+1.6223@30  ve=0.0000@re=-1.5000 -> ve=0.0873@re=0.1223
G1 E215.5332 F1800
;00:12:10.738: draw 0.30x0.60x1.00@1 ve=0.0866@re=0.1212 -> ve=0.0748@re=0.1048
G1 X-40.00 Y4.00 E215.9074 F60
G1 X-30.00 Y4.00
;00:12:25.738: restore 0.0001+9.1849@30  ve=0.0001@re=0.0001 -> ve=6.5607@re=9.1850
G1 E225.0923 F1800
;00:12:26.044: draw 0.30x0.60x1.00@100 ve=5.8668@re=8.2135 -> ve=7.4835@re=10.4769
G1 X20.00 Y4.00 E228.8340 F6000
;00:12:26.544: retract 8.8905-10.3905@40 ve=6.3504@re=8.8905 -> ve=0.0000@re=-1.5000
G1 E218.4435 F2400
G1 X30.00 Y4.00 F60
;00:12:36.804: restore -2.0982+2.6359@30  ve=0.0000@re=-2.0982 -> ve=0.3841@re=0.5378
G1 E221.0795 F1800
;00:12:36.892: draw 0.30x0.60x1.00@5 ve=0.3801@re=0.5321 -> ve=0.3742@re=0.5238
G1 X45.00 Y4.00 E222.2020 F300
;00:12:39.892: retract 0.5248-2.0248@40 ve=0.3749@re=0.5248 -> ve=0.0000@re=-1.5000
G1 E220.1772 F2400
G1 Z0.700 F420
;structure:brim
;00:12:40.000: text 'Kf=0.5-1.5\nvx=100\nle=1.5'
G1 X46.55 Y25.88 F6000
G1 Z0.300 F420
;00:12:40.276: restore -1.5000+2.1391@30  ve=0.0000@re=-1.5000 -> ve=0.7519@re=0.6391
G1 E222.3163 F1800
;00:12:40.348: draw 0.30x0.60x1.00@10 ve=0.7391@re=0.6282 -> ve=0.7484@re=0.6361
G1 X46.55 Y22.56 E222.5647 F600
;00:12:40.680: retract 0.6308-2.1308@40 ve=0.7421@re=0.6308 -> ve=0.0000@re=-1.5000
G1 E220.4340 F2400
G1 Z0.700 F420
G1 X48.96 Y22.56 F6000
G1 Z0.300 F420
;00:12:40.871: restore -1.5029+2.1420@30  ve=0.0000@re=-1.5029 -> ve=0.7519@re=0.6391
G1 E222.5760 F1800
;00:12:40.943: draw 0.30x0.60x1.00@10 ve=0.7391@re=0.6283 -> ve=0.7484@re=0.6361
G1 X47.50 Y24.55 E222.7607 F600
;00:12:41.189: retract 0.6302-2.1302@40 ve=0.7414@re=0.6302 -> ve=0.0000@re=-1.5000
G1 E220.6304 F2400
G1 Z0.700 F420
G1 X46.55 Y23.72 F6000
G1 Z0.300 F420
;00:12:41.370: restore -1.5029+2.1420@30  ve=0.0000@re=-1.5029 -> ve=0.7519@re=0.6391
G1 E222.7724 F1800
;00:12:41.441: draw 0.30x0.60x1.00@10 ve=0.7391@re=0.6283 -> ve=0.7484@re=0.6361
G1 X49.01 Y25.88 E223.0174 F600
;00:12:41.768: retract 0.6307-2.1307@40 ve=0.7421@re=0.6307 -> ve=0.0000@re=-1.5000
G1 E220.8867 F2400
G1 Z0.700 F420
G1 X51.33 Y25.90 F6000
G1 Z0.300 F420
;00:12:41.959: restore -1.5029+2.1420@30  ve=0.0000@re=-1.5029 -> ve=0.7519@re=0.6391
G1 E223.0287 F1800
;00:12:42.031: draw 0.30x0.60x1.00@10 ve=0.7391@re=0.6283 -> ve=0.7484@re=0.6361
G1 X51.18 Y25.91 E223.0399 F600
G1 X51.00 Y25.86 E223.0539
G1 X50.85 Y25.74 E223.0683
G1 X50.73 Y25.55 E223.0851
G1 X50.65 Y25.19 E223.1127
G1 X50.65 Y22.56 E223.3095
;00:12:42.406: retract 0.6310-2.1310@40 ve=0.7424@re=0.6310 -> ve=0.0000@re=-1.5000
G1 E221.1785 F2400
G1 Z0.700 F420
G1 X50.16 Y24.79 F6000
G1 Z0.300 F420
;00:12:42.596: restore -1.5029+2.1420@30  ve=0.0000@re=-1.5029 -> ve=0.7519@re=0.6391
G1 E223.3204 F1800
;00:12:42.668: draw 0.30x0.60x1.00@10 ve=0.7391@re=0.6283 -> ve=0.7484@re=0.6361
G1 X51.22 Y24.79 E223.3998 F600
;00:12:42.774: retract 0.6292-2.1292@40 ve=0.7402@re=0.6292 -> ve=0.0000@re=-1.5000
G1 E221.2706 F2400
G1 Z0.700 F420
G1 X52.48 Y24.29 F6000
G1 Z0.300 F420
;00:12:42.955: restore -1.5029+2.1420@30  ve=0.0000@re=-1.5029 -> ve=0.7519@re=0.6391
G1 E223.4126 F1800
;00:12:43.026: draw 0.30x0.60x1.00@10 ve=0.7391@re=0.6283 -> ve=0.7484@re=0.6361
G1 X54.13 Y24.29 E223.5361 F600
;00:12:43.191: retract 0.6296-2.1296@40 ve=0.7407@re=0.6296 -> ve=0.0000@re=-1.5000
G1 E221.4064 F2400
G1 Z0.700 F420
G1 X54.13 Y23.60 F6000
G1 Z0.300 F420
;00:12:43.365: restore -1.5029+2.1420@30  ve=0.0000@re=-1.5029 -> ve=0.7519@re=0.6391
G1 E223.5484 F1800
;00:12:43.437: draw 0.30x0.60x1.00@10 ve=0.7391@re=0.6283 -> ve=0.7484@re=0.6361
G1 X52.48 Y23.60 E223.6719 F600
;00:12:43.602: retract 0.6296-2.1296@40 ve=0.7407@re=0.6296 -> ve=0.0000@re=-1.5000
G1 E221.5423 F2400
G1 Z0.700 F420
G1 X56.47 Y25.94 F6000
G1 Z0.300 F420
;00:12:43.816: restore -1.5029+2.1420@30  ve=0.0000@re=-1.5029 -> ve=0.7519@re=0.6391
G1 E223.6842 F1800
;00:12:43.887: draw 0.30x0.60x1.00@10 ve=0.7391@re=0.6283 -> ve=0.7484@re=0.6361
G1 X56.97 Y25.80 E223.7231 F600
G1 X57.35 Y25.43 E223.7628
G1 X57.58 Y24.88 E223.8074
G1 X57.67 Y24.22 E223.8572
G1 X57.58 Y23.56 E223.9071
G1 X57.35 Y23.01 E223.9517
G1 X56.97 Y22.64 E223.9914
G1 X56.47 Y22.50 E224.0302
G1 X55.97 Y22.64 E224.0691
G1 X55.59 Y23.01 E224.1088
G1 X55.36 Y23.56 E224.1534
G1 X55.28 Y24.22 E224.2032
G1 X55.36 Y24.88 E224.2529
G1 X55.59 Y25.43 E224.2975
G1 X55.96 Y25.80 E224.3367
G1 X56.47 Y25.94 E224.3763
;00:12:44.812: retract 0.6334-2.1334@40 ve=0.7452@re=0.6334 -> ve=0.0000@re=-1.5000
G1 E222.2428 F2400
G1 Z0.700 F420
G1 X58.82 Y22.78 F6000
G1 Z0.300 F420
;00:12:45.019: restore -1.5029+2.7811@30  ve=0.0000@re=-1.5029 -> ve=1.5038@re=1.2782
G1 E225.0239 F1800
;00:12:45.112: draw 0.30x0.60x1.00@10 ve=1.4596@re=1.2407 -> ve=0.7484@re=0.6361
G1 X58.82 Y22.58 E225.0389 F600
;00:12:45.132: retract 1.2267-2.7267@40 ve=1.4431@re=1.2267 -> ve=0.0000@re=-1.5000
G1 E222.3123 F2400
G1 Z0.700 F420
G1 X61.91 Y25.88 F6000
G1 Z0.300 F420
;00:12:45.359: restore -1.5160+2.1551@30  ve=0.0000@re=-1.5160 -> ve=0.7519@re=0.6391
G1 E224.4674 F1800
;00:12:45.431: draw 0.30x0.60x1.00@10 ve=0.7392@re=0.6283 -> ve=0.7484@re=0.6361
G1 X60.20 Y25.88 E224.5953 F600
G1 X60.06 Y24.18 E224.7230
G1 X60.34 Y24.49 E224.7543
G1 X60.50 Y24.60 E224.7688
G1 X60.69 Y24.67 E224.7839
G1 X60.88 Y24.70 E224.7983
G1 X61.08 Y24.71 E224.8133
G1 X61.47 Y24.62 E224.8433
G1 X61.79 Y24.40 E224.8723
G1 X61.99 Y24.07 E224.9012
G1 X62.07 Y23.66 E224.9325
G1 X62.01 Y23.21 E224.9664
G1 X61.80 Y22.84 E224.9983
G1 X61.46 Y22.59 E225.0299
G1 X60.97 Y22.50 E225.0671
G1 X60.60 Y22.56 E225.0952
G1 X60.30 Y22.72 E225.1206
G1 X60.09 Y22.97 E225.1451
G1 X59.97 Y23.33 E225.1735
;00:12:46.375: retract 0.6335-2.1335@40 ve=0.7453@re=0.6335 -> ve=0.0000@re=-1.5000
G1 E223.0399 F2400
G1 Z0.700 F420
G1 X63.22 Y23.94 F6000
G1 Z0.300 F420
;00:12:46.575: restore -1.5029+2.1420@30  ve=0.0000@re=-1.5029 -> ve=0.7519@re=0.6391
G1 E225.1820 F1800
;00:12:46.647: draw 0.30x0.60x1.00@10 ve=0.7391@re=0.6283 -> ve=0.7484@re=0.6361
G1 X65.05 Y23.94 E225.3189 F600
;00:12:46.830: retract 0.6298-2.1298@40 ve=0.7409@re=0.6298 -> ve=0.0000@re=-1.5000
G1 E223.1892 F2400
G1 Z0.700 F420
G1 X66.19 Y25.02 F6000
G1 Z0.300 F420
;00:12:47.013: restore -1.5029+2.1420@30  ve=0.0000@re=-1.5029 -> ve=0.7519@re=0.6391
G1 E225.3311 F1800
;00:12:47.084: draw 0.30x0.60x1.00@10 ve=0.7391@re=0.6283 -> ve=0.7484@re=0.6361
G1 X66.65 Y25.26 E225.3700 F600
G1 X67.01 Y25.56 E225.4050
G1 X67.25 Y25.88 E225.4350
G1 X67.25 Y22.56 E225.6834
;00:12:47.555: retract 0.6316-2.1316@40 ve=0.7430@re=0.6316 -> ve=0.0000@re=-1.5000
G1 E223.5518 F2400
G1 Z0.700 F420
G1 X68.41 Y22.78 F6000
G1 Z0.300 F420
;00:12:47.734: restore -1.5029+2.7811@30  ve=0.0000@re=-1.5029 -> ve=1.5038@re=1.2782
G1 E226.3329 F1800
;00:12:47.827: draw 0.30x0.60x1.00@10 ve=1.4596@re=1.2407 -> ve=0.7484@re=0.6361
G1 X68.41 Y22.58 E226.3479 F600
;00:12:47.847: retract 1.2267-2.7267@40 ve=1.4431@re=1.2267 -> ve=0.0000@re=-1.5000
G1 E223.6212 F2400
G1 Z0.700 F420
G1 X71.50 Y25.88 F6000
G1 Z0.300 F420
;00:12:48.075: restore -1.5160+2.1551@30  ve=0.0000@re=-1.5160 -> ve=0.7519@re=0.6391
G1 E225.7764 F1800
;00:12:48.147: draw 0.30x0.60x1.00@10 ve=0.7392@re=0.6283 -> ve=0.7484@re=0.6361
G1 X69.79 Y25.88 E225.9043 F600
G1 X69.65 Y24.18 E226.0320
G1 X69.93 Y24.49 E226.0632
G1 X70.09 Y24.60 E226.0778
G1 X70.28 Y24.67 E226.0929
G1 X70.47 Y24.70 E226.1073
G1 X70.67 Y24.71 E226.1223
G1 X71.06 Y24.62 E226.1523
G1 X71.38 Y24.40 E226.1813
G1 X71.58 Y24.07 E226.2102
G1 X71.66 Y23.66 E226.2415
G1 X71.60 Y23.21 E226.2754
G1 X71.39 Y22.84 E226.3073
G1 X71.05 Y22.59 E226.3389
G1 X70.56 Y22.50 E226.3761
G1 X70.19 Y22.56 E226.4042
G1 X69.89 Y22.72 E226.4296
G1 X69.68 Y22.97 E226.4541
G1 X69.56 Y23.33 E226.4825
;00:12:49.090: retract 0.6335-2.1335@40 ve=0.7453@re=0.6335 -> ve=0.0000@re=-1.5000
G1 E224.3489 F2400
G1 Z0.700 F420
G1 X46.55 Y19.91 F6000
G1 Z0.300 F420
;00:12:49.490: restore -1.5029+2.1420@30  ve=0.0000@re=-1.5029 -> ve=0.7519@re=0.6391
G1 E226.4910 F1800
;00:12:49.562: draw 0.30x0.60x1.00@10 ve=0.7391@re=0.6283 -> ve=0.7484@re=0.6361
G1 X47.55 Y17.56 E226.6821 F600
G1 X48.55 Y19.91 E226.8732
;00:12:50.073: retract 0.6318-2.1318@40 ve=0.7433@re=0.6318 -> ve=0.0000@re=-1.5000
G1 E224.7414 F2400
G1 Z0.700 F420
G1 X49.70 Y19.91 F6000
G1 Z0.300 F420
;00:12:50.252: restore -1.5029+2.1420@30  ve=0.0000@re=-1.5029 -> ve=0.7519@re=0.6391
G1 E226.8834 F1800
;00:12:50.323: draw 0.30x0.60x1.00@10 ve=0.7391@re=0.6283 -> ve=0.7484@re=0.6361
G1 X51.65 Y17.56 E227.1119 F600
;00:12:50.628: retract 0.6306-2.1306@40 ve=0.7419@re=0.6306 -> ve=0.0000@re=-1.5000
G1 E224.9813 F2400
G1 Z0.700 F420
G1 X49.70 Y17.56 F6000
G1 Z0.300 F420
;00:12:50.815: restore -1.5029+2.1420@30  ve=0.0000@re=-1.5029 -> ve=0.7519@re=0.6391
G1 E227.1233 F1800
;00:12:50.887: draw 0.30x0.60x1.00@10 ve=0.7391@re=0.6283 -> ve=0.7484@re=0.6361
G1 X51.65 Y19.91 E227.3518 F600
;00:12:51.192: retract 0.6306-2.1306@40 ve=0.7419@re=0.6306 -> ve=0.0000@re=-1.5000
G1 E225.2212 F2400
G1 Z0.700 F420
G1 X52.80 Y19.29 F6000
G1 Z0.300 F420
;00:12:51.373: restore -1.5029+2.1420@30  ve=0.0000@re=-1.5029 -> ve=0.7519@re=0.6391
G1 E227.3632 F1800
;00:12:51.444: draw 0.30x0.60x1.00@10 ve=0.7391@re=0.6283 -> ve=0.7484@re=0.6361
G1 X54.45 Y19.29 E227.4867 F600
;00:12:51.609: retract 0.6296-2.1296@40 ve=0.7407@re=0.6296 -> ve=0.0000@re=-1.5000
G1 E225.3571 F2400
G1 Z0.700 F420
G1 X54.45 Y18.60 F6000
G1 Z0.300 F420
;00:12:51.784: restore -1.5029+2.1420@30  ve=0.0000@re=-1.5029 -> ve=0.7519@re=0.6391
G1 E227.4991 F1800
;00:12:51.855: draw 0.30x0.60x1.00@10 ve=0.7391@re=0.6283 -> ve=0.7484@re=0.6361
G1 X52.80 Y18.60 E227.6225 F600
;00:12:52.020: retract 0.6296-2.1296@40 ve=0.7407@re=0.6296 -> ve=0.0000@re=-1.5000
G1 E225.4929 F2400
G1 Z0.700 F420
G1 X55.60 Y20.02 F6000
G1 Z0.300 F420
;00:12:52.219: restore -1.5029+2.1420@30  ve=0.0000@re=-1.5029 -> ve=0.7519@re=0.6391
G1 E227.6349 F1800
;00:12:52.290: draw 0.30x0.60x1.00@10 ve=0.7391@re=0.6283 -> ve=0.7484@re=0.6361
G1 X56.06 Y20.26 E227.6737 F600
G1 X56.42 Y20.56 E227.7088
G1 X56.66 Y20.88 E227.7387
G1 X56.66 Y17.56 E227.9872
;00:12:52.761: retract 0.6316-2.1316@40 ve=0.7430@re=0.6316 -> ve=0.0000@re=-1.5000
G1 E225.8556 F2400
G1 Z0.700 F420
G1 X59.00 Y20.94 F6000
G1 Z0.300 F420
;00:12:52.970: restore -1.5029+2.1420@30  ve=0.0000@re=-1.5029 -> ve=0.7519@re=0.6391
G1 E227.9976 F1800
;00:12:53.041: draw 0.30x0.60x1.00@10 ve=0.7391@re=0.6283 -> ve=0.7484@re=0.6361
G1 X59.50 Y20.80 E228.0364 F600
G1 X59.88 Y20.43 E228.0761
G1 X60.11 Y19.88 E228.1207
G1 X60.20 Y19.22 E228.1706
G1 X60.11 Y18.56 E228.2204
G1 X59.88 Y18.01 E228.2651
G1 X59.50 Y17.64 E228.3047
G1 X59.00 Y17.50 E228.3436
G1 X58.50 Y17.64 E228.3825
G1 X58.12 Y18.01 E228.4222
G1 X57.89 Y18.56 E228.4668
G1 X57.81 Y19.22 E228.5165
G1 X57.89 Y19.88 E228.5663
G1 X58.12 Y20.43 E228.6109
G1 X58.49 Y20.80 E228.6500
G1 X59.00 Y20.94 E228.6896
;00:12:53.966: retract 0.6334-2.1334@40 ve=0.7452@re=0.6334 -> ve=0.0000@re=-1.5000
G1 E226.5562 F2400
G1 Z0.700 F420
G1 X62.54 Y20.94 F6000
G1 Z0.300 F420
;00:12:54.169: restore -1.5029+2.1420@30  ve=0.0000@re=-1.5029 -> ve=0.7519@re=0.6391
G1 E228.6982 F1800
;00:12:54.240: draw 0.30x0.60x1.00@10 ve=0.7391@re=0.6283 -> ve=0.7484@re=0.6361
G1 X63.04 Y20.80 E228.7370 F600
G1 X63.42 Y20.43 E228.7767
G1 X63.65 Y19.88 E228.8214
G1 X63.74 Y19.22 E228.8712
G1 X63.65 Y18.56 E228.9211
G1 X63.42 Y18.01 E228.9657
G1 X63.04 Y17.64 E229.0054
G1 X62.54 Y17.50 E229.0442
G1 X62.04 Y17.64 E229.0831
G1 X61.66 Y18.01 E229.1228
G1 X61.43 Y18.56 E229.1674
G1 X61.35 Y19.22 E229.2171
G1 X61.43 Y19.88 E229.2669
G1 X61.66 Y20.43 E229.3115
G1 X62.03 Y20.80 E229.3507
G1 X62.54 Y20.94 E229.3902
;00:12:55.165: retract 0.6334-2.1334@40 ve=0.7452@re=0.6334 -> ve=0.0000@re=-1.5000
G1 E227.2568 F2400
G1 Z0.700 F420
G1 X46.55 Y15.88 F6000
G1 Z0.300 F420
;00:12:55.500: restore -1.5029+2.1420@30  ve=0.0000@re=-1.5029 -> ve=0.7519@re=0.6391
G1 E229.3988 F1800
;00:12:55.572: draw 0.30x0.60x1.00@10 ve=0.7391@re=0.6283 -> ve=0.7484@re=0.6361
G1 X46.55 Y12.56 E229.6473 F600
;00:12:55.904: retract 0.6308-2.1308@40 ve=0.7421@re=0.6308 -> ve=0.0000@re=-1.5000
G1 E227.5165 F2400
G1 Z0.700 F420
G1 X47.70 Y13.74 F6000
G1 Z0.300 F420
;00:12:56.088: restore -1.5029+2.1420@30  ve=0.0000@re=-1.5029 -> ve=0.7519@re=0.6391
G1 E229.6585 F1800
;00:12:56.159: draw 0.30x0.60x1.00@10 ve=0.7391@re=0.6283 -> ve=0.7484@re=0.6361
G1 X49.79 Y13.74 E229.8149 F600
G1 X49.72 Y14.26 E229.8541
G1 X49.51 Y14.64 E229.8866
G1 X49.18 Y14.89 E229.9176
G1 X48.75 Y14.97 E229.9503
G1 X48.32 Y14.89 E229.9831
G1 X47.99 Y14.64 E230.0141
G1 X47.78 Y14.26 E230.0465
G1 X47.70 Y13.74 E230.0859
G1 X47.78 Y13.22 E230.1253
G1 X48.00 Y12.83 E230.1588
G1 X48.34 Y12.58 E230.1904
G1 X48.79 Y12.50 E230.2246
G1 X49.13 Y12.55 E230.2503
G1 X49.41 Y12.68 E230.2734
G1 X49.62 Y12.90 E230.2962
G1 X49.74 Y13.20 E230.3203
;00:12:57.044: retract 0.6333-2.1333@40 ve=0.7451@re=0.6333 -> ve=0.0000@re=-1.5000
G1 E228.1870 F2400
G1 Z0.700 F420
G1 X50.94 Y14.29 F6000
G1 Z0.300 F420
;00:12:57.228: restore -1.5029+2.1420@30  ve=0.0000@re=-1.5029 -> ve=0.7519@re=0.6391
G1 E230.3290 F1800
;00:12:57.299: draw 0.30x0.60x1.00@10 ve=0.7391@re=0.6283 -> ve=0.7484@re=0.6361
G1 X52.59 Y14.29 E230.4525 F600
;00:12:57.464: retract 0.6296-2.1296@40 ve=0.7407@re=0.6296 -> ve=0.0000@re=-1.5000
G1 E228.3229 F2400
G1 Z0.700 F420
G1 X52.59 Y13.60 F6000
G1 Z0.300 F420
;00:12:57.638: restore -1.5029+2.1420@30  ve=0.0000@re=-1.5029 -> ve=0.7519@re=0.6391
G1 E230.4649 F1800
;00:12:57.710: draw 0.30x0.60x1.00@10 ve=0.7391@re=0.6283 -> ve=0.7484@re=0.6361
G1 X50.94 Y13.60 E230.5884 F600
;00:12:57.875: retract 0.6296-2.1296@40 ve=0.7407@re=0.6296 -> ve=0.0000@re=-1.5000
G1 E228.4587 F2400
G1 Z0.700 F420
G1 X53.74 Y15.02 F6000
G1 Z0.300 F420
;00:12:58.074: restore -1.5029+2.1420@30  ve=0.0000@re=-1.5029 -> ve=0.7519@re=0.6391
G1 E230.6007 F1800
;00:12:58.145: draw 0.30x0.60x1.00@10 ve=0.7391@re=0.6283 -> ve=0.7484@re=0.6361
G1 X54.20 Y15.26 E230.6395 F600
G1 X54.56 Y15.56 E230.6746
G1 X54.80 Y15.88 E230.7045
G1 X54.80 Y12.56 E230.9530
;00:12:58.616: retract 0.6316-2.1316@40 ve=0.7430@re=0.6316 -> ve=0.0000@re=-1.5000
G1 E228.8214 F2400
G1 Z0.700 F420
G1 X55.95 Y12.78 F6000
G1 Z0.300 F420
;00:12:58.795: restore -1.5029+2.7811@30  ve=0.0000@re=-1.5029 -> ve=1.5038@re=1.2782
G1 E231.6025 F1800
;00:12:58.888: draw 0.30x0.60x1.00@10 ve=1.4596@re=1.2407 -> ve=0.7484@re=0.6361
G1 X55.95 Y12.58 E231.6175 F600
;00:12:58.908: retract 1.2267-2.7267@40 ve=1.4431@re=1.2267 -> ve=0.0000@re=-1.5000
G1 E228.8908 F2400
G1 Z0.700 F420
G1 X59.04 Y15.88 F6000
G1 Z0.300 F420
;00:12:59.136: restore -1.5160+2.1551@30  ve=0.0000@re=-1.5160 -> ve=0.7519@re=0.6391
G1 E231.0459 F1800
;00:12:59.207: draw 0.30x0.60x1.00@10 ve=0.7392@re=0.6283 -> ve=0.7484@re=0.6361
G1 X57.33 Y15.88 E231.1739 F600
G1 X57.19 Y14.18 E231.3016
G1 X57.47 Y14.49 E231.3328
G1 X57.63 Y14.60 E231.3473
G1 X57.82 Y14.67 E231.3625
G1 X58.01 Y14.70 E231.3769
G1 X58.21 Y14.71 E231.3919
G1 X58.60 Y14.62 E231.4218
G1 X58.92 Y14.40 E231.4509
G1 X59.12 Y14.07 E231.4798
G1 X59.20 Y13.66 E231.5110
G1 X59.14 Y13.21 E231.5450
G1 X58.93 Y12.84 E231.5768
G1 X58.59 Y12.59 E231.6084
G1 X58.10 Y12.50 E231.6457
G1 X57.73 Y12.56 E231.6738
G1 X57.43 Y12.72 E231.6992
G1 X57.22 Y12.97 E231.7236
G1 X57.10 Y13.33 E231.7520
;00:13:00.151: retract 0.6335-2.1335@40 ve=0.7453@re=0.6335 -> ve=0.0000@re=-1.5000
G1 E229.6185 F2400
G1 Z0.700 F420
;00:13:00.261: testStartStop Kf=0.85 vx=20-100 le=1.5
;structure:shell-outer
G1 X-45.00 Y-3.00 F6000
G1 Z0.300 F420
;00:13:01.352: restore -1.5029+2.1420@30  ve=0.0000@re=-1.5029 -> ve=0.7519@re=0.6391
G1 E231.7605 F1800
;00:13:01.424: draw 0.30x0.60x1.00@10 ve=0.7391@re=0.6283 -> ve=0.7484@re=0.6361
G1 X45.00 Y-3.00 E238.4957 F600
;00:13:10.424: retract 0.6361-2.1361@40 ve=0.7484@re=0.6361 -> ve=0.0000@re=-1.5000
G1 E236.3596 F2400
G1 Z0.700 F420
G1 X-42.00 Y-3.00 F6000
G1 X-40.00 Y-3.00
G1 Z0.300 F420
;00:13:11.482: restore -1.5029+2.1420@30  ve=0.0000@re=-1.5029 -> ve=0.7519@re=0.6391
G1 E238.5017 F1800
;00:13:11.553: draw 0.30x0.60x1.00@10 ve=0.7391@re=0.6283 -> ve=0.7484@re=0.6361
G1 X-40.00 Y-6.00 E238.7262 F600
;00:13:11.853: retract 0.6306-2.1306@40 ve=0.7419@re=0.6306 -> ve=0.0000@re=-1.5000
G1 E236.5956 F2400
G1 Z0.700 F420
G1 X-38.00 Y-3.00 F6000
G1 Z0.300 F420
;00:13:12.057: restore -1.5029+2.1420@30  ve=0.0000@re=-1.5029 -> ve=0.7519@re=0.6391
G1 E238.7376 F1800
;00:13:12.128: draw 0.30x0.60x1.00@10 ve=0.7391@re=0.6283 -> ve=0.7484@re=0.6361
G1 X-38.00 Y-4.50 E238.8498 F600
;00:13:12.278: retract 0.6295-2.1295@40 ve=0.7406@re=0.6295 -> ve=0.0000@re=-1.5000
G1 E236.7203 F2400
G1 Z0.700 F420
G1 X-36.00 Y-3.00 F6000
G1 Z0.300 F420
;00:13:12.471: restore -1.5029+2.1420@30  ve=0.0000@re=-1.5029 -> ve=0.7519@re=0.6391
G1 E238.8623 F1800
;00:13:12.542: draw 0.30x0.60x1.00@10 ve=0.7391@re=0.6283 -> ve=0.7484@re=0.6361
G1 X-36.00 Y-4.50 E238.9745 F600
;00:13:12.692: retract 0.6295-2.1295@40 ve=0.7406@re=0.6295 -> ve=0.0000@re=-1.5000
G1 E236.8450 F2400
G1 Z0.700 F420
G1 X-34.00 Y-3.00 F6000
G1 Z0.300 F420
;00:13:12.884: restore -1.5029+2.1420@30  ve=0.0000@re=-1.5029 -> ve=0.7519@re=0.6391
G1 E238.9870 F1800
;00:13:12.956: draw 0.30x0.60x1.00@10 ve=0.7391@re=0.6283 -> ve=0.7484@re=0.6361
G1 X-34.00 Y-4.50 E239.0993 F600
;00:13:13.106: retract 0.6295-2.1295@40 ve=0.7406@re=0.6295 -> ve=0.0000@re=-1.5000
G1 E236.9697 F2400
G1 Z0.700 F420
G1 X-32.00 Y-3.00 F6000
G1 Z0.300 F420
;00:13:13.298: restore -1.5029+2.1420@30  ve=0.0000@re=-1.5029 -> ve=0.7519@re=0.6391
G1 E239.1117 F1800
;00:13:13.370: draw 0.30x0.60x1.00@10 ve=0.7391@re=0.6283 -> ve=0.7484@re=0.6361
G1 X-32.00 Y-4.50 E239.2240 F600
;00:13:13.520: retract 0.6295-2.1295@40 ve=0.7406@re=0.6295 -> ve=0.0000@re=-1.5000
G1 E237.0945 F2400
G1 Z0.700 F420
G1 X-30.00 Y-3.00 F6000
G1 Z0.300 F420
;00:13:13.712: restore -1.5029+2.1420@30  ve=0.0000@re=-1.5029 -> ve=0.7519@re=0.6391
G1 E239.2364 F1800
;00:13:13.784: draw 0.30x0.60x1.00@10 ve=0.7391@re=0.6283 -> ve=0.7484@re=0.6361
G1 X-30.00 Y-6.00 E239.4609 F600
;00:13:14.084: retract 0.6306-2.1306@40 ve=0.7419@re=0.6306 -> ve=0.0000@re=-1.5000
G1 E237.3304 F2400
G1 Z0.700 F420
G1 X-28.00 Y-3.00 F6000
G1 Z0.300 F420
;00:13:14.287: restore -1.5029+2.1420@30  ve=0.0000@re=-1.5029 -> ve=0.7519@re=0.6391
G1 E239.4723 F1800
;00:13:14.359: draw 0.30x0.60x1.00@10 ve=0.7391@re=0.6283 -> ve=0.7484@re=0.6361
G1 X-28.00 Y-4.50 E239.5846 F600
;00:13:14.509: retract 0.6295-2.1295@40 ve=0.7406@re=0.6295 -> ve=0.0000@re=-1.5000
G1 E237.4551 F2400
G1 Z0.700 F420
G1 X-26.00 Y-3.00 F6000
G1 Z0.300 F420
;00:13:14.701: restore -1.5029+2.1420@30  ve=0.0000@re=-1.5029 -> ve=0.7519@re=0.6391
G1 E239.5971 F1800
;00:13:14.773: draw 0.30x0.60x1.00@10 ve=0.7391@re=0.6283 -> ve=0.7484@re=0.6361
G1 X-26.00 Y-4.50 E239.7093 F600
;00:13:14.923: retract 0.6295-2.1295@40 ve=0.7406@re=0.6295 -> ve=0.0000@re=-1.5000
G1 E237.5798 F2400
G1 Z0.700 F420
G1 X-24.00 Y-3.00 F6000
G1 Z0.300 F420
;00:13:15.115: restore -1.5029+2.1420@30  ve=0.0000@re=-1.5029 -> ve=0.7519@re=0.6391
G1 E239.7218 F1800
;00:13:15.187: draw 0.30x0.60x1.00@10 ve=0.7391@re=0.6283 -> ve=0.7484@re=0.6361
G1 X-24.00 Y-4.50 E239.8340 F600
;00:13:15.337: retract 0.6295-2.1295@40 ve=0.7406@re=0.6295 -> ve=0.0000@re=-1.5000
G1 E237.7045 F2400
G1 Z0.700 F420
G1 X-22.00 Y-3.00 F6000
G1 Z0.300 F420
;00:13:15.529: restore -1.5029+2.1420@30  ve=0.0000@re=-1.5029 -> ve=0.7519@re=0.6391
G1 E239.8465 F1800
;00:13:15.600: draw 0.30x0.60x1.00@10 ve=0.7391@re=0.6283 -> ve=0.7484@re=0.6361
G1 X-22.00 Y-4.50 E239.9587 F600
;00:13:15.750: retract 0.6295-2.1295@40 ve=0.7406@re=0.6295 -> ve=0.0000@re=-1.5000
G1 E237.8292 F2400
G1 Z0.700 F420
G1 X-20.00 Y-3.00 F6000
G1 Z0.300 F420
;00:13:15.943: restore -1.5029+2.1420@30  ve=0.0000@re=-1.5029 -> ve=0.7519@re=0.6391
G1 E239.9712 F1800
;00:13:16.014: draw 0.30x0.60x1.00@10 ve=0.7391@re=0.6283 -> ve=0.7484@re=0.6361
G1 X-20.00 Y-6.00 E240.1957 F600
;00:13:16.314: retract 0.6306-2.1306@40 ve=0.7419@re=0.6306 -> ve=0.0000@re=-1.5000
G1 E238.0651 F2400
G1 Z0.700 F420
G1 X-18.00 Y-3.00 F6000
G1 Z0.300 F420
;00:13:16.518: restore -1.5029+2.1420@30  ve=0.0000@re=-1.5029 -> ve=0.7519@re=0.6391
G1 E240.2071 F1800
;00:13:16.589: draw 0.30x0.60x1.00@10 ve=0.7391@re=0.6283 -> ve=0.7484@re=0.6361
G1 X-18.00 Y-4.50 E240.3194 F600
;00:13:16.739: retract 0.6295-2.1295@40 ve=0.7406@re=0.6295 -> ve=0.0000@re=-1.5000
G1 E238.1899 F2400
G1 Z0.700 F420
G1 X-16.00 Y-3.00 F6000
G1 Z0.300 F420
;00:13:16.932: restore -1.5029+2.1420@30  ve=0.0000@re=-1.5029 -> ve=0.7519@re=0.6391
G1 E240.3318 F1800
;00:13:17.003: draw 0.30x0.60x1.00@10 ve=0.7391@re=0.6283 -> ve=0.7484@re=0.6361
G1 X-16.00 Y-4.50 E240.4441 F600
;00:13:17.153: retract 0.6295-2.1295@40 ve=0.7406@re=0.6295 -> ve=0.0000@re=-1.5000
G1 E238.3146 F2400
G1 Z0.700 F420
G1 X-14.00 Y-3.00 F6000
G1 Z0.300 F420
;00:13:17.346: restore -1.5029+2.1420@30  ve=0.0000@re=-1.5029 -> ve=0.7519@re=0.6391
G1 E240.4566 F1800
;00:13:17.417: draw 0.30x0.60x1.00@10 ve=0.7391@re=0.6283 -> ve=0.7484@re=0.6361
G1 X-14.00 Y-4.50 E240.5688 F600
;00:13:17.567: retract 0.6295-2.1295@40 ve=0.7406@re=0.6295 -> ve=0.0000@re=-1.5000
G1 E238.4393 F2400
G1 Z0.700 F420
G1 X-12.00 Y-3.00 F6000
G1 Z0.300 F420
;00:13:17.760: restore -1.5029+2.1420@30  ve=0.0000@re=-1.5029 -> ve=0.7519@re=0.6391
G1 E240.5813 F1800
;00:13:17.831: draw 0.30x0.60x1.00@10 ve=0.7391@re=0.6283 -> ve=0.7484@re=0.6361
G1 X-12.00 Y-4.50 E240.6935 F600
;00:13:17.981: retract 0.6295-2.1295@40 ve=0.7406@re=0.6295 -> ve=0.0000@re=-1.5000
G1 E238.5640 F2400
G1 Z0.700 F420
G1 X-10.00 Y-3.00 F6000
G1 Z0.300 F420
;00:13:18.174: restore -1.5029+2.1420@30  ve=0.0000@re=-1.5029 -> ve=0.7519@re=0.6391
G1 E240.7060 F1800
;00:13:18.245: draw 0.30x0.60x1.00@10 ve=0.7391@re=0.6283 -> ve=0.7484@re=0.6361
G1 X-10.00 Y-6.00 E240.9305 F600
;00:13:18.545: retract 0.6306-2.1306@40 ve=0.7419@re=0.6306 -> ve=0.0000@re=-1.5000
G1 E238.7999 F2400
G1 Z0.700 F420
G1 X-8.00 Y-3.00 F6000
G1 Z0.300 F420
;00:13:18.749: restore -1.5029+2.1420@30  ve=0.0000@re=-1.5029 -> ve=0.7519@re=0.6391
G1 E240.9419 F1800
;00:13:18.820: draw 0.30x0.60x1.00@10 ve=0.7391@re=0.6283 -> ve=0.7484@re=0.6361
G1 X-8.00 Y-4.50 E241.0542 F600
;00:13:18.970: retract 0.6295-2.1295@40 ve=0.7406@re=0.6295 -> ve=0.0000@re=-1.5000
G1 E238.9246 F2400
G1 Z0.700 F420
G1 X-6.00 Y-3.00 F6000
G1 Z0.300 F420
;00:13:19.163: restore -1.5029+2.1420@30  ve=0.0000@re=-1.5029 -> ve=0.7519@re=0.6391
G1 E241.0666 F1800
;00:13:19.234: draw 0.30x0.60x1.00@10 ve=0.7391@re=0.6283 -> ve=0.7484@re=0.6361
G1 X-6.00 Y-4.50 E241.1789 F600
;00:13:19.384: retract 0.6295-2.1295@40 ve=0.7406@re=0.6295 -> ve=0.0000@re=-1.5000
G1 E239.0494 F2400
G1 Z0.700 F420
G1 X-4.00 Y-3.00 F6000
G1 Z0.300 F420
;00:13:19.577: restore -1.5029+2.1420@30  ve=0.0000@re=-1.5029 -> ve=0.7519@re=0.6391
G1 E241.1913 F1800
;00:13:19.648: draw 0.30x0.60x1.00@10 ve=0.7391@re=0.6283 -> ve=0.7484@re=0.6361
G1 X-4.00 Y-4.50 E241.3036 F600
;00:13:19.798: retract 0.6295-2.1295@40 ve=0.7406@re=0.6295 -> ve=0.0000@re=-1.5000
G1 E239.1741 F2400
G1 Z0.700 F420
G1 X-2.00 Y-3.00 F6000
G1 Z0.300 F420
;00:13:19.990: restore -1.5029+2.1420@30  ve=0.0000@re=-1.5029 -> ve=0.7519@re=0.6391
G1 E241.3160 F1800
;00:13:20.062: draw 0.30x0.60x1.00@10 ve=0.7391@re=0.6283 -> ve=0.7484@re=0.6361
G1 X-2.00 Y-4.50 E241.4283 F600
;00:13:20.212: retract 0.6295-2.1295@40 ve=0.7406@re=0.6295 -> ve=0.0000@re=-1.5000
G1 E239.2988 F2400
G1 Z0.700 F420
G1 X0.00 Y-3.00 F6000
G1 Z0.300 F420
;00:13:20.404: restore -1.5029+2.1420@30  ve=0.0000@re=-1.5029 -> ve=0.7519@re=0.6391
G1 E241.4408 F1800
;00:13:20.476: draw 0.30x0.60x1.00@10 ve=0.7391@re=0.6283 -> ve=0.7484@re=0.6361
G1 X0.00 Y-6.00 E241.6653 F600
;00:13:20.776: retract 0.6306-2.1306@40 ve=0.7419@re=0.6306 -> ve=0.0000@re=-1.5000
G1 E239.5347 F2400
G1 Z0.700 F420
G1 X2.00 Y-3.00 F6000
G1 Z0.300 F420
;00:13:20.979: restore -1.5029+2.1420@30  ve=0.0000@re=-1.5029 -> ve=0.7519@re=0.6391
G1 E241.6767 F1800
;00:13:21.051: draw 0.30x0.60x1.00@10 ve=0.7391@re=0.6283 -> ve=0.7484@re=0.6361
G1 X2.00 Y-4.50 E241.7889 F600
;00:13:21.201: retract 0.6295-2.1295@40 ve=0.7406@re=0.6295 -> ve=0.0000@re=-1.5000
G1 E239.6594 F2400
G1 Z0.700 F420
G1 X4.00 Y-3.00 F6000
G1 Z0.300 F420
;00:13:21.393: restore -1.5029+2.1420@30  ve=0.0000@re=-1.5029 -> ve=0.7519@re=0.6391
G1 E241.8014 F1800
;00:13:21.465: draw 0.30x0.60x1.00@10 ve=0.7391@re=0.6283 -> ve=0.7484@re=0.6361
G1 X4.00 Y-4.50 E241.9136 F600
;00:13:21.615: retract 0.6295-2.1295@40 ve=0.7406@re=0.6295 -> ve=0.0000@re=-1.5000
G1 E239.7841 F2400
G1 Z0.700 F420
G1 X6.00 Y-3.00 F6000
G1 Z0.300 F420
;00:13:21.807: restore -1.5029+2.1420@30  ve=0.0000@re=-1.5029 -> ve=0.7519@re=0.6391
G1 E241.9261 F1800
;00:13:21.879: draw 0.30x0.60x1.00@10 ve=0.7391@re=0.6283 -> ve=0.7484@re=0.6361
G1 X6.00 Y-4.50 E242.0384 F600
;00:13:22.029: retract 0.6295-2.1295@40 ve=0.7406@re=0.6295 -> ve=0.0000@re=-1.5000
G1 E239.9088 F2400
G1 Z0.700 F420
G1 X8.00 Y-3.00 F6000
G1 Z0.300 F420
;00:13:22.221: restore -1.5029+2.1420@30  ve=0.0000@re=-1.5029 -> ve=0.7519@re=0.6391
G1 E242.0508 F1800
;00:13:22.293: draw 0.30x0.60x1.00@10 ve=0.7391@re=0.6283 -> ve=0.7484@re=0.6361
G1 X8.00 Y-4.50 E242.1631 F600
;00:13:22.443: retract 0.6295-2.1295@40 ve=0.7406@re=0.6295 -> ve=0.0000@re=-1.5000
G1 E240.0336 F2400
G1 Z0.700 F420
G1 X10.00 Y-3.00 F6000
G1 Z0.300 F420
;00:13:22.635: restore -1.5029+2.1420@30  ve=0.0000@re=-1.5029 -> ve=0.7519@re=0.6391
G1 E242.1755 F1800
;00:13:22.706: draw 0.30x0.60x1.00@10 ve=0.7391@re=0.6283 -> ve=0.7484@re=0.6361
G1 X10.00 Y-6.00 E242.4000 F600
;00:13:23.006: retract 0.6306-2.1306@40 ve=0.7419@re=0.6306 -> ve=0.0000@re=-1.5000
G1 E240.2695 F2400
G1 Z0.700 F420
G1 X12.00 Y-3.00 F6000
G1 Z0.300 F420
;00:13:23.210: restore -1.5029+2.1420@30  ve=0.0000@re=-1.5029 -> ve=0.7519@re=0.6391
G1 E242.4115 F1800
;00:13:23.281: draw 0.30x0.60x1.00@10 ve=0.7391@re=0.6283 -> ve=0.7484@re=0.6361
G1 X12.00 Y-4.50 E242.5237 F600
;00:13:23.431: retract 0.6295-2.1295@40 ve=0.7406@re=0.6295 -> ve=0.0000@re=-1.5000
G1 E240.3942 F2400
G1 Z0.700 F420
G1 X14.00 Y-3.00 F6000
G1 Z0.300 F420
;00:13:23.624: restore -1.5029+2.1420@30  ve=0.0000@re=-1.5029 -> ve=0.7519@re=0.6391
G1 E242.5362 F1800
;00:13:23.695: draw 0.30x0.60x1.00@10 ve=0.7391@re=0.6283 -> ve=0.7484@re=0.6361
G1 X14.00 Y-4.50 E242.6484 F600
;00:13:23.845: retract 0.6295-2.1295@40 ve=0.7406@re=0.6295 -> ve=0.0000@re=-1.5000
G1 E240.5189 F2400
G1 Z0.700 F420
G1 X16.00 Y-3.00 F6000
G1 Z0.300 F420
;00:13:24.038: restore -1.5029+2.1420@30  ve=0.0000@re=-1.5029 -> ve=0.7519@re=0.6391
G1 E242.6609 F1800
;00:13:24.109: draw 0.30x0.60x1.00@10 ve=0.7391@re=0.6283 -> ve=0.7484@re=0.6361
G1 X16.00 Y-4.50 E242.7731 F600
;00:13:24.259: retract 0.6295-2.1295@40 ve=0.7406@re=0.6295 -> ve=0.0000@re=-1.5000
G1 E240.6436 F2400
G1 Z0.700 F420
G1 X18.00 Y-3.00 F6000
G1 Z0.300 F420
;00:13:24.452: restore -1.5029+2.1420@30  ve=0.0000@re=-1.5029 -> ve=0.7519@re=0.6391
G1 E242.7856 F1800
;00:13:24.523: draw 0.30x0.60x1.00@10 ve=0.7391@re=0.6283 -> ve=0.7484@re=0.6361
G1 X18.00 Y-4.50 E242.8979 F600
;00:13:24.673: retract 0.6295-2.1295@40 ve=0.7406@re=0.6295 -> ve=0.0000@re=-1.5000
G1 E240.7683 F2400
G1 Z0.700 F420
G1 X20.00 Y-3.00 F6000
G1 Z0.300 F420
;00:13:24.866: restore -1.5029+2.1420@30  ve=0.0000@re=-1.5029 -> ve=0.7519@re=0.6391
G1 E242.9103 F1800
;00:13:24.937: draw 0.30x0.60x1.00@10 ve=0.7391@re=0.6283 -> ve=0.7484@re=0.6361
G1 X20.00 Y-6.00 E243.1348 F600
;00:13:25.237: retract 0.6306-2.1306@40 ve=0.7419@re=0.6306 -> ve=0.0000@re=-1.5000
G1 E241.0042 F2400
G1 Z0.700 F420
G1 X22.00 Y-3.00 F6000
G1 Z0.300 F420
;00:13:25.441: restore -1.5029+2.1420@30  ve=0.0000@re=-1.5029 -> ve=0.7519@re=0.6391
G1 E243.1462 F1800
;00:13:25.512: draw 0.30x0.60x1.00@10 ve=0.7391@re=0.6283 -> ve=0.7484@re=0.6361
G1 X22.00 Y-4.50 E243.2585 F600
;00:13:25.662: retract 0.6295-2.1295@40 ve=0.7406@re=0.6295 -> ve=0.0000@re=-1.5000
G1 E241.1290 F2400
G1 Z0.700 F420
G1 X24.00 Y-3.00 F6000
G1 Z0.300 F420
;00:13:25.855: restore -1.5029+2.1420@30  ve=0.0000@re=-1.5029 -> ve=0.7519@re=0.6391
G1 E243.2709 F1800
;00:13:25.926: draw 0.30x0.60x1.00@10 ve=0.7391@re=0.6283 -> ve=0.7484@re=0.6361
G1 X24.00 Y-4.50 E243.3832 F600
;00:13:26.076: retract 0.6295-2.1295@40 ve=0.7406@re=0.6295 -> ve=0.0000@re=-1.5000
G1 E241.2537 F2400
G1 Z0.700 F420
G1 X26.00 Y-3.00 F6000
G1 Z0.300 F420
;00:13:26.269: restore -1.5029+2.1420@30  ve=0.0000@re=-1.5029 -> ve=0.7519@re=0.6391
G1 E243.3957 F1800
;00:13:26.340: draw 0.30x0.60x1.00@10 ve=0.7391@re=0.6283 -> ve=0.7484@re=0.6361
G1 X26.00 Y-4.50 E243.5079 F600
;00:13:26.490: retract 0.6295-2.1295@40 ve=0.7406@re=0.6295 -> ve=0.0000@re=-1.5000
G1 E241.3784 F2400
G1 Z0.700 F420
G1 X28.00 Y-3.00 F6000
G1 Z0.300 F420
;00:13:26.683: restore -1.5029+2.1420@30  ve=0.0000@re=-1.5029 -> ve=0.7519@re=0.6391
G1 E243.5204 F1800
;00:13:26.754: draw 0.30x0.60x1.00@10 ve=0.7391@re=0.6283 -> ve=0.7484@re=0.6361
G1 X28.00 Y-4.50 E243.6326 F600
;00:13:26.904: retract 0.6295-2.1295@40 ve=0.7406@re=0.6295 -> ve=0.0000@re=-1.5000
G1 E241.5031 F2400
G1 Z0.700 F420
G1 X30.00 Y-3.00 F6000
G1 Z0.300 F420
;00:13:27.096: restore -1.5029+2.1420@30  ve=0.0000@re=-1.5029 -> ve=0.7519@re=0.6391
G1 E243.6451 F1800
;00:13:27.168: draw 0.30x0.60x1.00@10 ve=0.7391@re=0.6283 -> ve=0.7484@re=0.6361
G1 X30.00 Y-6.00 E243.8696 F600
;00:13:27.468: retract 0.6306-2.1306@40 ve=0.7419@re=0.6306 -> ve=0.0000@re=-1.5000
G1 E241.7390 F2400
G1 Z0.700 F420
G1 X32.00 Y-3.00 F6000
G1 Z0.300 F420
;00:13:27.671: restore -1.5029+2.1420@30  ve=0.0000@re=-1.5029 -> ve=0.7519@re=0.6391
G1 E243.8810 F1800
;00:13:27.743: draw 0.30x0.60x1.00@10 ve=0.7391@re=0.6283 -> ve=0.7484@re=0.6361
G1 X32.00 Y-4.50 E243.9933 F600
;00:13:27.893: retract 0.6295-2.1295@40 ve=0.7406@re=0.6295 -> ve=0.0000@re=-1.5000
G1 E241.8637 F2400
G1 Z0.700 F420
G1 X34.00 Y-3.00 F6000
G1 Z0.300 F420
;00:13:28.085: restore -1.5029+2.1420@30  ve=0.0000@re=-1.5029 -> ve=0.7519@re=0.6391
G1 E244.0057 F1800
;00:13:28.157: draw 0.30x0.60x1.00@10 ve=0.7391@re=0.6283 -> ve=0.7484@re=0.6361
G1 X34.00 Y-4.50 E244.1180 F600
;00:13:28.307: retract 0.6295-2.1295@40 ve=0.7406@re=0.6295 -> ve=0.0000@re=-1.5000
G1 E241.9885 F2400
G1 Z0.700 F420
G1 X36.00 Y-3.00 F6000
G1 Z0.300 F420
;00:13:28.499: restore -1.5029+2.1420@30  ve=0.0000@re=-1.5029 -> ve=0.7519@re=0.6391
G1 E244.1304 F1800
;00:13:28.571: draw 0.30x0.60x1.00@10 ve=0.7391@re=0.6283 -> ve=0.7484@re=0.6361
G1 X36.00 Y-4.50 E244.2427 F600
;00:13:28.721: retract 0.6295-2.1295@40 ve=0.7406@re=0.6295 -> ve=0.0000@re=-1.5000
G1 E242.1132 F2400
G1 Z0.700 F420
G1 X38.00 Y-3.00 F6000
G1 Z0.300 F420
;00:13:28.913: restore -1.5029+2.1420@30  ve=0.0000@re=-1.5029 -> ve=0.7519@re=0.6391
G1 E244.2552 F1800
;00:13:28.985: draw 0.30x0.60x1.00@10 ve=0.7391@re=0.6283 -> ve=0.7484@re=0.6361
G1 X38.00 Y-4.50 E244.3674 F600
;00:13:29.135: retract 0.6295-2.1295@40 ve=0.7406@re=0.6295 -> ve=0.0000@re=-1.5000
G1 E242.2379 F2400
G1 Z0.700 F420
G1 X40.00 Y-3.00 F6000
G1 Z0.300 F420
;00:13:29.327: restore -1.5029+2.1420@30  ve=0.0000@re=-1.5029 -> ve=0.7519@re=0.6391
G1 E244.3799 F1800
;00:13:29.399: draw 0.30x0.60x1.00@10 ve=0.7391@re=0.6283 -> ve=0.7484@re=0.6361
G1 X40.00 Y-6.00 E244.6044 F600
;00:13:29.699: retract 0.6306-2.1306@40 ve=0.7419@re=0.6306 -> ve=0.0000@re=-1.5000
G1 E242.4738 F2400
G1 Z0.700 F420
;structure:infill-solid
;00:13:29.809: testStartStopLine Kf=0.85 vx=20 le=1.5
G1 X-45.00 Y-7.00 F6000
G1 Z0.300 F420
;00:13:30.716: restore -1.5029+1.5840@30  ve=0.0000@re=-1.5029 -> ve=0.0954@re=0.0811
G1 E244.0578 F1800
;00:13:30.769: draw 0.30x0.60x1.00@1 ve=0.0949@re=0.0807 -> ve=0.0748@re=0.0636
G1 X-40.00 Y-7.00 E244.4319 F60
G1 X-30.00 Y-7.00
;00:13:45.769: restore 0.0000+1.2327@30  ve=0.0000@re=0.0000 -> ve=1.4502@re=1.2327
G1 E245.6646 F1800
;00:13:45.810: draw 0.30x0.60x1.00@20 ve=1.4090@re=1.1977 -> ve=1.4967@re=1.2722
G1 X20.00 Y-7.00 E249.4064 F1200
;00:13:48.310: retract 1.2682-2.7682@40 ve=1.4920@re=1.2682 -> ve=0.0000@re=-1.5000
G1 E246.6382 F2400
G1 X30.00 Y-7.00 F60
;00:13:58.379: restore -1.5172+1.8492@30  ve=0.0000@re=-1.5172 -> ve=0.3906@re=0.3320
G1 E248.4874 F1800
;00:13:58.441: draw 0.30x0.60x1.00@5 ve=0.3863@re=0.3284 -> ve=0.3742@re=0.3181
G1 X45.00 Y-7.00 E249.6099 F300
;00:14:01.441: retract 0.3184-1.8184@40 ve=0.3745@re=0.3184 -> ve=0.0000@re=-1.5000
G1 E247.7915 F2400
G1 Z0.700 F420
;00:14:01.544: testStartStopLine Kf=0.85 vx=28.0 le=1.5
G1 X-45.00 Y-9.00 F6000
G1 Z0.300 F420
;00:14:02.501: restore -1.5000+1.5811@30  ve=0.0000@re=-1.5000 -> ve=0.0954@re=0.0811
G1 E249.3726 F1800
;00:14:02.554: draw 0.30x0.60x1.00@1 ve=0.0949@re=0.0806 -> ve=0.0748@re=0.0636
G1 X-40.00 Y-9.00 E249.7468 F60
G1 X-30.00 Y-9.00
;00:14:17.554: restore 0.0000+1.6886@30  ve=0.0000@re=0.0000 -> ve=1.9866@re=1.6886
G1 E251.4354 F1800
;00:14:17.610: draw 0.30x0.60x1.00@28 ve=1.9134@re=1.6264 -> ve=2.0954@re=1.7811
G1 X20.00 Y-9.00 E255.1772 F1680
;00:14:19.396: retract 1.7620-3.2620@40 ve=2.0729@re=1.7620 -> ve=0.0000@re=-1.5000
G1 E251.9153 F2400
G1 X30.00 Y-9.00 F60
;00:14:29.477: restore -1.5357+1.8677@30  ve=0.0000@re=-1.5357 -> ve=0.3906@re=0.3320
G1 E253.7829 F1800
;00:14:29.539: draw 0.30x0.60x1.00@5 ve=0.3864@re=0.3285 -> ve=0.3742@re=0.3181
G1 X45.00 Y-9.00 E254.9055 F300
