; HEADER_BLOCK_START
; generated by OrcaSlicer
; HEADER_BLOCK_END

; EXECUTABLE_BLOCK_START
;start gcode
M118 X75.00 Y75.00 Z150.00 T0
M140 S50 T0
M104 S210 T0
M104 S0 T1
M107
M900 K0.000 T0
G90
G28
M132 X Y Z A B
G1 Z50.000 F420
G161 X Y F3300
M7 T0
M6 T0
M651 S255
M108 T0
M106

G1 Z.2 F420
;LAYER_CHANGE
;Z:0.2
;HEIGHT:0.2
;TYPE:Custom
G1 X-40 Y-74 F6000
;WIDTH:1.04292
G1 E5.06531 F1800
G1 X40 Y-74 E11.71733 F1200
G1 E6.71733 F2400
G1 Z.4 F420
;LAYER_CHANGE
;Z:0.3
;HEIGHT:0.3
;Draw pad at (-60.0, 60.0).
;TYPE:Brim
G1 X-50 Y60 F6000
G1 Z.3 F420
;WIDTH:0.564381
G1 E11.73877 F1800
G1 X-50.045 Y60.871 E11.78966 F600
G1 X-50.166 Y61.734 E11.84051
G1 X-50.361 Y62.583 E11.89132
G1 X-50.629 Y63.411 E11.9421
G1 X-50.968 Y64.212 E11.99285
G1 X-51.376 Y64.979 E12.04356
G1 X-51.848 Y65.708 E12.09423
G1 X-52.382 Y66.392 E12.14487
G1 X-52.973 Y67.027 E12.19547
G1 X-53.617 Y67.607 E12.24604
G1 X-54.308 Y68.129 E12.29657
G1 X-55.042 Y68.588 E12.34707
G1 X-55.812 Y68.981 E12.39753
G1 X-56.613 Y69.306 E12.44796
G1 X-57.439 Y69.559 E12.49835
G1 X-58.283 Y69.739 E12.5487
G1 X-59.139 Y69.844 E12.59902
G1 X-60 Y69.875 E12.64931
G1 X-60.86 Y69.831 E12.69956
G1 X-61.712 Y69.711 E12.74977
G1 X-62.55 Y69.518 E12.79995
G1 X-63.368 Y69.253 E12.85009
G1 X-64.159 Y68.918 E12.9002
G1 X-64.917 Y68.516 E12.95028
G1 X-65.636 Y68.049 E13.00031
G1 X-66.312 Y67.522 E13.05031
G1 X-66.938 Y66.938 E13.10028
G1 X-67.511 Y66.303 E13.15021
G1 X-68.027 Y65.62 E13.20011
G1 X-68.48 Y64.896 E13.24997
G1 X-68.868 Y64.135 E13.29979
G1 X-69.188 Y63.344 E13.34958
G1 X-69.438 Y62.529 E13.39934
G1 X-69.616 Y61.695 E13.44906
G1 X-69.72 Y60.85 E13.49874
G1 X-69.75 Y60 E13.54839
G1 X-69.706 Y59.151 E13.59801
G1 X-69.588 Y58.309 E13.64758
G1 X-69.398 Y57.482 E13.69713
G1 X-69.136 Y56.675 E13.74663
G1 X-68.805 Y55.894 E13.7961
G1 X-68.408 Y55.146 E13.84554
G1 X-67.947 Y54.436 E13.89494
G1 X-67.426 Y53.769 E13.94431
G1 X-66.85 Y53.15 E13.99364
G1 X-66.223 Y52.584 E14.04293
G1 X-65.549 Y52.076 E14.0922
G1 X-64.833 Y51.628 E14.14142
G1 X-64.082 Y51.245 E14.19061
G1 X-63.301 Y50.929 E14.23976
G1 X-62.497 Y50.683 E14.28888
G1 X-61.674 Y50.508 E14.33796
G1 X-60.839 Y50.405 E14.38701
G1 X-60 Y50.375 E14.43602
G1 X-59.162 Y50.419 E14.485
G1 X-58.331 Y50.535 E14.53394
G1 X-57.514 Y50.723 E14.58285
G1 X-56.718 Y50.982 E14.63172
G1 X-55.947 Y51.308 E14.68056
G1 X-55.208 Y51.701 E14.72936
G1 X-54.507 Y52.155 E14.77812
G1 X-53.849 Y52.669 E14.82685
G1 X-53.238 Y53.238 E14.87554
G1 X-52.68 Y53.858 E14.9242
G1 X-52.178 Y54.523 E14.97283
G1 X-51.737 Y55.229 E15.02142
G1 X-51.359 Y55.97 E15.06997
G1 X-51.047 Y56.741 E15.11849
G1 X-50.804 Y57.536 E15.16697
G1 X-50.631 Y58.348 E15.21542
G1 X-50.529 Y59.171 E15.26383
G1 X-50.5 Y60 E15.3122
G1 X-50.543 Y60.827 E15.36054
G1 X-50.658 Y61.647 E15.40885
G1 X-50.844 Y62.453 E15.45712
G1 X-51.099 Y63.24 E15.50535
G1 X-51.422 Y64 E15.55355
G1 X-51.809 Y64.729 E15.60172
G1 X-52.258 Y65.421 E15.64985
G1 X-52.765 Y66.071 E15.69794
G1 X-53.327 Y66.673 E15.746
G1 X-53.938 Y67.224 E15.79402
G1 X-54.595 Y67.719 E15.84201
G1 X-55.292 Y68.155 E15.88996
G1 X-56.023 Y68.528 E15.93788
G1 X-56.784 Y68.836 E15.98576
G1 X-57.568 Y69.076 E16.0336
G1 X-58.37 Y69.246 E16.08141
G1 X-59.182 Y69.346 E16.12919
G1 X-60 Y69.375 E16.17693
G1 X-60.816 Y69.332 E16.22463
G1 X-61.626 Y69.219 E16.2723
G1 X-62.421 Y69.035 E16.31994
G1 X-63.197 Y68.784 E16.36754
G1 X-63.947 Y68.465 E16.4151
G1 X-64.667 Y68.083 E16.46263
G1 X-65.349 Y67.64 E16.51012
G1 X-65.99 Y67.139 E16.55758
G1 X-66.585 Y66.585 E16.605
G1 X-67.128 Y65.981 E16.65238
G1 X-67.617 Y65.333 E16.69974
G1 X-68.047 Y64.646 E16.74705
G1 X-68.415 Y63.924 E16.79433
G1 X-68.718 Y63.173 E16.84158
G1 X-68.955 Y62.399 E16.88879
G1 X-69.123 Y61.609 E16.93596
G1 X-69.222 Y60.807 E16.9831
G1 X-69.25 Y60 E17.0302
G1 X-69.208 Y59.194 E17.07727
G1 X-69.096 Y58.396 E17.1243
G1 X-68.915 Y57.611 E17.1713
G1 X-68.666 Y56.846 E17.21827
G1 X-68.352 Y56.105 E17.26519
G1 X-67.975 Y55.396 E17.31208
G1 X-67.537 Y54.722 E17.35894
G1 X-67.043 Y54.09 E17.40576
G1 X-66.497 Y53.503 E17.45255
G1 X-65.901 Y52.967 E17.4993
G1 X-65.262 Y52.485 E17.54601
G1 X-64.583 Y52.061 E17.59269
G1 X-63.871 Y51.698 E17.63934
G1 X-63.13 Y51.399 E17.68595
G1 X-62.367 Y51.166 E17.73252
G1 X-61.587 Y51 E17.77906
G1 X-60.796 Y50.903 E17.82556
G1 X-60 Y50.875 E17.87203
G1 X-59.205 Y50.917 E17.91846
G1 X-58.418 Y51.027 E17.96486
G1 X-57.644 Y51.206 E18.01122
G1 X-56.889 Y51.451 E18.05754
G1 X-56.158 Y51.761 E18.10383
G1 X-55.458 Y52.134 E18.15009
G1 X-54.794 Y52.565 E18.19631
G1 X-54.17 Y53.052 E18.24249
G1 X-53.592 Y53.592 E18.28864
G1 X-53.063 Y54.179 E18.33476
G1 X-52.588 Y54.81 E18.38083
G1 X-52.17 Y55.479 E18.42688
G1 X-51.812 Y56.182 E18.47289
G1 X-51.517 Y56.912 E18.51886
G1 X-51.287 Y57.665 E18.5648
G1 X-51.123 Y58.435 E18.6107
G1 X-51.027 Y59.215 E18.65657
G1 X-51 Y60 E18.7024
G1 X-51.041 Y60.784 E18.74819
G1 X-51.15 Y61.56 E18.79395
G1 X-51.327 Y62.324 E18.83968
G1 X-51.569 Y63.069 E18.88537
G1 X-51.875 Y63.789 E18.93102
G1 X-52.242 Y64.479 E18.97664
G1 X-52.667 Y65.134 E19.02223
G1 X-53.148 Y65.749 E19.06777
G1 X-53.68 Y66.32 E19.11329
G1 X-54.26 Y66.841 E19.15876
G1 X-54.882 Y67.31 E19.20421
G1 X-55.542 Y67.722 E19.24961
G1 X-56.235 Y68.075 E19.29499
G1 X-56.955 Y68.366 E19.34032
G1 X-57.698 Y68.593 E19.38562
G1 X-58.456 Y68.754 E19.43089
G1 X-59.226 Y68.848 E19.47612
G1 X-60 Y68.875 E19.52131
G1 X-60.773 Y68.834 E19.56647
G1 X-61.539 Y68.726 E19.6116
G1 X-62.292 Y68.552 E19.65669
G1 X-63.026 Y68.314 E19.70174
G1 X-63.736 Y68.012 E19.74676
G1 X-64.417 Y67.65 E19.79174
G1 X-65.063 Y67.23 E19.83669
G1 X-65.669 Y66.756 E19.8816
G1 X-66.231 Y66.231 E19.92648
G1 X-66.745 Y65.66 E19.97132
G1 X-67.207 Y65.047 E20.01612
G1 X-67.614 Y64.396 E20.0609
G1 X-67.962 Y63.713 E20.10563
G1 X-68.248 Y63.002 E20.15033
G1 X-68.472 Y62.27 E20.19499
G1 X-68.631 Y61.522 E20.23962
G1 X-68.724 Y60.763 E20.28422
G1 X-68.75 Y60 E20.32878
G1 X-68.71 Y59.238 E20.3733
G1 X-68.603 Y58.483 E20.41779
G1 X-68.432 Y57.741 E20.46224
G1 X-68.196 Y57.017 E20.50666
G1 X-67.899 Y56.317 E20.55104
G1 X-67.542 Y55.646 E20.59539
G1 X-67.128 Y55.009 E20.6397
G1 X-66.66 Y54.411 E20.68397
G1 X-66.143 Y53.857 E20.72821
G1 X-65.58 Y53.35 E20.77242
G1 X-64.975 Y52.895 E20.81659
G1 X-64.333 Y52.494 E20.86073
G1 X-63.66 Y52.152 E20.90482
G1 X-62.959 Y51.869 E20.94889
G1 X-62.238 Y51.649 E20.99292
G1 X-61.5 Y51.492 E21.03691
G1 X-60.752 Y51.401 E21.08087
G1 X-60 Y51.375 E21.12479
G1 X-59.249 Y51.415 E21.16868
G1 X-58.505 Y51.52 E21.21253
G1 X-57.773 Y51.689 E21.25634
G1 X-57.06 Y51.921 E21.30012
G1 X-56.37 Y52.215 E21.34387
G1 X-55.708 Y52.567 E21.38758
G1 X-55.081 Y52.975 E21.43126
G1 X-54.492 Y53.435 E21.4749
G1 X-53.945 Y53.945 E21.5185
G1 X-53.446 Y54.501 E21.56207
G1 X-52.997 Y55.097 E21.6056
G1 X-52.603 Y55.729 E21.6491
G1 X-52.265 Y56.393 E21.69256
G1 X-51.987 Y57.083 E21.73599
G1 X-51.77 Y57.795 E21.77938
G1 X-51.615 Y58.522 E21.82274
G1 X-51.525 Y59.259 E21.86606
G1 X-51.5 Y60 E21.90935
G1 X-51.539 Y60.74 E21.9526
G1 X-51.643 Y61.474 E21.99582
G1 X-51.81 Y62.195 E22.03899
G1 X-52.039 Y62.898 E22.08214
G1 X-52.328 Y63.578 E22.12525
G1 X-52.675 Y64.229 E22.16832
G1 X-53.077 Y64.848 E22.21136
G1 X-53.531 Y65.428 E22.25436
G1 X-54.034 Y65.966 E22.29733
G1 X-54.581 Y66.458 E22.34027
G1 X-55.168 Y66.9 E22.38316
G1 X-55.792 Y67.289 E22.42602
G1 X-56.446 Y67.622 E22.46885
G1 X-57.126 Y67.896 E22.51164
G1 X-57.827 Y68.11 E22.5544
G1 X-58.543 Y68.261 E22.59712
G1 X-59.269 Y68.35 E22.6398
G1 X-60 Y68.375 E22.68245
G1 X-60.729 Y68.336 E22.72507
G1 X-61.452 Y68.234 E22.76765
G1 X-62.162 Y68.07 E22.81019
G1 X-62.855 Y67.844 E22.8527
G1 X-63.525 Y67.559 E22.89518
G1 X-64.167 Y67.217 E22.93761
G1 X-64.776 Y66.821 E22.98001
G1 X-65.348 Y66.373 E23.02238
G1 X-65.878 Y65.878 E23.06471
G1 X-66.362 Y65.339 E23.10701
G1 X-66.798 Y64.76 E23.14927
G1 X-67.181 Y64.146 E23.1915
G1 X-67.509 Y63.501 E23.23369
G1 X-67.779 Y62.831 E23.27584
G1 X-67.989 Y62.141 E23.31796
G1 X-68.138 Y61.435 E23.36005
G1 X-68.226 Y60.72 E23.40209
G1 X-68.25 Y60 E23.44411
G1 X-68.212 Y59.282 E23.48609
G1 X-68.111 Y58.57 E23.52803
G1 X-67.949 Y57.87 E23.56994
G1 X-67.726 Y57.188 E23.61181
G1 X-67.446 Y56.528 E23.65365
G1 X-67.109 Y55.896 E23.69545
G1 X-66.718 Y55.296 E23.73721
G1 X-66.277 Y54.733 E23.77895
G1 X-65.789 Y54.211 E23.82064
G1 X-65.258 Y53.733 E23.8623
G1 X-64.688 Y53.305 E23.90393
G1 X-64.083 Y52.927 E23.94552
G1 X-63.448 Y52.605 E23.98707
G1 X-62.788 Y52.339 E24.02859
G1 X-62.108 Y52.132 E24.07007
G1 X-61.413 Y51.985 E24.11152
G1 X-60.709 Y51.899 E24.15293
G1 X-60 Y51.875 E24.19431
G1 X-59.292 Y51.913 E24.23565
G1 X-58.592 Y52.012 E24.27696
G1 X-57.902 Y52.172 E24.31823
G1 X-57.231 Y52.391 E24.35947
G1 X-56.581 Y52.668 E24.40067
G1 X-55.958 Y53 E24.44183
G1 X-55.368 Y53.384 E24.48296
G1 X-54.813 Y53.818 E24.52406
G1 X-54.299 Y54.299 E24.56512
G1 X-53.829 Y54.822 E24.60614
G1 X-53.407 Y55.384 E24.64713
G1 X-53.036 Y55.979 E24.68808
G1 X-52.718 Y56.604 E24.729
G1 X-52.456 Y57.254 E24.76988
G1 X-52.252 Y57.924 E24.81073
G1 X-52.108 Y58.608 E24.85154
G1 X-52.024 Y59.302 E24.89232
G1 X-52 Y60 E24.93306
G1 X-52.037 Y60.697 E24.97377
G1 X-52.135 Y61.387 E25.01444
G1 X-52.293 Y62.065 E25.05507
G1 X-52.509 Y62.727 E25.09567
G1 X-52.781 Y63.366 E25.13624
G1 X-53.108 Y63.979 E25.17677
G1 X-53.487 Y64.561 E25.21726
G1 X-53.914 Y65.107 E25.25772
G1 X-54.387 Y65.613 E25.29814
G1 X-54.902 Y66.075 E25.33853
G1 X-55.455 Y66.491 E25.37888
G1 X-56.042 Y66.856 E25.4192
G1 X-56.657 Y67.169 E25.45948
G1 X-57.297 Y67.426 E25.49973
G1 X-57.956 Y67.627 E25.53994
G1 X-58.63 Y67.769 E25.58011
G1 X-59.313 Y67.852 E25.62025
G1 X-60 Y67.875 E25.66036
G1 X-60.686 Y67.838 E25.70043
G1 X-61.365 Y67.742 E25.74046
G1 X-62.033 Y67.587 E25.78046
G1 X-62.684 Y67.374 E25.82043
G1 X-63.313 Y67.106 E25.86035
G1 X-63.917 Y66.784 E25.90025
G1 X-64.489 Y66.411 E25.9401
G1 X-65.026 Y65.99 E25.97993
G1 X-65.524 Y65.524 E26.01971
G1 X-65.979 Y65.017 E26.05946
G1 X-66.388 Y64.473 E26.09918
G1 X-66.748 Y63.896 E26.13886
G1 X-67.055 Y63.29 E26.17851
G1 X-67.309 Y62.66 E26.21812
G1 X-67.506 Y62.011 E26.25769
G1 X-67.646 Y61.348 E26.29723
G1 X-67.727 Y60.676 E26.33674
G1 X-67.75 Y60 E26.3762
G1 X-67.714 Y59.325 E26.41564
G1 X-67.619 Y58.657 E26.45503
G1 X-67.466 Y58 E26.4944
G1 X-67.257 Y57.359 E26.53373
G1 X-66.992 Y56.739 E26.57302
G1 X-66.676 Y56.146 E26.61227
G1 X-66.309 Y55.583 E26.6515
G1 X-65.894 Y55.054 E26.69068
G1 X-65.436 Y54.564 E26.72983
G1 X-64.937 Y54.116 E26.76895
G1 X-64.401 Y53.714 E26.80803
G1 X-63.833 Y53.36 E26.84707
G1 X-63.237 Y53.058 E26.88608
G1 X-62.617 Y52.809 E26.92506
G1 X-61.979 Y52.615 E26.96399
G1 X-61.326 Y52.477 E27.0029
G1 X-60.665 Y52.397 E27.04177
G1 X-60 Y52.375 E27.0806
G1 X-59.336 Y52.411 E27.11939
G1 X-58.678 Y52.505 E27.15816
G1 X-58.032 Y52.655 E27.19688
G1 X-57.402 Y52.861 E27.23557
G1 X-56.792 Y53.121 E27.27423
G1 X-56.208 Y53.433 E27.31285
G1 X-55.654 Y53.794 E27.35144
G1 X-55.134 Y54.201 E27.38998
G1 X-54.653 Y54.653 E27.4285
G1 X-54.212 Y55.143 E27.46698
G1 X-53.817 Y55.67 E27.50542
G1 X-53.469 Y56.229 E27.54383
G1 X-53.171 Y56.816 E27.5822
G1 X-52.926 Y57.425 E27.62054
G1 X-52.735 Y58.053 E27.65884
G1 X-52.6 Y58.695 E27.69711
G1 X-52.522 Y59.346 E27.73534
G1 X-52.5 Y60 E27.77354
G1 X-52.535 Y60.653 E27.8117
G1 X-52.628 Y61.3 E27.84982
G1 X-52.776 Y61.936 E27.88791
G1 X-52.978 Y62.556 E27.92597
G1 X-53.234 Y63.155 E27.96399
G1 X-53.541 Y63.729 E28.00197
G1 X-53.896 Y64.274 E28.03992
G1 X-54.297 Y64.785 E28.07784
G1 X-54.741 Y65.259 E28.11571
G1 X-55.224 Y65.692 E28.15356
G1 X-55.742 Y66.081 E28.19136
G1 X-56.292 Y66.423 E28.22913
G1 X-56.869 Y66.715 E28.26687
G1 X-57.468 Y66.956 E28.30457
G1 X-58.086 Y67.144 E28.34224
G1 X-58.717 Y67.277 E28.37987
G1 X-59.357 Y67.354 E28.41746
G1 X-60 Y67.375 E28.45502
G1 X-60.642 Y67.34 E28.49255
G1 X-61.278 Y67.249 E28.53004
G1 X-61.903 Y67.104 E28.56749
G1 X-62.513 Y66.904 E28.60491
G1 X-63.102 Y66.653 E28.64229
G1 X-63.667 Y66.351 E28.67964
G1 X-64.202 Y66.001 E28.71696
G1 X-64.705 Y65.607 E28.75423
G1 X-65.171 Y65.171 E28.79147
G1 X-65.596 Y64.696 E28.82868
G1 X-65.979 Y64.186 E28.86585
G1 X-66.315 Y63.646 E28.90299
G1 X-66.602 Y63.079 E28.94009
G1 X-66.839 Y62.489 E28.97715
G1 X-67.023 Y61.882 E29.01418
G1 X-67.154 Y61.261 E29.05118
G1 X-67.229 Y60.632 E29.08814
G1 X-67.25 Y60 E29.12506
G1 X-67.215 Y59.369 E29.16195
G1 X-67.126 Y58.743 E29.1988
G1 X-66.983 Y58.129 E29.23562
G1 X-66.787 Y57.53 E29.2724
G1 X-66.539 Y56.951 E29.30915
G1 X-66.243 Y56.396 E29.34586
G1 X-65.899 Y55.869 E29.38254
G1 X-65.511 Y55.376 E29.41918
G1 X-65.082 Y54.918 E29.45578
G1 X-64.616 Y54.499 E29.49235
G1 X-64.115 Y54.124 E29.52889
G1 X-63.583 Y53.793 E29.56539
G1 X-63.026 Y53.511 E29.60185
G1 X-62.446 Y53.279 E29.63828
G1 X-61.849 Y53.098 E29.67468
G1 X-61.24 Y52.97 E29.71103
G1 X-60.622 Y52.895 E29.74736
G1 X-60 Y52.875 E29.78364
G1 X-59.38 Y52.909 E29.8199
G1 X-58.765 Y52.997 E29.85611
G1 X-58.161 Y53.138 E29.8923
G1 X-57.573 Y53.331 E29.92844
G1 X-57.004 Y53.574 E29.96455
G1 X-56.458 Y53.866 E30.00063
G1 X-55.941 Y54.203 E30.03667
G1 X-55.456 Y54.584 E30.07267
G1 X-55.006 Y55.006 E30.10864
G1 X-54.595 Y55.465 E30.14458
G1 X-54.226 Y55.957 E30.18048
G1 X-53.902 Y56.479 E30.21634
G1 X-53.624 Y57.027 E30.25217
G1 X-53.396 Y57.596 E30.28796
G1 X-53.218 Y58.183 E30.32372
G1 X-53.093 Y58.782 E30.35944
G1 X-53.02 Y59.389 E30.39513
G1 X-53 Y60 E30.43078
G1 X-53.034 Y60.609 E30.46639
G1 X-53.12 Y61.213 E30.50197
G1 X-53.259 Y61.806 E30.53752
G1 X-53.448 Y62.385 E30.57303
G1 X-53.687 Y62.944 E30.6085
G1 X-53.974 Y63.479 E30.64394
G1 X-54.306 Y63.987 E30.67935
G1 X-54.68 Y64.464 E30.71471
G1 X-55.094 Y64.906 E30.75005
G1 X-55.545 Y65.309 E30.78535
G1 X-56.029 Y65.671 E30.82061
G1 X-56.542 Y65.99 E30.85583
G1 X-57.08 Y66.262 E30.89103
G1 X-57.639 Y66.486 E30.92618
G1 X-58.215 Y66.661 E30.9613
G1 X-58.804 Y66.784 E30.99639
G1 X-59.4 Y66.856 E31.03144
G1 X-60 Y66.875 E31.06646
G1 X-60.599 Y66.842 E31.10144
G1 X-61.191 Y66.757 E31.13638
G1 X-61.774 Y66.621 E31.17129
G1 X-62.342 Y66.434 E31.20616
G1 X-62.891 Y66.199 E31.241
G1 X-63.417 Y65.918 E31.2758
G1 X-63.915 Y65.592 E31.31057
G1 X-64.383 Y65.224 E31.3453
G1 X-64.817 Y64.817 E31.38
G1 X-65.213 Y64.375 E31.41466
G1 X-65.569 Y63.9 E31.44929
G1 X-65.882 Y63.396 E31.48388
G1 X-66.149 Y62.867 E31.51844
G1 X-66.369 Y62.318 E31.55296
G1 X-66.54 Y61.752 E31.58744
G1 X-66.661 Y61.175 E31.62189
G1 X-66.731 Y60.589 E31.6563
G1 X-66.75 Y60 E31.69068
G1 X-66.717 Y59.412 E31.72503
G1 X-66.634 Y58.83 E31.75934
G1 X-66.5 Y58.258 E31.79361
G1 X-66.317 Y57.701 E31.82784
G1 X-66.086 Y57.162 E31.86205
G1 X-65.81 Y56.646 E31.89621
G1 X-65.489 Y56.156 E31.93034
G1 X-65.128 Y55.697 E31.96444
G1 X-64.729 Y55.271 E31.9985
G1 X-64.294 Y54.882 E32.03253
G1 X-63.828 Y54.533 E32.06652
G1 X-63.333 Y54.226 E32.10047
G1 X-62.815 Y53.964 E32.13439
G1 X-62.275 Y53.748 E32.16828
G1 X-61.72 Y53.581 E32.20212
G1 X-61.153 Y53.462 E32.23594
G1 X-60.578 Y53.393 E32.26971
G1 X-60 Y53.375 E32.30346
G1 X-59.423 Y53.407 E32.33716
G1 X-58.852 Y53.489 E32.37084
G1 X-58.291 Y53.621 E32.40447
G1 X-57.744 Y53.801 E32.43807
G1 X-57.215 Y54.027 E32.47164
G1 X-56.708 Y54.299 E32.50517
G1 X-56.228 Y54.613 E32.53867
G1 X-55.777 Y54.968 E32.57213
G1 X-55.36 Y55.36 E32.60555
G1 X-54.978 Y55.786 E32.63894
G1 X-54.636 Y56.244 E32.6723
G1 X-54.335 Y56.729 E32.70561
G1 X-54.078 Y57.238 E32.7389
G1 X-53.866 Y57.767 E32.77214
G1 X-53.701 Y58.312 E32.80536
G1 X-53.585 Y58.869 E32.83853
G1 X-53.518 Y59.433 E32.87167
G1 X-53.5 Y60 E32.90478
G1 X-53.532 Y60.566 E32.93785
G1 X-53.612 Y61.126 E32.97089
G1 X-53.742 Y61.677 E33.00389
G1 X-53.918 Y62.214 E33.03685
G1 X-54.14 Y62.732 E33.06978
G1 X-54.407 Y63.229 E33.10268
G1 X-54.715 Y63.7 E33.13554
G1 X-55.063 Y64.142 E33.16836
G1 X-55.448 Y64.552 E33.20115
G1 X-55.867 Y64.926 E33.2339
G1 X-56.316 Y65.262 E33.26662
G1 X-56.792 Y65.557 E33.2993
G1 X-57.291 Y65.809 E33.33195
G1 X-57.81 Y66.017 E33.36456
G1 X-58.345 Y66.178 E33.39714
G1 X-58.891 Y66.292 E33.42968
G1 X-59.444 Y66.358 E33.46218
G1 X-60 Y66.375 E33.49465
G1 X-60.555 Y66.344 E33.52709
G1 X-61.105 Y66.264 E33.55949
